/* XPM */
static char * aztec_xpm[] = {
"256 256 31071 3",
"   	c #242424",
".  	c #131313",
"+  	c #141414",
"@  	c #151515",
"#  	c #171717",
"$  	c #161616",
"%  	c #171617",
"&  	c #191617",
"*  	c #161717",
"=  	c #131817",
"-  	c #141817",
";  	c #181617",
">  	c #1A1517",
",  	c #151716",
"'  	c #181713",
")  	c #17151F",
"!  	c #18161A",
"~  	c #1C1610",
"{  	c #191614",
"]  	c #161811",
"^  	c #191612",
"/  	c #18151E",
"(  	c #14151C",
"_  	c #181315",
":  	c #1A1313",
"<  	c #171809",
"[  	c #17170C",
"}  	c #191219",
"|  	c #151513",
"1  	c #171510",
"2  	c #18150D",
"3  	c #141716",
"4  	c #18151C",
"5  	c #171812",
"6  	c #1A1711",
"7  	c #1E1315",
"8  	c #1C1318",
"9  	c #171618",
"0  	c #151718",
"a  	c #151614",
"b  	c #16150E",
"c  	c #151512",
"d  	c #141515",
"e  	c #161513",
"f  	c #171512",
"g  	c #161613",
"h  	c #131615",
"i  	c #111615",
"j  	c #121616",
"k  	c #161614",
"l  	c #1A1613",
"m  	c #1D1613",
"n  	c #18190E",
"o  	c #161813",
"p  	c #191618",
"q  	c #191613",
"r  	c #17160F",
"s  	c #151613",
"t  	c #15151A",
"u  	c #16141A",
"v  	c #171616",
"w  	c #141814",
"x  	c #141813",
"y  	c #191418",
"z  	c #16151D",
"A  	c #1A131F",
"B  	c #1B131E",
"C  	c #141719",
"D  	c #131914",
"E  	c #151813",
"F  	c #131912",
"G  	c #121A11",
"H  	c #161716",
"I  	c #010101",
"J  	c #020202",
"K  	c #030303",
"L  	c #040404",
"M  	c #060306",
"N  	c #010602",
"O  	c #020602",
"P  	c #050305",
"Q  	c #070206",
"R  	c #060305",
"S  	c #030503",
"T  	c #060403",
"U  	c #050404",
"V  	c #020701",
"W  	c #020603",
"X  	c #01050C",
"Y  	c #020506",
"Z  	c #060304",
"`  	c #090106",
" . 	c #070203",
".. 	c #070202",
"+. 	c #060208",
"@. 	c #030206",
"#. 	c #010409",
"$. 	c #000604",
"%. 	c #050209",
"&. 	c #090206",
"*. 	c #070504",
"=. 	c #0A0105",
"-. 	c #090003",
";. 	c #050301",
">. 	c #030501",
",. 	c #040203",
"'. 	c #020201",
"). 	c #020301",
"!. 	c #050204",
"~. 	c #020105",
"{. 	c #000105",
"]. 	c #010004",
"^. 	c #020004",
"/. 	c #010003",
"(. 	c #010201",
"_. 	c #000201",
":. 	c #000205",
"<. 	c #00030A",
"[. 	c #00030B",
"}. 	c #010407",
"|. 	c #02020A",
"1. 	c #020203",
"2. 	c #030400",
"3. 	c #050604",
"4. 	c #060407",
"5. 	c #060303",
"6. 	c #060302",
"7. 	c #040207",
"8. 	c #020205",
"9. 	c #040108",
"0. 	c #080206",
"a. 	c #030405",
"b. 	c #050403",
"c. 	c #070305",
"d. 	c #040406",
"e. 	c #030601",
"f. 	c #040403",
"g. 	c #080204",
"h. 	c #050505",
"i. 	c #050506",
"j. 	c #060408",
"k. 	c #030701",
"l. 	c #040602",
"m. 	c #060507",
"n. 	c #070309",
"o. 	c #040604",
"p. 	c #09030E",
"q. 	c #09020C",
"r. 	c #08020D",
"s. 	c #070406",
"t. 	c #050803",
"u. 	c #010B03",
"v. 	c #010A02",
"w. 	c #070201",
"x. 	c #050202",
"y. 	c #020304",
"z. 	c #01020C",
"A. 	c #010108",
"B. 	c #030001",
"C. 	c #080002",
"D. 	c #070001",
"E. 	c #020200",
"F. 	c #000500",
"G. 	c #000701",
"H. 	c #000B00",
"I. 	c #010E00",
"J. 	c #041001",
"K. 	c #021501",
"L. 	c #011A02",
"M. 	c #021C02",
"N. 	c #051C02",
"O. 	c #071B03",
"P. 	c #071C02",
"Q. 	c #031B03",
"R. 	c #021903",
"S. 	c #001603",
"T. 	c #001304",
"U. 	c #000E04",
"V. 	c #000905",
"W. 	c #020305",
"X. 	c #040106",
"Y. 	c #010104",
"Z. 	c #000101",
"`. 	c #030300",
" + 	c #040201",
".+ 	c #020408",
"++ 	c #070505",
"@+ 	c #0A0601",
"#+ 	c #070606",
"$+ 	c #05040E",
"%+ 	c #060409",
"&+ 	c #0A0403",
"*+ 	c #0F0105",
"=+ 	c #0E0107",
"-+ 	c #090306",
";+ 	c #040605",
">+ 	c #010704",
",+ 	c #020704",
"'+ 	c #050503",
")+ 	c #0A0303",
"!+ 	c #0B0304",
"~+ 	c #080707",
"{+ 	c #070707",
"]+ 	c #060606",
"^+ 	c #060509",
"/+ 	c #050605",
"(+ 	c #050701",
"_+ 	c #050602",
":+ 	c #050507",
"<+ 	c #06040A",
"[+ 	c #040603",
"}+ 	c #020802",
"|+ 	c #030706",
"1+ 	c #030707",
"2+ 	c #020904",
"3+ 	c #020A02",
"4+ 	c #030902",
"5+ 	c #020804",
"6+ 	c #030804",
"7+ 	c #050304",
"8+ 	c #070002",
"9+ 	c #060100",
"0+ 	c #030900",
"a+ 	c #041201",
"b+ 	c #0D2307",
"c+ 	c #1E3414",
"d+ 	c #283C1F",
"e+ 	c #273F20",
"f+ 	c #2C4926",
"g+ 	c #385B2E",
"h+ 	c #446B34",
"i+ 	c #4A7538",
"j+ 	c #538142",
"k+ 	c #57894A",
"l+ 	c #558D4A",
"m+ 	c #538F43",
"n+ 	c #50903B",
"o+ 	c #4F9039",
"p+ 	c #4C8D39",
"q+ 	c #4C8B3C",
"r+ 	c #4C8C3B",
"s+ 	c #4B8E39",
"t+ 	c #4C9038",
"u+ 	c #4E903A",
"v+ 	c #52913E",
"w+ 	c #569043",
"x+ 	c #598C47",
"y+ 	c #548243",
"z+ 	c #4A743B",
"A+ 	c #446A36",
"B+ 	c #3A5B2D",
"C+ 	c #2E4924",
"D+ 	c #28401F",
"E+ 	c #263E1E",
"F+ 	c #1F3917",
"G+ 	c #0D2906",
"H+ 	c #011700",
"I+ 	c #020A00",
"J+ 	c #000003",
"K+ 	c #060101",
"L+ 	c #080401",
"M+ 	c #040704",
"N+ 	c #03050D",
"O+ 	c #030708",
"P+ 	c #050801",
"Q+ 	c #0A0501",
"R+ 	c #060601",
"S+ 	c #050603",
"T+ 	c #050606",
"U+ 	c #040508",
"V+ 	c #040509",
"W+ 	c #050504",
"X+ 	c #060607",
"Y+ 	c #070709",
"Z+ 	c #070706",
"`+ 	c #060602",
" @ 	c #05050A",
".@ 	c #060609",
"+@ 	c #050703",
"@@ 	c #060707",
"#@ 	c #08060C",
"$@ 	c #070409",
"%@ 	c #070307",
"&@ 	c #060706",
"*@ 	c #050B03",
"=@ 	c #020A03",
"-@ 	c #020708",
";@ 	c #09050C",
">@ 	c #13100A",
",@ 	c #2F481F",
"'@ 	c #3E6C2D",
")@ 	c #4C833D",
"!@ 	c #58904B",
"~@ 	c #4E8C37",
"{@ 	c #5A9840",
"]@ 	c #6DA155",
"^@ 	c #649953",
"/@ 	c #568A49",
"(@ 	c #4D7E41",
"_@ 	c #416E32",
":@ 	c #3B642B",
"<@ 	c #3B612D",
"[@ 	c #3E6232",
"}@ 	c #3C6432",
"|@ 	c #3B622F",
"1@ 	c #3A612C",
"2@ 	c #39602B",
"3@ 	c #375F2A",
"4@ 	c #365E2A",
"5@ 	c #37602A",
"6@ 	c #376229",
"7@ 	c #39642A",
"8@ 	c #3C662D",
"9@ 	c #3F6630",
"0@ 	c #406532",
"a@ 	c #3E6430",
"b@ 	c #3D662E",
"c@ 	c #477138",
"d@ 	c #508143",
"e@ 	c #588D49",
"f@ 	c #679E53",
"g@ 	c #66A153",
"h@ 	c #5A9E47",
"i@ 	c #4B9534",
"j@ 	c #51903F",
"k@ 	c #528548",
"l@ 	c #466A3B",
"m@ 	c #314D25",
"n@ 	c #091805",
"o@ 	c #070608",
"p@ 	c #030704",
"q@ 	c #080706",
"r@ 	c #060405",
"s@ 	c #090209",
"t@ 	c #060406",
"u@ 	c #060604",
"v@ 	c #040703",
"w@ 	c #030806",
"x@ 	c #030808",
"y@ 	c #040505",
"z@ 	c #060807",
"A@ 	c #060504",
"B@ 	c #050708",
"C@ 	c #070604",
"D@ 	c #000103",
"E@ 	c #0A1501",
"F@ 	c #1D350E",
"G@ 	c #172914",
"H@ 	c #06030F",
"I@ 	c #010807",
"J@ 	c #020407",
"K@ 	c #2B3F1D",
"L@ 	c #77A45B",
"M@ 	c #508339",
"N@ 	c #37612A",
"O@ 	c #3A5B31",
"P@ 	c #305524",
"Q@ 	c #426A32",
"R@ 	c #598843",
"S@ 	c #4D8D33",
"T@ 	c #448E26",
"U@ 	c #428929",
"V@ 	c #488A34",
"W@ 	c #4E8D36",
"X@ 	c #539035",
"Y@ 	c #5B963A",
"Z@ 	c #579A3C",
"`@ 	c #559540",
" # 	c #5C954A",
".# 	c #5B964A",
"+# 	c #5D9C4A",
"@# 	c #5D9E46",
"## 	c #5B9B45",
"$# 	c #5E9C48",
"%# 	c #5C9C43",
"&# 	c #5C9D43",
"*# 	c #5D9F46",
"=# 	c #5EA049",
"-# 	c #599C45",
";# 	c #569A44",
"># 	c #549943",
",# 	c #569C44",
"'# 	c #519733",
")# 	c #529C31",
"!# 	c #4A9038",
"~# 	c #52874A",
"{# 	c #3B6133",
"]# 	c #2A501E",
"^# 	c #355A29",
"/# 	c #3C5E31",
"(# 	c #4C6F3B",
"_# 	c #72A55D",
":# 	c #2A4A21",
"<# 	c #080506",
"[# 	c #0A010A",
"}# 	c #182314",
"|# 	c #1F3217",
"1# 	c #081A04",
"2# 	c #000400",
"3# 	c #010301",
"4# 	c #020402",
"5# 	c #030505",
"6# 	c #030606",
"7# 	c #040909",
"8# 	c #060A0A",
"9# 	c #060605",
"0# 	c #040702",
"a# 	c #070209",
"b# 	c #060207",
"c# 	c #000200",
"d# 	c #070509",
"e# 	c #0D140B",
"f# 	c #284B19",
"g# 	c #436E36",
"h# 	c #53883D",
"i# 	c #66AF40",
"j# 	c #50893B",
"k# 	c #04120A",
"l# 	c #05040D",
"m# 	c #060709",
"n# 	c #2A4722",
"o# 	c #689B58",
"p# 	c #11290C",
"q# 	c #070009",
"r# 	c #0E2008",
"s# 	c #568844",
"t# 	c #689A57",
"u# 	c #446134",
"v# 	c #345424",
"w# 	c #254815",
"x# 	c #1D4011",
"y# 	c #173D0E",
"z# 	c #173E0B",
"A# 	c #173908",
"B# 	c #193509",
"C# 	c #18360B",
"D# 	c #123408",
"E# 	c #0F3207",
"F# 	c #123308",
"G# 	c #133408",
"H# 	c #113207",
"I# 	c #0E3104",
"J# 	c #0D3004",
"K# 	c #0F3106",
"L# 	c #103209",
"M# 	c #113409",
"N# 	c #113508",
"O# 	c #0F3507",
"P# 	c #103708",
"Q# 	c #133605",
"R# 	c #173A09",
"S# 	c #2D4E24",
"T# 	c #3E6036",
"U# 	c #6B9054",
"V# 	c #577546",
"W# 	c #041402",
"X# 	c #0A1606",
"Y# 	c #69925A",
"Z# 	c #335229",
"`# 	c #070005",
" $ 	c #050807",
".$ 	c #040507",
"+$ 	c #030906",
"@$ 	c #537B43",
"#$ 	c #6DAA54",
"$$ 	c #518D3D",
"%$ 	c #446C37",
"&$ 	c #294A1C",
"*$ 	c #18330E",
"=$ 	c #031404",
"-$ 	c #010102",
";$ 	c #040504",
">$ 	c #070607",
",$ 	c #050607",
"'$ 	c #020501",
")$ 	c #010005",
"!$ 	c #061506",
"~$ 	c #24361B",
"{$ 	c #475C3D",
"]$ 	c #323E2C",
"^$ 	c #263E1F",
"/$ 	c #7DBF57",
"($ 	c #5D9A3D",
"_$ 	c #3C622E",
":$ 	c #325E20",
"<$ 	c #62934E",
"[$ 	c #1E3017",
"}$ 	c #030408",
"|$ 	c #020705",
"1$ 	c #213A1B",
"2$ 	c #5B8D4E",
"3$ 	c #162B12",
"4$ 	c #060001",
"5$ 	c #3E612D",
"6$ 	c #71A857",
"7$ 	c #213B17",
"8$ 	c #344534",
"9$ 	c #2F3F2F",
"0$ 	c #000000",
"a$ 	c #305021",
"b$ 	c #4F833A",
"c$ 	c #518A3B",
"d$ 	c #3A6527",
"e$ 	c #070C06",
"f$ 	c #07000A",
"g$ 	c #21361A",
"h$ 	c #4E7442",
"i$ 	c #4B7341",
"j$ 	c #2B4724",
"k$ 	c #263F1D",
"l$ 	c #486A3A",
"m$ 	c #4B6A3E",
"n$ 	c #263A1E",
"o$ 	c #010000",
"p$ 	c #33532A",
"q$ 	c #528142",
"r$ 	c #4C893A",
"s$ 	c #36602B",
"t$ 	c #061007",
"u$ 	c #0A0B07",
"v$ 	c #0E1B08",
"w$ 	c #283E1D",
"x$ 	c #72A364",
"y$ 	c #35552C",
"z$ 	c #010401",
"A$ 	c #081107",
"B$ 	c #619551",
"C$ 	c #2E5525",
"D$ 	c #050005",
"E$ 	c #040606",
"F$ 	c #10200D",
"G$ 	c #588D43",
"H$ 	c #396628",
"I$ 	c #487935",
"J$ 	c #7AC25B",
"K$ 	c #68B549",
"L$ 	c #4B8C35",
"M$ 	c #3F6A2E",
"N$ 	c #1F4011",
"O$ 	c #0F250B",
"P$ 	c #000401",
"Q$ 	c #010001",
"R$ 	c #020102",
"S$ 	c #040405",
"T$ 	c #050706",
"U$ 	c #070507",
"V$ 	c #0B0307",
"W$ 	c #0C0403",
"X$ 	c #06030A",
"Y$ 	c #040503",
"Z$ 	c #030608",
"`$ 	c #0D0606",
" % 	c #0D060F",
".% 	c #010508",
"+% 	c #000005",
"@% 	c #051301",
"#% 	c #203915",
"$% 	c #3A5D36",
"%% 	c #4C863F",
"&% 	c #72A65A",
"*% 	c #70AC59",
"=% 	c #4A6E3D",
"-% 	c #000002",
";% 	c #040E03",
">% 	c #34591D",
",% 	c #66A23B",
"'% 	c #48772E",
")% 	c #14290F",
"!% 	c #6E9C5B",
"~% 	c #2E4E24",
"{% 	c #04030C",
"]% 	c #193412",
"^% 	c #599049",
"/% 	c #20381B",
"(% 	c #010400",
"_% 	c #587D46",
":% 	c #466A36",
"<% 	c #001100",
"[% 	c #518641",
"}% 	c #406C36",
"|% 	c #000A00",
"1% 	c #4C793C",
"2% 	c #538440",
"3% 	c #457131",
"4% 	c #62A340",
"5% 	c #1A300F",
"6% 	c #030D04",
"7% 	c #517B3D",
"8% 	c #628852",
"9% 	c #4B7841",
"0% 	c #5E9652",
"a% 	c #0C1F07",
"b% 	c #020F02",
"c% 	c #568846",
"d% 	c #548343",
"e% 	c #557F45",
"f% 	c #619354",
"g% 	c #0C1F08",
"h% 	c #0A1B08",
"i% 	c #4A8D3B",
"j% 	c #4A793C",
"k% 	c #457434",
"l% 	c #649A52",
"m% 	c #132511",
"n% 	c #335322",
"o% 	c #598E43",
"p% 	c #0D2808",
"q% 	c #496C3B",
"r% 	c #60864F",
"s% 	c #041304",
"t% 	c #071206",
"u% 	c #5F9B4D",
"v% 	c #2D5B23",
"w% 	c #050004",
"x% 	c #09030B",
"y% 	c #070312",
"z% 	c #1C3717",
"A% 	c #5D9948",
"B% 	c #1C3711",
"C% 	c #1A310F",
"D% 	c #598844",
"E% 	c #5E9646",
"F% 	c #2E5B1E",
"G% 	c #3D692D",
"H% 	c #6EB04D",
"I% 	c #6DC242",
"J% 	c #53993B",
"K% 	c #487438",
"L% 	c #2C4A22",
"M% 	c #264518",
"N% 	c #1D3613",
"O% 	c #010107",
"P% 	c #05060D",
"Q% 	c #0A0505",
"R% 	c #030506",
"S% 	c #040608",
"T% 	c #03050C",
"U% 	c #010903",
"V% 	c #080405",
"W% 	c #050702",
"X% 	c #080601",
"Y% 	c #0B0306",
"Z% 	c #0C020B",
"`% 	c #0A030A",
" & 	c #060701",
".& 	c #080602",
"+& 	c #080508",
"@& 	c #070602",
"#& 	c #050705",
"$& 	c #04060A",
"%& 	c #040805",
"&& 	c #050609",
"*& 	c #0C0407",
"=& 	c #0B0209",
"-& 	c #000006",
";& 	c #041404",
">& 	c #1F380F",
",& 	c #3A6725",
"'& 	c #4D9535",
")& 	c #73BF50",
"!& 	c #558549",
"~& 	c #3A6132",
"{& 	c #223D15",
"]& 	c #438334",
"^& 	c #3F7133",
"/& 	c #080409",
"(& 	c #020000",
"_& 	c #254415",
":& 	c #65A548",
"<& 	c #2F5819",
"[& 	c #50883B",
"}& 	c #497D34",
"|& 	c #04140A",
"1& 	c #010A0B",
"2& 	c #162910",
"3& 	c #396827",
"4& 	c #62A44A",
"5& 	c #1E3916",
"6& 	c #2B471E",
"7& 	c #639448",
"8& 	c #304C22",
"9& 	c #142F0C",
"0& 	c #71BD55",
"a& 	c #438033",
"b& 	c #406A33",
"c& 	c #447138",
"d& 	c #122D09",
"e& 	c #78B05B",
"f& 	c #283E1C",
"g& 	c #112809",
"h& 	c #68A74E",
"i& 	c #2E4C22",
"j& 	c #1B3811",
"k& 	c #639F45",
"l& 	c #264017",
"m& 	c #0E2009",
"n& 	c #5C9A3F",
"o& 	c #315221",
"p& 	c #1F3A19",
"q& 	c #70AB60",
"r& 	c #2A4721",
"s& 	c #15290D",
"t& 	c #559D3B",
"u& 	c #1A4A0C",
"v& 	c #203814",
"w& 	c #63934B",
"x& 	c #152A0E",
"y& 	c #3F7622",
"z& 	c #76C653",
"A& 	c #2E5620",
"B& 	c #2A3D1F",
"C& 	c #6D9757",
"D& 	c #223A19",
"E& 	c #000C00",
"F& 	c #4F8645",
"G& 	c #427739",
"H& 	c #15290F",
"I& 	c #021103",
"J& 	c #0A1B07",
"K& 	c #33572A",
"L& 	c #6CA161",
"M& 	c #243D17",
"N& 	c #5A863D",
"O& 	c #507D3A",
"P& 	c #172C10",
"Q& 	c #000001",
"R& 	c #2F5B1A",
"S& 	c #6AB24C",
"T& 	c #396529",
"U& 	c #416933",
"V& 	c #5B9C4A",
"W& 	c #6CC945",
"X& 	c #57A542",
"Y& 	c #3C6927",
"Z& 	c #1A3A13",
"`& 	c #0E2211",
" * 	c #11040B",
".* 	c #08070D",
"+* 	c #030E03",
"@* 	c #050704",
"#* 	c #090506",
"$* 	c #0B0403",
"%* 	c #0B0502",
"&* 	c #080604",
"** 	c #03060E",
"=* 	c #05060B",
"-* 	c #070605",
";* 	c #040607",
">* 	c #0A0408",
",* 	c #0A030B",
"'* 	c #07050A",
")* 	c #040701",
"!* 	c #040501",
"~* 	c #070805",
"{* 	c #060206",
"]* 	c #071906",
"^* 	c #23351C",
"/* 	c #41602D",
"(* 	c #498C34",
"_* 	c #72C746",
":* 	c #6ECF41",
"<* 	c #70CA4D",
"[* 	c #71BF50",
"}* 	c #5A9640",
"|* 	c #2F4E26",
"1* 	c #041700",
"2* 	c #448630",
"3* 	c #3F6C30",
"4* 	c #0A0102",
"5* 	c #0F0101",
"6* 	c #0C1E05",
"7* 	c #589837",
"8* 	c #39661B",
"9* 	c #254B17",
"0* 	c #68A54A",
"a* 	c #468129",
"b* 	c #3B7F20",
"c* 	c #5A9F40",
"d* 	c #62AA49",
"e* 	c #53893F",
"f* 	c #5C9640",
"g* 	c #6FAA54",
"h* 	c #487435",
"i* 	c #111E0E",
"j* 	c #1D4212",
"k* 	c #6FC550",
"l* 	c #3D852A",
"m* 	c #000700",
"n* 	c #4A833A",
"o* 	c #071D04",
"p* 	c #60884D",
"q* 	c #416032",
"r* 	c #315622",
"s* 	c #5E9844",
"t* 	c #182F0F",
"u* 	c #071503",
"v* 	c #648F49",
"w* 	c #456D30",
"x* 	c #325420",
"y* 	c #6C9E47",
"z* 	c #1E340E",
"A* 	c #031402",
"B* 	c #527F46",
"C* 	c #48723A",
"D* 	c #315723",
"E* 	c #75A854",
"F* 	c #1C360F",
"G* 	c #233715",
"H* 	c #638A45",
"I* 	c #1E3112",
"J* 	c #5D933F",
"K* 	c #4B8E38",
"L* 	c #4D7843",
"M* 	c #0B1907",
"N* 	c #6B9856",
"O* 	c #54883A",
"P* 	c #436331",
"Q* 	c #375E2B",
"R* 	c #609D51",
"S* 	c #5A9945",
"T* 	c #367B1C",
"U* 	c #478725",
"V* 	c #76AF5B",
"W* 	c #466D3E",
"X* 	c #345F20",
"Y* 	c #67A847",
"Z* 	c #1C3712",
"`* 	c #010306",
" = 	c #020403",
".= 	c #020302",
"+= 	c #0D2007",
"@= 	c #5A8845",
"#= 	c #385A2C",
"$= 	c #274519",
"%= 	c #63A640",
"&= 	c #3A7821",
"*= 	c #447B2D",
"== 	c #7BC84D",
"-= 	c #63B04F",
";= 	c #589442",
">= 	c #466E3A",
",= 	c #2F4728",
"'= 	c #192C0F",
")= 	c #08090F",
"!= 	c #090307",
"~= 	c #100109",
"{= 	c #090505",
"]= 	c #020905",
"^= 	c #02080A",
"/= 	c #090502",
"(= 	c #0B0407",
"_= 	c #030805",
":= 	c #080605",
"<= 	c #0A0504",
"[= 	c #0A0603",
"}= 	c #03020F",
"|= 	c #020007",
"1= 	c #02030A",
"2= 	c #142A0F",
"3= 	c #508E2F",
"4= 	c #7CAA5C",
"5= 	c #608343",
"6= 	c #5A9D44",
"7= 	c #59A239",
"8= 	c #265C0F",
"9= 	c #13350B",
"0= 	c #1D3B13",
"a= 	c #447034",
"b= 	c #63AC56",
"c= 	c #416F3B",
"d= 	c #458437",
"e= 	c #487239",
"f= 	c #15250E",
"g= 	c #102108",
"h= 	c #192811",
"i= 	c #3B5C2E",
"j= 	c #649F52",
"k= 	c #1D3A12",
"l= 	c #041901",
"m= 	c #2C531F",
"n= 	c #4C8338",
"o= 	c #4E9E36",
"p= 	c #5CB239",
"q= 	c #5EA145",
"r= 	c #4E7D3E",
"s= 	c #4F873D",
"t= 	c #51A136",
"u= 	c #61A148",
"v= 	c #12270E",
"w= 	c #225210",
"x= 	c #49A42B",
"y= 	c #539544",
"z= 	c #0D1B0A",
"A= 	c #3E672E",
"B= 	c #488634",
"C= 	c #000D00",
"D= 	c #334E27",
"E= 	c #659E4A",
"F= 	c #61A04D",
"G= 	c #3C662E",
"H= 	c #102F04",
"I= 	c #0E2E03",
"J= 	c #305521",
"K= 	c #62A34D",
"L= 	c #5CA142",
"M= 	c #3E672A",
"N= 	c #133005",
"O= 	c #122B05",
"P= 	c #284D1E",
"Q= 	c #609C4F",
"R= 	c #5AA449",
"S= 	c #40622D",
"T= 	c #0C0F07",
"U= 	c #5E8B48",
"V= 	c #203717",
"W= 	c #6FA753",
"X= 	c #427935",
"Y= 	c #4C7B40",
"Z= 	c #000100",
"`= 	c #345526",
" - 	c #497633",
".- 	c #4E7739",
"+- 	c #5C8D4A",
"@- 	c #6AAD50",
"#- 	c #5AB038",
"$- 	c #48972F",
"%- 	c #45822F",
"&- 	c #305C20",
"*- 	c #183011",
"=- 	c #18370E",
"-- 	c #5B944A",
";- 	c #467339",
">- 	c #0C2209",
",- 	c #000007",
"'- 	c #030004",
")- 	c #264018",
"!- 	c #6DA353",
"~- 	c #335727",
"{- 	c #67A450",
"]- 	c #4A7933",
"^- 	c #121D06",
"/- 	c #182606",
"(- 	c #518D36",
"_- 	c #589D3C",
":- 	c #3C652A",
"<- 	c #4D7040",
"[- 	c #699455",
"}- 	c #6FB84D",
"|- 	c #294F19",
"1- 	c #060003",
"2- 	c #090103",
"3- 	c #070501",
"4- 	c #06050C",
"5- 	c #09030D",
"6- 	c #0A0407",
"7- 	c #040708",
"8- 	c #0B0A07",
"9- 	c #070405",
"0- 	c #080607",
"a- 	c #031207",
"b- 	c #223D17",
"c- 	c #43602C",
"d- 	c #1E2310",
"e- 	c #16300C",
"f- 	c #6AAA4A",
"g- 	c #3B6028",
"h- 	c #1A340C",
"i- 	c #589B36",
"j- 	c #294D19",
"k- 	c #030002",
"l- 	c #020103",
"m- 	c #070104",
"n- 	c #000602",
"o- 	c #375E2A",
"p- 	c #7AA762",
"q- 	c #375B2D",
"r- 	c #6D9950",
"s- 	c #68A34C",
"t- 	c #57943D",
"u- 	c #6DA355",
"v- 	c #679B52",
"w- 	c #3D632F",
"x- 	c #3B5D2B",
"y- 	c #66A85C",
"z- 	c #518B49",
"A- 	c #538746",
"B- 	c #4A9132",
"C- 	c #65B24E",
"D- 	c #5B9352",
"E- 	c #48723C",
"F- 	c #3A6B2A",
"G- 	c #5E9845",
"H- 	c #1F3B19",
"I- 	c #325F1F",
"J- 	c #3D8B26",
"K- 	c #6BA15F",
"L- 	c #192415",
"M- 	c #376025",
"N- 	c #46892A",
"O- 	c #031500",
"P- 	c #103107",
"Q- 	c #5AB132",
"R- 	c #58C32A",
"S- 	c #56B92C",
"T- 	c #5EBA2F",
"U- 	c #5EB92E",
"V- 	c #58BA2E",
"W- 	c #56BE26",
"X- 	c #57BD27",
"Y- 	c #56BA36",
"Z- 	c #5DBC35",
"`- 	c #5CBA2F",
" ; 	c #57BD34",
".; 	c #53BD2A",
"+; 	c #5EC642",
"@; 	c #2F5D23",
"#; 	c #283E1F",
"$; 	c #5C834A",
"%; 	c #203317",
"&; 	c #73A256",
"*; 	c #3D6B32",
"=; 	c #47753E",
"-; 	c #12270D",
";; 	c #679A50",
">; 	c #5A943F",
",; 	c #5A9849",
"'; 	c #6BAC5A",
"); 	c #63A94A",
"!; 	c #46932D",
"~; 	c #549540",
"{; 	c #50933E",
"]; 	c #559A42",
"^; 	c #69AB53",
"/; 	c #4A9134",
"(; 	c #478136",
"_; 	c #5FB144",
":; 	c #4E9F33",
"<; 	c #326A20",
"[; 	c #305D22",
"}; 	c #5E964B",
"|; 	c #527D40",
"1; 	c #3D5E2C",
"2; 	c #5E9546",
"3; 	c #020002",
"4; 	c #5A8E47",
"5; 	c #0D2507",
"6; 	c #27491F",
"7; 	c #61B14D",
"8; 	c #274F1B",
"9; 	c #111F0D",
"0; 	c #416B34",
"a; 	c #0B1706",
"b; 	c #07040A",
"c; 	c #04080B",
"d; 	c #040A0A",
"e; 	c #080307",
"f; 	c #090407",
"g; 	c #090909",
"h; 	c #010601",
"i; 	c #0B190A",
"j; 	c #2D441D",
"k; 	c #527A38",
"l; 	c #6EAE52",
"m; 	c #6EB24E",
"n; 	c #2B441E",
"o; 	c #497031",
"p; 	c #529038",
"q; 	c #4F7E34",
"r; 	c #16320C",
"s; 	c #5D9946",
"t; 	c #2E4C23",
"u; 	c #030305",
"v; 	c #040810",
"w; 	c #0E210B",
"x; 	c #538040",
"y; 	c #54763F",
"z; 	c #27501A",
"A; 	c #2F6321",
"B; 	c #3F7C2C",
"C; 	c #60A44D",
"D; 	c #68A44A",
"E; 	c #5B9442",
"F; 	c #51993C",
"G; 	c #61AB47",
"H; 	c #689B59",
"I; 	c #507446",
"J; 	c #416632",
"K; 	c #234D17",
"L; 	c #142B11",
"M; 	c #020300",
"N; 	c #13210D",
"O; 	c #56874A",
"P; 	c #244421",
"Q; 	c #3C6629",
"R; 	c #3F802D",
"S; 	c #74A167",
"T; 	c #1B2718",
"U; 	c #335C21",
"V; 	c #438726",
"W; 	c #021400",
"X; 	c #264C17",
"Y; 	c #69C73E",
"Z; 	c #58BC2D",
"`; 	c #45981D",
" > 	c #4A9A24",
".> 	c #499D23",
"+> 	c #479B22",
"@> 	c #489625",
"#> 	c #4A9429",
"$> 	c #469B29",
"%> 	c #489A2C",
"&> 	c #4C9C26",
"*> 	c #459A2A",
"=> 	c #54B527",
"-> 	c #58AC41",
";> 	c #3C6831",
">> 	c #2F482A",
",> 	c #588250",
"'> 	c #1E3116",
")> 	c #74A654",
"!> 	c #3B672F",
"~> 	c #49763F",
"{> 	c #1C3514",
"]> 	c #61904D",
"^> 	c #27431C",
"/> 	c #163011",
"(> 	c #1D3C16",
"_> 	c #234716",
":> 	c #375D28",
"<> 	c #486F38",
"[> 	c #487B39",
"}> 	c #67A14E",
"|> 	c #63AD3E",
"1> 	c #4F9E36",
"2> 	c #559242",
"3> 	c #579E3A",
"4> 	c #72C94D",
"5> 	c #61D13A",
"6> 	c #56A838",
"7> 	c #48733B",
"8> 	c #172F13",
"9> 	c #3D5F2F",
"0> 	c #588D44",
"a> 	c #021800",
"b> 	c #07030D",
"c> 	c #356327",
"d> 	c #70C258",
"e> 	c #24471C",
"f> 	c #4B743D",
"g> 	c #558449",
"h> 	c #0D190D",
"i> 	c #14270F",
"j> 	c #67A64A",
"k> 	c #70AD55",
"l> 	c #5E8B46",
"m> 	c #355326",
"n> 	c #13260D",
"o> 	c #000009",
"p> 	c #030210",
"q> 	c #070408",
"r> 	c #090602",
"s> 	c #080702",
"t> 	c #060402",
"u> 	c #070306",
"v> 	c #050107",
"w> 	c #122411",
"x> 	c #325629",
"y> 	c #5D9341",
"z> 	c #70A24C",
"A> 	c #51733B",
"B> 	c #416B30",
"C> 	c #558E40",
"D> 	c #5B9349",
"E> 	c #5A8244",
"F> 	c #5C9C45",
"G> 	c #70BF42",
"H> 	c #20430F",
"I> 	c #486B3F",
"J> 	c #6B984F",
"K> 	c #293F1B",
"L> 	c #061504",
"M> 	c #132F10",
"N> 	c #497C32",
"O> 	c #70A855",
"P> 	c #2C4D21",
"Q> 	c #315422",
"R> 	c #3E782F",
"S> 	c #62AB54",
"T> 	c #58A344",
"U> 	c #56A03F",
"V> 	c #5CAE40",
"W> 	c #6CB051",
"X> 	c #4F853A",
"Y> 	c #457537",
"Z> 	c #2B551C",
"`> 	c #1D3316",
" , 	c #020F03",
"., 	c #050000",
"+, 	c #050201",
"@, 	c #0C1706",
"#, 	c #2F4A27",
"$, 	c #3F6931",
"%, 	c #3F7E2F",
"&, 	c #699359",
"*, 	c #1D2F18",
"=, 	c #2F551C",
"-, 	c #458526",
";, 	c #021600",
">, 	c #375928",
",, 	c #58A13F",
"', 	c #509F35",
"), 	c #19330E",
"!, 	c #081E04",
"~, 	c #062003",
"{, 	c #071D03",
"], 	c #081B04",
"^, 	c #071E04",
"/, 	c #091D04",
"(, 	c #0B280C",
"_, 	c #488E29",
":, 	c #579643",
"<, 	c #3E6633",
"[, 	c #31502A",
"}, 	c #527C47",
"|, 	c #192C12",
"1, 	c #689E4D",
"2, 	c #3A6831",
"3, 	c #497245",
"4, 	c #213B1A",
"5, 	c #59874A",
"6, 	c #192E13",
"7, 	c #000302",
"8, 	c #010302",
"9, 	c #010007",
"0, 	c #051403",
"a, 	c #1C3212",
"b, 	c #274D15",
"c, 	c #446E33",
"d, 	c #537F42",
"e, 	c #6EA657",
"f, 	c #54993C",
"g, 	c #4C933A",
"h, 	c #4E8F34",
"i, 	c #639B49",
"j, 	c #548A45",
"k, 	c #3F6434",
"l, 	c #66A256",
"m, 	c #40712C",
"n, 	c #18340B",
"o, 	c #12200C",
"p, 	c #34562A",
"q, 	c #70AE55",
"r, 	c #437036",
"s, 	c #27441C",
"t, 	c #6BAB50",
"u, 	c #2C4A20",
"v, 	c #0A0011",
"w, 	c #4D7833",
"x, 	c #46702F",
"y, 	c #4D6F38",
"z, 	c #6D9954",
"A, 	c #6CA452",
"B, 	c #3C612C",
"C, 	c #1A2915",
"D, 	c #07000B",
"E, 	c #0B0009",
"F, 	c #0D0407",
"G, 	c #090503",
"H, 	c #0A0806",
"I, 	c #030802",
"J, 	c #1D3218",
"K, 	c #6A9659",
"L, 	c #60974E",
"M, 	c #457032",
"N, 	c #223C13",
"O, 	c #000800",
"P, 	c #37582E",
"Q, 	c #5B9147",
"R, 	c #58AA3D",
"S, 	c #25451A",
"T, 	c #3D6825",
"U, 	c #79CB49",
"V, 	c #528934",
"W, 	c #1B3111",
"X, 	c #507139",
"Y, 	c #6F9F5A",
"Z, 	c #4E9133",
"`, 	c #67C23C",
" ' 	c #5EB93C",
".' 	c #56A33A",
"+' 	c #63B340",
"@' 	c #62B042",
"#' 	c #5BB63C",
"$' 	c #60B845",
"%' 	c #53983F",
"&' 	c #4A7B3A",
"*' 	c #346125",
"=' 	c #203E16",
"-' 	c #0A1B05",
";' 	c #000203",
">' 	c #030301",
",' 	c #070300",
"'' 	c #010403",
")' 	c #020F00",
"!' 	c #4F793D",
"~' 	c #35552A",
"{' 	c #37652A",
"]' 	c #3B8128",
"^' 	c #62904F",
"/' 	c #243A1D",
"(' 	c #2D521C",
"_' 	c #46822A",
":' 	c #041600",
"<' 	c #3D5C2E",
"[' 	c #538442",
"}' 	c #64A05A",
"|' 	c #2F4C28",
"1' 	c #040306",
"2' 	c #020101",
"3' 	c #000202",
"4' 	c #20351A",
"5' 	c #69A253",
"6' 	c #457933",
"7' 	c #619B49",
"8' 	c #1A330E",
"9' 	c #36542A",
"0' 	c #4D7338",
"a' 	c #102306",
"b' 	c #4E8F30",
"c' 	c #3A712E",
"d' 	c #4A7143",
"e' 	c #27421E",
"f' 	c #568245",
"g' 	c #12250D",
"h' 	c #030202",
"i' 	c #010505",
"j' 	c #020308",
"k' 	c #010406",
"l' 	c #091605",
"m' 	c #223E18",
"n' 	c #3B6130",
"o' 	c #52794A",
"p' 	c #679E4E",
"q' 	c #549736",
"r' 	c #578045",
"s' 	c #69A949",
"t' 	c #70CD43",
"u' 	c #68BD37",
"v' 	c #6DAF4F",
"w' 	c #68A459",
"x' 	c #3F6532",
"y' 	c #061A03",
"z' 	c #557D44",
"A' 	c #578143",
"B' 	c #0D1708",
"C' 	c #09020A",
"D' 	c #010206",
"E' 	c #466B33",
"F' 	c #4D773F",
"G' 	c #050E06",
"H' 	c #1C2E14",
"I' 	c #3E672C",
"J' 	c #5E8E48",
"K' 	c #79A160",
"L' 	c #223617",
"M' 	c #1D3115",
"N' 	c #091009",
"O' 	c #030003",
"P' 	c #060603",
"Q' 	c #040709",
"R' 	c #03060B",
"S' 	c #060501",
"T' 	c #090705",
"U' 	c #1B2F12",
"V' 	c #426F30",
"W' 	c #68B04F",
"X' 	c #427D33",
"Y' 	c #4F7D3E",
"Z' 	c #4B823C",
"`' 	c #021302",
" ) 	c #02000A",
".) 	c #2B4B1F",
"+) 	c #5E9E42",
"@) 	c #4C873B",
"#) 	c #6D9E59",
"$) 	c #659349",
"%) 	c #386421",
"&) 	c #669949",
"*) 	c #518540",
"=) 	c #305624",
"-) 	c #3D7E28",
";) 	c #5DC931",
">) 	c #61D42B",
",) 	c #58BC34",
"') 	c #64B449",
")) 	c #60A540",
"!) 	c #4C8A34",
"~) 	c #366D22",
"{) 	c #204A12",
"]) 	c #132B0D",
"^) 	c #010002",
"/) 	c #030101",
"() 	c #010103",
"_) 	c #050101",
":) 	c #050102",
"<) 	c #050007",
"[) 	c #040105",
"}) 	c #4A793D",
"|) 	c #35602B",
"1) 	c #2F5D1E",
"2) 	c #419527",
"3) 	c #609D4C",
"4) 	c #1C2B17",
"5) 	c #2E551F",
"6) 	c #47882D",
"7) 	c #061B02",
"8) 	c #3E622B",
"9) 	c #55913E",
"0) 	c #427137",
"a) 	c #4B7C3B",
"b) 	c #030D02",
"c) 	c #040104",
"d) 	c #040500",
"e) 	c #0B1406",
"f) 	c #000004",
"g) 	c #040502",
"h) 	c #010200",
"i) 	c #2F4A25",
"j) 	c #659758",
"k) 	c #4A8138",
"l) 	c #5D9445",
"m) 	c #19300F",
"n) 	c #385A2D",
"o) 	c #477436",
"p) 	c #061D02",
"q) 	c #39851F",
"r) 	c #427C32",
"s) 	c #4D6E41",
"t) 	c #2A4923",
"u) 	c #538046",
"v) 	c #0F1C0A",
"w) 	c #050002",
"x) 	c #040102",
"y) 	c #030100",
"z) 	c #040000",
"A) 	c #030000",
"B) 	c #061404",
"C) 	c #223F16",
"D) 	c #406E2C",
"E) 	c #558741",
"F) 	c #71A158",
"G) 	c #488133",
"H) 	c #498C29",
"I) 	c #55A631",
"J) 	c #66BC47",
"K) 	c #478736",
"L) 	c #325223",
"M) 	c #68BA45",
"N) 	c #345824",
"O) 	c #040009",
"P) 	c #070006",
"Q) 	c #152D0E",
"R) 	c #589045",
"S) 	c #3F6533",
"T) 	c #040107",
"U) 	c #456B31",
"V) 	c #628C49",
"W) 	c #42672D",
"X) 	c #72B159",
"Y) 	c #4E803A",
"Z) 	c #283B1D",
"`) 	c #02030D",
" ! 	c #090303",
".! 	c #060703",
"+! 	c #030605",
"@! 	c #030702",
"#! 	c #030705",
"$! 	c #030609",
"%! 	c #05060A",
"&! 	c #03060A",
"*! 	c #060505",
"=! 	c #050406",
"-! 	c #11230E",
";! 	c #38622C",
">! 	c #6DAB55",
",! 	c #568842",
"'! 	c #366627",
")! 	c #6AA85A",
"!! 	c #396330",
"~! 	c #6BA658",
"{! 	c #2B4922",
"]! 	c #020507",
"^! 	c #0F200A",
"/! 	c #4E7A38",
"(! 	c #69A24F",
"_! 	c #3E7130",
":! 	c #1F3815",
"<! 	c #000600",
"[! 	c #233B1A",
"}! 	c #4D7D40",
"|! 	c #538F3D",
"1! 	c #68C145",
"2! 	c #5AB03C",
"3! 	c #4D9630",
"4! 	c #40772A",
"5! 	c #28501A",
"6! 	c #1C3413",
"7! 	c #091804",
"8! 	c #081103",
"9! 	c #0A1204",
"0! 	c #0A1205",
"a! 	c #081106",
"b! 	c #091106",
"c! 	c #091206",
"d! 	c #081206",
"e! 	c #081204",
"f! 	c #091205",
"g! 	c #0C100E",
"h! 	c #0A110E",
"i! 	c #0A120A",
"j! 	c #0D1009",
"k! 	c #527D4A",
"l! 	c #3C6835",
"m! 	c #1E5010",
"n! 	c #4DAF29",
"o! 	c #418A1E",
"p! 	c #070E0A",
"q! 	c #3B602E",
"r! 	c #4B8636",
"s! 	c #011406",
"t! 	c #182F10",
"u! 	c #4C7F38",
"v! 	c #5FAB41",
"w! 	c #5CAD34",
"x! 	c #153208",
"y! 	c #162813",
"z! 	c #447230",
"A! 	c #589C42",
"B! 	c #274719",
"C! 	c #010801",
"D! 	c #3E752B",
"E! 	c #50A53B",
"F! 	c #5A9D40",
"G! 	c #244117",
"H! 	c #35582F",
"I! 	c #46743F",
"J! 	c #091E0A",
"K! 	c #3E8825",
"L! 	c #478534",
"M! 	c #527343",
"N! 	c #325129",
"O! 	c #558146",
"P! 	c #0A1905",
"Q! 	c #090C07",
"R! 	c #080D03",
"S! 	c #050E03",
"T! 	c #050E05",
"U! 	c #050D04",
"V! 	c #040F02",
"W! 	c #031102",
"X! 	c #050C04",
"Y! 	c #080C03",
"Z! 	c #090B04",
"`! 	c #070B08",
" ~ 	c #030A09",
".~ 	c #020F05",
"+~ 	c #11260A",
"@~ 	c #305023",
"#~ 	c #4E7A3B",
"$~ 	c #63964E",
"%~ 	c #538F42",
"&~ 	c #3A6E27",
"*~ 	c #497839",
"=~ 	c #598541",
"-~ 	c #568E45",
";~ 	c #569A3C",
">~ 	c #324E27",
",~ 	c #030007",
"'~ 	c #2B461B",
")~ 	c #679949",
"!~ 	c #5D8B49",
"~~ 	c #1F3316",
"{~ 	c #1E3213",
"]~ 	c #74A350",
"^~ 	c #40642D",
"/~ 	c #71A15A",
"(~ 	c #426D2F",
"_~ 	c #588443",
":~ 	c #77A157",
"<~ 	c #4A6C31",
"[~ 	c #1B2B14",
"}~ 	c #040002",
"|~ 	c #040609",
"1~ 	c #080609",
"2~ 	c #040705",
"3~ 	c #060702",
"4~ 	c #090408",
"5~ 	c #0B0405",
"6~ 	c #07040B",
"7~ 	c #060506",
"8~ 	c #080403",
"9~ 	c #0B0206",
"0~ 	c #08030B",
"a~ 	c #040209",
"b~ 	c #041203",
"c~ 	c #294D1D",
"d~ 	c #5D9848",
"e~ 	c #66A454",
"f~ 	c #3B682D",
"g~ 	c #102310",
"h~ 	c #000501",
"i~ 	c #49703E",
"j~ 	c #578645",
"k~ 	c #4C763A",
"l~ 	c #578741",
"m~ 	c #0D1A03",
"n~ 	c #030104",
"o~ 	c #0E0206",
"p~ 	c #13210A",
"q~ 	c #629E4B",
"r~ 	c #22361A",
"s~ 	c #03040B",
"t~ 	c #000606",
"u~ 	c #050907",
"v~ 	c #264C19",
"w~ 	c #74C352",
"x~ 	c #5E9E40",
"y~ 	c #5A9140",
"z~ 	c #5C9043",
"A~ 	c #5F9245",
"B~ 	c #5E9245",
"C~ 	c #5D9343",
"D~ 	c #5E9847",
"E~ 	c #5E9A46",
"F~ 	c #5B9745",
"G~ 	c #5B9644",
"H~ 	c #5C9644",
"I~ 	c #5C9745",
"J~ 	c #5D9746",
"K~ 	c #5E9541",
"L~ 	c #5F9441",
"M~ 	c #5B9640",
"N~ 	c #5B9944",
"O~ 	c #639C4A",
"P~ 	c #71AB5A",
"Q~ 	c #3D6732",
"R~ 	c #18490B",
"S~ 	c #4FA531",
"T~ 	c #66A246",
"U~ 	c #4D743B",
"V~ 	c #4A7139",
"W~ 	c #000A10",
"X~ 	c #040506",
"Y~ 	c #11240A",
"Z~ 	c #498B2E",
"`~ 	c #6CD443",
" { 	c #2E5C1E",
".{ 	c #192A0F",
"+{ 	c #5C8C45",
"@{ 	c #63974C",
"#{ 	c #4E873A",
"${ 	c #6FAB4F",
"%{ 	c #304A1E",
"&{ 	c #071602",
"*{ 	c #569838",
"={ 	c #65BE48",
"-{ 	c #25521A",
";{ 	c #050010",
">{ 	c #2D4D25",
",{ 	c #618F4C",
"'{ 	c #65A145",
"){ 	c #448634",
"!{ 	c #4E7B41",
"~{ 	c #2B541D",
"{{ 	c #407D33",
"]{ 	c #4A7F36",
"^{ 	c #4D8235",
"/{ 	c #498434",
"({ 	c #498437",
"_{ 	c #49843A",
":{ 	c #478638",
"<{ 	c #458835",
"[{ 	c #488637",
"}{ 	c #4B8338",
"|{ 	c #4A8333",
"1{ 	c #4A8332",
"2{ 	c #4B8232",
"3{ 	c #4A8134",
"4{ 	c #4A8137",
"5{ 	c #487F36",
"6{ 	c #4C8438",
"7{ 	c #488132",
"8{ 	c #437D2C",
"9{ 	c #56A938",
"0{ 	c #72C14F",
"a{ 	c #65A04F",
"b{ 	c #2E4F24",
"c{ 	c #142B0F",
"d{ 	c #0A1F0A",
"e{ 	c #050E0E",
"f{ 	c #19290E",
"g{ 	c #689C47",
"h{ 	c #56843A",
"i{ 	c #1C2C10",
"j{ 	c #010608",
"k{ 	c #446D35",
"l{ 	c #5C8544",
"m{ 	c #467232",
"n{ 	c #5A8448",
"o{ 	c #111B0C",
"p{ 	c #0A1509",
"q{ 	c #395723",
"r{ 	c #6B9A52",
"s{ 	c #6EA25F",
"t{ 	c #35582A",
"u{ 	c #0C170C",
"v{ 	c #030009",
"w{ 	c #06040B",
"x{ 	c #060704",
"y{ 	c #090700",
"z{ 	c #040803",
"A{ 	c #010809",
"B{ 	c #0C020A",
"C{ 	c #0D0209",
"D{ 	c #050205",
"E{ 	c #060007",
"F{ 	c #203817",
"G{ 	c #4C7B39",
"H{ 	c #66A14D",
"I{ 	c #4D7E39",
"J{ 	c #1C3716",
"K{ 	c #000507",
"L{ 	c #020100",
"M{ 	c #233A19",
"N{ 	c #70A054",
"O{ 	c #426632",
"P{ 	c #77A759",
"Q{ 	c #314E25",
"R{ 	c #050302",
"S{ 	c #040303",
"T{ 	c #0C2105",
"U{ 	c #67924B",
"V{ 	c #436633",
"W{ 	c #010706",
"X{ 	c #0C1705",
"Y{ 	c #2B5418",
"Z{ 	c #2B5815",
"`{ 	c #2A5417",
" ] 	c #2C5618",
".] 	c #2D571A",
"+] 	c #2D591A",
"@] 	c #2B5B19",
"#] 	c #2A5D1A",
"$] 	c #2A5F1A",
"%] 	c #2A5E1A",
"&] 	c #2B5D1A",
"*] 	c #2B5E1B",
"=] 	c #2B5E1A",
"-] 	c #2C5C18",
";] 	c #2D5B18",
">] 	c #2B5D17",
",] 	c #295D1A",
"'] 	c #2F611D",
")] 	c #305A1E",
"!] 	c #142A0D",
"~] 	c #1F4412",
"{] 	c #67A64B",
"]] 	c #5A854B",
"^] 	c #6C9C52",
"/] 	c #73A457",
"(] 	c #28411C",
"_] 	c #000110",
":] 	c #233E13",
"<] 	c #5C9942",
"[] 	c #59A541",
"}] 	c #335328",
"|] 	c #3D6130",
"1] 	c #639A48",
"2] 	c #193110",
"3] 	c #051404",
"4] 	c #4C7A33",
"5] 	c #5D8A45",
"6] 	c #1A2910",
"7] 	c #628644",
"8] 	c #619C41",
"9] 	c #579135",
"0] 	c #234214",
"a] 	c #192D12",
"b] 	c #6D9D57",
"c] 	c #6B9A62",
"d] 	c #65924E",
"e] 	c #3E802A",
"f] 	c #3B6A2E",
"g] 	c #305A20",
"h] 	c #5C9D45",
"i] 	c #5F9C4F",
"j] 	c #366923",
"k] 	c #33631F",
"l] 	c #30661E",
"m] 	c #306620",
"n] 	c #306622",
"o] 	c #2F6721",
"p] 	c #2E681F",
"q] 	c #316621",
"r] 	c #326521",
"s] 	c #31651D",
"t] 	c #31651C",
"u] 	c #32641F",
"v] 	c #2E601C",
"w] 	c #326322",
"x] 	c #326320",
"y] 	c #31631F",
"z] 	c #2D5F22",
"A] 	c #285F12",
"B] 	c #31691B",
"C] 	c #3B6A28",
"D] 	c #284420",
"E] 	c #081109",
"F] 	c #0C0B17",
"G] 	c #010210",
"H] 	c #3A5629",
"I] 	c #6F9F4E",
"J] 	c #1B3110",
"K] 	c #010501",
"L] 	c #000603",
"M] 	c #203616",
"N] 	c #6FA752",
"O] 	c #3E6831",
"P] 	c #76AC5B",
"Q] 	c #355323",
"R] 	c #02050A",
"S] 	c #00010A",
"T] 	c #47713D",
"U] 	c #6CA059",
"V] 	c #5D8B46",
"W] 	c #2A431C",
"X] 	c #010008",
"Y] 	c #030307",
"Z] 	c #080503",
"`] 	c #020807",
" ^ 	c #070508",
".^ 	c #0C0304",
"+^ 	c #0C0402",
"@^ 	c #09050B",
"#^ 	c #08040B",
"$^ 	c #070303",
"%^ 	c #13260F",
"&^ 	c #416932",
"*^ 	c #6B9D53",
"=^ 	c #26451A",
"-^ 	c #010B02",
";^ 	c #010202",
">^ 	c #040402",
",^ 	c #020303",
"'^ 	c #446933",
")^ 	c #609245",
"!^ 	c #4A7039",
"~^ 	c #58864A",
"{^ 	c #0C1B08",
"]^ 	c #395A29",
"^^ 	c #69A350",
"/^ 	c #18300D",
"(^ 	c #060107",
"_^ 	c #050808",
":^ 	c #070304",
"<^ 	c #040202",
"[^ 	c #040001",
"}^ 	c #020001",
"|^ 	c #020005",
"1^ 	c #060006",
"2^ 	c #070007",
"3^ 	c #020006",
"4^ 	c #020206",
"5^ 	c #070208",
"6^ 	c #090007",
"7^ 	c #1F4114",
"8^ 	c #6CB055",
"9^ 	c #428030",
"0^ 	c #50A034",
"a^ 	c #539941",
"b^ 	c #2E5721",
"c^ 	c #000806",
"d^ 	c #0D1E09",
"e^ 	c #67974A",
"f^ 	c #548A37",
"g^ 	c #102C07",
"h^ 	c #406C33",
"i^ 	c #54903C",
"j^ 	c #0B2208",
"k^ 	c #072005",
"l^ 	c #488737",
"m^ 	c #051504",
"n^ 	c #141F08",
"o^ 	c #2F5521",
"p^ 	c #6CBA48",
"q^ 	c #2D5818",
"r^ 	c #0A0006",
"s^ 	c #040308",
"t^ 	c #203719",
"u^ 	c #2D4C29",
"v^ 	c #233B1D",
"w^ 	c #60924A",
"x^ 	c #2C531C",
"y^ 	c #3B602D",
"z^ 	c #5E864D",
"A^ 	c #5D804B",
"B^ 	c #537A41",
"C^ 	c #132D09",
"D^ 	c #010405",
"E^ 	c #010308",
"F^ 	c #010106",
"G^ 	c #000403",
"H^ 	c #070008",
"I^ 	c #030103",
"J^ 	c #080005",
"K^ 	c #0B0402",
"L^ 	c #040601",
"M^ 	c #06070A",
"N^ 	c #090610",
"O^ 	c #081509",
"P^ 	c #5A8749",
"Q^ 	c #476A36",
"R^ 	c #060307",
"S^ 	c #030B05",
"T^ 	c #497036",
"U^ 	c #4F803B",
"V^ 	c #527E42",
"W^ 	c #0C120D",
"X^ 	c #010307",
"Y^ 	c #06010A",
"Z^ 	c #000503",
"`^ 	c #568240",
" / 	c #6BA051",
"./ 	c #4E7839",
"+/ 	c #1B3011",
"@/ 	c #070402",
"#/ 	c #030703",
"$/ 	c #010705",
"%/ 	c #05070A",
"&/ 	c #09040B",
"*/ 	c #0B0309",
"=/ 	c #0D050B",
"-/ 	c #0E0608",
";/ 	c #030504",
">/ 	c #01000B",
",/ 	c #071307",
"'/ 	c #335027",
")/ 	c #669453",
"!/ 	c #669A52",
"~/ 	c #375B27",
"{/ 	c #060204",
"]/ 	c #030207",
"^/ 	c #010408",
"// 	c #1D3512",
"(/ 	c #74A253",
"_/ 	c #476937",
":/ 	c #74A663",
"</ 	c #090402",
"[/ 	c #030401",
"}/ 	c #162B0E",
"|/ 	c #689A4F",
"1/ 	c #416736",
"2/ 	c #090603",
"3/ 	c #08040C",
"4/ 	c #010504",
"5/ 	c #0A0506",
"6/ 	c #09060B",
"7/ 	c #06050B",
"8/ 	c #060308",
"9/ 	c #0F070D",
"0/ 	c #090107",
"a/ 	c #040305",
"b/ 	c #050206",
"c/ 	c #050207",
"d/ 	c #050106",
"e/ 	c #0C030A",
"f/ 	c #0B0109",
"g/ 	c #040206",
"h/ 	c #080512",
"i/ 	c #120814",
"j/ 	c #0E230D",
"k/ 	c #44753B",
"l/ 	c #427735",
"m/ 	c #246411",
"n/ 	c #377229",
"o/ 	c #72A75A",
"p/ 	c #1E2C16",
"q/ 	c #070803",
"r/ 	c #3F5F2A",
"s/ 	c #6C9B4D",
"t/ 	c #36592E",
"u/ 	c #0C1809",
"v/ 	c #1E3A15",
"w/ 	c #66A650",
"x/ 	c #416E35",
"y/ 	c #436431",
"z/ 	c #6AA858",
"A/ 	c #20411C",
"B/ 	c #010600",
"C/ 	c #2B441F",
"D/ 	c #6A965C",
"E/ 	c #548646",
"F/ 	c #0E230A",
"G/ 	c #29421E",
"H/ 	c #4B6F3D",
"I/ 	c #192F15",
"J/ 	c #6BA05D",
"K/ 	c #23441B",
"L/ 	c #36582F",
"M/ 	c #699E5D",
"N/ 	c #4F883B",
"O/ 	c #60AF3D",
"P/ 	c #51932F",
"Q/ 	c #1B2F13",
"R/ 	c #0B0305",
"S/ 	c #06030B",
"T/ 	c #080201",
"U/ 	c #000506",
"V/ 	c #020600",
"W/ 	c #050407",
"X/ 	c #070404",
"Y/ 	c #0F1807",
"Z/ 	c #050A05",
"`/ 	c #233C1A",
" ( 	c #689F53",
".( 	c #243F1C",
"+( 	c #0C0007",
"@( 	c #263C1A",
"#( 	c #72A758",
"$( 	c #446A32",
"%( 	c #78B158",
"&( 	c #2C4A1B",
"*( 	c #08000C",
"=( 	c #0A0302",
"-( 	c #060104",
";( 	c #02020B",
">( 	c #051106",
",( 	c #2D4F20",
"'( 	c #629347",
")( 	c #6C9C51",
"!( 	c #3A5E28",
"~( 	c #0C1B07",
"{( 	c #06020B",
"]( 	c #09080D",
"^( 	c #040707",
"/( 	c #080608",
"(( 	c #080300",
"_( 	c #243B18",
":( 	c #557F40",
"<( 	c #6B9B55",
"[( 	c #4A6F3B",
"}( 	c #182D12",
"|( 	c #020604",
"1( 	c #010205",
"2( 	c #020009",
"3( 	c #040A08",
"4( 	c #3E592C",
"5( 	c #649547",
"6( 	c #416C30",
"7( 	c #588D42",
"8( 	c #11210D",
"9( 	c #040101",
"0( 	c #000300",
"a( 	c #2D4D24",
"b( 	c #5FA552",
"c( 	c #1F3D18",
"d( 	c #121F10",
"e( 	c #324C20",
"f( 	c #1F3317",
"g( 	c #0A090A",
"h( 	c #090409",
"i( 	c #080407",
"j( 	c #060503",
"k( 	c #040304",
"l( 	c #000903",
"m( 	c #13250D",
"n( 	c #2A4E21",
"o( 	c #336227",
"p( 	c #285120",
"q( 	c #0B1F0B",
"r( 	c #0A0009",
"s( 	c #080408",
"t( 	c #13290B",
"u( 	c #386327",
"v( 	c #7BAB62",
"w( 	c #223019",
"x( 	c #060300",
"y( 	c #051102",
"z( 	c #395C2A",
"A( 	c #679D62",
"B( 	c #528A44",
"C( 	c #2B531B",
"D( 	c #325A26",
"E( 	c #62A64B",
"F( 	c #69A548",
"G( 	c #355627",
"H( 	c #234912",
"I( 	c #4D7A36",
"J( 	c #699B51",
"K( 	c #5B7F4B",
"L( 	c #1F2D19",
"M( 	c #06000B",
"N( 	c #030203",
"O( 	c #405F35",
"P( 	c #6B965D",
"Q( 	c #2A4A24",
"R( 	c #639C59",
"S( 	c #193116",
"T( 	c #1D3617",
"U( 	c #3F7E32",
"V( 	c #40962B",
"W( 	c #479C2C",
"X( 	c #61A245",
"Y( 	c #344F25",
"Z( 	c #040204",
"`( 	c #080600",
" _ 	c #0A0700",
"._ 	c #050501",
"+_ 	c #020709",
"@_ 	c #000809",
"#_ 	c #030604",
"$_ 	c #599146",
"%_ 	c #3C672B",
"&_ 	c #436738",
"*_ 	c #5A814C",
"=_ 	c #0A1506",
"-_ 	c #05020B",
";_ 	c #040205",
">_ 	c #081002",
",_ 	c #4F7538",
"'_ 	c #557D42",
")_ 	c #548942",
"!_ 	c #4A773A",
"~_ 	c #040B05",
"{_ 	c #070A09",
"]_ 	c #040007",
"^_ 	c #080102",
"/_ 	c #030407",
"(_ 	c #060301",
"__ 	c #13220E",
":_ 	c #40632D",
"<_ 	c #6C9A4E",
"[_ 	c #5F8443",
"}_ 	c #29451B",
"|_ 	c #030306",
"1_ 	c #070903",
"2_ 	c #020A01",
"3_ 	c #000A03",
"4_ 	c #000906",
"5_ 	c #060404",
"6_ 	c #051204",
"7_ 	c #3E5F2E",
"8_ 	c #6A984E",
"9_ 	c #56823D",
"0_ 	c #27411D",
"a_ 	c #000802",
"b_ 	c #000106",
"c_ 	c #04060C",
"d_ 	c #050306",
"e_ 	c #010500",
"f_ 	c #59853F",
"g_ 	c #365128",
"h_ 	c #132309",
"i_ 	c #68974A",
"j_ 	c #487231",
"k_ 	c #659953",
"l_ 	c #355A2A",
"m_ 	c #092504",
"n_ 	c #59A340",
"o_ 	c #325922",
"p_ 	c #56843F",
"q_ 	c #729A56",
"r_ 	c #68A156",
"s_ 	c #2A4A1F",
"t_ 	c #010300",
"u_ 	c #080505",
"v_ 	c #090405",
"w_ 	c #080502",
"x_ 	c #070600",
"y_ 	c #020003",
"z_ 	c #081905",
"A_ 	c #254C15",
"B_ 	c #4D7739",
"C_ 	c #638C50",
"D_ 	c #679D55",
"E_ 	c #6AA259",
"F_ 	c #669F55",
"G_ 	c #548045",
"H_ 	c #182510",
"I_ 	c #23481A",
"J_ 	c #4C892C",
"K_ 	c #65AC3A",
"L_ 	c #65B546",
"M_ 	c #3F7E2A",
"N_ 	c #2F591F",
"O_ 	c #285C1C",
"P_ 	c #2A5B19",
"Q_ 	c #255C19",
"R_ 	c #326B28",
"S_ 	c #4B9635",
"T_ 	c #67B842",
"U_ 	c #61BA35",
"V_ 	c #61CA30",
"W_ 	c #62CA2F",
"X_ 	c #58B42B",
"Y_ 	c #67C03D",
"Z_ 	c #59A83D",
"`_ 	c #3A722A",
" : 	c #2A591A",
".: 	c #2A5C18",
"+: 	c #2A5D1D",
"@: 	c #2A5B18",
"#: 	c #2A5D18",
"$: 	c #316222",
"%: 	c #326225",
"&: 	c #467F33",
"*: 	c #4F8240",
"=: 	c #13290F",
"-: 	c #537E3F",
";: 	c #5C9647",
">: 	c #3F7E31",
",: 	c #5C9052",
"': 	c #5D8F4F",
"): 	c #528641",
"!: 	c #2C5720",
"~: 	c #12270B",
"{: 	c #030402",
"]: 	c #070403",
"^: 	c #06060A",
"/: 	c #16280F",
"(: 	c #54843F",
"_: 	c #549442",
":: 	c #66A04F",
"<: 	c #33502A",
"[: 	c #638A4F",
"}: 	c #3D572F",
"|: 	c #26401C",
"1: 	c #75A858",
"2: 	c #43682F",
"3: 	c #6AA051",
"4: 	c #213D17",
"5: 	c #1B3713",
"6: 	c #4B7E39",
"7: 	c #2C4C20",
"8: 	c #060F02",
"9: 	c #27371A",
"0: 	c #557B3D",
"a: 	c #6CA155",
"b: 	c #48723B",
"c: 	c #0B1E0B",
"d: 	c #05020A",
"e: 	c #0A0308",
"f: 	c #030901",
"g: 	c #07050B",
"h: 	c #05060C",
"i: 	c #080507",
"j: 	c #040706",
"k: 	c #25471E",
"l: 	c #669B55",
"m: 	c #375727",
"n: 	c #071904",
"o: 	c #00000A",
"p: 	c #040200",
"q: 	c #010604",
"r: 	c #030005",
"s: 	c #18320E",
"t: 	c #477232",
"u: 	c #679252",
"v: 	c #609742",
"w: 	c #5B9648",
"x: 	c #10260D",
"y: 	c #345522",
"z: 	c #65A04D",
"A: 	c #3F6B30",
"B: 	c #5A9641",
"C: 	c #152613",
"D: 	c #609E45",
"E: 	c #4C753A",
"F: 	c #609944",
"G: 	c #203D16",
"H: 	c #4E893A",
"I: 	c #68A04A",
"J: 	c #1A2F10",
"K: 	c #050307",
"L: 	c #070502",
"M: 	c #040800",
"N: 	c #050805",
"O: 	c #070704",
"P: 	c #080208",
"Q: 	c #030403",
"R: 	c #264119",
"S: 	c #4A7C36",
"T: 	c #5A9A39",
"U: 	c #74C049",
"V: 	c #4F8735",
"W: 	c #314B26",
"X: 	c #12250C",
"Y: 	c #081309",
"Z: 	c #243D1E",
"`: 	c #699756",
" < 	c #416135",
".< 	c #4E7D43",
"+< 	c #61A640",
"@< 	c #5FA534",
"#< 	c #4F983D",
"$< 	c #528A3C",
"%< 	c #63914F",
"&< 	c #5A954B",
"*< 	c #5B9343",
"=< 	c #569444",
"-< 	c #588E44",
";< 	c #569639",
">< 	c #55A732",
",< 	c #4FA923",
"'< 	c #52A822",
")< 	c #59A92C",
"!< 	c #539A37",
"~< 	c #568D42",
"{< 	c #5A8C45",
"]< 	c #599442",
"^< 	c #589447",
"/< 	c #5C9642",
"(< 	c #589642",
"_< 	c #5B9144",
":< 	c #598F43",
"<< 	c #609F4B",
"[< 	c #355B29",
"}< 	c #38602D",
"|< 	c #61914F",
"1< 	c #1C2F14",
"2< 	c #0A1607",
"3< 	c #223C1A",
"4< 	c #40762F",
"5< 	c #6FBA53",
"6< 	c #63A241",
"7< 	c #3A5E27",
"8< 	c #111D0E",
"9< 	c #07050C",
"0< 	c #040401",
"a< 	c #070500",
"b< 	c #060600",
"c< 	c #030803",
"d< 	c #070308",
"e< 	c #2B441D",
"f< 	c #6DA64F",
"g< 	c #274819",
"h< 	c #4C7139",
"i< 	c #618553",
"j< 	c #65944A",
"k< 	c #375026",
"l< 	c #080101",
"m< 	c #0E1105",
"n< 	c #4D7B3C",
"o< 	c #558143",
"p< 	c #5F9445",
"q< 	c #446730",
"r< 	c #091405",
"s< 	c #4F8637",
"t< 	c #65A848",
"u< 	c #6C9B4F",
"v< 	c #4E813B",
"w< 	c #1E3E17",
"x< 	c #060500",
"y< 	c #060203",
"z< 	c #030E01",
"A< 	c #325028",
"B< 	c #70A761",
"C< 	c #32552B",
"D< 	c #060901",
"E< 	c #08030C",
"F< 	c #0A0509",
"G< 	c #030903",
"H< 	c #050804",
"I< 	c #020B09",
"J< 	c #090A0E",
"K< 	c #080B0B",
"L< 	c #010503",
"M< 	c #091D06",
"N< 	c #3B6121",
"O< 	c #34511F",
"P< 	c #3B612C",
"Q< 	c #5D854A",
"R< 	c #000301",
"S< 	c #050203",
"T< 	c #13200A",
"U< 	c #3F612B",
"V< 	c #609648",
"W< 	c #68A946",
"X< 	c #538139",
"Y< 	c #1C3A11",
"Z< 	c #609950",
"`< 	c #406736",
" [ 	c #0B1F08",
".[ 	c #5F8E52",
"+[ 	c #4C7B3B",
"@[ 	c #6C9F52",
"#[ 	c #3C5B2D",
"$[ 	c #061203",
"%[ 	c #5B8949",
"&[ 	c #4A763A",
"*[ 	c #649A4F",
"=[ 	c #578047",
"-[ 	c #679E4C",
";[ 	c #46742C",
">[ 	c #0F210F",
",[ 	c #05070E",
"'[ 	c #020902",
")[ 	c #0A0906",
"![ 	c #0A0A05",
"~[ 	c #14110E",
"{[ 	c #0D1508",
"][ 	c #41652B",
"^[ 	c #6EA453",
"/[ 	c #558A3E",
"([ 	c #3E7A22",
"_[ 	c #63A142",
":[ 	c #63914B",
"<[ 	c #324C22",
"[[ 	c #020C01",
"}[ 	c #010203",
"|[ 	c #486638",
"1[ 	c #64914E",
"2[ 	c #284120",
"3[ 	c #0C1D06",
"4[ 	c #021001",
"5[ 	c #041509",
"6[ 	c #051107",
"7[ 	c #0C130C",
"8[ 	c #081606",
"9[ 	c #081603",
"0[ 	c #0B1504",
"a[ 	c #071207",
"b[ 	c #081305",
"c[ 	c #071302",
"d[ 	c #041101",
"e[ 	c #051200",
"f[ 	c #041501",
"g[ 	c #041303",
"h[ 	c #051302",
"i[ 	c #071404",
"j[ 	c #091505",
"k[ 	c #081704",
"l[ 	c #071604",
"m[ 	c #0A1A06",
"n[ 	c #0D190B",
"o[ 	c #091806",
"p[ 	c #1A2E0E",
"q[ 	c #355D27",
"r[ 	c #6DA85A",
"s[ 	c #426935",
"t[ 	c #1F3E14",
"u[ 	c #558645",
"v[ 	c #639D4F",
"w[ 	c #417327",
"x[ 	c #739F5B",
"y[ 	c #618853",
"z[ 	c #2D5122",
"A[ 	c #070804",
"B[ 	c #06040D",
"C[ 	c #070701",
"D[ 	c #0F2108",
"E[ 	c #5A8846",
"F[ 	c #659649",
"G[ 	c #6A9E4E",
"H[ 	c #456A34",
"I[ 	c #619E49",
"J[ 	c #1E3714",
"K[ 	c #050001",
"L[ 	c #2D461F",
"M[ 	c #76AE59",
"N[ 	c #487035",
"O[ 	c #669B4C",
"P[ 	c #19310D",
"Q[ 	c #315128",
"R[ 	c #6BA753",
"S[ 	c #294E1C",
"T[ 	c #4F8B3F",
"U[ 	c #6C9F56",
"V[ 	c #496E39",
"W[ 	c #1A2F15",
"X[ 	c #040301",
"Y[ 	c #538345",
"Z[ 	c #3E7330",
"`[ 	c #192711",
" } 	c #223619",
".} 	c #041003",
"+} 	c #030208",
"@} 	c #070909",
"#} 	c #0C010D",
"$} 	c #030509",
"%} 	c #070702",
"&} 	c #0D0406",
"*} 	c #070703",
"=} 	c #030904",
"-} 	c #050615",
";} 	c #040A0E",
">} 	c #192913",
",} 	c #4F783F",
"'} 	c #6AA847",
")} 	c #619A46",
"!} 	c #375226",
"~} 	c #628849",
"{} 	c #13270E",
"]} 	c #020504",
"^} 	c #040003",
"/} 	c #5D8741",
"(} 	c #6E9D4C",
"_} 	c #385D26",
":} 	c #4A7431",
"<} 	c #76B94A",
"[} 	c #3A6023",
"}} 	c #37572A",
"|} 	c #6DA553",
"1} 	c #1E3915",
"2} 	c #315022",
"3} 	c #6AA449",
"4} 	c #3F682C",
"5} 	c #5C9340",
"6} 	c #080000",
"7} 	c #2F4B24",
"8} 	c #6BA24F",
"9} 	c #467B33",
"0} 	c #4D7B3B",
"a} 	c #2F4B21",
"b} 	c #02030E",
"c} 	c #02090B",
"d} 	c #010808",
"e} 	c #080806",
"f} 	c #030304",
"g} 	c #071405",
"h} 	c #446B2D",
"i} 	c #6CA74C",
"j} 	c #345C23",
"k} 	c #0A1404",
"l} 	c #182D10",
"m} 	c #50733A",
"n} 	c #75A55B",
"o} 	c #4C783A",
"p} 	c #1B3510",
"q} 	c #030107",
"r} 	c #142312",
"s} 	c #4F7240",
"t} 	c #679257",
"u} 	c #567947",
"v} 	c #577645",
"w} 	c #53763F",
"x} 	c #51733D",
"y} 	c #4E703D",
"z} 	c #4D743E",
"A} 	c #47743A",
"B} 	c #46733B",
"C} 	c #4B733A",
"D} 	c #4B743A",
"E} 	c #467539",
"F} 	c #45743A",
"G} 	c #476F3B",
"H} 	c #4A723D",
"I} 	c #477637",
"J} 	c #447533",
"K} 	c #467534",
"L} 	c #467535",
"M} 	c #467435",
"N} 	c #4A7539",
"O} 	c #4A723A",
"P} 	c #4E753D",
"Q} 	c #4D743D",
"R} 	c #4C7441",
"S} 	c #4F7645",
"T} 	c #608643",
"U} 	c #689E4E",
"V} 	c #3C6433",
"W} 	c #091909",
"X} 	c #010606",
"Y} 	c #142B0A",
"Z} 	c #3B6F1F",
"`} 	c #6AAC50",
" | 	c #5E904B",
".| 	c #1E3317",
"+| 	c #20301A",
"@| 	c #4B733E",
"#| 	c #669E50",
"$| 	c #4D7537",
"%| 	c #203F13",
"&| 	c #060B09",
"*| 	c #090509",
"=| 	c #080509",
"-| 	c #070410",
";| 	c #02070A",
">| 	c #020607",
",| 	c #0B0203",
"'| 	c #00000D",
")| 	c #1A2E10",
"!| 	c #57823C",
"~| 	c #4A7A34",
"{| 	c #699A57",
"]| 	c #3A602F",
"^| 	c #010702",
"/| 	c #020401",
"(| 	c #081405",
"_| 	c #598641",
":| 	c #507C3A",
"<| 	c #5F9745",
"[| 	c #3F602F",
"}| 	c #11200A",
"|| 	c #608F4B",
"1| 	c #436A35",
"2| 	c #4A6E33",
"3| 	c #6FA160",
"4| 	c #50763F",
"5| 	c #41612F",
"6| 	c #659B55",
"7| 	c #609851",
"8| 	c #366328",
"9| 	c #0B2107",
"0| 	c #010009",
"a| 	c #000904",
"b| 	c #50813F",
"c| 	c #3A692C",
"d| 	c #597D47",
"e| 	c #75A559",
"f| 	c #53753C",
"g| 	c #1B2B15",
"h| 	c #100104",
"i| 	c #070503",
"j| 	c #04050C",
"k| 	c #010907",
"l| 	c #040801",
"m| 	c #0B040B",
"n| 	c #0B0006",
"o| 	c #080013",
"p| 	c #08160A",
"q| 	c #395032",
"r| 	c #61934F",
"s| 	c #27481C",
"t| 	c #5E9849",
"u| 	c #436E2F",
"v| 	c #699D56",
"w| 	c #294A1F",
"x| 	c #020400",
"y| 	c #294519",
"z| 	c #588442",
"A| 	c #6AAB58",
"B| 	c #42722D",
"C| 	c #1C3415",
"D| 	c #14280E",
"E| 	c #668F50",
"F| 	c #497331",
"G| 	c #70A357",
"H| 	c #2E5124",
"I| 	c #53823A",
"J| 	c #4C7E39",
"K| 	c #0A1D06",
"L| 	c #557F3F",
"M| 	c #51803F",
"N| 	c #609549",
"O| 	c #385F2A",
"P| 	c #000102",
"Q| 	c #070004",
"R| 	c #040C02",
"S| 	c #385D25",
"T| 	c #75B55D",
"U| 	c #2F4D25",
"V| 	c #1A2E13",
"W| 	c #294A1E",
"X| 	c #10230D",
"Y| 	c #020008",
"Z| 	c #06080F",
"`| 	c #030607",
" 1 	c #04160C",
".1 	c #447329",
"+1 	c #79B551",
"@1 	c #345622",
"#1 	c #020605",
"$1 	c #01040B",
"%1 	c #0C0B04",
"&1 	c #314D26",
"*1 	c #62A349",
"=1 	c #6CB24D",
"-1 	c #447C29",
";1 	c #234F13",
">1 	c #25451B",
",1 	c #2E5425",
"'1 	c #406735",
")1 	c #447135",
"!1 	c #3F742E",
"~1 	c #417C2E",
"{1 	c #518C40",
"]1 	c #549243",
"^1 	c #549543",
"/1 	c #55923C",
"(1 	c #529439",
"_1 	c #4E9938",
":1 	c #4C9C36",
"<1 	c #4C9E35",
"[1 	c #499C33",
"}1 	c #4A9C31",
"|1 	c #4D9B35",
"11 	c #4D9736",
"21 	c #4C9635",
"31 	c #4E9638",
"41 	c #55943F",
"51 	c #579242",
"61 	c #4E8639",
"71 	c #3D742B",
"81 	c #3A6C2C",
"91 	c #3C6731",
"01 	c #38602C",
"a1 	c #29491E",
"b1 	c #244817",
"c1 	c #2C591D",
"d1 	c #427831",
"e1 	c #65B140",
"f1 	c #72C846",
"g1 	c #15250F",
"h1 	c #030B01",
"i1 	c #253F1B",
"j1 	c #54943A",
"k1 	c #6BB34C",
"l1 	c #1D3716",
"m1 	c #0B010A",
"n1 	c #0B0504",
"o1 	c #070603",
"p1 	c #07030F",
"q1 	c #050211",
"r1 	c #060A05",
"s1 	c #4A6F41",
"t1 	c #6BAD50",
"u1 	c #355A27",
"v1 	c #041207",
"w1 	c #2A4A20",
"x1 	c #70AA59",
"y1 	c #4A7337",
"z1 	c #699B4C",
"A1 	c #142A0B",
"B1 	c #3F652F",
"C1 	c #799D5C",
"D1 	c #3B5D2C",
"E1 	c #72A74D",
"F1 	c #3C642C",
"G1 	c #589040",
"H1 	c #50793F",
"I1 	c #11240C",
"J1 	c #376629",
"K1 	c #67A852",
"L1 	c #59894A",
"M1 	c #355029",
"N1 	c #091007",
"O1 	c #1B3016",
"P1 	c #669554",
"Q1 	c #3E672F",
"R1 	c #6BA455",
"S1 	c #365626",
"T1 	c #629147",
"U1 	c #436E30",
"V1 	c #050E09",
"W1 	c #000402",
"X1 	c #0B0102",
"Y1 	c #0A0404",
"Z1 	c #080606",
"`1 	c #040802",
" 2 	c #060907",
".2 	c #020B04",
"+2 	c #000304",
"@2 	c #121F08",
"#2 	c #3C5F28",
"$2 	c #5F9145",
"%2 	c #649652",
"&2 	c #183111",
"*2 	c #365525",
"=2 	c #64904B",
"-2 	c #548D3B",
";2 	c #45732E",
">2 	c #1B2E10",
",2 	c #466B30",
"'2 	c #6EA651",
")2 	c #5B893D",
"!2 	c #26401E",
"~2 	c #32572C",
"{2 	c #4E853B",
"]2 	c #3F702E",
"^2 	c #66A054",
"/2 	c #162A0F",
"(2 	c #436B36",
"_2 	c #5F954C",
":2 	c #305823",
"<2 	c #6DAE56",
"[2 	c #2E4922",
"}2 	c #29451E",
"|2 	c #426E31",
"12 	c #5B9A46",
"22 	c #182D11",
"32 	c #040005",
"42 	c #5F894E",
"52 	c #446934",
"62 	c #679355",
"72 	c #75AA62",
"82 	c #598945",
"92 	c #03030C",
"02 	c #0A1E08",
"a2 	c #4A8129",
"b2 	c #70A84E",
"c2 	c #446D37",
"d2 	c #1E3519",
"e2 	c #010502",
"f2 	c #0F0104",
"g2 	c #203D13",
"h2 	c #62A63B",
"i2 	c #5EAF3A",
"j2 	c #5C9D41",
"k2 	c #6EA059",
"l2 	c #609F4D",
"m2 	c #64AC52",
"n2 	c #5EAE4D",
"o2 	c #4CA439",
"p2 	c #389524",
"q2 	c #348C1F",
"r2 	c #40902C",
"s2 	c #4D9839",
"t2 	c #559F40",
"u2 	c #549C3A",
"v2 	c #519F34",
"w2 	c #51A832",
"x2 	c #5ABA36",
"y2 	c #52B62F",
"z2 	c #4CAB2B",
"A2 	c #57B431",
"B2 	c #4FA631",
"C2 	c #4C9D33",
"D2 	c #4F9739",
"E2 	c #52973D",
"F2 	c #4D9337",
"G2 	c #468F2F",
"H2 	c #3A8B22",
"I2 	c #429628",
"J2 	c #5AA841",
"K2 	c #64AD4A",
"L2 	c #66AC56",
"M2 	c #70A65B",
"N2 	c #71AA52",
"O2 	c #4B8C32",
"P2 	c #509738",
"Q2 	c #66C144",
"R2 	c #336C20",
"S2 	c #051702",
"T2 	c #203615",
"U2 	c #4F753D",
"V2 	c #3C772A",
"W2 	c #0D2407",
"X2 	c #0A0502",
"Y2 	c #080603",
"Z2 	c #050608",
"`2 	c #060108",
" 3 	c #3D5C35",
".3 	c #669955",
"+3 	c #0A1F05",
"@3 	c #020207",
"#3 	c #0B180F",
"$3 	c #548744",
"%3 	c #497A3A",
"&3 	c #66984C",
"*3 	c #3C572C",
"=3 	c #1B3611",
"-3 	c #6CAB51",
";3 	c #436B30",
">3 	c #6A9E52",
",3 	c #436735",
"'3 	c #3E6B30",
")3 	c #5C9046",
"!3 	c #4C7A2E",
"~3 	c #43602F",
"{3 	c #1A3314",
"]3 	c #7AAB65",
"^3 	c #4F803F",
"/3 	c #24411E",
"(3 	c #2D551D",
"_3 	c #6DA650",
":3 	c #588548",
"<3 	c #427234",
"[3 	c #4B773E",
"}3 	c #4B833D",
"|3 	c #557D41",
"13 	c #446B2E",
"23 	c #182B11",
"33 	c #0A030C",
"43 	c #0D0504",
"53 	c #090801",
"63 	c #060708",
"73 	c #02030B",
"83 	c #213F19",
"93 	c #52813C",
"03 	c #6DAA51",
"a3 	c #58903E",
"b3 	c #537B3E",
"c3 	c #6AA74D",
"d3 	c #284F19",
"e3 	c #112309",
"f3 	c #629A4A",
"g3 	c #4E813D",
"h3 	c #5B8347",
"i3 	c #132B0C",
"j3 	c #406332",
"k3 	c #67964F",
"l3 	c #69964B",
"m3 	c #355327",
"n3 	c #527341",
"o3 	c #47762F",
"p3 	c #397520",
"q3 	c #56A72E",
"r3 	c #76B658",
"s3 	c #3C6631",
"t3 	c #13240C",
"u3 	c #598546",
"v3 	c #4D8542",
"w3 	c #446F34",
"x3 	c #15280E",
"y3 	c #497236",
"z3 	c #5B8D45",
"A3 	c #659950",
"B3 	c #436533",
"C3 	c #070302",
"D3 	c #010C00",
"E3 	c #527642",
"F3 	c #61AA46",
"G3 	c #488236",
"H3 	c #1E3917",
"I3 	c #578E41",
"J3 	c #72AE61",
"K3 	c #142514",
"L3 	c #0A0706",
"M3 	c #100C07",
"N3 	c #050008",
"O3 	c #132911",
"P3 	c #456A39",
"Q3 	c #528343",
"R3 	c #527C3E",
"S3 	c #345829",
"T3 	c #59904D",
"U3 	c #689E57",
"V3 	c #3F662E",
"W3 	c #10240D",
"X3 	c #1F3B10",
"Y3 	c #5D8F49",
"Z3 	c #517744",
"`3 	c #27431F",
" 4 	c #699B57",
".4 	c #679C54",
"+4 	c #6AA055",
"@4 	c #6FA757",
"#4 	c #639F4B",
"$4 	c #4C8D34",
"%4 	c #377B21",
"&4 	c #347422",
"*4 	c #376F27",
"=4 	c #356825",
"-4 	c #305C1F",
";4 	c #29521A",
">4 	c #376426",
",4 	c #5E9547",
"'4 	c #598742",
")4 	c #416E2D",
"!4 	c #29541A",
"~4 	c #2E5F1F",
"{4 	c #356A26",
"]4 	c #397129",
"^4 	c #367523",
"/4 	c #387B23",
"(4 	c #498B36",
"_4 	c #69A95A",
":4 	c #6FA45B",
"<4 	c #6B964E",
"[4 	c #649D4D",
"}4 	c #345629",
"|4 	c #456B37",
"14 	c #74AC5C",
"24 	c #335824",
"34 	c #050006",
"44 	c #629A4F",
"54 	c #5D8844",
"64 	c #2F4A24",
"74 	c #375D2C",
"84 	c #528040",
"94 	c #2B4F23",
"04 	c #081706",
"a4 	c #030201",
"b4 	c #090F0A",
"c4 	c #040906",
"d4 	c #06040C",
"e4 	c #243F18",
"f4 	c #5B9736",
"g4 	c #19340A",
"h4 	c #304C23",
"i4 	c #73A85F",
"j4 	c #4E7C3B",
"k4 	c #668F4D",
"l4 	c #15210B",
"m4 	c #497338",
"n4 	c #5B8745",
"o4 	c #507D37",
"p4 	c #5C8641",
"q4 	c #13210C",
"r4 	c #3F5929",
"s4 	c #79AA4F",
"t4 	c #58A42E",
"u4 	c #508A32",
"v4 	c #3E6B2E",
"w4 	c #2B4721",
"x4 	c #4E8640",
"y4 	c #70A861",
"z4 	c #446B36",
"A4 	c #172F0F",
"B4 	c #4D7C39",
"C4 	c #508C37",
"D4 	c #6FA059",
"E4 	c #20391A",
"F4 	c #5F8B4B",
"G4 	c #4A7E3B",
"H4 	c #5E9D3C",
"I4 	c #6CA04B",
"J4 	c #678F53",
"K4 	c #375028",
"L4 	c #06050D",
"M4 	c #0D050C",
"N4 	c #0C0506",
"O4 	c #0B0409",
"P4 	c #0B0A0B",
"Q4 	c #14250F",
"R4 	c #5E9846",
"S4 	c #477732",
"T4 	c #1F3717",
"U4 	c #26401D",
"V4 	c #71A357",
"W4 	c #488B2F",
"X4 	c #3F6F2C",
"Y4 	c #35602D",
"Z4 	c #599451",
"`4 	c #59983D",
" 5 	c #5A9142",
".5 	c #699D52",
"+5 	c #375D2A",
"@5 	c #1F3D16",
"#5 	c #599244",
"$5 	c #62B143",
"%5 	c #66AF4A",
"&5 	c #3C8027",
"*5 	c #253C17",
"=5 	c #182210",
"-5 	c #24421C",
";5 	c #6EAF5D",
">5 	c #407132",
",5 	c #619E4E",
"'5 	c #39562E",
")5 	c #203D14",
"!5 	c #6BAC56",
"~5 	c #457037",
"{5 	c #649D48",
"]5 	c #375A2A",
"^5 	c #59A549",
"/5 	c #6BA855",
"(5 	c #51773D",
"_5 	c #6AA050",
":5 	c #385E2A",
"<5 	c #030800",
"[5 	c #1C2F12",
"}5 	c #528146",
"|5 	c #5B914C",
"15 	c #3E632F",
"25 	c #3A6027",
"35 	c #548B40",
"45 	c #6B9D5B",
"55 	c #3E6931",
"65 	c #3C642B",
"75 	c #64A150",
"85 	c #5C8D4F",
"95 	c #25471B",
"05 	c #020208",
"a5 	c #000104",
"b5 	c #263C1C",
"c5 	c #699A59",
"d5 	c #48783C",
"e5 	c #548642",
"f5 	c #4A713C",
"g5 	c #142B0E",
"h5 	c #172515",
"i5 	c #142114",
"j5 	c #0B1A0A",
"k5 	c #031001",
"l5 	c #436537",
"m5 	c #547946",
"n5 	c #3C612E",
"o5 	c #558548",
"p5 	c #031002",
"q5 	c #10210B",
"r5 	c #152512",
"s5 	c #172713",
"t5 	c #386127",
"u5 	c #5D9B44",
"v5 	c #497738",
"w5 	c #73A95D",
"x5 	c #365429",
"y5 	c #1E3C18",
"z5 	c #558742",
"A5 	c #659F4B",
"B5 	c #365A25",
"C5 	c #5C8C44",
"D5 	c #72AC5C",
"E5 	c #447337",
"F5 	c #497E3C",
"G5 	c #72AD5C",
"H5 	c #547A43",
"I5 	c #23391C",
"J5 	c #09050A",
"K5 	c #0B020E",
"L5 	c #365524",
"M5 	c #669F43",
"N5 	c #152C09",
"O5 	c #0D1E0A",
"P5 	c #5C8D40",
"Q5 	c #4B7636",
"R5 	c #6EAA4F",
"S5 	c #345124",
"T5 	c #27411E",
"U5 	c #6CA757",
"V5 	c #42702E",
"W5 	c #67A549",
"X5 	c #264718",
"Y5 	c #020601",
"Z5 	c #131708",
"`5 	c #202A12",
" 6 	c #4A842C",
".6 	c #6DB04B",
"+6 	c #61AB46",
"@6 	c #599B41",
"#6 	c #122C0C",
"$6 	c #2F5425",
"%6 	c #365B2B",
"&6 	c #609A4C",
"*6 	c #619A4A",
"=6 	c #58923D",
"-6 	c #599240",
";6 	c #477632",
">6 	c #010803",
",6 	c #204516",
"'6 	c #65A44B",
")6 	c #5E934B",
"!6 	c #32572B",
"~6 	c #172910",
"{6 	c #4C6F3A",
"]6 	c #7BAB5B",
"^6 	c #23381A",
"/6 	c #030309",
"(6 	c #07040D",
"_6 	c #0C0409",
":6 	c #243E1A",
"<6 	c #6CA753",
"[6 	c #1B3913",
"}6 	c #06000F",
"|6 	c #040E09",
"16 	c #4C7A34",
"26 	c #5B9A3F",
"36 	c #488232",
"46 	c #0D1409",
"56 	c #59974E",
"66 	c #1A2B15",
"76 	c #0A2209",
"86 	c #5F9E4B",
"96 	c #67A748",
"06 	c #619D50",
"a6 	c #396A2F",
"b6 	c #476C35",
"c6 	c #3D6227",
"d6 	c #030308",
"e6 	c #0A0712",
"f6 	c #335527",
"g6 	c #6AAE54",
"h6 	c #619452",
"i6 	c #162F12",
"j6 	c #3B6632",
"k6 	c #598E4D",
"l6 	c #65954C",
"m6 	c #466A34",
"n6 	c #000008",
"o6 	c #1E3719",
"p6 	c #6CAA5A",
"q6 	c #497436",
"r6 	c #4C7835",
"s6 	c #304B21",
"t6 	c #0C0F09",
"u6 	c #090803",
"v6 	c #527E3D",
"w6 	c #193214",
"x6 	c #081B09",
"y6 	c #315529",
"z6 	c #63A149",
"A6 	c #5B8B46",
"B6 	c #345627",
"C6 	c #497B37",
"D6 	c #65A34E",
"E6 	c #40642F",
"F6 	c #0B1B08",
"G6 	c #03000B",
"H6 	c #2A4921",
"I6 	c #68A44E",
"J6 	c #588745",
"K6 	c #73A261",
"L6 	c #2D4625",
"M6 	c #050104",
"N6 	c #010006",
"O6 	c #04000A",
"P6 	c #081C05",
"Q6 	c #659255",
"R6 	c #35512B",
"S6 	c #294520",
"T6 	c #67A553",
"U6 	c #122C0A",
"V6 	c #030204",
"W6 	c #020104",
"X6 	c #67A44B",
"Y6 	c #52853B",
"Z6 	c #73A952",
"`6 	c #0B0303",
" 7 	c #2D451C",
".7 	c #61964E",
"+7 	c #4E8B42",
"@7 	c #2B4D1B",
"#7 	c #53773D",
"$7 	c #71A856",
"%7 	c #46712F",
"&7 	c #213314",
"*7 	c #020D01",
"=7 	c #2A3F1D",
"-7 	c #597A48",
";7 	c #6B9756",
">7 	c #304C21",
",7 	c #000705",
"'7 	c #31511F",
")7 	c #6B974C",
"!7 	c #456736",
"~7 	c #314E21",
"{7 	c #6C9E4F",
"]7 	c #558343",
"^7 	c #527F3F",
"/7 	c #11250B",
"(7 	c #538544",
"_7 	c #4B793A",
":7 	c #65A345",
"<7 	c #07010B",
"[7 	c #05090B",
"}7 	c #0E100E",
"|7 	c #547C37",
"17 	c #3E6826",
"27 	c #386828",
"37 	c #68A551",
"47 	c #5B964F",
"57 	c #6FB65C",
"67 	c #28481D",
"77 	c #111F0B",
"87 	c #325E23",
"97 	c #4D9532",
"07 	c #67A64C",
"a7 	c #233E18",
"b7 	c #3A6D29",
"c7 	c #53A537",
"d7 	c #5C903D",
"e7 	c #12200B",
"f7 	c #66984B",
"g7 	c #325027",
"h7 	c #1E3012",
"i7 	c #0A1507",
"j7 	c #070107",
"k7 	c #060608",
"l7 	c #050707",
"m7 	c #06070B",
"n7 	c #0F1C09",
"o7 	c #76AF64",
"p7 	c #639A55",
"q7 	c #2F4F2B",
"r7 	c #25421A",
"s7 	c #68B34F",
"t7 	c #62AE43",
"u7 	c #18360F",
"v7 	c #63954E",
"w7 	c #366123",
"x7 	c #2E5A21",
"y7 	c #376525",
"z7 	c #589546",
"A7 	c #42702F",
"B7 	c #74B04D",
"C7 	c #375C21",
"D7 	c #091104",
"E7 	c #050C05",
"F7 	c #466935",
"G7 	c #5E9645",
"H7 	c #57944A",
"I7 	c #416E36",
"J7 	c #173311",
"K7 	c #599247",
"L7 	c #487137",
"M7 	c #6CA350",
"N7 	c #203516",
"O7 	c #050103",
"P7 	c #3A5B28",
"Q7 	c #679C53",
"R7 	c #243E1E",
"S7 	c #06060D",
"T7 	c #0D1207",
"U7 	c #477539",
"V7 	c #5F9D49",
"W7 	c #1F3A14",
"X7 	c #040004",
"Y7 	c #192F11",
"Z7 	c #4A7536",
"`7 	c #72A959",
" 8 	c #3D6030",
".8 	c #375A27",
"+8 	c #679D4D",
"@8 	c #4F773E",
"#8 	c #1F3016",
"$8 	c #2E4B22",
"%8 	c #6DAB56",
"&8 	c #589143",
"*8 	c #568C45",
"=8 	c #10230A",
"-8 	c #000601",
";8 	c #010204",
">8 	c #030108",
",8 	c #1C3610",
"'8 	c #619B47",
")8 	c #5C9F3F",
"!8 	c #2B4B1D",
"~8 	c #010303",
"{8 	c #000404",
"]8 	c #060002",
"^8 	c #47732D",
"/8 	c #58953A",
"(8 	c #6CB04E",
"_8 	c #38572A",
":8 	c #060005",
"<8 	c #0B0202",
"[8 	c #0B0204",
"}8 	c #2E4D1E",
"|8 	c #699746",
"18 	c #496C2E",
"28 	c #3A5B2A",
"38 	c #659540",
"48 	c #659441",
"58 	c #2E4722",
"68 	c #020B00",
"78 	c #12260F",
"88 	c #517E37",
"98 	c #7CB655",
"08 	c #2F4523",
"a8 	c #243C1B",
"b8 	c #6DA450",
"c8 	c #0E1F08",
"d8 	c #5D8E43",
"e8 	c #4C7538",
"f8 	c #75B65D",
"g8 	c #294821",
"h8 	c #355626",
"i8 	c #6CA75B",
"j8 	c #568642",
"k8 	c #53803F",
"l8 	c #12200D",
"m8 	c #0C1409",
"n8 	c #040905",
"o8 	c #376A26",
"p8 	c #63A74C",
"q8 	c #3E6B33",
"r8 	c #5A9D43",
"s8 	c #376A23",
"t8 	c #345C24",
"u8 	c #436934",
"v8 	c #5C9048",
"w8 	c #4E8638",
"x8 	c #051105",
"y8 	c #051103",
"z8 	c #529233",
"A8 	c #6DC74A",
"B8 	c #305822",
"C8 	c #0B0003",
"D8 	c #273C16",
"E8 	c #71A253",
"F8 	c #3D5D2C",
"G8 	c #77A257",
"H8 	c #192B12",
"I8 	c #060705",
"J8 	c #040806",
"K8 	c #070506",
"L8 	c #01070B",
"M8 	c #010B01",
"N8 	c #03030D",
"O8 	c #0E1D08",
"P8 	c #4B7338",
"Q8 	c #69A754",
"R8 	c #3E6832",
"S8 	c #6CA955",
"T8 	c #507D46",
"U8 	c #537D47",
"V8 	c #081804",
"W8 	c #030F08",
"X8 	c #44862E",
"Y8 	c #70D445",
"Z8 	c #295E12",
"`8 	c #16270F",
" 9 	c #4E7834",
".9 	c #478B2B",
"+9 	c #40892B",
"@9 	c #478B2A",
"#9 	c #487F2F",
"$9 	c #14280D",
"%9 	c #1B2A0D",
"&9 	c #0F1905",
"*9 	c #060103",
"=9 	c #020204",
"-9 	c #121D0A",
";9 	c #50803F",
">9 	c #579249",
",9 	c #72B75E",
"'9 	c #26441E",
")9 	c #37562A",
"!9 	c #649A4D",
"~9 	c #639052",
"{9 	c #486C38",
"]9 	c #070906",
"^9 	c #567F48",
"/9 	c #4F7345",
"(9 	c #040C05",
"_9 	c #090708",
":9 	c #10190A",
"<9 	c #4C8536",
"[9 	c #6BA750",
"}9 	c #557A40",
"|9 	c #375728",
"19 	c #14280F",
"29 	c #080007",
"39 	c #0D1208",
"49 	c #3B582D",
"59 	c #6C9C55",
"69 	c #4C733D",
"79 	c #2A4920",
"89 	c #618D4A",
"99 	c #6A9A50",
"09 	c #224019",
"a9 	c #2F521F",
"b9 	c #5EA83E",
"c9 	c #5CA942",
"d9 	c #3A6429",
"e9 	c #020706",
"f9 	c #04010A",
"g9 	c #324E26",
"h9 	c #64984D",
"i9 	c #0B2205",
"j9 	c #011102",
"k9 	c #598547",
"l9 	c #010304",
"m9 	c #000303",
"n9 	c #070000",
"o9 	c #2A511A",
"p9 	c #6BB849",
"q9 	c #63B446",
"r9 	c #315E23",
"s9 	c #2D4A1D",
"t9 	c #699F4C",
"u9 	c #436B2E",
"v9 	c #446536",
"w9 	c #75AB5E",
"x9 	c #456831",
"y9 	c #172209",
"z9 	c #020608",
"A9 	c #345324",
"B9 	c #517B42",
"C9 	c #70A756",
"D9 	c #578A34",
"E9 	c #2C4022",
"F9 	c #010305",
"G9 	c #090403",
"H9 	c #3B5729",
"I9 	c #649149",
"J9 	c #0C1F03",
"K9 	c #355427",
"L9 	c #659C4E",
"M9 	c #5A8844",
"N9 	c #4E773D",
"O9 	c #192F12",
"P9 	c #5F9242",
"Q9 	c #4E7E36",
"R9 	c #6FA955",
"S9 	c #243E18",
"T9 	c #070101",
"U9 	c #060009",
"V9 	c #040103",
"W9 	c #0B1D08",
"X9 	c #0F2209",
"Y9 	c #122A0C",
"Z9 	c #4E8F3C",
"`9 	c #48932B",
" 0 	c #46852C",
".0 	c #4D8539",
"+0 	c #4C793A",
"@0 	c #1F3817",
"#0 	c #15300D",
"$0 	c #71C149",
"%0 	c #5AA533",
"&0 	c #0C1E06",
"*0 	c #46642F",
"=0 	c #5E863D",
"-0 	c #6DA056",
";0 	c #4C7436",
">0 	c #6BA14F",
",0 	c #5C8945",
"'0 	c #1B2C15",
")0 	c #040809",
"!0 	c #030A07",
"~0 	c #0A030E",
"{0 	c #0B0308",
"]0 	c #0A0406",
"^0 	c #020806",
"/0 	c #0B0509",
"(0 	c #0F190B",
"_0 	c #234218",
":0 	c #72BC58",
"<0 	c #305324",
"[0 	c #476B32",
"}0 	c #659D47",
"|0 	c #72B45A",
"10 	c #2C4E21",
"20 	c #030102",
"30 	c #1F4210",
"40 	c #71C543",
"50 	c #4D852E",
"60 	c #051207",
"70 	c #041904",
"80 	c #071902",
"90 	c #081209",
"00 	c #060102",
"a0 	c #050003",
"b0 	c #030109",
"c0 	c #020406",
"d0 	c #07000D",
"e0 	c #25431B",
"f0 	c #6DB24F",
"g0 	c #4D9140",
"h0 	c #4F813B",
"i0 	c #192F0C",
"j0 	c #639543",
"k0 	c #497835",
"l0 	c #6DA354",
"m0 	c #22391A",
"n0 	c #05030A",
"o0 	c #000803",
"p0 	c #3F6C2D",
"q0 	c #639756",
"r0 	c #0C1B0A",
"s0 	c #071203",
"t0 	c #152C0F",
"u0 	c #142D0D",
"v0 	c #233B19",
"w0 	c #476737",
"x0 	c #68A050",
"y0 	c #669451",
"z0 	c #3A5E2C",
"A0 	c #162C11",
"B0 	c #050105",
"C0 	c #283D1E",
"D0 	c #649254",
"E0 	c #5D8E4C",
"F0 	c #29491B",
"G0 	c #538A3F",
"H0 	c #5EA14B",
"I0 	c #214116",
"J0 	c #326224",
"K0 	c #64BB47",
"L0 	c #6CC052",
"M0 	c #090002",
"N0 	c #030A02",
"O0 	c #010603",
"P0 	c #040409",
"Q0 	c #446A38",
"R0 	c #567D47",
"S0 	c #030E04",
"T0 	c #416130",
"U0 	c #5D8647",
"V0 	c #071406",
"W0 	c #01020A",
"X0 	c #152D0C",
"Y0 	c #5FAB42",
"Z0 	c #64BF48",
"`0 	c #427530",
" a 	c #080F03",
".a 	c #0C040D",
"+a 	c #050109",
"@a 	c #2B4820",
"#a 	c #669C4B",
"$a 	c #467030",
"%a 	c #578145",
"&a 	c #689755",
"*a 	c #304B28",
"=a 	c #010C07",
"-a 	c #060202",
";a 	c #0D210C",
">a 	c #355726",
",a 	c #5E8E4C",
"'a 	c #73AD5D",
")a 	c #4A7239",
"!a 	c #112909",
"~a 	c #112B0D",
"{a 	c #142C11",
"]a 	c #263C18",
"^a 	c #6AA348",
"/a 	c #375A28",
"(a 	c #060000",
"_a 	c #5C9149",
":a 	c #477537",
"<a 	c #6AA84B",
"[a 	c #264218",
"}a 	c #4D6E3B",
"|a 	c #65914F",
"1a 	c #68AC3E",
"2a 	c #376023",
"3a 	c #080306",
"4a 	c #010309",
"5a 	c #030600",
"6a 	c #0C2104",
"7a 	c #061600",
"8a 	c #233C17",
"9a 	c #7EB35C",
"0a 	c #365720",
"aa 	c #203A15",
"ba 	c #6EA756",
"ca 	c #528338",
"da 	c #578736",
"ea 	c #0F2007",
"fa 	c #253F17",
"ga 	c #75A553",
"ha 	c #405C2E",
"ia 	c #101E0C",
"ja 	c #0E0514",
"ka 	c #040908",
"la 	c #04060B",
"ma 	c #0D020A",
"na 	c #0B0501",
"oa 	c #050800",
"pa 	c #06080E",
"qa 	c #233B17",
"ra 	c #628F51",
"sa 	c #406633",
"ta 	c #528D44",
"ua 	c #000707",
"va 	c #16250E",
"wa 	c #568C3A",
"xa 	c #579D42",
"ya 	c #478235",
"za 	c #091905",
"Aa 	c #020C04",
"Ba 	c #396329",
"Ca 	c #2E5021",
"Da 	c #03020A",
"Ea 	c #02020C",
"Fa 	c #01000C",
"Ga 	c #030302",
"Ha 	c #03000C",
"Ia 	c #010208",
"Ja 	c #263C17",
"Ka 	c #527D38",
"La 	c #589E3A",
"Ma 	c #487F32",
"Na 	c #77B156",
"Oa 	c #233415",
"Pa 	c #2C501E",
"Qa 	c #5A9E42",
"Ra 	c #568D50",
"Sa 	c #457443",
"Ta 	c #1C3A12",
"Ua 	c #426934",
"Va 	c #6FA553",
"Wa 	c #1E2F16",
"Xa 	c #4A783C",
"Ya 	c #6CA15E",
"Za 	c #64924F",
"`a 	c #487039",
" b 	c #325422",
".b 	c #375C2B",
"+b 	c #64974A",
"@b 	c #355622",
"#b 	c #0A170B",
"$b 	c #203219",
"%b 	c #5A8A41",
"&b 	c #5C9443",
"*b 	c #4C7F36",
"=b 	c #63A04A",
"-b 	c #223F18",
";b 	c #081A09",
">b 	c #61C344",
",b 	c #498E30",
"'b 	c #091A03",
")b 	c #081B05",
"!b 	c #639855",
"~b 	c #34562B",
"{b 	c #29441C",
"]b 	c #69A44D",
"^b 	c #132E0C",
"/b 	c #367021",
"(b 	c #60C540",
"_b 	c #4B9139",
":b 	c #172615",
"<b 	c #2A471E",
"[b 	c #669951",
"}b 	c #477037",
"|b 	c #658E50",
"1b 	c #6C985A",
"2b 	c #254020",
"3b 	c #060813",
"4b 	c #050C03",
"5b 	c #334F26",
"6b 	c #5D8C41",
"7b 	c #6FA84B",
"8b 	c #436A36",
"9b 	c #24401C",
"0b 	c #304E22",
"ab 	c #436434",
"bb 	c #5C8950",
"cb 	c #6FA65B",
"db 	c #6EA25C",
"eb 	c #56873C",
"fb 	c #2E3F1F",
"gb 	c #3A622F",
"hb 	c #6DA559",
"ib 	c #223919",
"jb 	c #395929",
"kb 	c #699C52",
"lb 	c #538C3D",
"mb 	c #406731",
"nb 	c #15280B",
"ob 	c #71A750",
"pb 	c #4C7C38",
"qb 	c #568F3C",
"rb 	c #689259",
"sb 	c #071004",
"tb 	c #020108",
"ub 	c #01030C",
"vb 	c #000505",
"wb 	c #0B0101",
"xb 	c #090108",
"yb 	c #213511",
"zb 	c #5C7842",
"Ab 	c #131E12",
"Bb 	c #000208",
"Cb 	c #3A6B28",
"Db 	c #5BA33D",
"Eb 	c #6EA34C",
"Fb 	c #233B15",
"Gb 	c #384F29",
"Hb 	c #709852",
"Ib 	c #446230",
"Jb 	c #73A15D",
"Kb 	c #335226",
"Lb 	c #0E0C02",
"Mb 	c #0B0511",
"Nb 	c #0C0209",
"Ob 	c #050802",
"Pb 	c #060802",
"Qb 	c #2C461C",
"Rb 	c #6A9948",
"Sb 	c #598745",
"Tb 	c #72AA53",
"Ub 	c #446E32",
"Vb 	c #64AD52",
"Wb 	c #21401A",
"Xb 	c #244519",
"Yb 	c #6EB859",
"Zb 	c #6FC347",
"`b 	c #295213",
" c 	c #061304",
".c 	c #102B0E",
"+c 	c #0D260C",
"@c 	c #091404",
"#c 	c #030006",
"$c 	c #000207",
"%c 	c #020107",
"&c 	c #0A0207",
"*c 	c #0C0206",
"=c 	c #3A5D29",
"-c 	c #6CA34F",
";c 	c #59863D",
">c 	c #507B3D",
",c 	c #69A345",
"'c 	c #375C23",
")c 	c #061005",
"!c 	c #0C1D08",
"~c 	c #5E8F4A",
"{c 	c #49783C",
"]c 	c #60A94C",
"^c 	c #6AAC4B",
"/c 	c #599343",
"(c 	c #304F24",
"_c 	c #020E03",
":c 	c #37522A",
"<c 	c #6EA955",
"[c 	c #2D4D22",
"}c 	c #243B1B",
"|c 	c #2F4B22",
"1c 	c #5F9543",
"2c 	c #6AA159",
"3c 	c #416532",
"4c 	c #233D15",
"5c 	c #3E6828",
"6c 	c #6EA74E",
"7c 	c #527B42",
"8c 	c #1E3417",
"9c 	c #52803E",
"0c 	c #609248",
"ac 	c #25411E",
"bc 	c #4F7C3C",
"cc 	c #699F4E",
"dc 	c #23391A",
"ec 	c #13300C",
"fc 	c #56A93B",
"gc 	c #6CCF43",
"hc 	c #2F5E1D",
"ic 	c #080203",
"jc 	c #193510",
"kc 	c #5EA149",
"lc 	c #23411B",
"mc 	c #06000A",
"nc 	c #122B0A",
"oc 	c #549A3E",
"pc 	c #274B1C",
"qc 	c #244518",
"rc 	c #6BC242",
"sc 	c #6AC042",
"tc 	c #1E4410",
"uc 	c #24441A",
"vc 	c #669A53",
"wc 	c #467133",
"xc 	c #61944A",
"yc 	c #63914A",
"zc 	c #223318",
"Ac 	c #182D0C",
"Bc 	c #4F7337",
"Cc 	c #77AB5B",
"Dc 	c #486F36",
"Ec 	c #233F15",
"Fc 	c #365C2B",
"Gc 	c #629754",
"Hc 	c #66A04D",
"Ic 	c #4E713F",
"Jc 	c #365032",
"Kc 	c #243C1E",
"Lc 	c #28421F",
"Mc 	c #6A9C4F",
"Nc 	c #496836",
"Oc 	c #0A1707",
"Pc 	c #538342",
"Qc 	c #619F46",
"Rc 	c #6AA950",
"Sc 	c #4A7639",
"Tc 	c #67A544",
"Uc 	c #1A350E",
"Vc 	c #2B4A1D",
"Wc 	c #5B9746",
"Xc 	c #648D4C",
"Yc 	c #4F793F",
"Zc 	c #71A75A",
"`c 	c #446C34",
" d 	c #02020F",
".d 	c #030502",
"+d 	c #000801",
"@d 	c #3B5E30",
"#d 	c #406338",
"$d 	c #294421",
"%d 	c #030F04",
"&d 	c #040C00",
"*d 	c #101807",
"=d 	c #132E09",
"-d 	c #68B846",
";d 	c #6BBF46",
">d 	c #385C22",
",d 	c #06010B",
"'d 	c #15260E",
")d 	c #67944B",
"!d 	c #4C713D",
"~d 	c #749F52",
"{d 	c #608A49",
"]d 	c #76B25B",
"^d 	c #365829",
"/d 	c #030B02",
"(d 	c #0A0608",
"_d 	c #07060A",
":d 	c #010A03",
"<d 	c #010906",
"[d 	c #02070C",
"}d 	c #050909",
"|d 	c #070705",
"1d 	c #0C0A0D",
"2d 	c #06030C",
"3d 	c #020307",
"4d 	c #4C7035",
"5d 	c #3F612D",
"6d 	c #6B9C52",
"7d 	c #568D44",
"8d 	c #407032",
"9d 	c #010D04",
"0d 	c #7ECA4B",
"ad 	c #588733",
"bd 	c #243818",
"cd 	c #557A43",
"dd 	c #73A359",
"ed 	c #6FA857",
"fd 	c #67A946",
"gd 	c #527B38",
"hd 	c #03070E",
"id 	c #233E1B",
"jd 	c #5A8041",
"kd 	c #629848",
"ld 	c #477337",
"md 	c #649A57",
"nd 	c #5A8945",
"od 	c #253D17",
"pd 	c #081404",
"qd 	c #2F5023",
"rd 	c #5A9B4D",
"sd 	c #51863E",
"td 	c #39642C",
"ud 	c #649250",
"vd 	c #73B14B",
"wd 	c #2F4F1E",
"xd 	c #1C3112",
"yd 	c #65A04E",
"zd 	c #284820",
"Ad 	c #020A08",
"Bd 	c #15290E",
"Cd 	c #619446",
"Dd 	c #6D9852",
"Ed 	c #324C28",
"Fd 	c #234018",
"Gd 	c #548542",
"Hd 	c #324E23",
"Id 	c #080504",
"Jd 	c #040008",
"Kd 	c #152A0D",
"Ld 	c #568649",
"Md 	c #639658",
"Nd 	c #26411C",
"Od 	c #5C9549",
"Pd 	c #10280D",
"Qd 	c #2A561A",
"Rd 	c #73CC4F",
"Sd 	c #6AB947",
"Td 	c #1A360D",
"Ud 	c #2F4E24",
"Vd 	c #5B9646",
"Wd 	c #030F01",
"Xd 	c #558744",
"Yd 	c #3A5D2D",
"Zd 	c #0B2304",
"`d 	c #529637",
" e 	c #71C945",
".e 	c #38671D",
"+e 	c #030709",
"@e 	c #040C07",
"#e 	c #1F3918",
"$e 	c #5B973E",
"%e 	c #467530",
"&e 	c #679B4C",
"*e 	c #1F3516",
"=e 	c #26401B",
"-e 	c #578D39",
";e 	c #669B3E",
">e 	c #304A20",
",e 	c #2B4523",
"'e 	c #5B8B4A",
")e 	c #68A54E",
"!e 	c #3D6638",
"~e 	c #1B3616",
"{e 	c #1C3410",
"]e 	c #1D3210",
"^e 	c #6E9F50",
"/e 	c #283F1C",
"(e 	c #172C11",
"_e 	c #559D3D",
":e 	c #7ACC51",
"<e 	c #4A8033",
"[e 	c #4A7A3E",
"}e 	c #62A448",
"|e 	c #2C541E",
"1e 	c #0A1D04",
"2e 	c #52793E",
"3e 	c #6EA452",
"4e 	c #4B7738",
"5e 	c #5A9544",
"6e 	c #6C9D50",
"7e 	c #304F23",
"8e 	c #061403",
"9e 	c #08040F",
"0e 	c #050405",
"ae 	c #385329",
"be 	c #6BA24D",
"ce 	c #578C45",
"de 	c #59864C",
"ee 	c #70A457",
"fe 	c #4B7232",
"ge 	c #1A3313",
"he 	c #0B0503",
"ie 	c #325E1A",
"je 	c #78D145",
"ke 	c #497F2E",
"le 	c #051309",
"me 	c #35562B",
"ne 	c #659D50",
"oe 	c #5E994E",
"pe 	c #4A733B",
"qe 	c #0D1D08",
"re 	c #456A37",
"se 	c #75AF5A",
"te 	c #39582E",
"ue 	c #090604",
"ve 	c #020707",
"we 	c #010902",
"xe 	c #000A04",
"ye 	c #070904",
"ze 	c #0F090C",
"Ae 	c #0D1D10",
"Be 	c #44723A",
"Ce 	c #62AA4D",
"De 	c #548B3A",
"Ee 	c #0E2108",
"Fe 	c #01030B",
"Ge 	c #07160D",
"He 	c #466F34",
"Ie 	c #69A857",
"Je 	c #63AF4F",
"Ke 	c #1F4317",
"Le 	c #0A1C05",
"Me 	c #4E712E",
"Ne 	c #465F2D",
"Oe 	c #060E04",
"Pe 	c #040302",
"Qe 	c #070B04",
"Re 	c #365427",
"Se 	c #6F994D",
"Te 	c #57773C",
"Ue 	c #2F4421",
"Ve 	c #273F1D",
"We 	c #406A29",
"Xe 	c #68924A",
"Ye 	c #061104",
"Ze 	c #12220A",
"`e 	c #3D5E2B",
" f 	c #609A4D",
".f 	c #4F8141",
"+f 	c #477839",
"@f 	c #6DA457",
"#f 	c #3F6534",
"$f 	c #0D230B",
"%f 	c #00040E",
"&f 	c #203C16",
"*f 	c #4A793E",
"=f 	c #66A34A",
"-f 	c #518541",
";f 	c #669752",
">f 	c #629443",
",f 	c #44653B",
"'f 	c #507A3F",
")f 	c #547E46",
"!f 	c #050F03",
"~f 	c #000D01",
"{f 	c #4F7B46",
"]f 	c #426438",
"^f 	c #020B01",
"/f 	c #3A6230",
"(f 	c #71A65B",
"_f 	c #3D5F2B",
":f 	c #14270B",
"<f 	c #496D3C",
"[f 	c #6CA253",
"}f 	c #4B7137",
"|f 	c #70AA58",
"1f 	c #315424",
"2f 	c #010100",
"3f 	c #1A3017",
"4f 	c #5E904D",
"5f 	c #558544",
"6f 	c #1F4018",
"7f 	c #599348",
"8f 	c #416D33",
"9f 	c #060A06",
"0f 	c #030B07",
"af 	c #437F2A",
"bf 	c #69CB3C",
"cf 	c #437D2A",
"df 	c #061503",
"ef 	c #436836",
"ff 	c #588147",
"gf 	c #040A04",
"hf 	c #04030B",
"if 	c #426230",
"jf 	c #598145",
"kf 	c #061505",
"lf 	c #030500",
"mf 	c #356525",
"nf 	c #64C23D",
"of 	c #549A34",
"pf 	c #0F2205",
"qf 	c #1B2F15",
"rf 	c #649252",
"sf 	c #558145",
"tf 	c #416C31",
"uf 	c #649551",
"vf 	c #253F1C",
"wf 	c #010506",
"xf 	c #2A471C",
"yf 	c #6AA453",
"zf 	c #4F823C",
"Af 	c #1C350E",
"Bf 	c #3E642B",
"Cf 	c #72A457",
"Df 	c #577C4B",
"Ef 	c #1F3515",
"Ff 	c #355825",
"Gf 	c #73AE57",
"Hf 	c #0D1006",
"If 	c #395524",
"Jf 	c #5E923D",
"Kf 	c #0D2207",
"Lf 	c #3D5D31",
"Mf 	c #619052",
"Nf 	c #3A6823",
"Of 	c #589440",
"Pf 	c #689D54",
"Qf 	c #4E803C",
"Rf 	c #5CA341",
"Sf 	c #5B7F3B",
"Tf 	c #294221",
"Uf 	c #07100B",
"Vf 	c #355526",
"Wf 	c #659A49",
"Xf 	c #59843F",
"Yf 	c #4D7938",
"Zf 	c #67A64E",
"`f 	c #497139",
" g 	c #1A3113",
".g 	c #000704",
"+g 	c #0C0509",
"@g 	c #080104",
"#g 	c #081108",
"$g 	c #658455",
"%g 	c #466636",
"&g 	c #071A05",
"*g 	c #030F05",
"=g 	c #2B451D",
"-g 	c #619A53",
";g 	c #23411D",
">g 	c #47712E",
",g 	c #69A63E",
"'g 	c #19300B",
")g 	c #5B9E4B",
"!g 	c #5CA344",
"~g 	c #52883A",
"{g 	c #0F2709",
"]g 	c #0A1608",
"^g 	c #4E7E3C",
"/g 	c #679A54",
"(g 	c #0E1C0C",
"_g 	c #08010A",
":g 	c #070601",
"<g 	c #0C0805",
"[g 	c #0A040D",
"}g 	c #001005",
"|g 	c #376727",
"1g 	c #67AD51",
"2g 	c #5AB43D",
"3g 	c #5FA73D",
"4g 	c #2F571E",
"5g 	c #02010B",
"6g 	c #11280C",
"7g 	c #518F41",
"8g 	c #5EB946",
"9g 	c #031005",
"0g 	c #010A00",
"ag 	c #12240C",
"bg 	c #416A34",
"cg 	c #71AE5B",
"dg 	c #436932",
"eg 	c #101D0E",
"fg 	c #070205",
"gg 	c #314C21",
"hg 	c #68914A",
"ig 	c #081604",
"jg 	c #293F1D",
"kg 	c #5D8546",
"lg 	c #639444",
"mg 	c #3E6B2D",
"ng 	c #609C50",
"og 	c #58954B",
"pg 	c #27441E",
"qg 	c #182D0F",
"rg 	c #3B6729",
"sg 	c #68AE4B",
"tg 	c #559341",
"ug 	c #629E56",
"vg 	c #59943B",
"wg 	c #192E0E",
"xg 	c #244419",
"yg 	c #64A849",
"zg 	c #040300",
"Ag 	c #65954D",
"Bg 	c #39662A",
"Cg 	c #6BBF54",
"Dg 	c #56993F",
"Eg 	c #6DB249",
"Fg 	c #315A1E",
"Gg 	c #2D4D20",
"Hg 	c #6EAB53",
"Ig 	c #598545",
"Jg 	c #3F692E",
"Kg 	c #6DA856",
"Lg 	c #2C4E22",
"Mg 	c #253B1A",
"Ng 	c #5E974F",
"Og 	c #38642E",
"Pg 	c #2E5022",
"Qg 	c #71AA5A",
"Rg 	c #2C4A1F",
"Sg 	c #05000C",
"Tg 	c #193D0E",
"Ug 	c #66B943",
"Vg 	c #6BBC4A",
"Wg 	c #275019",
"Xg 	c #091A07",
"Yg 	c #629652",
"Zg 	c #36572A",
"`g 	c #2A421F",
" h 	c #6EA257",
".h 	c #142D0C",
"+h 	c #204016",
"@h 	c #61AA4B",
"#h 	c #6ABE45",
"$h 	c #2F591B",
"%h 	c #557F46",
"&h 	c #638F54",
"*h 	c #3C5E30",
"=h 	c #6EA658",
"-h 	c #2B4C20",
";h 	c #233E17",
">h 	c #6AA64B",
",h 	c #508237",
"'h 	c #173010",
")h 	c #4E7A3D",
"!h 	c #70B055",
"~h 	c #385826",
"{h 	c #071002",
"]h 	c #2F5325",
"^h 	c #70AF57",
"/h 	c #568C3C",
"(h 	c #79B853",
"_h 	c #346024",
":h 	c #4B7334",
"<h 	c #4E6D39",
"[h 	c #050200",
"}h 	c #14250C",
"|h 	c #649B4A",
"1h 	c #10250F",
"2h 	c #35542A",
"3h 	c #599044",
"4h 	c #67A04A",
"5h 	c #609045",
"6h 	c #67AE5B",
"7h 	c #3C6E30",
"8h 	c #1B3215",
"9h 	c #1F3314",
"0h 	c #56813D",
"ah 	c #69A052",
"bh 	c #466F35",
"ch 	c #5A9049",
"dh 	c #68A351",
"eh 	c #314F22",
"fh 	c #091207",
"gh 	c #648F4F",
"hh 	c #2F4824",
"ih 	c #09040A",
"jh 	c #1A2F14",
"kh 	c #49773C",
"lh 	c #6BA55F",
"mh 	c #305222",
"nh 	c #0A1809",
"oh 	c #4F684A",
"ph 	c #2E4224",
"qh 	c #070102",
"rh 	c #3A642A",
"sh 	c #6CC54A",
"th 	c #5BA439",
"uh 	c #1D3610",
"vh 	c #304F21",
"wh 	c #68A046",
"xh 	c #0D0508",
"yh 	c #01000A",
"zh 	c #30591F",
"Ah 	c #70C04E",
"Bh 	c #508938",
"Ch 	c #49842F",
"Dh 	c #51B231",
"Eh 	c #61B041",
"Fh 	c #2E501E",
"Gh 	c #040109",
"Hh 	c #1B3915",
"Ih 	c #5FAE42",
"Jh 	c #75CB4D",
"Kh 	c #2A5017",
"Lh 	c #050100",
"Mh 	c #5D874A",
"Nh 	c #689A53",
"Oh 	c #2F4F24",
"Ph 	c #080805",
"Qh 	c #649047",
"Rh 	c #071309",
"Sh 	c #132211",
"Th 	c #3F602C",
"Uh 	c #6EA050",
"Vh 	c #537A3D",
"Wh 	c #477237",
"Xh 	c #6EA857",
"Yh 	c #406A2F",
"Zh 	c #152A0F",
"`h 	c #051800",
" i 	c #275118",
".i 	c #5E9E46",
"+i 	c #61AA41",
"@i 	c #61A24D",
"#i 	c #579344",
"$i 	c #385D2E",
"%i 	c #19280F",
"&i 	c #020106",
"*i 	c #0D2306",
"=i 	c #385929",
"-i 	c #0E0D08",
";i 	c #1E3517",
">i 	c #66AA56",
",i 	c #64B34D",
"'i 	c #58AF38",
")i 	c #579E3D",
"!i 	c #62AB47",
"~i 	c #28461B",
"{i 	c #24401A",
"]i 	c #6D9A58",
"^i 	c #557D43",
"/i 	c #132A0B",
"(i 	c #48773C",
"_i 	c #68A352",
":i 	c #243B16",
"<i 	c #040407",
"[i 	c #345A26",
"}i 	c #76B05C",
"|i 	c #467132",
"1i 	c #649F47",
"2i 	c #13280C",
"3i 	c #3D6A26",
"4i 	c #5EAB3D",
"5i 	c #55993F",
"6i 	c #13290E",
"7i 	c #153209",
"8i 	c #60A349",
"9i 	c #24411A",
"0i 	c #020901",
"ai 	c #5C9A41",
"bi 	c #2B4B1C",
"ci 	c #0C1505",
"di 	c #549E3B",
"ei 	c #488131",
"fi 	c #071A03",
"gi 	c #3D602C",
"hi 	c #689353",
"ii 	c #2F4F26",
"ji 	c #669B54",
"ki 	c #466C39",
"li 	c #17290B",
"mi 	c #5C8D3E",
"ni 	c #58863E",
"oi 	c #487B3C",
"pi 	c #6BB458",
"qi 	c #2D4D21",
"ri 	c #72AB59",
"si 	c #5FA04A",
"ti 	c #5DA83C",
"ui 	c #67B53F",
"vi 	c #68B248",
"wi 	c #79B25B",
"xi 	c #2F4422",
"yi 	c #315027",
"zi 	c #659B4F",
"Ai 	c #1B2E0F",
"Bi 	c #080108",
"Ci 	c #0E230B",
"Di 	c #365526",
"Ei 	c #5D954A",
"Fi 	c #66A84A",
"Gi 	c #5AA446",
"Hi 	c #325620",
"Ii 	c #0E2304",
"Ji 	c #061808",
"Ki 	c #3A5D2C",
"Li 	c #6EA552",
"Mi 	c #50823E",
"Ni 	c #497837",
"Oi 	c #72A551",
"Pi 	c #507439",
"Qi 	c #1D3315",
"Ri 	c #10210A",
"Si 	c #5F8D4D",
"Ti 	c #304E26",
"Ui 	c #080105",
"Vi 	c #121A0B",
"Wi 	c #75B054",
"Xi 	c #3D5C2C",
"Yi 	c #111E10",
"Zi 	c #020502",
"`i 	c #040C08",
" j 	c #4E7A39",
".j 	c #6DB640",
"+j 	c #21450F",
"@j 	c #67A74E",
"#j 	c #599A39",
"$j 	c #6B9956",
"%j 	c #426436",
"&j 	c #0E1F05",
"*j 	c #000204",
"=j 	c #0A0609",
"-j 	c #07050D",
";j 	c #214312",
">j 	c #6DB943",
",j 	c #5EA43D",
"'j 	c #406D2B",
")j 	c #548A3B",
"!j 	c #63BC3B",
"~j 	c #5FB541",
"{j 	c #68AE45",
"]j 	c #264517",
"^j 	c #244711",
"/j 	c #70BC42",
"(j 	c #4C7933",
"_j 	c #000502",
":j 	c #234115",
"<j 	c #639B43",
"[j 	c #63914D",
"}j 	c #23381C",
"|j 	c #182E13",
"1j 	c #518536",
"2j 	c #527F33",
"3j 	c #2B4321",
"4j 	c #608C4C",
"5j 	c #609746",
"6j 	c #3D642B",
"7j 	c #659350",
"8j 	c #5E9647",
"9j 	c #2C4922",
"0j 	c #4B8136",
"aj 	c #57AD38",
"bj 	c #5AA53E",
"cj 	c #5BA23E",
"dj 	c #39632C",
"ej 	c #183212",
"fj 	c #436A31",
"gj 	c #54853D",
"hj 	c #305326",
"ij 	c #568D3C",
"jj 	c #468236",
"kj 	c #4D8042",
"lj 	c #5E9947",
"mj 	c #1C3912",
"nj 	c #3B6B2A",
"oj 	c #61A24A",
"pj 	c #324F26",
"qj 	c #263E1D",
"rj 	c #6BA54F",
"sj 	c #4E7C3A",
"tj 	c #0F240C",
"uj 	c #54803C",
"vj 	c #608E45",
"wj 	c #121D0D",
"xj 	c #010402",
"yj 	c #051303",
"zj 	c #497A37",
"Aj 	c #548C3E",
"Bj 	c #213B14",
"Cj 	c #6A9D52",
"Dj 	c #05000B",
"Ej 	c #203B13",
"Fj 	c #6FAF52",
"Gj 	c #609B51",
"Hj 	c #609644",
"Ij 	c #0E2509",
"Jj 	c #020F04",
"Kj 	c #578546",
"Lj 	c #3B5B2F",
"Mj 	c #3A5728",
"Nj 	c #749E51",
"Oj 	c #59AA3C",
"Pj 	c #255318",
"Qj 	c #27421A",
"Rj 	c #72B057",
"Sj 	c #4A7B3B",
"Tj 	c #568945",
"Uj 	c #0F1E0D",
"Vj 	c #070F06",
"Wj 	c #557F3C",
"Xj 	c #629440",
"Yj 	c #162A09",
"Zj 	c #406531",
"`j 	c #294B21",
" k 	c #223B15",
".k 	c #679F4C",
"+k 	c #4A7A35",
"@k 	c #1D3911",
"#k 	c #4B7335",
"$k 	c #629C44",
"%k 	c #588C40",
"&k 	c #0B180D",
"*k 	c #63934A",
"=k 	c #4F7F41",
"-k 	c #142909",
";k 	c #030406",
">k 	c #090109",
",k 	c #03060C",
"'k 	c #142A0E",
")k 	c #355A25",
"!k 	c #5A9C46",
"~k 	c #5EA442",
"{k 	c #5EAA3A",
"]k 	c #598F3C",
"^k 	c #29481D",
"/k 	c #011205",
"(k 	c #233B18",
"_k 	c #578A45",
":k 	c #68A053",
"<k 	c #40662F",
"[k 	c #5A8942",
"}k 	c #6EA459",
"|k 	c #315223",
"1k 	c #050D02",
"2k 	c #4E7640",
"3k 	c #5C8A48",
"4k 	c #20340E",
"5k 	c #0B0A08",
"6k 	c #0A0C08",
"7k 	c #090706",
"8k 	c #061205",
"9k 	c #406030",
"0k 	c #78AD5C",
"ak 	c #446633",
"bk 	c #081506",
"ck 	c #14220C",
"dk 	c #1E320E",
"ek 	c #1C3116",
"fk 	c #61944C",
"gk 	c #54993E",
"hk 	c #6ED53E",
"ik 	c #4A7733",
"jk 	c #568346",
"kk 	c #70BD49",
"lk 	c #518937",
"mk 	c #050409",
"nk 	c #05080D",
"ok 	c #0B020F",
"pk 	c #0A080C",
"qk 	c #080501",
"rk 	c #050303",
"sk 	c #1C2814",
"tk 	c #70CF4E",
"uk 	c #295019",
"vk 	c #294715",
"wk 	c #5F9F31",
"xk 	c #499139",
"yk 	c #61AC45",
"zk 	c #5A9B44",
"Ak 	c #1B3613",
"Bk 	c #213B13",
"Ck 	c #1B2E11",
"Dk 	c #375324",
"Ek 	c #669F48",
"Fk 	c #45722C",
"Gk 	c #080909",
"Hk 	c #050408",
"Ik 	c #1E3411",
"Jk 	c #588744",
"Kk 	c #5D8C4D",
"Lk 	c #1C3011",
"Mk 	c #0A1207",
"Nk 	c #6BA44D",
"Ok 	c #527C40",
"Pk 	c #416F34",
"Qk 	c #5A9A43",
"Rk 	c #4D7335",
"Sk 	c #1B2E13",
"Tk 	c #192D13",
"Uk 	c #40692E",
"Vk 	c #63A841",
"Wk 	c #5BA244",
"Xk 	c #58A342",
"Yk 	c #487833",
"Zk 	c #375F28",
"`k 	c #486F3C",
" l 	c #5A8948",
".l 	c #628844",
"+l 	c #415A31",
"@l 	c #16250D",
"#l 	c #0A0201",
"$l 	c #67A24F",
"%l 	c #437627",
"&l 	c #7BD53F",
"*l 	c #5CC035",
"=l 	c #5EA64E",
"-l 	c #061C03",
";l 	c #274A1E",
">l 	c #517E3E",
",l 	c #354F2B",
"'l 	c #2D4E21",
")l 	c #69A255",
"!l 	c #1B3211",
"~l 	c #69944D",
"{l 	c #3A5727",
"]l 	c #203D17",
"^l 	c #6A9C58",
"/l 	c #304A23",
"(l 	c #405E33",
"_l 	c #6D9B54",
":l 	c #48703F",
"<l 	c #64A848",
"[l 	c #497B39",
"}l 	c #548047",
"|l 	c #010F05",
"1l 	c #3C6236",
"2l 	c #568F47",
"3l 	c #63A347",
"4l 	c #4F823E",
"5l 	c #528545",
"6l 	c #0D1E07",
"7l 	c #2B4823",
"8l 	c #73A164",
"9l 	c #2C4923",
"0l 	c #29461D",
"al 	c #2D491E",
"bl 	c #29451D",
"cl 	c #6EA055",
"dl 	c #335426",
"el 	c #01040A",
"fl 	c #1F330E",
"gl 	c #547A38",
"hl 	c #2F5120",
"il 	c #628F48",
"jl 	c #406B33",
"kl 	c #080F00",
"ll 	c #0B1904",
"ml 	c #568040",
"nl 	c #5A9C45",
"ol 	c #599938",
"pl 	c #679B4E",
"ql 	c #294120",
"rl 	c #020803",
"sl 	c #223D19",
"tl 	c #3E6333",
"ul 	c #5A7F4F",
"vl 	c #4B6B3C",
"wl 	c #43742E",
"xl 	c #59A83A",
"yl 	c #59A13C",
"zl 	c #65AB42",
"Al 	c #4A7B35",
"Bl 	c #213C1C",
"Cl 	c #0E2407",
"Dl 	c #395F2B",
"El 	c #4D733E",
"Fl 	c #487033",
"Gl 	c #6BAB47",
"Hl 	c #50813A",
"Il 	c #121C0D",
"Jl 	c #172B0E",
"Kl 	c #577E31",
"Ll 	c #638F3B",
"Ml 	c #020A06",
"Nl 	c #050C06",
"Ol 	c #07030C",
"Pl 	c #365327",
"Ql 	c #74A454",
"Rl 	c #4C7032",
"Sl 	c #122106",
"Tl 	c #030404",
"Ul 	c #162310",
"Vl 	c #5A8345",
"Wl 	c #5F9948",
"Xl 	c #63A83B",
"Yl 	c #5D9C43",
"Zl 	c #355923",
"`l 	c #001201",
" m 	c #4F8E31",
".m 	c #6EBD50",
"+m 	c #5B894E",
"@m 	c #182B13",
"#m 	c #030807",
"$m 	c #03070A",
"%m 	c #090406",
"&m 	c #497830",
"*m 	c #569B3F",
"=m 	c #61A34A",
"-m 	c #3C622C",
";m 	c #17330E",
">m 	c #4D7340",
",m 	c #5D894A",
"'m 	c #1B3E11",
")m 	c #579F3F",
"!m 	c #5CAF43",
"~m 	c #4C8F3E",
"{m 	c #132B12",
"]m 	c #080001",
"^m 	c #0D1B09",
"/m 	c #7AA956",
"(m 	c #446530",
"_m 	c #121A0C",
":m 	c #06050E",
"<m 	c #030909",
"[m 	c #03050F",
"}m 	c #27401A",
"|m 	c #68934A",
"1m 	c #57843E",
"2m 	c #224117",
"3m 	c #0B2009",
"4m 	c #162814",
"5m 	c #5B953A",
"6m 	c #2C551E",
"7m 	c #71B659",
"8m 	c #477B34",
"9m 	c #24431A",
"0m 	c #355A2C",
"am 	c #5C9649",
"bm 	c #6AA853",
"cm 	c #5CA93E",
"dm 	c #599C43",
"em 	c #56943D",
"fm 	c #5F9C39",
"gm 	c #61974A",
"hm 	c #4C793D",
"im 	c #335926",
"jm 	c #41602B",
"km 	c #6D944E",
"lm 	c #56833A",
"mm 	c #0F220A",
"nm 	c #508A35",
"om 	c #539A34",
"pm 	c #55B134",
"qm 	c #57C233",
"rm 	c #3B7826",
"sm 	c #39572B",
"tm 	c #5D904B",
"um 	c #5FA650",
"vm 	c #5D9547",
"wm 	c #588247",
"xm 	c #091408",
"ym 	c #020405",
"zm 	c #010709",
"Am 	c #090A04",
"Bm 	c #456C2E",
"Cm 	c #679249",
"Dm 	c #11220A",
"Em 	c #3F6529",
"Fm 	c #15260C",
"Gm 	c #486C37",
"Hm 	c #54883E",
"Im 	c #112808",
"Jm 	c #5B8042",
"Km 	c #63924C",
"Lm 	c #1D3B16",
"Mm 	c #001200",
"Nm 	c #284F1D",
"Om 	c #64A74D",
"Pm 	c #4B8035",
"Qm 	c #80C05D",
"Rm 	c #335726",
"Sm 	c #0F0806",
"Tm 	c #22441C",
"Um 	c #78CB61",
"Vm 	c #538D39",
"Wm 	c #559B40",
"Xm 	c #346227",
"Ym 	c #001900",
"Zm 	c #213A18",
"`m 	c #5D8F4A",
" n 	c #63934E",
".n 	c #203514",
"+n 	c #548A38",
"@n 	c #4A7435",
"#n 	c #050D03",
"$n 	c #0D0506",
"%n 	c #0A0208",
"&n 	c #091504",
"*n 	c #568B42",
"=n 	c #53843F",
"-n 	c #101F09",
";n 	c #5A8B48",
">n 	c #528241",
",n 	c #090507",
"'n 	c #070407",
")n 	c #436A2F",
"!n 	c #67A547",
"~n 	c #62A04B",
"{n 	c #689C51",
"]n 	c #3E602B",
"^n 	c #4A753A",
"/n 	c #599447",
"(n 	c #5FA142",
"_n 	c #4E9236",
":n 	c #567A41",
"<n 	c #526841",
"[n 	c #395C2B",
"}n 	c #6AA650",
"|n 	c #568E46",
"1n 	c #3E6833",
"2n 	c #4B6F3A",
"3n 	c #60914C",
"4n 	c #5D9F49",
"5n 	c #619552",
"6n 	c #549941",
"7n 	c #61A83B",
"8n 	c #609B4B",
"9n 	c #62A952",
"0n 	c #437534",
"an 	c #2E4B25",
"bn 	c #3D6132",
"cn 	c #3B662A",
"dn 	c #53853C",
"en 	c #77B35C",
"fn 	c #22351C",
"gn 	c #051E02",
"hn 	c #2A4913",
"in 	c #4D8036",
"jn 	c #6BAB4F",
"kn 	c #2C4E20",
"ln 	c #00080B",
"mn 	c #05040F",
"nn 	c #090704",
"on 	c #0C070A",
"pn 	c #2C441A",
"qn 	c #689445",
"rn 	c #547C36",
"sn 	c #0C1906",
"tn 	c #427131",
"un 	c #63A548",
"vn 	c #69A64B",
"wn 	c #30501E",
"xn 	c #456435",
"yn 	c #638A43",
"zn 	c #1A390D",
"An 	c #4F7F44",
"Bn 	c #3F6A32",
"Cn 	c #558A44",
"Dn 	c #589243",
"En 	c #193710",
"Fn 	c #01030F",
"Gn 	c #090702",
"Hn 	c #09030A",
"In 	c #030512",
"Jn 	c #090504",
"Kn 	c #080302",
"Ln 	c #35681F",
"Mn 	c #7CCA56",
"Nn 	c #5B9D44",
"On 	c #508745",
"Pn 	c #67A14C",
"Qn 	c #5DA447",
"Rn 	c #5C9D4A",
"Sn 	c #27401F",
"Tn 	c #1E4313",
"Un 	c #56A937",
"Vn 	c #5CAC49",
"Wn 	c #46793B",
"Xn 	c #1C2E13",
"Yn 	c #557B43",
"Zn 	c #689D51",
"`n 	c #345325",
" o 	c #090B0A",
".o 	c #12020D",
"+o 	c #090808",
"@o 	c #304F29",
"#o 	c #71AA5D",
"$o 	c #547D42",
"%o 	c #233D19",
"&o 	c #629B48",
"*o 	c #5E9C45",
"=o 	c #2C5624",
"-o 	c #061702",
";o 	c #243F14",
">o 	c #588D39",
",o 	c #59923A",
"'o 	c #3D682B",
")o 	c #5F994C",
"!o 	c #579C4B",
"~o 	c #4E9239",
"{o 	c #61BB3D",
"]o 	c #58B13D",
"^o 	c #5BA145",
"/o 	c #38672B",
"(o 	c #254118",
"_o 	c #010B04",
":o 	c #1F3A11",
"<o 	c #669F49",
"[o 	c #2F4F22",
"}o 	c #34611D",
"|o 	c #79D247",
"1o 	c #47842E",
"2o 	c #60954F",
"3o 	c #68A24E",
"4o 	c #6A9A52",
"5o 	c #406333",
"6o 	c #1B3815",
"7o 	c #24391A",
"8o 	c #6FA15A",
"9o 	c #010105",
"0o 	c #192A10",
"ao 	c #68954D",
"bo 	c #375723",
"co 	c #112A09",
"do 	c #619245",
"eo 	c #355522",
"fo 	c #051505",
"go 	c #2A4F1D",
"ho 	c #69A755",
"io 	c #1F3415",
"jo 	c #528743",
"ko 	c #579B49",
"lo 	c #588F49",
"mo 	c #559C38",
"no 	c #5A9D45",
"oo 	c #29471D",
"po 	c #648947",
"qo 	c #25331A",
"ro 	c #07010E",
"so 	c #060113",
"to 	c #0E010E",
"uo 	c #090208",
"vo 	c #0A020B",
"wo 	c #0D0306",
"xo 	c #132710",
"yo 	c #48813B",
"zo 	c #244719",
"Ao 	c #579842",
"Bo 	c #59963E",
"Co 	c #5C954B",
"Do 	c #619D49",
"Eo 	c #1F371A",
"Fo 	c #354021",
"Go 	c #73A74E",
"Ho 	c #2C521E",
"Io 	c #041C09",
"Jo 	c #030D05",
"Ko 	c #28431A",
"Lo 	c #6BA152",
"Mo 	c #25411D",
"No 	c #6BA15B",
"Oo 	c #09070C",
"Po 	c #04020D",
"Qo 	c #192C13",
"Ro 	c #6B974E",
"So 	c #3A5526",
"To 	c #192D11",
"Uo 	c #3B592C",
"Vo 	c #629545",
"Wo 	c #7BBE58",
"Xo 	c #345C26",
"Yo 	c #08030A",
"Zo 	c #395027",
"`o 	c #659949",
" p 	c #599F46",
".p 	c #487635",
"+p 	c #4C6A3E",
"@p 	c #619545",
"#p 	c #3B5C2A",
"$p 	c #0A1A04",
"%p 	c #030A03",
"&p 	c #091C04",
"*p 	c #223D1A",
"=p 	c #3E5C32",
"-p 	c #5C984A",
";p 	c #5AAF3D",
">p 	c #65C144",
",p 	c #4F7F3A",
"'p 	c #639256",
")p 	c #5F9D52",
"!p 	c #639F4F",
"~p 	c #558F3E",
"{p 	c #6C9F55",
"]p 	c #2E4A24",
"^p 	c #000703",
"/p 	c #223D16",
"(p 	c #4F8F33",
"_p 	c #79C044",
":p 	c #4D7327",
"<p 	c #477035",
"[p 	c #6DA252",
"}p 	c #3F582D",
"|p 	c #050509",
"1p 	c #09040D",
"2p 	c #243A15",
"3p 	c #6F9C53",
"4p 	c #608945",
"5p 	c #010800",
"6p 	c #3B6624",
"7p 	c #67B645",
"8p 	c #66B34D",
"9p 	c #366125",
"0p 	c #203818",
"ap 	c #5FA34B",
"bp 	c #5BA03A",
"cp 	c #39592B",
"dp 	c #63923C",
"ep 	c #6DC33E",
"fp 	c #599B3A",
"gp 	c #19340D",
"hp 	c #070802",
"ip 	c #08030D",
"jp 	c #06050A",
"kp 	c #35671D",
"lp 	c #71CA41",
"mp 	c #4E892E",
"np 	c #5F9750",
"op 	c #3F6830",
"pp 	c #39602C",
"qp 	c #578144",
"rp 	c #28411B",
"sp 	c #234E15",
"tp 	c #5FAD3A",
"up 	c #5CB33D",
"vp 	c #3E722E",
"wp 	c #648E4F",
"xp 	c #6B9655",
"yp 	c #263E1B",
"zp 	c #081808",
"Ap 	c #3C602B",
"Bp 	c #71AA5B",
"Cp 	c #4B743F",
"Dp 	c #11210C",
"Ep 	c #091508",
"Fp 	c #4D8038",
"Gp 	c #65B849",
"Hp 	c #5DAF4D",
"Ip 	c #417734",
"Jp 	c #13280A",
"Kp 	c #142B09",
"Lp 	c #4F7837",
"Mp 	c #6B9D45",
"Np 	c #33631B",
"Op 	c #5BAB39",
"Pp 	c #67C743",
"Qp 	c #5CAD44",
"Rp 	c #2F6024",
"Sp 	c #132E0B",
"Tp 	c #050308",
"Up 	c #031309",
"Vp 	c #426236",
"Wp 	c #000107",
"Xp 	c #021002",
"Yp 	c #203F15",
"Zp 	c #508A3D",
"`p 	c #6CAB49",
" q 	c #557A42",
".q 	c #15270C",
"+q 	c #528B39",
"@q 	c #447432",
"#q 	c #04020B",
"$q 	c #03010E",
"%q 	c #426729",
"&q 	c #638C43",
"*q 	c #090E02",
"=q 	c #4B6E31",
"-q 	c #5E9142",
";q 	c #345426",
">q 	c #52962F",
",q 	c #629846",
"'q 	c #364E25",
")q 	c #243E1B",
"!q 	c #214C15",
"~q 	c #366D24",
"{q 	c #457E2D",
"]q 	c #447F28",
"^q 	c #346720",
"/q 	c #243B1D",
"(q 	c #100E11",
"_q 	c #0F0405",
":q 	c #0A0602",
"<q 	c #020906",
"[q 	c #010B0A",
"}q 	c #060A0B",
"|q 	c #06060B",
"1q 	c #0D1C08",
"2q 	c #31492B",
"3q 	c #305528",
"4q 	c #3A6129",
"5q 	c #426930",
"6q 	c #345E22",
"7q 	c #19410B",
"8q 	c #092A01",
"9q 	c #384C26",
"0q 	c #679D52",
"aq 	c #4E973A",
"bq 	c #559139",
"cq 	c #547A3F",
"dq 	c #3F592F",
"eq 	c #4F7A35",
"fq 	c #618844",
"gq 	c #4A7C3A",
"hq 	c #518543",
"iq 	c #070A05",
"jq 	c #050208",
"kq 	c #3C5D25",
"lq 	c #6BA14B",
"mq 	c #18280E",
"nq 	c #0A0003",
"oq 	c #254116",
"pq 	c #081505",
"qq 	c #070003",
"rq 	c #273F1A",
"sq 	c #548E39",
"tq 	c #4D8638",
"uq 	c #6DB44A",
"vq 	c #3E6A2B",
"wq 	c #5B9B33",
"xq 	c #18340A",
"yq 	c #0E2609",
"zq 	c #28551A",
"Aq 	c #5BA843",
"Bq 	c #6ACA51",
"Cq 	c #61B73E",
"Dq 	c #37661D",
"Eq 	c #16390D",
"Fq 	c #4B9233",
"Gq 	c #4D8F36",
"Hq 	c #213A17",
"Iq 	c #0E180A",
"Jq 	c #3D5E2A",
"Kq 	c #629B41",
"Lq 	c #65AB41",
"Mq 	c #649E44",
"Nq 	c #1A2D0C",
"Oq 	c #3F592E",
"Pq 	c #739B57",
"Qq 	c #4F723B",
"Rq 	c #162712",
"Sq 	c #04010D",
"Tq 	c #09070F",
"Uq 	c #223417",
"Vq 	c #65934E",
"Wq 	c #689953",
"Xq 	c #396124",
"Yq 	c #62A73C",
"Zq 	c #67AF4A",
"`q 	c #427230",
" r 	c #0C1609",
".r 	c #142609",
"+r 	c #477636",
"@r 	c #396427",
"#r 	c #234017",
"$r 	c #527632",
"%r 	c #2A5114",
"&r 	c #66AC38",
"*r 	c #61953B",
"=r 	c #182A10",
"-r 	c #02060A",
";r 	c #090305",
">r 	c #070806",
",r 	c #335520",
"'r 	c #6DB23F",
")r 	c #509333",
"!r 	c #3C6424",
"~r 	c #476A33",
"{r 	c #577749",
"]r 	c #608951",
"^r 	c #649E50",
"/r 	c #5FA53F",
"(r 	c #244417",
"_r 	c #050806",
":r 	c #305C19",
"<r 	c #69BA46",
"[r 	c #69B34A",
"}r 	c #53783E",
"|r 	c #213318",
"1r 	c #060200",
"2r 	c #120309",
"3r 	c #0A070C",
"4r 	c #142613",
"5r 	c #355A26",
"6r 	c #0A1C03",
"7r 	c #11280B",
"8r 	c #031306",
"9r 	c #13270C",
"0r 	c #538D3B",
"ar 	c #569B3C",
"br 	c #549742",
"cr 	c #559142",
"dr 	c #3C662F",
"er 	c #50873A",
"fr 	c #669F4A",
"gr 	c #4C7F31",
"hr 	c #74C946",
"ir 	c #5FC445",
"jr 	c #42812E",
"kr 	c #193A10",
"lr 	c #1A291C",
"mr 	c #304D27",
"nr 	c #040F07",
"or 	c #051904",
"pr 	c #5E8653",
"qr 	c #3C5736",
"rr 	c #243418",
"sr 	c #4E753A",
"tr 	c #52874C",
"ur 	c #2D4C20",
"vr 	c #0B1905",
"wr 	c #090008",
"xr 	c #0D0006",
"yr 	c #000405",
"zr 	c #020010",
"Ar 	c #305A24",
"Br 	c #5B9946",
"Cr 	c #112A0E",
"Dr 	c #37612C",
"Er 	c #629C55",
"Fr 	c #132513",
"Gr 	c #1D3717",
"Hr 	c #649C58",
"Ir 	c #5A8B49",
"Jr 	c #447832",
"Kr 	c #4F8D3F",
"Lr 	c #529640",
"Mr 	c #41902B",
"Nr 	c #64A451",
"Or 	c #64B04F",
"Pr 	c #5BB341",
"Qr 	c #61BB34",
"Rr 	c #6BCE36",
"Sr 	c #65CF3B",
"Tr 	c #5EC035",
"Ur 	c #66AF46",
"Vr 	c #528549",
"Wr 	c #172A19",
"Xr 	c #040512",
"Yr 	c #040902",
"Zr 	c #06060F",
"`r 	c #06040E",
" s 	c #151F10",
".s 	c #60864D",
"+s 	c #6B9D59",
"@s 	c #6AAA4C",
"#s 	c #72BB45",
"$s 	c #70CD41",
"%s 	c #63C83A",
"&s 	c #5CB334",
"*s 	c #57A038",
"=s 	c #5A8F38",
"-s 	c #4D862A",
";s 	c #447A2B",
">s 	c #406C2C",
",s 	c #558044",
"'s 	c #689856",
")s 	c #2B471D",
"!s 	c #699052",
"~s 	c #496D33",
"{s 	c #132909",
"]s 	c #000C05",
"^s 	c #5E7F44",
"/s 	c #456B2D",
"(s 	c #07060B",
"_s 	c #070105",
":s 	c #699A53",
"<s 	c #3E5F2D",
"[s 	c #76A654",
"}s 	c #33521F",
"|s 	c #5A9434",
"1s 	c #1E3A11",
"2s 	c #2C3E24",
"3s 	c #1C2917",
"4s 	c #102908",
"5s 	c #3A6C27",
"6s 	c #6EBE46",
"7s 	c #6BC337",
"8s 	c #4F912C",
"9s 	c #66A145",
"0s 	c #5D8D40",
"as 	c #436634",
"bs 	c #60833F",
"cs 	c #749F54",
"ds 	c #548F44",
"es 	c #56943F",
"fs 	c #1D3511",
"gs 	c #0D1D06",
"hs 	c #2F4723",
"is 	c #719E5B",
"js 	c #1D3517",
"ks 	c #0D0A10",
"ls 	c #1A2E14",
"ms 	c #547F40",
"ns 	c #78BC4C",
"os 	c #5DA541",
"ps 	c #4E7B3B",
"qs 	c #172010",
"rs 	c #152811",
"ss 	c #477836",
"ts 	c #65A649",
"us 	c #679E56",
"vs 	c #17300E",
"ws 	c #5B9940",
"xs 	c #6BA847",
"ys 	c #527F40",
"zs 	c #152B12",
"As 	c #76C157",
"Bs 	c #538931",
"Cs 	c #437433",
"Ds 	c #4E7D37",
"Es 	c #355028",
"Fs 	c #74A154",
"Gs 	c #38512A",
"Hs 	c #34552A",
"Is 	c #478734",
"Js 	c #62A14D",
"Ks 	c #233F17",
"Ls 	c #071606",
"Ms 	c #40722E",
"Ns 	c #61A946",
"Os 	c #214216",
"Ps 	c #06060C",
"Qs 	c #0C050A",
"Rs 	c #090400",
"Ss 	c #1B3210",
"Ts 	c #5B8948",
"Us 	c #2C4A23",
"Vs 	c #32561D",
"Ws 	c #5FAB43",
"Xs 	c #488836",
"Ys 	c #213816",
"Zs 	c #192D0B",
"`s 	c #518441",
" t 	c #4E843E",
".t 	c #3D612E",
"+t 	c #5D7C4E",
"@t 	c #467835",
"#t 	c #54993D",
"$t 	c #5AB737",
"%t 	c #62BA40",
"&t 	c #346926",
"*t 	c #1F4312",
"=t 	c #1F4C11",
"-t 	c #386A2B",
";t 	c #2E5C24",
">t 	c #080B05",
",t 	c #335C25",
"'t 	c #75C853",
")t 	c #264118",
"!t 	c #6EA752",
"~t 	c #2A4421",
"{t 	c #131E07",
"]t 	c #72954D",
"^t 	c #5F8A45",
"/t 	c #2C4D1E",
"(t 	c #0F1B07",
"_t 	c #1E3515",
":t 	c #35592D",
"<t 	c #304E29",
"[t 	c #172A0F",
"}t 	c #6DA154",
"|t 	c #335923",
"1t 	c #1B2E15",
"2t 	c #314C25",
"3t 	c #537840",
"4t 	c #589940",
"5t 	c #67A751",
"6t 	c #487938",
"7t 	c #396226",
"8t 	c #51833B",
"9t 	c #499430",
"0t 	c #5DAA3C",
"at 	c #59A439",
"bt 	c #4E9B37",
"ct 	c #5BA348",
"dt 	c #4B9B33",
"et 	c #62AC4E",
"ft 	c #539F3B",
"gt 	c #41832D",
"ht 	c #3A6B22",
"it 	c #396A22",
"jt 	c #2E6419",
"kt 	c #205509",
"lt 	c #174008",
"mt 	c #0F2509",
"nt 	c #0A0904",
"ot 	c #06080A",
"pt 	c #060817",
"qt 	c #193410",
"rt 	c #264A17",
"st 	c #285221",
"tt 	c #3D7325",
"ut 	c #3C7826",
"vt 	c #548C35",
"wt 	c #66A844",
"xt 	c #6FBA45",
"yt 	c #68C637",
"zt 	c #77D545",
"At 	c #71D037",
"Bt 	c #5FBC37",
"Ct 	c #479233",
"Dt 	c #4F843D",
"Et 	c #355F25",
"Ft 	c #4F7039",
"Gt 	c #72A04E",
"Ht 	c #5A963D",
"It 	c #344E25",
"Jt 	c #1E3315",
"Kt 	c #2C471F",
"Lt 	c #81A268",
"Mt 	c #28381B",
"Nt 	c #304D24",
"Ot 	c #0D200B",
"Pt 	c #0E0108",
"Qt 	c #0E020D",
"Rt 	c #07010A",
"St 	c #6A964E",
"Tt 	c #385426",
"Ut 	c #0F1E07",
"Vt 	c #0B2203",
"Wt 	c #5F9A47",
"Xt 	c #355428",
"Yt 	c #03000A",
"Zt 	c #264715",
"`t 	c #76B255",
" u 	c #3E5E2F",
".u 	c #487933",
"+u 	c #2E5A1A",
"@u 	c #214313",
"#u 	c #31591E",
"$u 	c #5FAB3D",
"%u 	c #59B839",
"&u 	c #5BA74C",
"*u 	c #4E793C",
"=u 	c #537848",
"-u 	c #466737",
";u 	c #53803D",
">u 	c #65A54E",
",u 	c #1F3E17",
"'u 	c #1A2E12",
")u 	c #447631",
"!u 	c #629E40",
"~u 	c #44672A",
"{u 	c #253C1C",
"]u 	c #58894A",
"^u 	c #629756",
"/u 	c #2D4828",
"(u 	c #05080F",
"_u 	c #070F10",
":u 	c #1D3412",
"<u 	c #5B8C47",
"[u 	c #548743",
"}u 	c #13280D",
"|u 	c #090101",
"1u 	c #112009",
"2u 	c #4B7837",
"3u 	c #5F9149",
"4u 	c #63A049",
"5u 	c #497936",
"6u 	c #72A04C",
"7u 	c #415A28",
"8u 	c #497037",
"9u 	c #639A54",
"0u 	c #396728",
"au 	c #6CAE54",
"bu 	c #55893E",
"cu 	c #112408",
"du 	c #020808",
"eu 	c #090606",
"fu 	c #294D16",
"gu 	c #6BBB45",
"hu 	c #66B643",
"iu 	c #47842C",
"ju 	c #5D9F41",
"ku 	c #639751",
"lu 	c #75A660",
"mu 	c #476B38",
"nu 	c #0C1A06",
"ou 	c #010E01",
"pu 	c #35612B",
"qu 	c #609E53",
"ru 	c #54883F",
"su 	c #5E963B",
"tu 	c #213C18",
"uu 	c #0D1C0D",
"vu 	c #548A3D",
"wu 	c #17300D",
"xu 	c #2B451E",
"yu 	c #5D9A40",
"zu 	c #4F8339",
"Au 	c #223C17",
"Bu 	c #1D3812",
"Cu 	c #60A647",
"Du 	c #5BA542",
"Eu 	c #345727",
"Fu 	c #2B4A1F",
"Gu 	c #366924",
"Hu 	c #3D6426",
"Iu 	c #66A642",
"Ju 	c #51A239",
"Ku 	c #60CD33",
"Lu 	c #3A9828",
"Mu 	c #5AA73F",
"Nu 	c #6AC742",
"Ou 	c #6AD63B",
"Pu 	c #66D743",
"Qu 	c #64C749",
"Ru 	c #173411",
"Su 	c #04000C",
"Tu 	c #335A25",
"Uu 	c #5FAA46",
"Vu 	c #65A94A",
"Wu 	c #27491B",
"Xu 	c #527C41",
"Yu 	c #5D8B44",
"Zu 	c #0B1A07",
"`u 	c #496A34",
" v 	c #6CA355",
".v 	c #1A3213",
"+v 	c #12240D",
"@v 	c #35572C",
"#v 	c #51894B",
"$v 	c #68A24C",
"%v 	c #659C52",
"&v 	c #66A552",
"*v 	c #18370F",
"=v 	c #416F2E",
"-v 	c #66A24A",
";v 	c #679D4E",
">v 	c #679655",
",v 	c #4E783B",
"'v 	c #52863A",
")v 	c #4F952F",
"!v 	c #64AB46",
"~v 	c #5BAF41",
"{v 	c #58A73C",
"]v 	c #4E9F32",
"^v 	c #5AA742",
"/v 	c #538E37",
"(v 	c #3C6B2A",
"_v 	c #447735",
":v 	c #487A39",
"<v 	c #558C42",
"[v 	c #478D32",
"}v 	c #448E28",
"|v 	c #579341",
"1v 	c #5D9D47",
"2v 	c #63BA39",
"3v 	c #67C236",
"4v 	c #58A038",
"5v 	c #284617",
"6v 	c #02060B",
"7v 	c #0D0402",
"8v 	c #08040E",
"9v 	c #040804",
"0v 	c #0E220A",
"av 	c #5B9D3B",
"bv 	c #7AD14A",
"cv 	c #539344",
"dv 	c #507A47",
"ev 	c #537F3E",
"fv 	c #5A9446",
"gv 	c #6CA552",
"hv 	c #5EA03B",
"iv 	c #488D34",
"jv 	c #508A3E",
"kv 	c #4D8533",
"lv 	c #46892C",
"mv 	c #5FA946",
"nv 	c #61B342",
"ov 	c #5CB43F",
"pv 	c #61BF3B",
"qv 	c #69BA41",
"rv 	c #57A035",
"sv 	c #50903A",
"tv 	c #4D7E3A",
"uv 	c #67944F",
"vv 	c #69A14E",
"wv 	c #5B9D3E",
"xv 	c #477A32",
"yv 	c #19330D",
"zv 	c #679742",
"Av 	c #6DA356",
"Bv 	c #5C8C50",
"Cv 	c #37572E",
"Dv 	c #101E09",
"Ev 	c #10220D",
"Fv 	c #62974D",
"Gv 	c #3C612D",
"Hv 	c #010905",
"Iv 	c #537843",
"Jv 	c #5C8640",
"Kv 	c #26471D",
"Lv 	c #629A4B",
"Mv 	c #609F3D",
"Nv 	c #3B6426",
"Ov 	c #122409",
"Pv 	c #69B146",
"Qv 	c #71D143",
"Rv 	c #63CC36",
"Sv 	c #6AC94A",
"Tv 	c #60A73E",
"Uv 	c #469326",
"Vv 	c #6ED240",
"Wv 	c #5DA43E",
"Xv 	c #66A648",
"Yv 	c #44712E",
"Zv 	c #375A25",
"`v 	c #74AA59",
" w 	c #365B25",
".w 	c #334C24",
"+w 	c #60904E",
"@w 	c #69AE4F",
"#w 	c #78BA54",
"$w 	c #314B20",
"%w 	c #10290C",
"&w 	c #47733F",
"*w 	c #71B260",
"=w 	c #355E27",
"-w 	c #041005",
";w 	c #547C44",
">w 	c #64974F",
",w 	c #0F1F0B",
"'w 	c #4C7138",
")w 	c #61924E",
"!w 	c #65A450",
"~w 	c #4F8540",
"{w 	c #13250C",
"]w 	c #3B5323",
"^w 	c #6F9A52",
"/w 	c #659152",
"(w 	c #59893D",
"_w 	c #649546",
":w 	c #68A94B",
"<w 	c #77C94D",
"[w 	c #467C28",
"}w 	c #051604",
"|w 	c #060805",
"1w 	c #0A060E",
"2w 	c #060010",
"3w 	c #203917",
"4w 	c #67A43F",
"5w 	c #65AE3A",
"6w 	c #214611",
"7w 	c #13340A",
"8w 	c #61A648",
"9w 	c #2F5323",
"0w 	c #1D3A15",
"aw 	c #426731",
"bw 	c #2E4E22",
"cw 	c #0D1806",
"dw 	c #42713B",
"ew 	c #65A44C",
"fw 	c #5B8E47",
"gw 	c #5A914A",
"hw 	c #55883B",
"iw 	c #517C3C",
"jw 	c #112609",
"kw 	c #355529",
"lw 	c #72AC5A",
"mw 	c #477635",
"nw 	c #0F2A08",
"ow 	c #101C09",
"pw 	c #3C632E",
"qw 	c #1E4013",
"rw 	c #27471C",
"sw 	c #63A147",
"tw 	c #4F8A3D",
"uw 	c #63A34A",
"vw 	c #32561F",
"ww 	c #2D5A26",
"xw 	c #498036",
"yw 	c #579B46",
"zw 	c #61BA49",
"Aw 	c #59A03C",
"Bw 	c #3E831D",
"Cw 	c #30711C",
"Dw 	c #2D601E",
"Ew 	c #0A1A0A",
"Fw 	c #030008",
"Gw 	c #395F2C",
"Hw 	c #4F783D",
"Iw 	c #3D682C",
"Jw 	c #62AA48",
"Kw 	c #65AA4E",
"Lw 	c #233F1A",
"Mw 	c #11240E",
"Nw 	c #4A7440",
"Ow 	c #091406",
"Pw 	c #0E1F0D",
"Qw 	c #528C3E",
"Rw 	c #6CA55A",
"Sw 	c #3F6739",
"Tw 	c #27491D",
"Uw 	c #69AF51",
"Vw 	c #244D15",
"Ww 	c #253E19",
"Xw 	c #487534",
"Yw 	c #4F8A3B",
"Zw 	c #59A33E",
"`w 	c #61A645",
" x 	c #589E3E",
".x 	c #52A334",
"+x 	c #66B24B",
"@x 	c #4B8F36",
"#x 	c #437D31",
"$x 	c #53833F",
"%x 	c #498A33",
"&x 	c #58A439",
"*x 	c #67AD4A",
"=x 	c #55973F",
"-x 	c #3D6630",
";x 	c #3D5D2E",
">x 	c #315523",
",x 	c #1F4610",
"'x 	c #3B6E2F",
")x 	c #62AD41",
"!x 	c #62A83F",
"~x 	c #438126",
"{x 	c #355C22",
"]x 	c #14260B",
"^x 	c #070F03",
"/x 	c #2F531C",
"(x 	c #4D8A2E",
"_x 	c #6BB253",
":x 	c #4C7A3E",
"<x 	c #1C3515",
"[x 	c #092105",
"}x 	c #122B0B",
"|x 	c #193909",
"1x 	c #466E39",
"2x 	c #4E8435",
"3x 	c #629C50",
"4x 	c #5CA149",
"5x 	c #548740",
"6x 	c #48862E",
"7x 	c #6AA645",
"8x 	c #5FA738",
"9x 	c #52A637",
"0x 	c #5CAC3C",
"ax 	c #68AD47",
"bx 	c #4C8E37",
"cx 	c #467A33",
"dx 	c #254616",
"ex 	c #19320E",
"fx 	c #6B9F52",
"gx 	c #3E622F",
"hx 	c #1E3C16",
"ix 	c #405F38",
"jx 	c #6EA35F",
"kx 	c #53863F",
"lx 	c #11220B",
"mx 	c #436334",
"nx 	c #669854",
"ox 	c #193313",
"px 	c #05000E",
"qx 	c #65A142",
"rx 	c #62B049",
"sx 	c #4E7F42",
"tx 	c #47753A",
"ux 	c #060C04",
"vx 	c #325421",
"wx 	c #386A20",
"xx 	c #387820",
"yx 	c #579D48",
"zx 	c #6EB748",
"Ax 	c #5B9F3D",
"Bx 	c #4F843B",
"Cx 	c #3A6128",
"Dx 	c #2A4B1C",
"Ex 	c #5E9945",
"Fx 	c #609946",
"Gx 	c #5D8B45",
"Hx 	c #68A748",
"Ix 	c #71A551",
"Jx 	c #4B7739",
"Kx 	c #1A320D",
"Lx 	c #4B7436",
"Mx 	c #436835",
"Nx 	c #0F220B",
"Ox 	c #3A642C",
"Px 	c #6AA952",
"Qx 	c #446B30",
"Rx 	c #0F2307",
"Sx 	c #496E33",
"Tx 	c #81B860",
"Ux 	c #0E1D0D",
"Vx 	c #5E9346",
"Wx 	c #599045",
"Xx 	c #629151",
"Yx 	c #182D16",
"Zx 	c #2F4E25",
"`x 	c #243A19",
" y 	c #274021",
".y 	c #76A964",
"+y 	c #2A441C",
"@y 	c #0D2005",
"#y 	c #46842D",
"$y 	c #75C64D",
"%y 	c #3B6027",
"&y 	c #010806",
"*y 	c #07070A",
"=y 	c #07060D",
"-y 	c #070609",
";y 	c #090607",
">y 	c #02070E",
",y 	c #01080A",
"'y 	c #090508",
")y 	c #07070E",
"!y 	c #1B2E14",
"~y 	c #558243",
"{y 	c #4D7B37",
"]y 	c #65964F",
"^y 	c #426A37",
"/y 	c #021200",
"(y 	c #4A7137",
"_y 	c #496E3B",
":y 	c #34532B",
"<y 	c #6BB14C",
"[y 	c #2C541A",
"}y 	c #487E40",
"|y 	c #5EA252",
"1y 	c #558646",
"2y 	c #578644",
"3y 	c #162C10",
"4y 	c #243A18",
"5y 	c #73A24B",
"6y 	c #518437",
"7y 	c #6EB652",
"8y 	c #0B1D0A",
"9y 	c #1F3513",
"0y 	c #71B84C",
"ay 	c #65B73B",
"by 	c #2E5617",
"cy 	c #3C562B",
"dy 	c #709E54",
"ey 	c #366023",
"fy 	c #5D964E",
"gy 	c #639A53",
"hy 	c #223E19",
"iy 	c #1A290E",
"jy 	c #4D813B",
"ky 	c #67A95E",
"ly 	c #1A3E12",
"my 	c #091B07",
"ny 	c #010D00",
"oy 	c #192B10",
"py 	c #304F22",
"qy 	c #44692C",
"ry 	c #112208",
"sy 	c #487338",
"ty 	c #496A39",
"uy 	c #102408",
"vy 	c #528046",
"wy 	c #365F2A",
"xy 	c #050600",
"yy 	c #26421F",
"zy 	c #6FAC5C",
"Ay 	c #335529",
"By 	c #203418",
"Cy 	c #71AD55",
"Dy 	c #2F5520",
"Ey 	c #2E4622",
"Fy 	c #44762F",
"Gy 	c #5E9F48",
"Hy 	c #4C7C3B",
"Iy 	c #5AA144",
"Jy 	c #5EAB45",
"Ky 	c #559941",
"Ly 	c #5FA344",
"My 	c #65A24C",
"Ny 	c #467B32",
"Oy 	c #50803B",
"Py 	c #549035",
"Qy 	c #63A64B",
"Ry 	c #60925A",
"Sy 	c #456639",
"Ty 	c #457334",
"Uy 	c #60A844",
"Vy 	c #65A445",
"Wy 	c #609E43",
"Xy 	c #68AB58",
"Yy 	c #2A4E23",
"Zy 	c #2D511F",
"`y 	c #67A94C",
" z 	c #2F5522",
".z 	c #102507",
"+z 	c #010703",
"@z 	c #03070B",
"#z 	c #01080B",
"$z 	c #0B0205",
"%z 	c #0A0205",
"&z 	c #29491F",
"*z 	c #59864A",
"=z 	c #568242",
"-z 	c #2D4423",
";z 	c #6B9A5A",
">z 	c #659352",
",z 	c #679B47",
"'z 	c #68A74C",
")z 	c #436D34",
"!z 	c #3A592B",
"~z 	c #4C6E3A",
"{z 	c #6F9D59",
"]z 	c #5FA546",
"^z 	c #488C35",
"/z 	c #437F30",
"(z 	c #519039",
"_z 	c #61A93C",
":z 	c #56A43A",
"<z 	c #5DAF41",
"[z 	c #5FAB3B",
"}z 	c #43792C",
"|z 	c #466D31",
"1z 	c #74A655",
"2z 	c #4B8B34",
"3z 	c #335827",
"4z 	c #2F5224",
"5z 	c #73B15B",
"6z 	c #71A853",
"7z 	c #365628",
"8z 	c #538643",
"9z 	c #1B3414",
"0z 	c #325022",
"az 	c #608E4D",
"bz 	c #0F1F09",
"cz 	c #2E4D21",
"dz 	c #2C4C1F",
"ez 	c #192A16",
"fz 	c #071B06",
"gz 	c #1D380D",
"hz 	c #6E9B59",
"iz 	c #668C51",
"jz 	c #1B3812",
"kz 	c #5A8241",
"lz 	c #6D9B4F",
"mz 	c #385E26",
"nz 	c #274718",
"oz 	c #659A4C",
"pz 	c #426836",
"qz 	c #1E3C12",
"rz 	c #5FA135",
"sz 	c #85CE51",
"tz 	c #446833",
"uz 	c #050B05",
"vz 	c #72B351",
"wz 	c #518636",
"xz 	c #75AD59",
"yz 	c #395429",
"zz 	c #4A6E39",
"Az 	c #66964A",
"Bz 	c #528542",
"Cz 	c #5C894C",
"Dz 	c #2B4B16",
"Ez 	c #6AB547",
"Fz 	c #3B562D",
"Gz 	c #35592F",
"Hz 	c #5D8B4B",
"Iz 	c #0C1D07",
"Jz 	c #0C1204",
"Kz 	c #4E8037",
"Lz 	c #55893D",
"Mz 	c #73AC55",
"Nz 	c #345625",
"Oz 	c #04050D",
"Pz 	c #0B0507",
"Qz 	c #020903",
"Rz 	c #080406",
"Sz 	c #0B010E",
"Tz 	c #162711",
"Uz 	c #527A3D",
"Vz 	c #5A8C40",
"Wz 	c #2C4B21",
"Xz 	c #75A756",
"Yz 	c #354F27",
"Zz 	c #3A5C27",
"`z 	c #305A27",
" A 	c #59AA47",
".A 	c #5CB434",
"+A 	c #62B935",
"@A 	c #214B0D",
"#A 	c #090001",
"$A 	c #152914",
"%A 	c #51883E",
"&A 	c #56923D",
"*A 	c #578745",
"=A 	c #4F7C3B",
"-A 	c #12260B",
";A 	c #2E471C",
">A 	c #67B04D",
",A 	c #62C33B",
"'A 	c #387020",
")A 	c #0F1311",
"!A 	c #426F2C",
"~A 	c #6DBE41",
"{A 	c #6DB545",
"]A 	c #152F0C",
"^A 	c #56933C",
"/A 	c #5D9940",
"(A 	c #5A8C43",
"_A 	c #4A7837",
":A 	c #193212",
"<A 	c #628246",
"[A 	c #719F4A",
"}A 	c #23451B",
"|A 	c #000E00",
"1A 	c #1A2F13",
"2A 	c #31512F",
"3A 	c #447A40",
"4A 	c #69A94D",
"5A 	c #60B045",
"6A 	c #6FC648",
"7A 	c #224216",
"8A 	c #60894D",
"9A 	c #0D1109",
"0A 	c #09000A",
"aA 	c #040309",
"bA 	c #3E6234",
"cA 	c #619D5E",
"dA 	c #25441B",
"eA 	c #6CA13F",
"fA 	c #65A643",
"gA 	c #6B9F58",
"hA 	c #4E843A",
"iA 	c #4C9731",
"jA 	c #5EA23F",
"kA 	c #569A3F",
"lA 	c #54A63B",
"mA 	c #5AA54A",
"nA 	c #4A8438",
"oA 	c #558C46",
"pA 	c #5FA847",
"qA 	c #62AE44",
"rA 	c #497C36",
"sA 	c #3A5A26",
"tA 	c #1B3A0D",
"uA 	c #12210F",
"vA 	c #102109",
"wA 	c #5B8945",
"xA 	c #426C31",
"yA 	c #132A0A",
"zA 	c #122B0D",
"AA 	c #192910",
"BA 	c #4A7939",
"CA 	c #04040F",
"DA 	c #090605",
"EA 	c #02040D",
"FA 	c #0C0302",
"GA 	c #0D0501",
"HA 	c #010507",
"IA 	c #1A3013",
"JA 	c #659C48",
"KA 	c #41632E",
"LA 	c #101D07",
"MA 	c #64924B",
"NA 	c #517B3F",
"OA 	c #192E14",
"PA 	c #14260D",
"QA 	c #3B612E",
"RA 	c #6C9955",
"SA 	c #213417",
"TA 	c #263B1D",
"UA 	c #487740",
"VA 	c #58954C",
"WA 	c #68AC50",
"XA 	c #4B893D",
"YA 	c #4C7F3A",
"ZA 	c #54923A",
"`A 	c #61B040",
" B 	c #56AF39",
".B 	c #61C13B",
"+B 	c #539832",
"@B 	c #4B7F36",
"#B 	c #59A043",
"$B 	c #5EA243",
"%B 	c #4A6E38",
"&B 	c #658C4C",
"*B 	c #51733F",
"=B 	c #0A1602",
"-B 	c #020805",
";B 	c #01040C",
">B 	c #0E0410",
",B 	c #0F1010",
"'B 	c #283D1F",
")B 	c #6F9954",
"!B 	c #1E3912",
"~B 	c #6BAE48",
"{B 	c #6DB84B",
"]B 	c #68A547",
"^B 	c #487D3A",
"/B 	c #35572D",
"(B 	c #213517",
"_B 	c #0D1808",
":B 	c #203515",
"<B 	c #5B8440",
"[B 	c #658E4C",
"}B 	c #1B2F14",
"|B 	c #0C1A08",
"1B 	c #436430",
"2B 	c #6FA55A",
"3B 	c #467A3A",
"4B 	c #669E4B",
"5B 	c #39542A",
"6B 	c #2D491F",
"7B 	c #5C9842",
"8B 	c #6AB746",
"9B 	c #498329",
"0B 	c #081A07",
"aB 	c #355C1E",
"bB 	c #62BA3D",
"cB 	c #6AB545",
"dB 	c #325522",
"eB 	c #0C170A",
"fB 	c #496E36",
"gB 	c #6B9C4D",
"hB 	c #4B7C39",
"iB 	c #5E8D4D",
"jB 	c #20341B",
"kB 	c #1D3E0E",
"lB 	c #63A932",
"mB 	c #6BD237",
"nB 	c #62BB42",
"oB 	c #395F28",
"pB 	c #4A793B",
"qB 	c #405C31",
"rB 	c #4F7A39",
"sB 	c #6CA050",
"tB 	c #294B19",
"uB 	c #4A7E37",
"vB 	c #699A56",
"wB 	c #22371C",
"xB 	c #08050A",
"yB 	c #0C1C06",
"zB 	c #4D7939",
"AB 	c #61A047",
"BB 	c #67B04A",
"CB 	c #71AE5C",
"DB 	c #3B632B",
"EB 	c #4D6E37",
"FB 	c #649745",
"GB 	c #2C501B",
"HB 	c #6FB04D",
"IB 	c #3D6E26",
"JB 	c #72DC42",
"KB 	c #519E33",
"LB 	c #69C93B",
"MB 	c #5EB92C",
"NB 	c #20440B",
"OB 	c #56863D",
"PB 	c #4A8237",
"QB 	c #578943",
"RB 	c #4C733A",
"SB 	c #0F210A",
"TB 	c #6DBF4B",
"UB 	c #6BC142",
"VB 	c #31631B",
"WB 	c #07020A",
"XB 	c #090112",
"YB 	c #0A1706",
"ZB 	c #437630",
"`B 	c #5F9D4F",
" C 	c #63A248",
".C 	c #5B9749",
"+C 	c #5F9B4C",
"@C 	c #4D8139",
"#C 	c #2D5721",
"$C 	c #42672F",
"%C 	c #6EA154",
"&C 	c #304820",
"*C 	c #395A2F",
"=C 	c #4A7B3E",
"-C 	c #69A951",
";C 	c #619450",
">C 	c #4C8244",
",C 	c #50A635",
"'C 	c #65D232",
")C 	c #377423",
"!C 	c #234C18",
"~C 	c #5FAE4B",
"{C 	c #214119",
"]C 	c #59A448",
"^C 	c #3D7229",
"/C 	c #375925",
"(C 	c #48853C",
"_C 	c #64AC48",
":C 	c #54953B",
"<C 	c #509D3A",
"[C 	c #65B04F",
"}C 	c #4C8339",
"|C 	c #528A3D",
"1C 	c #62A64C",
"2C 	c #5F914B",
"3C 	c #305826",
"4C 	c #5CA43D",
"5C 	c #66B149",
"6C 	c #4A7C39",
"7C 	c #040E02",
"8C 	c #6B9C58",
"9C 	c #03010A",
"0C 	c #122A0B",
"aC 	c #5B8D42",
"bC 	c #41642E",
"cC 	c #518147",
"dC 	c #335429",
"eC 	c #081102",
"fC 	c #040B04",
"gC 	c #07030E",
"hC 	c #0E0008",
"iC 	c #02070B",
"jC 	c #0A0903",
"kC 	c #000A08",
"lC 	c #406431",
"mC 	c #588149",
"nC 	c #2E5224",
"oC 	c #6CA254",
"pC 	c #213B16",
"qC 	c #06000C",
"rC 	c #0B0110",
"sC 	c #0D200A",
"tC 	c #69A252",
"uC 	c #2F5920",
"vC 	c #23371C",
"wC 	c #6F9359",
"xC 	c #658854",
"yC 	c #426A3C",
"zC 	c #639F43",
"AC 	c #609E44",
"BC 	c #426D38",
"CC 	c #5C844B",
"DC 	c #6EA953",
"EC 	c #528C39",
"FC 	c #4C813C",
"GC 	c #599F3F",
"HC 	c #69BC3E",
"IC 	c #66C340",
"JC 	c #58B439",
"KC 	c #47812E",
"LC 	c #66A653",
"MC 	c #437432",
"NC 	c #010701",
"OC 	c #080304",
"PC 	c #04040B",
"QC 	c #040815",
"RC 	c #040408",
"SC 	c #203217",
"TC 	c #74A852",
"UC 	c #31511E",
"VC 	c #386623",
"WC 	c #69C23F",
"XC 	c #5EA639",
"YC 	c #52853F",
"ZC 	c #638C45",
"`C 	c #72A957",
" D 	c #538F3F",
".D 	c #69A456",
"+D 	c #4B7A39",
"@D 	c #1A2E0D",
"#D 	c #3A5D31",
"$D 	c #52823C",
"%D 	c #648E59",
"&D 	c #6D9E57",
"*D 	c #5A953B",
"=D 	c #5F9C3D",
"-D 	c #152D0D",
";D 	c #2C521B",
">D 	c #72BA4D",
",D 	c #6EC049",
"'D 	c #34641E",
")D 	c #0B1704",
"!D 	c #476931",
"~D 	c #4C7A3D",
"{D 	c #62984C",
"]D 	c #223C19",
"^D 	c #1B3515",
"/D 	c #59A63B",
"(D 	c #66C631",
"_D 	c #50AB2E",
":D 	c #6FC746",
"<D 	c #3B6327",
"[D 	c #508D33",
"}D 	c #6E9C53",
"|D 	c #497433",
"1D 	c #406530",
"2D 	c #629842",
"3D 	c #71B749",
"4D 	c #578E46",
"5D 	c #558049",
"6D 	c #172811",
"7D 	c #04070D",
"8D 	c #070807",
"9D 	c #031007",
"0D 	c #416B2A",
"aD 	c #6EAC4E",
"bD 	c #528741",
"cD 	c #457736",
"dD 	c #315B24",
"eD 	c #72B058",
"fD 	c #496D37",
"gD 	c #62944A",
"hD 	c #3A522D",
"iD 	c #508240",
"jD 	c #4D7E36",
"kD 	c #59A43B",
"lD 	c #61A944",
"mD 	c #438028",
"nD 	c #75D13F",
"oD 	c #68B83F",
"pD 	c #1C3B0F",
"qD 	c #1E3413",
"rD 	c #4B7A3C",
"sD 	c #5D8F48",
"tD 	c #467136",
"uD 	c #0C200A",
"vD 	c #336020",
"wD 	c #65C13D",
"xD 	c #63BC4B",
"yD 	c #2D5422",
"zD 	c #183113",
"AD 	c #66A550",
"BD 	c #4C7D35",
"CD 	c #6CA04D",
"DD 	c #5A9843",
"ED 	c #69BF48",
"FD 	c #3B702B",
"GD 	c #629650",
"HD 	c #365926",
"ID 	c #416A2D",
"JD 	c #77B953",
"KD 	c #4C783F",
"LD 	c #467D36",
"MD 	c #54A935",
"ND 	c #6DBB49",
"OD 	c #4F9834",
"PD 	c #64CB32",
"QD 	c #5FB34E",
"RD 	c #63A249",
"SD 	c #47863C",
"TD 	c #121F06",
"UD 	c #406634",
"VD 	c #6FA558",
"WD 	c #508D3A",
"XD 	c #4C833C",
"YD 	c #67A053",
"ZD 	c #549646",
"`D 	c #66AD43",
" E 	c #52953D",
".E 	c #518D43",
"+E 	c #5DA94B",
"@E 	c #619749",
"#E 	c #27491A",
"$E 	c #14240C",
"%E 	c #42742F",
"&E 	c #55883E",
"*E 	c #274C18",
"=E 	c #4B7B3F",
"-E 	c #6CA65B",
";E 	c #3F672F",
">E 	c #2B4C1E",
",E 	c #729F55",
"'E 	c #111C10",
")E 	c #376029",
"!E 	c #5BA240",
"~E 	c #65A149",
"{E 	c #1E3913",
"]E 	c #020908",
"^E 	c #04070E",
"/E 	c #060502",
"(E 	c #0E0204",
"_E 	c #0C0109",
":E 	c #0B0505",
"<E 	c #0B0404",
"[E 	c #0C0508",
"}E 	c #0C050D",
"|E 	c #050309",
"1E 	c #04050B",
"2E 	c #21351A",
"3E 	c #70A85F",
"4E 	c #4D8D3C",
"5E 	c #070907",
"6E 	c #0B1108",
"7E 	c #5A8E40",
"8E 	c #2E5F1A",
"9E 	c #5A8843",
"0E 	c #5E8A46",
"aE 	c #406A27",
"bE 	c #0D1D09",
"cE 	c #446731",
"dE 	c #5E8651",
"eE 	c #62A851",
"fE 	c #498537",
"gE 	c #498C31",
"hE 	c #64C048",
"iE 	c #68CD45",
"jE 	c #65BF40",
"kE 	c #426C21",
"lE 	c #2E531F",
"mE 	c #598C4A",
"nE 	c #5F964F",
"oE 	c #304C24",
"pE 	c #030700",
"qE 	c #0F0102",
"rE 	c #0B0C02",
"sE 	c #497333",
"tE 	c #66A448",
"uE 	c #61AB48",
"vE 	c #64CD3A",
"wE 	c #5A9E36",
"xE 	c #75C643",
"yE 	c #62B234",
"zE 	c #457F2D",
"AE 	c #447632",
"BE 	c #67A74D",
"CE 	c #2C4B20",
"DE 	c #3D6A27",
"EE 	c #74AC43",
"FE 	c #50732C",
"GE 	c #314E20",
"HE 	c #639547",
"IE 	c #4B7531",
"JE 	c #396723",
"KE 	c #6CAA4A",
"LE 	c #294719",
"ME 	c #244616",
"NE 	c #68B546",
"OE 	c #67C346",
"PE 	c #40732B",
"QE 	c #0A1108",
"RE 	c #0B130A",
"SE 	c #476A37",
"TE 	c #6CA445",
"UE 	c #4D773A",
"VE 	c #6AA058",
"WE 	c #162E0D",
"XE 	c #54993B",
"YE 	c #65BE3A",
"ZE 	c #4E952C",
"`E 	c #519A3A",
" F 	c #5D9A47",
".F 	c #6EA156",
"+F 	c #60924D",
"@F 	c #335126",
"#F 	c #6FB254",
"$F 	c #457132",
"%F 	c #396126",
"&F 	c #5F9C43",
"*F 	c #64A14A",
"=F 	c #4E773A",
"-F 	c #0C0410",
";F 	c #020A0A",
">F 	c #02070D",
",F 	c #060508",
"'F 	c #05050B",
")F 	c #2E5621",
"!F 	c #6DB650",
"~F 	c #44802E",
"{F 	c #73A65F",
"]F 	c #1F3618",
"^F 	c #335325",
"/F 	c #6EA850",
"(F 	c #335723",
"_F 	c #6AA84F",
":F 	c #243C19",
"<F 	c #375D2D",
"[F 	c #5EA24A",
"}F 	c #4E8E35",
"|F 	c #3C692C",
"1F 	c #5D9249",
"2F 	c #42752A",
"3F 	c #75CB47",
"4F 	c #3C682A",
"5F 	c #233A1B",
"6F 	c #60954C",
"7F 	c #5E9948",
"8F 	c #47703A",
"9F 	c #0F1C0B",
"0F 	c #07100A",
"aF 	c #3A7126",
"bF 	c #67C141",
"cF 	c #6AB84A",
"dF 	c #254918",
"eF 	c #041007",
"fF 	c #437228",
"gF 	c #629C42",
"hF 	c #3E6731",
"iF 	c #749F5E",
"jF 	c #456332",
"kF 	c #2A471B",
"lF 	c #689B49",
"mF 	c #3B7027",
"nF 	c #6EBF4E",
"oF 	c #68AB4A",
"pF 	c #213E10",
"qF 	c #6EA34A",
"rF 	c #78A95B",
"sF 	c #507A3A",
"tF 	c #356923",
"uF 	c #57A633",
"vF 	c #5BC23B",
"wF 	c #69CF3F",
"xF 	c #3C7628",
"yF 	c #2A4F1B",
"zF 	c #102A0D",
"AF 	c #0C0002",
"BF 	c #355227",
"CF 	c #518640",
"DF 	c #4B8930",
"EF 	c #559B3F",
"FF 	c #65BC47",
"GF 	c #4D913C",
"HF 	c #549640",
"IF 	c #64A448",
"JF 	c #548745",
"KF 	c #579B42",
"LF 	c #69AC51",
"MF 	c #639D50",
"NF 	c #345729",
"OF 	c #060900",
"PF 	c #1F2B19",
"QF 	c #669A55",
"RF 	c #325226",
"SF 	c #659451",
"TF 	c #426F32",
"UF 	c #6E9B55",
"VF 	c #121B13",
"WF 	c #040907",
"XF 	c #60A144",
"YF 	c #7DC547",
"ZF 	c #19310A",
"`F 	c #162411",
" G 	c #172711",
".G 	c #0E1B05",
"+G 	c #599D3A",
"@G 	c #78C256",
"#G 	c #26461A",
"$G 	c #02000C",
"%G 	c #020B0B",
"&G 	c #5F8F46",
"*G 	c #437A2C",
"=G 	c #679A4A",
"-G 	c #203A12",
";G 	c #37621D",
">G 	c #619A3F",
",G 	c #070400",
"'G 	c #28401C",
")G 	c #427232",
"!G 	c #4F983E",
"~G 	c #528D43",
"{G 	c #6CA750",
"]G 	c #599C3D",
"^G 	c #4C9037",
"/G 	c #6BB93E",
"(G 	c #77CF3D",
"_G 	c #67BF30",
":G 	c #3A6C25",
"<G 	c #497339",
"[G 	c #78AA57",
"}G 	c #466730",
"|G 	c #17280E",
"1G 	c #060004",
"2G 	c #07030B",
"3G 	c #0C0308",
"4G 	c #345A22",
"5G 	c #316021",
"6G 	c #6CC344",
"7G 	c #70B839",
"8G 	c #71BA43",
"9G 	c #3E7B27",
"0G 	c #65AF44",
"aG 	c #72B851",
"bG 	c #71BB4A",
"cG 	c #2E541B",
"dG 	c #5BA042",
"eG 	c #69B846",
"fG 	c #4C732C",
"gG 	c #759F55",
"hG 	c #263F15",
"iG 	c #59983C",
"jG 	c #62A13C",
"kG 	c #426927",
"lG 	c #08140A",
"mG 	c #14300A",
"nG 	c #55A038",
"oG 	c #69C547",
"pG 	c #4B8535",
"qG 	c #0F200D",
"rG 	c #0D130A",
"sG 	c #446E3D",
"tG 	c #6EAD59",
"uG 	c #4A7738",
"vG 	c #6FAE5C",
"wG 	c #345428",
"xG 	c #050D05",
"yG 	c #4F7938",
"zG 	c #65BA3C",
"AG 	c #5FA53E",
"BG 	c #426931",
"CG 	c #659E4F",
"DG 	c #598B43",
"EG 	c #568542",
"FG 	c #598045",
"GG 	c #22371B",
"HG 	c #6DA65D",
"IG 	c #2F5424",
"JG 	c #6CB454",
"KG 	c #345B26",
"LG 	c #081C03",
"MG 	c #539A33",
"NG 	c #4B8E33",
"OG 	c #71B756",
"PG 	c #09000D",
"QG 	c #0E040A",
"RG 	c #040307",
"SG 	c #193315",
"TG 	c #5EA14C",
"UG 	c #63B849",
"VG 	c #4DA631",
"WG 	c #73C750",
"XG 	c #437B2D",
"YG 	c #6AA458",
"ZG 	c #3D5E2D",
"`G 	c #15390D",
" H 	c #65A94F",
".H 	c #1E3616",
"+H 	c #25421B",
"@H 	c #70BF55",
"#H 	c #599642",
"$H 	c #578F4A",
"%H 	c #4C7E3D",
"&H 	c #234A0F",
"*H 	c #11240D",
"=H 	c #020111",
"-H 	c #2A481F",
";H 	c #6DA552",
">H 	c #4D783C",
",H 	c #446C30",
"'H 	c #041205",
")H 	c #447B2A",
"!H 	c #5EB640",
"~H 	c #579F3D",
"{H 	c #3F7130",
"]H 	c #76C552",
"^H 	c #458D26",
"/H 	c #649C49",
"(H 	c #476439",
"_H 	c #091208",
":H 	c #4C7C3E",
"<H 	c #4D803B",
"[H 	c #030B04",
"}H 	c #2E521C",
"|H 	c #2F541A",
"1H 	c #29421B",
"2H 	c #2F5421",
"3H 	c #63AD4B",
"4H 	c #56B03D",
"5H 	c #4B8235",
"6H 	c #051006",
"7H 	c #203618",
"8H 	c #52793F",
"9H 	c #639B4D",
"0H 	c #508A3B",
"aH 	c #62AC42",
"bH 	c #53A034",
"cH 	c #62AE46",
"dH 	c #66A13D",
"eH 	c #599747",
"fH 	c #3E6B36",
"gH 	c #72A259",
"hH 	c #234518",
"iH 	c #3A5C2D",
"jH 	c #7AA35D",
"kH 	c #3D5B2A",
"lH 	c #36552D",
"mH 	c #638A58",
"nH 	c #0E1E0B",
"oH 	c #08060A",
"pH 	c #3D632B",
"qH 	c #69B648",
"rH 	c #609B48",
"sH 	c #0B0609",
"tH 	c #0C0005",
"uH 	c #345B1E",
"vH 	c #64AC3E",
"wH 	c #3F6C2E",
"xH 	c #3A612F",
"yH 	c #183014",
"zH 	c #487535",
"AH 	c #6DA352",
"BH 	c #70AA5A",
"CH 	c #4B813B",
"DH 	c #1F3418",
"EH 	c #090608",
"FH 	c #091305",
"GH 	c #334C27",
"HH 	c #3A5F2F",
"IH 	c #3F6836",
"JH 	c #325828",
"KH 	c #457038",
"LH 	c #4F7941",
"MH 	c #030C04",
"NH 	c #071005",
"OH 	c #589343",
"PH 	c #6DBC4F",
"QH 	c #3D672C",
"RH 	c #0C0301",
"SH 	c #2F5C1B",
"TH 	c #568E39",
"UH 	c #15280D",
"VH 	c #486B33",
"WH 	c #70A051",
"XH 	c #4E793A",
"YH 	c #4A763B",
"ZH 	c #6A9D56",
"`H 	c #436D33",
" I 	c #456C34",
".I 	c #69934D",
"+I 	c #609E3F",
"@I 	c #4C8B30",
"#I 	c #5CAE3B",
"$I 	c #76C94A",
"%I 	c #63A133",
"&I 	c #45692C",
"*I 	c #628E49",
"=I 	c #609A44",
"-I 	c #28471B",
";I 	c #010207",
">I 	c #040411",
",I 	c #49802A",
"'I 	c #63B13B",
")I 	c #6FBB3F",
"!I 	c #284D19",
"~I 	c #33571C",
"{I 	c #081902",
"]I 	c #204C11",
"^I 	c #295118",
"/I 	c #0F100C",
"(I 	c #497432",
"_I 	c #5F8D42",
":I 	c #1D3713",
"<I 	c #538645",
"[I 	c #599C44",
"}I 	c #406D27",
"|I 	c #4D8332",
"1I 	c #67C243",
"2I 	c #488F30",
"3I 	c #15260F",
"4I 	c #426532",
"5I 	c #6AAC58",
"6I 	c #447534",
"7I 	c #6BA54E",
"8I 	c #355A2B",
"9I 	c #010D02",
"0I 	c #0C010A",
"aI 	c #4B7037",
"bI 	c #78B24E",
"cI 	c #44752E",
"dI 	c #73AB54",
"eI 	c #3A582A",
"fI 	c #598940",
"gI 	c #6EB450",
"hI 	c #3C612B",
"iI 	c #0F240B",
"jI 	c #254D15",
"kI 	c #3D612D",
"lI 	c #72AC57",
"mI 	c #41782E",
"nI 	c #60BB35",
"oI 	c #62B13C",
"pI 	c #68AF43",
"qI 	c #6CA74B",
"rI 	c #060905",
"sI 	c #061703",
"tI 	c #4F7841",
"uI 	c #4F873F",
"vI 	c #376B2A",
"wI 	c #649F4D",
"xI 	c #509030",
"yI 	c #75C052",
"zI 	c #498232",
"AI 	c #061A04",
"BI 	c #17340F",
"CI 	c #73A758",
"DI 	c #24361A",
"EI 	c #040C04",
"FI 	c #476E3A",
"GI 	c #4E6F44",
"HI 	c #182812",
"II 	c #3E6B2A",
"JI 	c #72BE45",
"KI 	c #2A4917",
"LI 	c #080006",
"MI 	c #416D30",
"NI 	c #72A25C",
"OI 	c #395E26",
"PI 	c #7BBA58",
"QI 	c #030105",
"RI 	c #102709",
"SI 	c #4D9137",
"TI 	c #64B04E",
"UI 	c #65A056",
"VI 	c #47852F",
"WI 	c #69D139",
"XI 	c #4F9931",
"YI 	c #1C3416",
"ZI 	c #0B0A05",
"`I 	c #578F4B",
" J 	c #3F7635",
".J 	c #071208",
"+J 	c #101E0B",
"@J 	c #283F1D",
"#J 	c #183310",
"$J 	c #13220F",
"%J 	c #2B461F",
"&J 	c #70AB59",
"*J 	c #3F7331",
"=J 	c #3F7432",
"-J 	c #5E924D",
";J 	c #192914",
">J 	c #14270C",
",J 	c #020A07",
"'J 	c #345A27",
")J 	c #568840",
"!J 	c #56A336",
"~J 	c #5BBB36",
"{J 	c #5FAD43",
"]J 	c #50923B",
"^J 	c #64A745",
"/J 	c #548341",
"(J 	c #3F5B29",
"_J 	c #162A0B",
":J 	c #4A7B36",
"<J 	c #4E783C",
"[J 	c #415B2D",
"}J 	c #649750",
"|J 	c #3F772B",
"1J 	c #557E3D",
"2J 	c #05060F",
"3J 	c #649E48",
"4J 	c #386225",
"5J 	c #15270E",
"6J 	c #14270A",
"7J 	c #0D2509",
"8J 	c #5D9C48",
"9J 	c #548940",
"0J 	c #507A40",
"aJ 	c #74AE65",
"bJ 	c #304F2A",
"cJ 	c #091706",
"dJ 	c #598043",
"eJ 	c #315721",
"fJ 	c #294E1E",
"gJ 	c #598B4C",
"hJ 	c #5C8F52",
"iJ 	c #0C210A",
"jJ 	c #07010F",
"kJ 	c #0D1A0A",
"lJ 	c #5D8745",
"mJ 	c #669950",
"nJ 	c #4D7444",
"oJ 	c #5D8E48",
"pJ 	c #4A713A",
"qJ 	c #0F1607",
"rJ 	c #12230B",
"sJ 	c #43702D",
"tJ 	c #3C7624",
"uJ 	c #507E3E",
"vJ 	c #669D51",
"wJ 	c #355423",
"xJ 	c #030F03",
"yJ 	c #426535",
"zJ 	c #508540",
"AJ 	c #021601",
"BJ 	c #18290D",
"CJ 	c #3C602A",
"DJ 	c #5B8647",
"EJ 	c #609D4B",
"FJ 	c #4A822E",
"GJ 	c #649E37",
"HJ 	c #7ABD4F",
"IJ 	c #4D8A32",
"JJ 	c #4B7D34",
"KJ 	c #71AB55",
"LJ 	c #416834",
"MJ 	c #162810",
"NJ 	c #030507",
"OJ 	c #03050A",
"PJ 	c #060E07",
"QJ 	c #547C41",
"RJ 	c #588C42",
"SJ 	c #579D36",
"TJ 	c #44742A",
"UJ 	c #173110",
"VJ 	c #29451F",
"WJ 	c #35582B",
"XJ 	c #45762F",
"YJ 	c #294B18",
"ZJ 	c #3E6429",
"`J 	c #6B9B49",
" K 	c #325B1D",
".K 	c #61B739",
"+K 	c #5EAA3B",
"@K 	c #5E9943",
"#K 	c #70BB48",
"$K 	c #56A330",
"%K 	c #143706",
"&K 	c #203816",
"*K 	c #7EB461",
"=K 	c #40652F",
"-K 	c #649351",
";K 	c #4E7F39",
">K 	c #000D04",
",K 	c #0A1A05",
"'K 	c #365A20",
")K 	c #77C053",
"!K 	c #518435",
"~K 	c #1A340F",
"{K 	c #406432",
"]K 	c #63974E",
"^K 	c #091B11",
"/K 	c #508E33",
"(K 	c #3A5F26",
"_K 	c #061002",
":K 	c #4B7D39",
"<K 	c #71C259",
"[K 	c #549338",
"}K 	c #69A24D",
"|K 	c #48772F",
"1K 	c #598447",
"2K 	c #0A2108",
"3K 	c #050901",
"4K 	c #050904",
"5K 	c #040A05",
"6K 	c #325722",
"7K 	c #6BA552",
"8K 	c #446E36",
"9K 	c #467C34",
"0K 	c #447431",
"aK 	c #609C44",
"bK 	c #528636",
"cK 	c #395B27",
"dK 	c #19300E",
"eK 	c #78A259",
"fK 	c #2B411D",
"gK 	c #122B0C",
"hK 	c #70A55F",
"iK 	c #5B8944",
"jK 	c #4D7C2E",
"kK 	c #1C300D",
"lK 	c #203A17",
"mK 	c #69A84F",
"nK 	c #507E37",
"oK 	c #547F3D",
"pK 	c #0F2507",
"qK 	c #253C1E",
"rK 	c #679B50",
"sK 	c #376227",
"tK 	c #6DA14F",
"uK 	c #52A331",
"vK 	c #5DA946",
"wK 	c #6EA75C",
"xK 	c #3B662E",
"yK 	c #345A2A",
"zK 	c #609F51",
"AK 	c #43892C",
"BK 	c #619F45",
"CK 	c #5B9047",
"DK 	c #609E4C",
"EK 	c #74A85D",
"FK 	c #77A661",
"GK 	c #4E793D",
"HK 	c #0F1D0A",
"IK 	c #101F0D",
"JK 	c #1D3413",
"KK 	c #4E7F3B",
"LK 	c #4D7E37",
"MK 	c #64BC31",
"NK 	c #70CC43",
"OK 	c #519633",
"PK 	c #559E3C",
"QK 	c #508C41",
"RK 	c #4C8135",
"SK 	c #529443",
"TK 	c #458A33",
"UK 	c #28481B",
"VK 	c #498035",
"WK 	c #487138",
"XK 	c #060809",
"YK 	c #0B130C",
"ZK 	c #49793A",
"`K 	c #5FAD3B",
" L 	c #588C39",
".L 	c #08160D",
"+L 	c #1A2B13",
"@L 	c #344F29",
"#L 	c #559239",
"$L 	c #6FB04F",
"%L 	c #639D46",
"&L 	c #0F1C0D",
"*L 	c #02080E",
"=L 	c #020D02",
"-L 	c #487336",
";L 	c #406833",
">L 	c #1F3E11",
",L 	c #70AA53",
"'L 	c #233918",
")L 	c #324920",
"!L 	c #73A04E",
"~L 	c #263C19",
"{L 	c #1D3619",
"]L 	c #61A051",
"^L 	c #325326",
"/L 	c #2B461E",
"(L 	c #6EAA56",
"_L 	c #365B29",
":L 	c #2F4C22",
"<L 	c #6C975C",
"[L 	c #182813",
"}L 	c #020509",
"|L 	c #0D1506",
"1L 	c #5A913C",
"2L 	c #6AAF4E",
"3L 	c #61A24E",
"4L 	c #468B2E",
"5L 	c #407B27",
"6L 	c #446A34",
"7L 	c #314B27",
"8L 	c #1B2D14",
"9L 	c #0A170C",
"0L 	c #508133",
"aL 	c #579F39",
"bL 	c #5A9543",
"cL 	c #1F3A17",
"dL 	c #3A5D2B",
"eL 	c #508837",
"fL 	c #031900",
"gL 	c #243816",
"hL 	c #45782D",
"iL 	c #519439",
"jL 	c #4D8439",
"kL 	c #568C3E",
"lL 	c #497D31",
"mL 	c #65A343",
"nL 	c #6DAA46",
"oL 	c #477736",
"pL 	c #649655",
"qL 	c #649851",
"rL 	c #29471F",
"sL 	c #02010A",
"tL 	c #16250F",
"uL 	c #6FB05C",
"vL 	c #61904C",
"wL 	c #527742",
"xL 	c #5C8E42",
"yL 	c #679E46",
"zL 	c #467833",
"AL 	c #73A85C",
"BL 	c #44642F",
"CL 	c #2F4B27",
"DL 	c #69B047",
"EL 	c #6FBA41",
"FL 	c #538E43",
"GL 	c #62A059",
"HL 	c #3F6F2A",
"IL 	c #28451C",
"JL 	c #081909",
"KL 	c #51773C",
"LL 	c #61923E",
"ML 	c #375C28",
"NL 	c #6DA455",
"OL 	c #2F4721",
"PL 	c #0E2504",
"QL 	c #436D2A",
"RL 	c #55853B",
"SL 	c #6FAF51",
"TL 	c #558538",
"UL 	c #26391B",
"VL 	c #0B1F0C",
"WL 	c #518F3A",
"XL 	c #325821",
"YL 	c #2E4726",
"ZL 	c #679C58",
"`L 	c #538B40",
" M 	c #6A9957",
".M 	c #4B8631",
"+M 	c #478233",
"@M 	c #63A642",
"#M 	c #080908",
"$M 	c #040904",
"%M 	c #5E9545",
"&M 	c #559940",
"*M 	c #578C44",
"=M 	c #4E7C3E",
"-M 	c #3A5C2A",
";M 	c #558F41",
">M 	c #659E49",
",M 	c #43662E",
"'M 	c #4D7A3D",
")M 	c #406434",
"!M 	c #173810",
"~M 	c #61B24B",
"{M 	c #49982F",
"]M 	c #397C21",
"^M 	c #3E6B2C",
"/M 	c #35592C",
"(M 	c #00000E",
"_M 	c #122311",
":M 	c #538541",
"<M 	c #507D3C",
"[M 	c #4D7B40",
"}M 	c #5E9648",
"|M 	c #203713",
"1M 	c #192C10",
"2M 	c #629C54",
"3M 	c #4A763D",
"4M 	c #386029",
"5M 	c #7BAE64",
"6M 	c #466337",
"7M 	c #23471C",
"8M 	c #649951",
"9M 	c #406C32",
"0M 	c #5E8D4E",
"aM 	c #62964B",
"bM 	c #3E702E",
"cM 	c #3B7428",
"dM 	c #2C5A1A",
"eM 	c #1F3A16",
"fM 	c #152F0E",
"gM 	c #1D3C15",
"hM 	c #294B1D",
"iM 	c #27421C",
"jM 	c #345527",
"kM 	c #669D4A",
"lM 	c #5C8844",
"mM 	c #6DAE4D",
"nM 	c #5CA735",
"oM 	c #518D37",
"pM 	c #609450",
"qM 	c #457035",
"rM 	c #53893E",
"sM 	c #5A8A46",
"tM 	c #386429",
"uM 	c #447930",
"vM 	c #71A44F",
"wM 	c #345624",
"xM 	c #446A35",
"yM 	c #4E7641",
"zM 	c #020505",
"AM 	c #122E06",
"BM 	c #569238",
"CM 	c #5E8B4A",
"DM 	c #273D1E",
"EM 	c #3D622C",
"FM 	c #5B9145",
"GM 	c #71A05B",
"HM 	c #648B4E",
"IM 	c #517B40",
"JM 	c #356122",
"KM 	c #366E23",
"LM 	c #101F13",
"MM 	c #020311",
"NM 	c #406730",
"OM 	c #4B8437",
"PM 	c #3E6534",
"QM 	c #50873F",
"RM 	c #5A833E",
"SM 	c #4B7133",
"TM 	c #010700",
"UM 	c #010109",
"VM 	c #649050",
"WM 	c #10220A",
"XM 	c #000902",
"YM 	c #355C27",
"ZM 	c #67A150",
"`M 	c #467A31",
" N 	c #081306",
".N 	c #0B1205",
"+N 	c #4A8F2E",
"@N 	c #3E8326",
"#N 	c #224D17",
"$N 	c #497632",
"%N 	c #5D824B",
"&N 	c #6E9D54",
"*N 	c #619847",
"=N 	c #62A637",
"-N 	c #79C848",
";N 	c #2E551E",
">N 	c #4A6338",
",N 	c #51753C",
"'N 	c #244214",
")N 	c #699A46",
"!N 	c #56813C",
"~N 	c #356425",
"{N 	c #517E41",
"]N 	c #669B50",
"^N 	c #729F58",
"/N 	c #4D803A",
"(N 	c #457431",
"_N 	c #5E8F54",
":N 	c #2C4826",
"<N 	c #4A753B",
"[N 	c #3E6530",
"}N 	c #0F2408",
"|N 	c #021301",
"1N 	c #214217",
"2N 	c #254619",
"3N 	c #1F3816",
"4N 	c #293C19",
"5N 	c #72954E",
"6N 	c #56843D",
"7N 	c #528238",
"8N 	c #75AA5F",
"9N 	c #47763D",
"0N 	c #548741",
"aN 	c #477633",
"bN 	c #183015",
"cN 	c #5A8B47",
"dN 	c #689F49",
"eN 	c #497532",
"fN 	c #6C9C4A",
"gN 	c #243516",
"hN 	c #172C0E",
"iN 	c #588938",
"jN 	c #476E33",
"kN 	c #649844",
"lN 	c #0C1404",
"mN 	c #27351F",
"nN 	c #3A5A30",
"oN 	c #4B9333",
"pN 	c #6BBB49",
"qN 	c #649447",
"rN 	c #2B3920",
"sN 	c #223917",
"tN 	c #3C6A29",
"uN 	c #6F9D5A",
"vN 	c #568C43",
"wN 	c #639D4A",
"xN 	c #426634",
"yN 	c #729A5C",
"zN 	c #507B38",
"AN 	c #4C7C3D",
"BN 	c #65BA49",
"CN 	c #66B236",
"DN 	c #203B0E",
"EN 	c #0E0607",
"FN 	c #0F0708",
"GN 	c #030B0A",
"HN 	c #0D0907",
"IN 	c #071104",
"JN 	c #4F7A3A",
"KN 	c #568F3F",
"LN 	c #4E913F",
"MN 	c #28511B",
"NN 	c #517C41",
"ON 	c #3A602E",
"PN 	c #1D3919",
"QN 	c #548A43",
"RN 	c #5FA346",
"SN 	c #639D48",
"TN 	c #4E863F",
"UN 	c #5FA948",
"VN 	c #314F28",
"WN 	c #32651E",
"XN 	c #3B6B28",
"YN 	c #507540",
"ZN 	c #5E904C",
"`N 	c #609A49",
" O 	c #294620",
".O 	c #4C7038",
"+O 	c #679E54",
"@O 	c #3C6830",
"#O 	c #70A95A",
"$O 	c #2F5026",
"%O 	c #071804",
"&O 	c #4A7636",
"*O 	c #427231",
"=O 	c #72B054",
"-O 	c #406331",
";O 	c #041204",
">O 	c #0C190B",
",O 	c #4D7C3B",
"'O 	c #142810",
")O 	c #426B32",
"!O 	c #62964D",
"~O 	c #5C8B46",
"{O 	c #2F4823",
"]O 	c #081407",
"^O 	c #020109",
"/O 	c #4D793B",
"(O 	c #6DA254",
"_O 	c #426A2F",
":O 	c #13210E",
"<O 	c #3B4A2F",
"[O 	c #426C32",
"}O 	c #528C45",
"|O 	c #5F9050",
"1O 	c #294420",
"2O 	c #38562E",
"3O 	c #62934D",
"4O 	c #090C04",
"5O 	c #3D622A",
"6O 	c #6AA056",
"7O 	c #3B5C2D",
"8O 	c #5F9555",
"9O 	c #142C13",
"0O 	c #061004",
"aO 	c #24351B",
"bO 	c #406330",
"cO 	c #689C54",
"dO 	c #689958",
"eO 	c #598746",
"fO 	c #3E682D",
"gO 	c #27431D",
"hO 	c #255118",
"iO 	c #619A4B",
"jO 	c #0F1D0C",
"kO 	c #2C501D",
"lO 	c #6DAF4E",
"mO 	c #719C62",
"nO 	c #31512E",
"oO 	c #2E461E",
"pO 	c #6C9F43",
"qO 	c #223A15",
"rO 	c #1C3316",
"sO 	c #62A354",
"tO 	c #305329",
"uO 	c #0C1407",
"vO 	c #43762D",
"wO 	c #73BC51",
"xO 	c #375B25",
"yO 	c #040006",
"zO 	c #0B0215",
"AO 	c #0F030B",
"BO 	c #080801",
"CO 	c #417B2D",
"DO 	c #3B6D2C",
"EO 	c #11200D",
"FO 	c #25401A",
"GO 	c #3B6726",
"HO 	c #609C39",
"IO 	c #75B546",
"JO 	c #6C9F4F",
"KO 	c #1E3117",
"LO 	c #4B7839",
"MO 	c #6A9A4B",
"NO 	c #48702D",
"OO 	c #0E1A04",
"PO 	c #0F230B",
"QO 	c #538143",
"RO 	c #5F9552",
"SO 	c #5E8B47",
"TO 	c #0B0E08",
"UO 	c #5F9549",
"VO 	c #639643",
"WO 	c #274016",
"XO 	c #070108",
"YO 	c #050A02",
"ZO 	c #29411B",
"`O 	c #52763D",
" P 	c #709D58",
".P 	c #4F7D34",
"+P 	c #29451C",
"@P 	c #263F1E",
"#P 	c #729F63",
"$P 	c #2D4224",
"%P 	c #1D3214",
"&P 	c #619F4B",
"*P 	c #5D8A42",
"=P 	c #0E2508",
"-P 	c #63A146",
";P 	c #467432",
">P 	c #54873D",
",P 	c #51813D",
"'P 	c #0B1C07",
")P 	c #122F0C",
"!P 	c #4F8E3D",
"~P 	c #6F975B",
"{P 	c #5D834C",
"]P 	c #417530",
"^P 	c #1E4710",
"/P 	c #071205",
"(P 	c #213415",
"_P 	c #4F8232",
":P 	c #579C39",
"<P 	c #569A38",
"[P 	c #57903C",
"}P 	c #254518",
"|P 	c #476932",
"1P 	c #648B4B",
"2P 	c #091803",
"3P 	c #488B31",
"4P 	c #79D24B",
"5P 	c #598C3D",
"6P 	c #0E1C09",
"7P 	c #0E0709",
"8P 	c #05050F",
"9P 	c #090B06",
"0P 	c #68A64B",
"aP 	c #4A7D33",
"bP 	c #4F8E3B",
"cP 	c #3A702B",
"dP 	c #4E7D3C",
"eP 	c #3B6C2F",
"fP 	c #020011",
"gP 	c #528540",
"hP 	c #6AA44A",
"iP 	c #589C3C",
"jP 	c #4E912F",
"kP 	c #638B57",
"lP 	c #679C44",
"mP 	c #589D48",
"nP 	c #37722B",
"oP 	c #477838",
"pP 	c #649E49",
"qP 	c #36592A",
"rP 	c #77A85F",
"sP 	c #456633",
"tP 	c #69A055",
"uP 	c #335828",
"vP 	c #030801",
"wP 	c #386430",
"xP 	c #5C994C",
"yP 	c #4B7537",
"zP 	c #6FAA55",
"AP 	c #3E652D",
"BP 	c #2D501E",
"CP 	c #69984B",
"DP 	c #1F3512",
"EP 	c #497136",
"FP 	c #6B9D55",
"GP 	c #263F18",
"HP 	c #2D4E25",
"IP 	c #619E54",
"JP 	c #5B8B4B",
"KP 	c #030A0E",
"LP 	c #0E1308",
"MP 	c #577845",
"NP 	c #5D9450",
"OP 	c #183214",
"PP 	c #4D6D3F",
"QP 	c #496F3A",
"RP 	c #080713",
"SP 	c #0D1906",
"TP 	c #598143",
"UP 	c #67A154",
"VP 	c #11200F",
"WP 	c #2E5323",
"XP 	c #528D3D",
"YP 	c #72A35C",
"ZP 	c #61864C",
"`P 	c #203A1A",
" Q 	c #020702",
".Q 	c #060201",
"+Q 	c #28481F",
"@Q 	c #77AA65",
"#Q 	c #1A2B14",
"$Q 	c #091807",
"%Q 	c #264919",
"&Q 	c #243A1B",
"*Q 	c #060E05",
"=Q 	c #567D3F",
"-Q 	c #517A3A",
";Q 	c #030D09",
">Q 	c #426F3A",
",Q 	c #5F8B50",
"'Q 	c #0D1A08",
")Q 	c #3C5F2F",
"!Q 	c #08040D",
"~Q 	c #0B020D",
"{Q 	c #0F1809",
"]Q 	c #64964E",
"^Q 	c #355E25",
"/Q 	c #10210F",
"(Q 	c #213D12",
"_Q 	c #446931",
":Q 	c #618E4D",
"<Q 	c #75AA5C",
"[Q 	c #4B7A32",
"}Q 	c #253F18",
"|Q 	c #498A37",
"1Q 	c #57A640",
"2Q 	c #5D8F45",
"3Q 	c #182710",
"4Q 	c #365A2A",
"5Q 	c #588947",
"6Q 	c #010900",
"7Q 	c #57863C",
"8Q 	c #5F8941",
"9Q 	c #0F1811",
"0Q 	c #537E33",
"aQ 	c #72A24E",
"bQ 	c #1D3114",
"cQ 	c #4E703A",
"dQ 	c #6EA353",
"eQ 	c #5C8A47",
"fQ 	c #304A24",
"gQ 	c #050402",
"hQ 	c #52783A",
"iQ 	c #588743",
"jQ 	c #070011",
"kQ 	c #1A3414",
"lQ 	c #5A8E43",
"mQ 	c #57973D",
"nQ 	c #569A42",
"oQ 	c #437332",
"pQ 	c #6EA555",
"qQ 	c #406A2E",
"rQ 	c #3F5D30",
"sQ 	c #3D752D",
"tQ 	c #58B440",
"uQ 	c #40802A",
"vQ 	c #3E7822",
"wQ 	c #366E22",
"xQ 	c #376E25",
"yQ 	c #3D7421",
"zQ 	c #57893C",
"AQ 	c #6CA056",
"BQ 	c #5BAA3D",
"CQ 	c #54A735",
"DQ 	c #6CAD51",
"EQ 	c #578E3E",
"FQ 	c #1D3A0F",
"GQ 	c #2F4921",
"HQ 	c #2E5922",
"IQ 	c #3B6025",
"JQ 	c #67A347",
"KQ 	c #498337",
"LQ 	c #62A04C",
"MQ 	c #376428",
"NQ 	c #529636",
"OQ 	c #5EA53D",
"PQ 	c #67A14A",
"QQ 	c #5A9643",
"RQ 	c #609E4B",
"SQ 	c #6EAA41",
"TQ 	c #6FA843",
"UQ 	c #62A54D",
"VQ 	c #508F32",
"WQ 	c #234217",
"XQ 	c #254617",
"YQ 	c #29611F",
"ZQ 	c #487E3C",
"`Q 	c #608449",
" R 	c #578550",
".R 	c #529047",
"+R 	c #6EC443",
"@R 	c #66B751",
"#R 	c #457239",
"$R 	c #6FA152",
"%R 	c #4B6E36",
"&R 	c #6FA95D",
"*R 	c #4F833D",
"=R 	c #375527",
"-R 	c #061003",
";R 	c #101F0A",
">R 	c #669942",
",R 	c #49732D",
"'R 	c #06010C",
")R 	c #08000D",
"!R 	c #050906",
"~R 	c #27441B",
"{R 	c #58873F",
"]R 	c #73A551",
"^R 	c #476E2F",
"/R 	c #182C11",
"(R 	c #102608",
"_R 	c #406B2C",
":R 	c #6DA157",
"<R 	c #437139",
"[R 	c #10250E",
"}R 	c #1D2B18",
"|R 	c #20341C",
"1R 	c #4E6C3B",
"2R 	c #6AA755",
"3R 	c #315625",
"4R 	c #3B572C",
"5R 	c #62914A",
"6R 	c #0C1D0D",
"7R 	c #0B060A",
"8R 	c #29461E",
"9R 	c #69B052",
"0R 	c #589843",
"aR 	c #68964F",
"bR 	c #65974D",
"cR 	c #457B33",
"dR 	c #27461E",
"eR 	c #62904E",
"fR 	c #3F622E",
"gR 	c #0B0208",
"hR 	c #01020F",
"iR 	c #223B12",
"jR 	c #689E42",
"kR 	c #254217",
"lR 	c #1B3415",
"mR 	c #639C50",
"nR 	c #2C4C23",
"oR 	c #040A0B",
"pR 	c #080404",
"qR 	c #03020C",
"rR 	c #0E1C0A",
"sR 	c #335423",
"tR 	c #5F9244",
"uR 	c #6CA148",
"vR 	c #75BE4C",
"wR 	c #589C44",
"xR 	c #1B3816",
"yR 	c #050D07",
"zR 	c #517A3D",
"AR 	c #4D7240",
"BR 	c #6DA74E",
"CR 	c #527C39",
"DR 	c #0C160A",
"ER 	c #0D150A",
"FR 	c #051602",
"GR 	c #42622D",
"HR 	c #679D57",
"IR 	c #4D8343",
"JR 	c #1B3615",
"KR 	c #102008",
"LR 	c #376425",
"MR 	c #6CA24F",
"NR 	c #689151",
"OR 	c #355426",
"PR 	c #213516",
"QR 	c #6F9B53",
"RR 	c #324E22",
"SR 	c #020209",
"TR 	c #1E3713",
"UR 	c #538738",
"VR 	c #67A451",
"WR 	c #385B26",
"XR 	c #69A454",
"YR 	c #426733",
"ZR 	c #66A341",
"`R 	c #5A9D3D",
" S 	c #569740",
".S 	c #4A8234",
"+S 	c #3E6F28",
"@S 	c #578C43",
"#S 	c #4F8136",
"$S 	c #3C6C24",
"%S 	c #498D33",
"&S 	c #54AF36",
"*S 	c #63A550",
"=S 	c #4A7638",
"-S 	c #244517",
";S 	c #529D38",
">S 	c #64A94D",
",S 	c #63954B",
"'S 	c #477130",
")S 	c #50823D",
"!S 	c #4B8934",
"~S 	c #659E43",
"{S 	c #243912",
"]S 	c #030508",
"^S 	c #0D0401",
"/S 	c #4E7F36",
"(S 	c #6DC347",
"_S 	c #4E952F",
":S 	c #284B1A",
"<S 	c #3A6529",
"[S 	c #508628",
"}S 	c #7ECE4E",
"|S 	c #539E31",
"1S 	c #2C4C1D",
"2S 	c #305729",
"3S 	c #5FA64D",
"4S 	c #5AB33A",
"5S 	c #54A13C",
"6S 	c #214218",
"7S 	c #041006",
"8S 	c #132312",
"9S 	c #529935",
"0S 	c #4E943B",
"aS 	c #568A3E",
"bS 	c #52823E",
"cS 	c #11250D",
"dS 	c #1E3718",
"eS 	c #5A9751",
"fS 	c #518D3C",
"gS 	c #3D632D",
"hS 	c #3E6830",
"iS 	c #57843D",
"jS 	c #67984D",
"kS 	c #1A2D13",
"lS 	c #0B1803",
"mS 	c #345422",
"nS 	c #689E50",
"oS 	c #395727",
"pS 	c #111E0A",
"qS 	c #24431D",
"rS 	c #5B964B",
"sS 	c #5B9443",
"tS 	c #2E4C1E",
"uS 	c #0E0308",
"vS 	c #0B1609",
"wS 	c #305B23",
"xS 	c #649053",
"yS 	c #0B1A06",
"zS 	c #3F682D",
"AS 	c #6F9E5E",
"BS 	c #446C3A",
"CS 	c #66A149",
"DS 	c #244319",
"ES 	c #0A0007",
"FS 	c #010511",
"GS 	c #253B16",
"HS 	c #62A541",
"IS 	c #67A54D",
"JS 	c #5D924A",
"KS 	c #3E642A",
"LS 	c #1D2D12",
"MS 	c #3E5E2E",
"NS 	c #77AF5E",
"OS 	c #345C25",
"PS 	c #071809",
"QS 	c #01010D",
"RS 	c #090201",
"SS 	c #446F2D",
"TS 	c #5C9B40",
"US 	c #2D4E27",
"VS 	c #2F5229",
"WS 	c #335A27",
"XS 	c #345B27",
"YS 	c #305F26",
"ZS 	c #305C24",
"`S 	c #305022",
" T 	c #4F8936",
".T 	c #4F8336",
"+T 	c #110102",
"@T 	c #110706",
"#T 	c #2D521F",
"$T 	c #6D9F50",
"%T 	c #0A0E0C",
"&T 	c #0D0312",
"*T 	c #2C4A1A",
"=T 	c #609446",
"-T 	c #6CA556",
";T 	c #4E7232",
">T 	c #223217",
",T 	c #112D0F",
"'T 	c #62A146",
")T 	c #456539",
"!T 	c #72A45F",
"~T 	c #4C7437",
"{T 	c #0F210B",
"]T 	c #446233",
"^T 	c #6F9A51",
"/T 	c #54762D",
"(T 	c #203412",
"_T 	c #223E1E",
":T 	c #5B8E4E",
"<T 	c #649C55",
"[T 	c #2F5627",
"}T 	c #091B0D",
"|T 	c #081508",
"1T 	c #2E4B1E",
"2T 	c #65984A",
"3T 	c #64994C",
"4T 	c #12220B",
"5T 	c #080207",
"6T 	c #090308",
"7T 	c #4F7540",
"8T 	c #0E1A07",
"9T 	c #335C1E",
"0T 	c #56812B",
"aT 	c #456826",
"bT 	c #315122",
"cT 	c #608B44",
"dT 	c #52853C",
"eT 	c #6CA054",
"fT 	c #28471F",
"gT 	c #05160A",
"hT 	c #4B7239",
"iT 	c #6D9D4A",
"jT 	c #619B3D",
"kT 	c #16310E",
"lT 	c #4D8C34",
"mT 	c #60B342",
"nT 	c #66A645",
"oT 	c #375E27",
"pT 	c #0B1808",
"qT 	c #071608",
"rT 	c #38632B",
"sT 	c #65AC48",
"tT 	c #56903D",
"uT 	c #2B4A22",
"vT 	c #699D5A",
"wT 	c #568443",
"xT 	c #57943E",
"yT 	c #6CB545",
"zT 	c #568732",
"AT 	c #0D1A07",
"BT 	c #090105",
"CT 	c #0B0500",
"DT 	c #2A4A1C",
"ET 	c #67A649",
"FT 	c #5EAD3A",
"GT 	c #2A521A",
"HT 	c #50963B",
"IT 	c #132C09",
"JT 	c #519837",
"KT 	c #58B93B",
"LT 	c #689D50",
"MT 	c #598346",
"NT 	c #26471A",
"OT 	c #539A3B",
"PT 	c #5EB83B",
"QT 	c #5DA93D",
"RT 	c #214916",
"ST 	c #060A00",
"TT 	c #66A154",
"UT 	c #4D8032",
"VT 	c #669047",
"WT 	c #1E3114",
"XT 	c #0F280F",
"YT 	c #4F9A38",
"ZT 	c #54AB41",
"`T 	c #589E3D",
" U 	c #427D32",
".U 	c #67A04F",
"+U 	c #639352",
"@U 	c #43702E",
"#U 	c #63954D",
"$U 	c #6B9E5D",
"%U 	c #284122",
"&U 	c #6AA153",
"*U 	c #426B2F",
"=U 	c #15270D",
"-U 	c #6A9C50",
";U 	c #578843",
">U 	c #508343",
",U 	c #1C3213",
"'U 	c #578249",
")U 	c #42742E",
"!U 	c #63A24A",
"~U 	c #243B19",
"{U 	c #0B0007",
"]U 	c #2E4928",
"^U 	c #629858",
"/U 	c #528940",
"(U 	c #50913C",
"_U 	c #346026",
":U 	c #182B14",
"<U 	c #3F6A2D",
"[U 	c #6C9C4E",
"}U 	c #679147",
"|U 	c #375824",
"1U 	c #14240D",
"2U 	c #091309",
"3U 	c #446E34",
"4U 	c #66AC41",
"5U 	c #6A993B",
"6U 	c #273E11",
"7U 	c #05050C",
"8U 	c #0B0103",
"9U 	c #0E1209",
"0U 	c #588449",
"aU 	c #58984D",
"bU 	c #588851",
"cU 	c #5C8954",
"dU 	c #608E4E",
"eU 	c #628E4F",
"fU 	c #5C924D",
"gU 	c #5D904A",
"hU 	c #5E8C45",
"iU 	c #5E9443",
"jU 	c #608F49",
"kU 	c #264914",
"lU 	c #5F9839",
"mU 	c #66AF47",
"nU 	c #447132",
"oU 	c #0C1F05",
"pU 	c #09020B",
"qU 	c #02000B",
"rU 	c #071607",
"sU 	c #314F21",
"tU 	c #678D46",
"uU 	c #709953",
"vU 	c #3B5F27",
"wU 	c #0B1E0D",
"xU 	c #274A1D",
"yU 	c #539C3B",
"zU 	c #578C41",
"AU 	c #6F9C5E",
"BU 	c #36532B",
"CU 	c #102405",
"DU 	c #619842",
"EU 	c #4B7433",
"FU 	c #5D8233",
"GU 	c #6C9E4E",
"HU 	c #314E23",
"IU 	c #3D6A32",
"JU 	c #629D55",
"KU 	c #609755",
"LU 	c #699F54",
"MU 	c #4B7834",
"NU 	c #284221",
"OU 	c #6D9B5B",
"PU 	c #314F27",
"QU 	c #5A8B41",
"RU 	c #629547",
"SU 	c #4D7526",
"TU 	c #698F48",
"UU 	c #61984D",
"VU 	c #4E8B3D",
"WU 	c #5EA53E",
"XU 	c #4E8A37",
"YU 	c #639F53",
"ZU 	c #1F381D",
"`U 	c #00030F",
" V 	c #578440",
".V 	c #548641",
"+V 	c #0A0305",
"@V 	c #5CA13E",
"#V 	c #65BC42",
"$V 	c #5FAA3C",
"%V 	c #2F511D",
"&V 	c #1D3016",
"*V 	c #547E43",
"=V 	c #62A251",
"-V 	c #4F8834",
";V 	c #68A447",
">V 	c #3E632C",
",V 	c #456D2D",
"'V 	c #5D8A47",
")V 	c #0C160C",
"!V 	c #1C4011",
"~V 	c #65AA49",
"{V 	c #335D27",
"]V 	c #142809",
"^V 	c #619B40",
"/V 	c #4A7F32",
"(V 	c #487236",
"_V 	c #598342",
":V 	c #366527",
"<V 	c #5A9A48",
"[V 	c #336A27",
"}V 	c #5C9D4C",
"|V 	c #5C9045",
"1V 	c #62994E",
"2V 	c #365A28",
"3V 	c #081705",
"4V 	c #18310B",
"5V 	c #4F8F32",
"6V 	c #64C53E",
"7V 	c #5EB144",
"8V 	c #275218",
"9V 	c #2D4520",
"0V 	c #6C9B55",
"aV 	c #4F793C",
"bV 	c #6DA947",
"cV 	c #2A4618",
"dV 	c #0C140A",
"eV 	c #447031",
"fV 	c #5BAB44",
"gV 	c #6ACA42",
"hV 	c #60A048",
"iV 	c #54934B",
"jV 	c #2F5523",
"kV 	c #172A13",
"lV 	c #5E8D52",
"mV 	c #5F8C4C",
"nV 	c #0F1F08",
"oV 	c #3B632A",
"pV 	c #699C54",
"qV 	c #172812",
"rV 	c #0B0401",
"sV 	c #193312",
"tV 	c #366423",
"uV 	c #3B6929",
"vV 	c #29481E",
"wV 	c #0A1206",
"xV 	c #030905",
"yV 	c #345329",
"zV 	c #62984E",
"AV 	c #5F8F4D",
"BV 	c #2A4122",
"CV 	c #061D03",
"DV 	c #629D51",
"EV 	c #355429",
"FV 	c #1E3918",
"GV 	c #4D8837",
"HV 	c #67BB46",
"IV 	c #4C8633",
"JV 	c #345A20",
"KV 	c #639149",
"LV 	c #6BA150",
"MV 	c #395F26",
"NV 	c #15230C",
"OV 	c #0B0106",
"PV 	c #070103",
"QV 	c #000108",
"RV 	c #1E2F17",
"SV 	c #325924",
"TV 	c #507F37",
"UV 	c #608E44",
"VV 	c #6F9C43",
"WV 	c #354D1C",
"XV 	c #03080D",
"YV 	c #01010F",
"ZV 	c #071E0A",
"`V 	c #020801",
" W 	c #040903",
".W 	c #061704",
"+W 	c #091A0B",
"@W 	c #101F0C",
"#W 	c #000406",
"$W 	c #2C4F1B",
"%W 	c #61973C",
"&W 	c #5E9F40",
"*W 	c #639048",
"=W 	c #57863F",
"-W 	c #305D25",
";W 	c #0E1007",
">W 	c #0D1D07",
",W 	c #3E5F2B",
"'W 	c #5C8E47",
")W 	c #44752F",
"!W 	c #6EC045",
"~W 	c #5A9138",
"{W 	c #28401B",
"]W 	c #040208",
"^W 	c #2A411D",
"/W 	c #385625",
"(W 	c #21391A",
"_W 	c #346128",
":W 	c #306128",
"<W 	c #203B1B",
"[W 	c #050903",
"}W 	c #060908",
"|W 	c #5A884B",
"1W 	c #537D45",
"2W 	c #081403",
"3W 	c #4C7636",
"4W 	c #5B933B",
"5W 	c #1D3314",
"6W 	c #000308",
"7W 	c #25451E",
"8W 	c #4B883E",
"9W 	c #63A844",
"0W 	c #6FC741",
"aW 	c #61A347",
"bW 	c #12240B",
"cW 	c #050009",
"dW 	c #679652",
"eW 	c #588945",
"fW 	c #66A150",
"gW 	c #345529",
"hW 	c #254719",
"iW 	c #61B146",
"jW 	c #67C93F",
"kW 	c #579F36",
"lW 	c #1F410F",
"mW 	c #294822",
"nW 	c #629655",
"oW 	c #699E55",
"pW 	c #5D9743",
"qW 	c #629D45",
"rW 	c #2F511A",
"sW 	c #3D5D27",
"tW 	c #6D9C54",
"uW 	c #2F5B1F",
"vW 	c #579142",
"wW 	c #3C712A",
"xW 	c #69AC4C",
"yW 	c #203D15",
"zW 	c #010607",
"AW 	c #2B4618",
"BW 	c #6DA749",
"CW 	c #55923E",
"DW 	c #588D40",
"EW 	c #538C3E",
"FW 	c #6EB25A",
"GW 	c #3A6827",
"HW 	c #2A4D1E",
"IW 	c #213914",
"JW 	c #568B3D",
"KW 	c #60964D",
"LW 	c #497A38",
"MW 	c #6CA654",
"NW 	c #467734",
"OW 	c #152B0F",
"PW 	c #10280B",
"QW 	c #41802B",
"RW 	c #65C149",
"SW 	c #60BB3D",
"TW 	c #2F6D18",
"UW 	c #5E9348",
"VW 	c #527C38",
"WW 	c #669B4B",
"XW 	c #365025",
"YW 	c #40632E",
"ZW 	c #70A64F",
"`W 	c #2C4D1C",
" X 	c #48792F",
".X 	c #376325",
"+X 	c #6FA153",
"@X 	c #2E4D1D",
"#X 	c #0A0008",
"$X 	c #669751",
"%X 	c #385E28",
"&X 	c #09050E",
"*X 	c #283C1E",
"=X 	c #79B15F",
"-X 	c #56913F",
";X 	c #1E3B16",
">X 	c #466C3A",
",X 	c #517B44",
"'X 	c #0E0517",
")X 	c #0A2105",
"!X 	c #477E30",
"~X 	c #76B855",
"{X 	c #69A747",
"]X 	c #3E6727",
"^X 	c #03030A",
"/X 	c #1E2D16",
"(X 	c #376024",
"_X 	c #5F8D43",
":X 	c #6C9053",
"<X 	c #659750",
"[X 	c #4B7E34",
"}X 	c #325321",
"|X 	c #182C0F",
"1X 	c #040B08",
"2X 	c #23431B",
"3X 	c #315D25",
"4X 	c #35602E",
"5X 	c #2C491F",
"6X 	c #609444",
"7X 	c #609442",
"8X 	c #182E0D",
"9X 	c #050F01",
"0X 	c #2B4F19",
"aX 	c #2C5C1C",
"bX 	c #25551B",
"cX 	c #294D21",
"dX 	c #243F1D",
"eX 	c #203619",
"fX 	c #0C1106",
"gX 	c #12280A",
"hX 	c #67934E",
"iX 	c #5E8D48",
"jX 	c #376528",
"kX 	c #203617",
"lX 	c #0A0C01",
"mX 	c #0E0005",
"nX 	c #0C0001",
"oX 	c #05010B",
"pX 	c #4C7B38",
"qX 	c #75B953",
"rX 	c #599D35",
"sX 	c #19320D",
"tX 	c #3C5B31",
"uX 	c #628950",
"vX 	c #091906",
"wX 	c #588D36",
"xX 	c #7BB862",
"yX 	c #263E22",
"zX 	c #050502",
"AX 	c #3F6230",
"BX 	c #71A659",
"CX 	c #1F3615",
"DX 	c #20381A",
"EX 	c #71A05E",
"FX 	c #2E4823",
"GX 	c #05030F",
"HX 	c #091507",
"IX 	c #274A16",
"JX 	c #579335",
"KX 	c #548836",
"LX 	c #619645",
"MX 	c #4D7137",
"NX 	c #091707",
"OX 	c #2E4824",
"PX 	c #6FA85C",
"QX 	c #4B783C",
"RX 	c #336A23",
"SX 	c #64B344",
"TX 	c #6ECB4E",
"UX 	c #4D9235",
"VX 	c #15310A",
"WX 	c #3E662E",
"XX 	c #669E58",
"YX 	c #4D8041",
"ZX 	c #62944C",
"`X 	c #5B8E3F",
" Y 	c #234118",
".Y 	c #111709",
"+Y 	c #5D8B47",
"@Y 	c #5E9B3F",
"#Y 	c #5DB83D",
"$Y 	c #539A40",
"%Y 	c #598B46",
"&Y 	c #6AA44D",
"*Y 	c #305421",
"=Y 	c #13220B",
"-Y 	c #1A3210",
";Y 	c #4A7931",
">Y 	c #609943",
",Y 	c #26411E",
"'Y 	c #315624",
")Y 	c #6EBC4D",
"!Y 	c #4A882B",
"~Y 	c #050F09",
"{Y 	c #6CA351",
"]Y 	c #487835",
"^Y 	c #5B9747",
"/Y 	c #5F8D4E",
"(Y 	c #071706",
"_Y 	c #2D651F",
":Y 	c #63C042",
"<Y 	c #6FD047",
"[Y 	c #52983F",
"}Y 	c #5F994A",
"|Y 	c #3E662C",
"1Y 	c #2D4A22",
"2Y 	c #6DA453",
"3Y 	c #375926",
"4Y 	c #110C10",
"5Y 	c #0B040E",
"6Y 	c #07070B",
"7Y 	c #0C0C0D",
"8Y 	c #0B090B",
"9Y 	c #4C8433",
"0Y 	c #3E6E27",
"aY 	c #0A0204",
"bY 	c #436B2F",
"cY 	c #679A51",
"dY 	c #060906",
"eY 	c #0B0207",
"fY 	c #659755",
"gY 	c #496C3A",
"hY 	c #1C2E15",
"iY 	c #5D9E4A",
"jY 	c #0E240B",
"kY 	c #13250B",
"lY 	c #67A055",
"mY 	c #558342",
"nY 	c #223A17",
"oY 	c #30531F",
"pY 	c #598540",
"qY 	c #6F9355",
"rY 	c #46782D",
"sY 	c #2F4320",
"tY 	c #0E1D09",
"uY 	c #173410",
"vY 	c #244D1E",
"wY 	c #3B6C2A",
"xY 	c #608944",
"yY 	c #5D8848",
"zY 	c #5F9A4C",
"AY 	c #6EB35A",
"BY 	c #4C863E",
"CY 	c #4B6F35",
"DY 	c #6C9D53",
"EY 	c #4B7934",
"FY 	c #5FA149",
"GY 	c #2A4D1F",
"HY 	c #03010D",
"IY 	c #071204",
"JY 	c #6FC358",
"KY 	c #5EA64A",
"LY 	c #659A53",
"MY 	c #5E8A4E",
"NY 	c #5C8A49",
"OY 	c #5D9949",
"PY 	c #34552D",
"QY 	c #253817",
"RY 	c #1B3012",
"SY 	c #020E07",
"TY 	c #0A1907",
"UY 	c #273F18",
"VY 	c #3E6D2B",
"WY 	c #639C4F",
"XY 	c #6A9955",
"YY 	c #568D43",
"ZY 	c #315F1F",
"`Y 	c #041202",
" Z 	c #2F521E",
".Z 	c #69994F",
"+Z 	c #638B4B",
"@Z 	c #29431D",
"#Z 	c #020700",
"$Z 	c #081001",
"%Z 	c #416433",
"&Z 	c #19250F",
"*Z 	c #44642C",
"=Z 	c #649450",
"-Z 	c #629645",
";Z 	c #386028",
">Z 	c #122110",
",Z 	c #16240E",
"'Z 	c #689350",
")Z 	c #3F632D",
"!Z 	c #2B511C",
"~Z 	c #111D0B",
"{Z 	c #0D0510",
"]Z 	c #07080B",
"^Z 	c #06080C",
"/Z 	c #0A050C",
"(Z 	c #080E06",
"_Z 	c #111C08",
":Z 	c #2E481E",
"<Z 	c #75A754",
"[Z 	c #426032",
"}Z 	c #010A07",
"|Z 	c #35532E",
"1Z 	c #639B54",
"2Z 	c #56923F",
"3Z 	c #6FD84D",
"4Z 	c #6AC746",
"5Z 	c #387226",
"6Z 	c #0E200B",
"7Z 	c #1F3617",
"8Z 	c #55843F",
"9Z 	c #629A47",
"0Z 	c #4C8139",
"aZ 	c #6EA957",
"bZ 	c #4A6F38",
"cZ 	c #14260C",
"dZ 	c #6DAB50",
"eZ 	c #4D7D36",
"fZ 	c #529936",
"gZ 	c #62C543",
"hZ 	c #3E812D",
"iZ 	c #27421F",
"jZ 	c #11250C",
"kZ 	c #1E3212",
"lZ 	c #142610",
"mZ 	c #050F15",
"nZ 	c #060C05",
"oZ 	c #090609",
"pZ 	c #04060D",
"qZ 	c #04040C",
"rZ 	c #6DA550",
"sZ 	c #162E0F",
"tZ 	c #273D1C",
"uZ 	c #295A1C",
"vZ 	c #61BE3D",
"wZ 	c #488C24",
"xZ 	c #051304",
"yZ 	c #010A04",
"zZ 	c #325024",
"AZ 	c #689B52",
"BZ 	c #568C3F",
"CZ 	c #527C3B",
"DZ 	c #6A984D",
"EZ 	c #3B622B",
"FZ 	c #091603",
"GZ 	c #2D571E",
"HZ 	c #6DB64F",
"IZ 	c #519E40",
"JZ 	c #59B749",
"KZ 	c #214A17",
"LZ 	c #223817",
"MZ 	c #100A02",
"NZ 	c #162313",
"OZ 	c #3A5928",
"PZ 	c #08020B",
"QZ 	c #090906",
"RZ 	c #417F2E",
"SZ 	c #689850",
"TZ 	c #305020",
"UZ 	c #070801",
"VZ 	c #020703",
"WZ 	c #010509",
"XZ 	c #10210D",
"YZ 	c #65954F",
"ZZ 	c #477A33",
"`Z 	c #5BAB3C",
" ` 	c #234315",
".` 	c #2A4422",
"+` 	c #628D50",
"@` 	c #6CA152",
"#` 	c #345427",
"$` 	c #061307",
"%` 	c #06000D",
"&` 	c #040F04",
"*` 	c #527440",
"=` 	c #658F50",
"-` 	c #70A554",
";` 	c #4D7C34",
">` 	c #314923",
",` 	c #101F08",
"'` 	c #0F250A",
")` 	c #213F1B",
"!` 	c #345D24",
"~` 	c #4D7C37",
"{` 	c #529A38",
"]` 	c #61AE42",
"^` 	c #5F9C52",
"/` 	c #518D41",
"(` 	c #3D6529",
"_` 	c #304921",
":` 	c #244218",
"<` 	c #62A149",
"[` 	c #5A9A3F",
"}` 	c #6C9F4C",
"|` 	c #324C24",
"1` 	c #081F05",
"2` 	c #5D9650",
"3` 	c #2D5124",
"4` 	c #112B0E",
"5` 	c #4D8941",
"6` 	c #53863D",
"7` 	c #1A3411",
"8` 	c #141F0E",
"9` 	c #1E3D12",
"0` 	c #4E9E3A",
"a` 	c #316026",
"b` 	c #77A657",
"c` 	c #639D4E",
"d` 	c #3C6423",
"e` 	c #243D1B",
"f` 	c #051A04",
"g` 	c #0A1807",
"h` 	c #294020",
"i` 	c #63A047",
"j` 	c #699250",
"k` 	c #274022",
"l` 	c #061309",
"m` 	c #050508",
"n` 	c #1E3014",
"o` 	c #598243",
"p` 	c #68A151",
"q` 	c #3D5F2C",
"r` 	c #0B1407",
"s` 	c #172D0B",
"t` 	c #5FA040",
"u` 	c #477930",
"v` 	c #65874D",
"w` 	c #789F53",
"x` 	c #3D5F2A",
"y` 	c #14260E",
"z` 	c #00000C",
"A` 	c #2F5222",
"B` 	c #6B9852",
"C` 	c #1A2812",
"D` 	c #010404",
"E` 	c #141F10",
"F` 	c #08020C",
"G` 	c #14210F",
"H` 	c #1C3018",
"I` 	c #080C0C",
"J` 	c #07050F",
"K` 	c #3C582D",
"L` 	c #729C5D",
"M` 	c #2C4420",
"N` 	c #1C3B12",
"O` 	c #5BAB43",
"P` 	c #64A944",
"Q` 	c #6EB945",
"R` 	c #33611F",
"S` 	c #010F06",
"T` 	c #070A02",
"U` 	c #2F5223",
"V` 	c #5D9345",
"W` 	c #53893A",
"X` 	c #67A049",
"Y` 	c #335823",
"Z` 	c #050E07",
"`` 	c #294912",
"  .	c #5BA03B",
". .	c #58A940",
"+ .	c #4C8D2A",
"@ .	c #4A742E",
"# .	c #1A3812",
"$ .	c #558D40",
"% .	c #152912",
"& .	c #679350",
"* .	c #5A8446",
"= .	c #051507",
"- .	c #08040A",
"; .	c #609A41",
"> .	c #618E3E",
", .	c #334D1F",
"' .	c #3E7324",
") .	c #65BA46",
"! .	c #2D5C20",
"~ .	c #204614",
"{ .	c #6EBF4D",
"] .	c #14210D",
"^ .	c #243C18",
"/ .	c #64964A",
"( .	c #5D8D45",
"_ .	c #68AC4D",
": .	c #477430",
"< .	c #172B10",
"[ .	c #224118",
"} .	c #529D3B",
"| .	c #4EB235",
"1 .	c #5C9C44",
"2 .	c #315525",
"3 .	c #5F8642",
"4 .	c #618B4A",
"5 .	c #060A07",
"6 .	c #080903",
"7 .	c #1A2D16",
"8 .	c #73B14C",
"9 .	c #63A240",
"0 .	c #111C0D",
"a .	c #101C0A",
"b .	c #629A4D",
"c .	c #2F5A20",
"d .	c #4F7B32",
"e .	c #588B3A",
"f .	c #071306",
"g .	c #09040C",
"h .	c #030209",
"i .	c #0F210E",
"j .	c #325323",
"k .	c #5A9445",
"l .	c #6FBD54",
"m .	c #43692F",
"n .	c #6E9F5A",
"o .	c #4E7740",
"p .	c #071006",
"q .	c #294B1B",
"r .	c #538242",
"s .	c #709C5D",
"t .	c #638D4C",
"u .	c #39582C",
"v .	c #182B0F",
"w .	c #0F1F0D",
"x .	c #071508",
"y .	c #60984E",
"z .	c #407529",
"A .	c #64B545",
"B .	c #69B148",
"C .	c #578747",
"D .	c #152C13",
"E .	c #40652B",
"F .	c #7EC153",
"G .	c #4A802F",
"H .	c #17310C",
"I .	c #599248",
"J .	c #07040C",
"K .	c #1D3211",
"L .	c #619843",
"M .	c #4F8138",
"N .	c #15290C",
"O .	c #192F14",
"P .	c #6EB25D",
"Q .	c #1E4516",
"R .	c #669A4A",
"S .	c #2F5724",
"T .	c #3A6A28",
"U .	c #639548",
"V .	c #6B9E58",
"W .	c #63884B",
"X .	c #4A7130",
"Y .	c #224919",
"Z .	c #14230C",
"` .	c #375228",
" ..	c #5C8F4A",
"...	c #6FA161",
"+..	c #598345",
"@..	c #2F5320",
"#..	c #0D1B0B",
"$..	c #061804",
"%..	c #7AA95F",
"&..	c #50783F",
"*..	c #2E4E21",
"=..	c #7ABD59",
"-..	c #62A240",
";..	c #385B28",
">..	c #0C0405",
",..	c #010805",
"'..	c #45792D",
")..	c #233F1B",
"!..	c #6D9F57",
"~..	c #1D3013",
"{..	c #0B1105",
"]..	c #335020",
"^..	c #5E9243",
"/..	c #5B8D48",
"(..	c #0A190B",
"_..	c #4A6D39",
":..	c #679449",
"<..	c #365925",
"[..	c #5F9A45",
"}..	c #66BB45",
"|..	c #69A445",
"1..	c #2C4518",
"2..	c #11220D",
"3..	c #456733",
"4..	c #6EA85A",
"5..	c #4B7B3A",
"6..	c #5E8F4B",
"7..	c #69A54F",
"8..	c #29471C",
"9..	c #070E03",
"0..	c #346418",
"a..	c #72C543",
"b..	c #6EC43E",
"c..	c #68BA43",
"d..	c #74C147",
"e..	c #2D5112",
"f..	c #1F3D13",
"g..	c #67AF46",
"h..	c #447E2A",
"i..	c #639850",
"j..	c #70A052",
"k..	c #30481B",
"l..	c #040E01",
"m..	c #507537",
"n..	c #598041",
"o..	c #597B38",
"p..	c #7CA057",
"q..	c #64A443",
"r..	c #63C83D",
"s..	c #63A44D",
"t..	c #2A491D",
"u..	c #5C973B",
"v..	c #68A350",
"w..	c #2D4D23",
"x..	c #050108",
"y..	c #3F672A",
"z..	c #6EA753",
"A..	c #48773B",
"B..	c #5C9445",
"C..	c #60914D",
"D..	c #14360B",
"E..	c #469132",
"F..	c #51913A",
"G..	c #6CA55D",
"H..	c #6B9452",
"I..	c #223615",
"J..	c #03040A",
"K..	c #050A09",
"L..	c #44772E",
"M..	c #5D9A45",
"N..	c #588140",
"O..	c #6B9B53",
"P..	c #1D3414",
"Q..	c #26411B",
"R..	c #6B9B56",
"S..	c #25361B",
"T..	c #09040F",
"U..	c #080410",
"V..	c #0A0307",
"W..	c #0A050D",
"X..	c #050315",
"Y..	c #315724",
"Z..	c #55873B",
"`..	c #6BA64B",
" +.	c #050F02",
".+.	c #091606",
"++.	c #2E4F1E",
"@+.	c #528139",
"#+.	c #6BA251",
"$+.	c #51843E",
"%+.	c #284322",
"&+.	c #0A160A",
"*+.	c #487B3A",
"=+.	c #599942",
"-+.	c #0D1D0A",
";+.	c #71A261",
">+.	c #223D1B",
",+.	c #365F2B",
"'+.	c #4B7C37",
")+.	c #30541D",
"!+.	c #051905",
"~+.	c #5A904C",
"{+.	c #122210",
"]+.	c #12200A",
"^+.	c #233F19",
"/+.	c #6BA852",
"(+.	c #253F1E",
"_+.	c #6A9A5F",
":+.	c #183016",
"<+.	c #3B5C2F",
"[+.	c #537D41",
"}+.	c #020E02",
"|+.	c #0B1809",
"1+.	c #203419",
"2+.	c #3F592D",
"3+.	c #63A151",
"4+.	c #5B8847",
"5+.	c #233B14",
"6+.	c #4B7736",
"7+.	c #6EA654",
"8+.	c #5D894C",
"9+.	c #3B5A2F",
"0+.	c #00040B",
"a+.	c #2A441F",
"b+.	c #61984A",
"c+.	c #57903D",
"d+.	c #376028",
"e+.	c #0F260C",
"f+.	c #0C0810",
"g+.	c #060309",
"h+.	c #0C0F04",
"i+.	c #346123",
"j+.	c #5F8E40",
"k+.	c #466F2C",
"l+.	c #56793E",
"m+.	c #73A153",
"n+.	c #609941",
"o+.	c #4E8032",
"p+.	c #090204",
"q+.	c #0F010A",
"r+.	c #132608",
"s+.	c #628B46",
"t+.	c #7CB95D",
"u+.	c #62B63E",
"v+.	c #59953D",
"w+.	c #1F3610",
"x+.	c #203815",
"y+.	c #5C8A3D",
"z+.	c #6FA456",
"A+.	c #487335",
"B+.	c #070905",
"C+.	c #486924",
"D+.	c #7DCB46",
"E+.	c #6DC645",
"F+.	c #42812F",
"G+.	c #66AA4F",
"H+.	c #6CB64A",
"I+.	c #74CC4F",
"J+.	c #71A058",
"K+.	c #598A49",
"L+.	c #2A4523",
"M+.	c #577836",
"N+.	c #648A3F",
"O+.	c #09030C",
"P+.	c #243D1A",
"Q+.	c #66A04B",
"R+.	c #4A7934",
"S+.	c #679956",
"T+.	c #5C8C4A",
"U+.	c #2C441E",
"V+.	c #274A1B",
"W+.	c #5F9A49",
"X+.	c #537E42",
"Y+.	c #52853D",
"Z+.	c #497D33",
"`+.	c #518140",
" @.	c #599346",
".@.	c #1C3612",
"+@.	c #000702",
"@@.	c #33512A",
"#@.	c #4C723B",
"$@.	c #4E8238",
"%@.	c #62A043",
"&@.	c #122807",
"*@.	c #63A145",
"=@.	c #284823",
"-@.	c #1D3118",
";@.	c #22381A",
">@.	c #27391D",
",@.	c #243F21",
"'@.	c #66A059",
")@.	c #305123",
"!@.	c #4C7932",
"~@.	c #7EB75F",
"{@.	c #50743E",
"]@.	c #050A08",
"^@.	c #061906",
"/@.	c #668751",
"(@.	c #3A4E2C",
"_@.	c #080617",
":@.	c #070612",
"<@.	c #0C0103",
"[@.	c #0E0408",
"}@.	c #0E0B05",
"|@.	c #2D481F",
"1@.	c #659848",
"2@.	c #669348",
"3@.	c #051201",
"4@.	c #518244",
"5@.	c #73AF5A",
"6@.	c #497A31",
"7@.	c #1A3110",
"8@.	c #172A0E",
"9@.	c #2F5622",
"0@.	c #548D46",
"a@.	c #5DA54B",
"b@.	c #569839",
"c@.	c #6C9253",
"d@.	c #557A3E",
"e@.	c #3D7722",
"f@.	c #64AB51",
"g@.	c #4E7938",
"h@.	c #4C7A3C",
"i@.	c #518E3F",
"j@.	c #71A45B",
"k@.	c #557949",
"l@.	c #11230C",
"m@.	c #598E4A",
"n@.	c #2C4C21",
"o@.	c #76C55C",
"p@.	c #478433",
"q@.	c #10230B",
"r@.	c #00000B",
"s@.	c #29431F",
"t@.	c #73A955",
"u@.	c #57903B",
"v@.	c #51833C",
"w@.	c #0E1A08",
"x@.	c #447532",
"y@.	c #487139",
"z@.	c #20431C",
"A@.	c #264E15",
"B@.	c #264912",
"C@.	c #1C4510",
"D@.	c #28541A",
"E@.	c #69A545",
"F@.	c #3B641F",
"G@.	c #0D010F",
"H@.	c #101E0D",
"I@.	c #11230B",
"J@.	c #1F3417",
"K@.	c #466B38",
"L@.	c #71A35D",
"M@.	c #365928",
"N@.	c #0B1C09",
"O@.	c #193112",
"P@.	c #5C8D46",
"Q@.	c #60944F",
"R@.	c #2A4822",
"S@.	c #0B0807",
"T@.	c #0D060B",
"U@.	c #050A0A",
"V@.	c #0D0C09",
"W@.	c #629248",
"X@.	c #336022",
"Y@.	c #466C2E",
"Z@.	c #7CBC51",
"`@.	c #5B873B",
" #.	c #375025",
".#.	c #09170C",
"+#.	c #152812",
"@#.	c #1C2818",
"##.	c #3B632C",
"$#.	c #64B143",
"%#.	c #28471A",
"&#.	c #09190B",
"*#.	c #5B9337",
"=#.	c #446432",
"-#.	c #71AE55",
";#.	c #3B602C",
">#.	c #466C25",
",#.	c #588E32",
"'#.	c #60974D",
")#.	c #3E6A30",
"!#.	c #4A832F",
"~#.	c #4D7A3A",
"{#.	c #5B874C",
"]#.	c #619F49",
"^#.	c #2F5D1F",
"/#.	c #1C3513",
"(#.	c #497239",
"_#.	c #729560",
":#.	c #567D43",
"<#.	c #6A9F4A",
"[#.	c #325220",
"}#.	c #03070C",
"|#.	c #4A7935",
"1#.	c #62AF48",
"2#.	c #53983A",
"3#.	c #2E511F",
"4#.	c #53853F",
"5#.	c #376728",
"6#.	c #588F45",
"7#.	c #3C6A2A",
"8#.	c #4B773A",
"9#.	c #649648",
"0#.	c #375F23",
"a#.	c #000307",
"b#.	c #031012",
"c#.	c #598247",
"d#.	c #577C44",
"e#.	c #4D7836",
"f#.	c #54853C",
"g#.	c #071707",
"h#.	c #000504",
"i#.	c #456732",
"j#.	c #64984B",
"k#.	c #091C08",
"l#.	c #132609",
"m#.	c #356316",
"n#.	c #569231",
"o#.	c #78AB5E",
"p#.	c #425C33",
"q#.	c #0A0F05",
"r#.	c #578F40",
"s#.	c #496E37",
"t#.	c #0E1D0A",
"u#.	c #1B2F0F",
"v#.	c #648D49",
"w#.	c #04100E",
"x#.	c #060A09",
"y#.	c #0A1306",
"z#.	c #73A459",
"A#.	c #486F34",
"B#.	c #19270F",
"C#.	c #010605",
"D#.	c #263F1F",
"E#.	c #537743",
"F#.	c #71A257",
"G#.	c #4B793B",
"H#.	c #213E19",
"I#.	c #38622E",
"J#.	c #66A24B",
"K#.	c #0D1908",
"L#.	c #649446",
"M#.	c #395C25",
"N#.	c #659F4C",
"O#.	c #436C2A",
"P#.	c #61A636",
"Q#.	c #519737",
"R#.	c #71A859",
"S#.	c #477933",
"T#.	c #4D8637",
"U#.	c #6B9E4D",
"V#.	c #25391D",
"W#.	c #71B456",
"X#.	c #5E8C46",
"Y#.	c #13220C",
"Z#.	c #091A08",
"`#.	c #598E4C",
" $.	c #2C4B22",
".$.	c #223F1B",
"+$.	c #60AE4C",
"@$.	c #5AA540",
"#$.	c #497736",
"$$.	c #132B0A",
"%$.	c #78BD5B",
"&$.	c #497337",
"*$.	c #0D1D0E",
"=$.	c #5D9C40",
"-$.	c #58923E",
";$.	c #619251",
">$.	c #6CAB60",
",$.	c #68A64D",
"'$.	c #659545",
")$.	c #679E4F",
"!$.	c #65B349",
"~$.	c #6FD148",
"{$.	c #63B13D",
"]$.	c #1F3C11",
"^$.	c #040010",
"/$.	c #061009",
"($.	c #537C42",
"_$.	c #649B50",
":$.	c #3A6029",
"<$.	c #476F33",
"[$.	c #6DA858",
"}$.	c #558640",
"|$.	c #2E491D",
"1$.	c #070800",
"2$.	c #13230F",
"3$.	c #456F35",
"4$.	c #70A553",
"5$.	c #3B5824",
"6$.	c #0E120E",
"7$.	c #040C0D",
"8$.	c #0E1E10",
"9$.	c #4B7A37",
"0$.	c #0A0002",
"a$.	c #16220F",
"b$.	c #2B4423",
"c$.	c #0A1505",
"d$.	c #405E28",
"e$.	c #74A34C",
"f$.	c #18260D",
"g$.	c #335036",
"h$.	c #679E50",
"i$.	c #5D9F2D",
"j$.	c #467A26",
"k$.	c #132611",
"l$.	c #0C1C05",
"m$.	c #628D4A",
"n$.	c #4D713A",
"o$.	c #020E04",
"p$.	c #4D7035",
"q$.	c #598C44",
"r$.	c #4A6939",
"s$.	c #112A05",
"t$.	c #040F01",
"u$.	c #345E20",
"v$.	c #6AA750",
"w$.	c #30581E",
"x$.	c #69AF43",
"y$.	c #6DA34C",
"z$.	c #558A3D",
"A$.	c #31641D",
"B$.	c #497638",
"C$.	c #609A4A",
"D$.	c #345127",
"E$.	c #5A894B",
"F$.	c #5E9741",
"G$.	c #05040B",
"H$.	c #273D1B",
"I$.	c #6FA654",
"J$.	c #67B74C",
"K$.	c #3B702D",
"L$.	c #1E3A17",
"M$.	c #5CA043",
"N$.	c #64B947",
"O$.	c #69A859",
"P$.	c #09140E",
"Q$.	c #25441D",
"R$.	c #6EB54E",
"S$.	c #458425",
"T$.	c #64A145",
"U$.	c #7AC556",
"V$.	c #5F8D49",
"W$.	c #385A30",
"X$.	c #162318",
"Y$.	c #2D4723",
"Z$.	c #71A361",
"`$.	c #6FA550",
" %.	c #2A431B",
".%.	c #193215",
"+%.	c #609D46",
"@%.	c #335224",
"#%.	c #102208",
"$%.	c #376123",
"%%.	c #5CA03D",
"&%.	c #7AD648",
"*%.	c #71C33D",
"=%.	c #386023",
"-%.	c #091506",
";%.	c #3B5732",
">%.	c #638755",
",%.	c #152113",
"'%.	c #04020E",
")%.	c #020306",
"!%.	c #4A6A35",
"~%.	c #6CA04E",
"{%.	c #53933F",
"]%.	c #050F04",
"^%.	c #070808",
"/%.	c #497137",
"(%.	c #7AB560",
"_%.	c #3D5D30",
":%.	c #080100",
"<%.	c #77A864",
"[%.	c #567F46",
"}%.	c #29401E",
"|%.	c #0B1804",
"1%.	c #315123",
"2%.	c #578949",
"3%.	c #69A658",
"4%.	c #3B6B2C",
"5%.	c #6FA150",
"6%.	c #2E4C1D",
"7%.	c #08070E",
"8%.	c #4D7528",
"9%.	c #5A8A32",
"0%.	c #476833",
"a%.	c #679748",
"b%.	c #345D25",
"c%.	c #365927",
"d%.	c #6DA156",
"e%.	c #446832",
"f%.	c #021603",
"g%.	c #4B7438",
"h%.	c #5B8D41",
"i%.	c #0D1C09",
"j%.	c #0D200E",
"k%.	c #436B32",
"l%.	c #76AA58",
"m%.	c #44672D",
"n%.	c #1B3315",
"o%.	c #588F4D",
"p%.	c #2C4B23",
"q%.	c #27411F",
"r%.	c #62A351",
"s%.	c #214617",
"t%.	c #528E3E",
"u%.	c #467D3B",
"v%.	c #153013",
"w%.	c #2A4327",
"x%.	c #253824",
"y%.	c #040B0D",
"z%.	c #417528",
"A%.	c #416F2D",
"B%.	c #2A4520",
"C%.	c #162C13",
"D%.	c #466637",
"E%.	c #66A055",
"F%.	c #64BA42",
"G%.	c #32681A",
"H%.	c #263E17",
"I%.	c #71A650",
"J%.	c #467834",
"K%.	c #6AA24C",
"L%.	c #649247",
"M%.	c #3B5C30",
"N%.	c #040E08",
"O%.	c #213B18",
"P%.	c #507A36",
"Q%.	c #78A958",
"R%.	c #48753B",
"S%.	c #1D3416",
"T%.	c #3D5C26",
"U%.	c #79AA57",
"V%.	c #456C33",
"W%.	c #111D0F",
"X%.	c #0D060D",
"Y%.	c #3B6630",
"Z%.	c #5EA04C",
"`%.	c #3E6A2F",
" &.	c #669354",
".&.	c #162A11",
"+&.	c #070204",
"@&.	c #030106",
"#&.	c #101A08",
"$&.	c #5C8346",
"%&.	c #415F31",
"&&.	c #406B22",
"*&.	c #75BE3B",
"=&.	c #61AB3A",
"-&.	c #67A651",
";&.	c #5A8951",
">&.	c #2F4822",
",&.	c #70A753",
"'&.	c #1C3217",
")&.	c #42642C",
"!&.	c #64A344",
"~&.	c #345024",
"{&.	c #77C04F",
"]&.	c #5E9B42",
"^&.	c #3A6E25",
"/&.	c #7BBF55",
"(&.	c #385725",
"_&.	c #33691D",
":&.	c #547E3C",
"<&.	c #548239",
"[&.	c #325425",
"}&.	c #6EA852",
"|&.	c #5F9547",
"1&.	c #345423",
"2&.	c #04050A",
"3&.	c #0F2707",
"4&.	c #61A142",
"5&.	c #3B782C",
"6&.	c #589F4F",
"7&.	c #3C6F2F",
"8&.	c #648C4C",
"9&.	c #66964E",
"0&.	c #3E722C",
"a&.	c #0C1A07",
"b&.	c #2C521C",
"c&.	c #52903A",
"d&.	c #6EAB52",
"e&.	c #325D22",
"f&.	c #375B29",
"g&.	c #30542A",
"h&.	c #1A291E",
"i&.	c #041805",
"j&.	c #538049",
"k&.	c #547941",
"l&.	c #558749",
"m&.	c #4F7A40",
"n&.	c #050300",
"o&.	c #406933",
"p&.	c #60984F",
"q&.	c #0F2109",
"r&.	c #517F3C",
"s&.	c #6CB747",
"t&.	c #66B941",
"u&.	c #4A9330",
"v&.	c #1C410D",
"w&.	c #112604",
"x&.	c #2C4E13",
"y&.	c #213915",
"z&.	c #040807",
"A&.	c #1A2D14",
"B&.	c #6EA058",
"C&.	c #25431A",
"D&.	c #57983E",
"E&.	c #549E39",
"F&.	c #6CA54D",
"G&.	c #080008",
"H&.	c #18280B",
"I&.	c #4A7730",
"J&.	c #6BA84F",
"K&.	c #050601",
"L&.	c #020A04",
"M&.	c #325224",
"N&.	c #5F9047",
"O&.	c #6A9E53",
"P&.	c #335228",
"Q&.	c #243F1B",
"R&.	c #4E783F",
"S&.	c #76AD5F",
"T&.	c #436D35",
"U&.	c #528135",
"V&.	c #598941",
"W&.	c #699C56",
"X&.	c #253C1F",
"Y&.	c #315823",
"Z&.	c #6EA754",
"`&.	c #72A854",
" *.	c #426B33",
".*.	c #385527",
"+*.	c #73A559",
"@*.	c #4D8238",
"#*.	c #619D4A",
"$*.	c #3E652F",
"%*.	c #3F6E34",
"&*.	c #649656",
"**.	c #66A050",
"=*.	c #5FAB3E",
"-*.	c #2A4D16",
";*.	c #2A411E",
">*.	c #6DAF52",
",*.	c #255517",
"'*.	c #264A1E",
")*.	c #4B9541",
"!*.	c #4C8D3A",
"~*.	c #1A3710",
"{*.	c #08080B",
"]*.	c #090B07",
"^*.	c #020E01",
"/*.	c #28471C",
"(*.	c #588643",
"_*.	c #3D6231",
":*.	c #629148",
"<*.	c #4D7237",
"[*.	c #649147",
"}*.	c #14280B",
"|*.	c #517C3D",
"1*.	c #0A1012",
"2*.	c #2A4B20",
"3*.	c #579148",
"4*.	c #679756",
"5*.	c #071903",
"6*.	c #03010B",
"7*.	c #78B157",
"8*.	c #4E7133",
"9*.	c #102011",
"0*.	c #0A0611",
"a*.	c #080705",
"b*.	c #0C1B09",
"c*.	c #5C9A4A",
"d*.	c #5FAF45",
"e*.	c #3F662D",
"f*.	c #73A454",
"g*.	c #1D3217",
"h*.	c #2E521B",
"i*.	c #0B1203",
"j*.	c #203C12",
"k*.	c #4B7B33",
"l*.	c #6DA954",
"m*.	c #528243",
"n*.	c #72A256",
"o*.	c #3F6528",
"p*.	c #102706",
"q*.	c #4E7F3A",
"r*.	c #041508",
"s*.	c #486730",
"t*.	c #789F55",
"u*.	c #5F9247",
"v*.	c #12280C",
"w*.	c #020500",
"x*.	c #416B2C",
"y*.	c #427130",
"z*.	c #69A74D",
"A*.	c #4B8834",
"B*.	c #305723",
"C*.	c #091008",
"D*.	c #60984B",
"E*.	c #306121",
"F*.	c #71A156",
"G*.	c #345922",
"H*.	c #40721F",
"I*.	c #5F9D4B",
"J*.	c #609837",
"K*.	c #0F2608",
"L*.	c #09060C",
"M*.	c #386027",
"N*.	c #74BF55",
"O*.	c #62B841",
"P*.	c #63B448",
"Q*.	c #52A83F",
"R*.	c #48A033",
"S*.	c #3D692B",
"T*.	c #182511",
"U*.	c #1F3818",
"V*.	c #679955",
"W*.	c #243C1C",
"X*.	c #477B3A",
"Y*.	c #427C34",
"Z*.	c #284D13",
"`*.	c #417B1D",
" =.	c #3D7625",
".=.	c #3C672E",
"+=.	c #1F3E18",
"@=.	c #2D4822",
"#=.	c #6EA75B",
"$=.	c #6FA95C",
"%=.	c #233B1E",
"&=.	c #65A34F",
"*=.	c #2F5225",
"==.	c #365528",
"-=.	c #558E41",
";=.	c #6FB44F",
">=.	c #3D6929",
",=.	c #0A1C07",
"'=.	c #274C19",
")=.	c #5FAB39",
"!=.	c #7DC94B",
"~=.	c #40622A",
"{=.	c #70A354",
"]=.	c #294D1A",
"^=.	c #193210",
"/=.	c #5A993F",
"(=.	c #53A338",
"_=.	c #529A3A",
":=.	c #60A04A",
"<=.	c #5C9B44",
"[=.	c #487332",
"}=.	c #060902",
"|=.	c #0E0F06",
"1=.	c #1A2E0B",
"2=.	c #528036",
"3=.	c #609342",
"4=.	c #234015",
"5=.	c #192E10",
"6=.	c #71A958",
"7=.	c #4A6F36",
"8=.	c #172B0D",
"9=.	c #143011",
"0=.	c #6EA65D",
"a=.	c #528044",
"b=.	c #2B4822",
"c=.	c #294F21",
"d=.	c #406F38",
"e=.	c #25421F",
"f=.	c #203B16",
"g=.	c #588547",
"h=.	c #447032",
"i=.	c #263B1A",
"j=.	c #102707",
"k=.	c #3E682C",
"l=.	c #6B9A53",
"m=.	c #396023",
"n=.	c #63A843",
"o=.	c #598543",
"p=.	c #72A35A",
"q=.	c #4B843B",
"r=.	c #305228",
"s=.	c #2B511D",
"t=.	c #61A743",
"u=.	c #090404",
"v=.	c #162C0B",
"w=.	c #4D9434",
"x=.	c #6DAC55",
"y=.	c #74A25F",
"z=.	c #5F9E4A",
"A=.	c #71C75A",
"B=.	c #528841",
"C=.	c #15210E",
"D=.	c #080A06",
"E=.	c #080807",
"F=.	c #6AA856",
"G=.	c #4C7939",
"H=.	c #1A2F12",
"I=.	c #336925",
"J=.	c #559045",
"K=.	c #192712",
"L=.	c #6A9057",
"M=.	c #39542C",
"N=.	c #54713B",
"O=.	c #537A38",
"P=.	c #01000F",
"Q=.	c #131A0A",
"R=.	c #0D230A",
"S=.	c #406132",
"T=.	c #72AC4F",
"U=.	c #537F41",
"V=.	c #344E23",
"W=.	c #78A953",
"X=.	c #527436",
"Y=.	c #12200E",
"Z=.	c #080A0D",
"`=.	c #0E080F",
" -.	c #0E040B",
".-.	c #345821",
"+-.	c #5F9849",
"@-.	c #5B9A41",
"#-.	c #509637",
"$-.	c #5BA345",
"%-.	c #5E9E3D",
"&-.	c #254013",
"*-.	c #010707",
"=-.	c #223A18",
"--.	c #78A45F",
";-.	c #20361C",
">-.	c #335323",
",-.	c #7AC358",
"'-.	c #72B655",
")-.	c #50773C",
"!-.	c #111309",
"~-.	c #365728",
"{-.	c #6CA650",
"]-.	c #4E7F35",
"^-.	c #639E45",
"/-.	c #467335",
"(-.	c #70AD4B",
"_-.	c #2F4A1D",
":-.	c #69994D",
"<-.	c #62A147",
"[-.	c #3A5D28",
"}-.	c #182E0F",
"|-.	c #2E561A",
"1-.	c #3E7325",
"2-.	c #417726",
"3-.	c #3D692C",
"4-.	c #50813D",
"5-.	c #061603",
"6-.	c #689750",
"7-.	c #40742B",
"8-.	c #73C247",
"9-.	c #76C342",
"0-.	c #599E3E",
"a-.	c #78B854",
"b-.	c #395F27",
"c-.	c #07080A",
"d-.	c #6BA151",
"e-.	c #487631",
"f-.	c #447A2D",
"g-.	c #62AD3F",
"h-.	c #5FB63D",
"i-.	c #65BB4D",
"j-.	c #4F8B3C",
"k-.	c #2F561E",
"l-.	c #5B874E",
"m-.	c #467139",
"n-.	c #0C1905",
"o-.	c #497B35",
"p-.	c #3D712B",
"q-.	c #448D1B",
"r-.	c #77E72D",
"s-.	c #50B22A",
"t-.	c #4E8D3C",
"u-.	c #71B958",
"v-.	c #2D4A1E",
"w-.	c #518044",
"x-.	c #476C39",
"y-.	c #060B02",
"z-.	c #5B8F4E",
"A-.	c #405D2F",
"B-.	c #75AE5A",
"C-.	c #578340",
"D-.	c #64AC54",
"E-.	c #335C28",
"F-.	c #020503",
"G-.	c #29501C",
"H-.	c #6CC150",
"I-.	c #71DC50",
"J-.	c #47842D",
"K-.	c #243C16",
"L-.	c #325324",
"M-.	c #70A05B",
"N-.	c #01020B",
"O-.	c #447E2D",
"P-.	c #60B541",
"Q-.	c #56A73E",
"R-.	c #549C38",
"S-.	c #4B8735",
"T-.	c #599E40",
"U-.	c #6CAC56",
"V-.	c #04020A",
"W-.	c #0A0405",
"X-.	c #0B0506",
"Y-.	c #020F0B",
"Z-.	c #588736",
"`-.	c #5B8E35",
" ;.	c #1E3516",
".;.	c #304B1E",
"+;.	c #5F9343",
"@;.	c #629649",
"#;.	c #0D2406",
"$;.	c #385B29",
"%;.	c #629B53",
"&;.	c #52903E",
"*;.	c #385F2B",
"=;.	c #3D6331",
"-;.	c #689055",
";;.	c #529845",
">;.	c #548C46",
",;.	c #407229",
"';.	c #030200",
");.	c #335625",
"!;.	c #6EA157",
"~;.	c #182912",
"{;.	c #0E1D0B",
"];.	c #52873C",
"^;.	c #69A84E",
"/;.	c #315224",
"(;.	c #04100B",
"_;.	c #0A0310",
":;.	c #1A310D",
"<;.	c #4C7E32",
"[;.	c #426631",
"};.	c #243519",
"|;.	c #04000D",
"1;.	c #0E1E09",
"2;.	c #05170A",
"3;.	c #1E2B17",
"4;.	c #183312",
"5;.	c #28501F",
"6;.	c #38552E",
"7;.	c #171D0E",
"8;.	c #0A0107",
"9;.	c #050510",
"0;.	c #5A993C",
"a;.	c #65A842",
"b;.	c #38582A",
"c;.	c #040E05",
"d;.	c #375B24",
"e;.	c #6E9A55",
"f;.	c #192412",
"g;.	c #375327",
"h;.	c #6FA056",
"i;.	c #4B713E",
"j;.	c #396526",
"k;.	c #45712B",
"l;.	c #6A8C4D",
"m;.	c #44632F",
"n;.	c #0F1E08",
"o;.	c #263D1C",
"p;.	c #5A8B45",
"q;.	c #395829",
"r;.	c #2F461E",
"s;.	c #759F49",
"t;.	c #507236",
"u;.	c #13220D",
"v;.	c #080A0C",
"w;.	c #04030E",
"x;.	c #15250D",
"y;.	c #6CA147",
"z;.	c #5A973F",
"A;.	c #5E934D",
"B;.	c #5A9A40",
"C;.	c #5B9B44",
"D;.	c #5DA538",
"E;.	c #649C3F",
"F;.	c #1E3611",
"G;.	c #527C4D",
"H;.	c #224114",
"I;.	c #63A94B",
"J;.	c #538841",
"K;.	c #6EA75D",
"L;.	c #5D9640",
"M;.	c #4B7B35",
"N;.	c #5D984D",
"O;.	c #577934",
"P;.	c #365929",
"Q;.	c #68A952",
"R;.	c #4C7336",
"S;.	c #6BA64E",
"T;.	c #559F32",
"U;.	c #64CD33",
"V;.	c #75EE38",
"W;.	c #519D2E",
"X;.	c #3A6625",
"Y;.	c #557F37",
"Z;.	c #091003",
"`;.	c #081703",
" >.	c #476C33",
".>.	c #628B4C",
"+>.	c #496D3B",
"@>.	c #68A650",
"#>.	c #539439",
"$>.	c #6CA752",
"%>.	c #47792C",
"&>.	c #5F953D",
"*>.	c #10190D",
"=>.	c #2A451C",
"->.	c #5F9E45",
";>.	c #589B40",
">>.	c #559939",
",>.	c #5CA940",
"'>.	c #65B742",
")>.	c #65BB3F",
"!>.	c #4C8E34",
"~>.	c #3D6B30",
"{>.	c #567A44",
"]>.	c #436539",
"^>.	c #5B9739",
"/>.	c #76CF3E",
"(>.	c #75CB42",
"_>.	c #6CDA34",
":>.	c #67C047",
"<>.	c #77BE51",
"[>.	c #5E9A42",
"}>.	c #62AA52",
"|>.	c #426A36",
"1>.	c #649E51",
"2>.	c #1E3218",
"3>.	c #426B37",
"4>.	c #7DAD5E",
"5>.	c #4F743A",
"6>.	c #75B04F",
"7>.	c #345923",
"8>.	c #204210",
"9>.	c #62C13D",
"0>.	c #6DD54F",
"a>.	c #3D792D",
"b>.	c #7AAB54",
"c>.	c #7BB160",
"d>.	c #7AB55C",
"e>.	c #41662F",
"f>.	c #060E03",
"g>.	c #325E1F",
"h>.	c #63BC44",
"i>.	c #59B63E",
"j>.	c #549E3E",
"k>.	c #488B37",
"l>.	c #659F55",
"m>.	c #417432",
"n>.	c #67A655",
"o>.	c #375B28",
"p>.	c #183514",
"q>.	c #558C3F",
"r>.	c #578E3C",
"s>.	c #1B320D",
"t>.	c #081903",
"u>.	c #3A602B",
"v>.	c #7CAB5A",
"w>.	c #162B13",
"x>.	c #518639",
"y>.	c #65A747",
"z>.	c #497435",
"A>.	c #4D713C",
"B>.	c #70AA5D",
"C>.	c #538E3F",
"D>.	c #3D5B2F",
"E>.	c #3A5F2C",
"F>.	c #64A445",
"G>.	c #457532",
"H>.	c #365624",
"I>.	c #6A934F",
"J>.	c #152411",
"K>.	c #5E8E52",
"L>.	c #3C7030",
"M>.	c #3B662D",
"N>.	c #5F8846",
"O>.	c #6DA350",
"P>.	c #447233",
"Q>.	c #1D3518",
"R>.	c #070E09",
"S>.	c #223C1B",
"T>.	c #325624",
"U>.	c #2F5324",
"V>.	c #253D14",
"W>.	c #294922",
"X>.	c #3E682F",
"Y>.	c #2B4E1B",
"Z>.	c #1D3F0B",
"`>.	c #133207",
" ,.	c #0F2409",
".,.	c #0C1707",
"+,.	c #050310",
"@,.	c #569B39",
"#,.	c #6DAA50",
"$,.	c #597E42",
"%,.	c #386330",
"&,.	c #2C5F20",
"*,.	c #609A4B",
"=,.	c #080D00",
"-,.	c #1A3010",
";,.	c #2B4625",
">,.	c #4D763F",
",,.	c #6AB943",
"',.	c #4F8337",
"),.	c #6FAD47",
"!,.	c #518631",
"~,.	c #0B2004",
"{,.	c #112108",
"],.	c #3F6F2B",
"^,.	c #132507",
"/,.	c #2B411C",
"(,.	c #6E9B4E",
"_,.	c #4F7238",
":,.	c #11220F",
"<,.	c #05020E",
"[,.	c #2F4424",
"},.	c #75A85E",
"|,.	c #67A051",
"1,.	c #4F8B35",
"2,.	c #65A33F",
"3,.	c #61AD3F",
"4,.	c #5A8E39",
"5,.	c #17280C",
"6,.	c #040100",
"7,.	c #62913F",
"8,.	c #74AA54",
"9,.	c #70AF4D",
"0,.	c #4C843E",
"a,.	c #559943",
"b,.	c #79B15A",
"c,.	c #284518",
"d,.	c #68A244",
"e,.	c #406830",
"f,.	c #65984B",
"g,.	c #456B2F",
"h,.	c #69A846",
"i,.	c #305224",
"j,.	c #0F2005",
"k,.	c #578C40",
"l,.	c #5C9E40",
"m,.	c #508939",
"n,.	c #6CA64A",
"o,.	c #558735",
"p,.	c #6DC13F",
"q,.	c #67DF2C",
"r,.	c #64CA37",
"s,.	c #78D24A",
"t,.	c #5A9B37",
"u,.	c #3D5E28",
"v,.	c #4F7635",
"w,.	c #6A9C4E",
"x,.	c #6D9D48",
"y,.	c #5F9346",
"z,.	c #70A053",
"A,.	c #4B7236",
"B,.	c #5B9C3F",
"C,.	c #4C9830",
"D,.	c #64AA4E",
"E,.	c #6DB551",
"F,.	c #467027",
"G,.	c #5FA041",
"H,.	c #578C4C",
"I,.	c #183013",
"J,.	c #28441F",
"K,.	c #5E9E4B",
"L,.	c #579844",
"M,.	c #62A841",
"N,.	c #5EB23E",
"O,.	c #61AC43",
"P,.	c #507D42",
"Q,.	c #508243",
"R,.	c #4C8A33",
"S,.	c #4A9028",
"T,.	c #487C2A",
"U,.	c #325F1A",
"V,.	c #1F3F14",
"W,.	c #1F3218",
"X,.	c #4E883B",
"Y,.	c #4F833B",
"Z,.	c #6DA255",
"`,.	c #3F5E30",
" '.	c #061103",
".'.	c #58853E",
"+'.	c #609D57",
"@'.	c #46683B",
"#'.	c #608C48",
"$'.	c #20400C",
"%'.	c #64AA35",
"&'.	c #71D23F",
"*'.	c #3B7A24",
"='.	c #466B26",
"-'.	c #386625",
";'.	c #5C9C36",
">'.	c #517F33",
",'.	c #203216",
"''.	c #0A0B03",
")'.	c #1C3A0F",
"!'.	c #67B93B",
"~'.	c #5CC332",
"{'.	c #4D9B3F",
"]'.	c #508E3E",
"^'.	c #5DA245",
"/'.	c #5A9F43",
"('.	c #538D3A",
"_'.	c #141D0E",
":'.	c #100111",
"<'.	c #04070A",
"['.	c #1A310E",
"}'.	c #548A41",
"|'.	c #579346",
"1'.	c #193211",
"2'.	c #172A12",
"3'.	c #6AAC53",
"4'.	c #375927",
"5'.	c #07110B",
"6'.	c #324922",
"7'.	c #7DB35F",
"8'.	c #5D9D45",
"9'.	c #669E51",
"0'.	c #51723F",
"a'.	c #2C4422",
"b'.	c #3F6431",
"c'.	c #73AC61",
"d'.	c #315920",
"e'.	c #2B491F",
"f'.	c #6C9752",
"g'.	c #385B25",
"h'.	c #64B046",
"i'.	c #4C8A3A",
"j'.	c #3D5C2F",
"k'.	c #010C02",
"l'.	c #152A0C",
"m'.	c #2C4E1A",
"n'.	c #3B612F",
"o'.	c #4A7434",
"p'.	c #63943C",
"q'.	c #293F1E",
"r'.	c #10240A",
"s'.	c #5C9B49",
"t'.	c #519237",
"u'.	c #50913B",
"v'.	c #5E9241",
"w'.	c #508744",
"x'.	c #4E853C",
"y'.	c #488434",
"z'.	c #4A8D2D",
"A'.	c #72BC47",
"B'.	c #72B949",
"C'.	c #6AA450",
"D'.	c #507C43",
"E'.	c #39612F",
"F'.	c #25471C",
"G'.	c #142B10",
"H'.	c #091B03",
"I'.	c #223716",
"J'.	c #3D5E31",
"K'.	c #488D3D",
"L'.	c #60B945",
"M'.	c #0A1503",
"N'.	c #2A461A",
"O'.	c #6C9C4F",
"P'.	c #213A19",
"Q'.	c #1D3910",
"R'.	c #74A956",
"S'.	c #628A50",
"T'.	c #3A5C30",
"U'.	c #172E0D",
"V'.	c #163007",
"W'.	c #599741",
"X'.	c #6CD03B",
"Y'.	c #79DE3B",
"Z'.	c #41712B",
"`'.	c #192710",
" ).	c #2A501D",
".).	c #6CAA47",
"+).	c #5F8547",
"@).	c #29411A",
"#).	c #6EA150",
"$).	c #4C7239",
"%).	c #11220E",
"&).	c #142111",
"*).	c #3D5D33",
"=).	c #518B35",
"-).	c #63AB3C",
";).	c #61A83C",
">).	c #508739",
",).	c #60A24C",
"').	c #65A041",
")).	c #48722E",
"!).	c #48762F",
"~).	c #62A73D",
"{).	c #3A6922",
"]).	c #5CAE3F",
"^).	c #53A440",
"/).	c #51793E",
"().	c #75AF57",
"_).	c #305424",
":).	c #62944D",
"<).	c #375625",
"[).	c #72A354",
"}).	c #4F7D3F",
"|).	c #13250A",
"1).	c #6FAF59",
"2).	c #497636",
"3).	c #61964F",
"4).	c #3A5426",
"5).	c #2C511D",
"6).	c #2D6117",
"7).	c #48852C",
"8).	c #549632",
"9).	c #4D8C2B",
"0).	c #508633",
"a).	c #54883D",
"b).	c #63A449",
"c).	c #5A953E",
"d).	c #5B9143",
"e).	c #68A249",
"f).	c #44702A",
"g).	c #213716",
"h).	c #57823B",
"i).	c #517E35",
"j).	c #132B10",
"k).	c #325E1B",
"l).	c #6DC03F",
"m).	c #519136",
"n).	c #0C1307",
"o).	c #03050B",
"p).	c #020713",
"q).	c #1B2A14",
"r).	c #75A450",
"s).	c #4C8333",
"t).	c #578A44",
"u).	c #142F08",
"v).	c #659E54",
"w).	c #4B783D",
"x).	c #0D160A",
"y).	c #1A3111",
"z).	c #3C6F29",
"A).	c #5FA93E",
"B).	c #5DAB3A",
"C).	c #5AA939",
"D).	c #48892F",
"E).	c #254B1B",
"F).	c #051E06",
"G).	c #000305",
"H).	c #2D4323",
"I).	c #72A858",
"J).	c #4A7535",
"K).	c #5C943D",
"L).	c #29461C",
"M).	c #67A545",
"N).	c #639452",
"O).	c #4C8042",
"P).	c #2A481D",
"Q).	c #69A647",
"R).	c #1D3912",
"S).	c #2F5B1B",
"T).	c #64BA3B",
"U).	c #75D037",
"V).	c #366C13",
"W).	c #3E5E28",
"X).	c #75BA46",
"Y).	c #54AA38",
"Z).	c #61C03C",
"`).	c #71B352",
" !.	c #203518",
".!.	c #080106",
"+!.	c #5BA337",
"@!.	c #6ED43E",
"#!.	c #489D27",
"$!.	c #579F41",
"%!.	c #62A450",
"&!.	c #519038",
"*!.	c #437D2E",
"=!.	c #112508",
"-!.	c #0A0B11",
";!.	c #06030D",
">!.	c #182C0D",
",!.	c #558337",
"'!.	c #588E3B",
")!.	c #588A49",
"!!.	c #65A255",
"~!.	c #284821",
"{!.	c #13200E",
"]!.	c #4E703B",
"^!.	c #385D29",
"/!.	c #588345",
"(!.	c #5B9044",
"_!.	c #3F6933",
":!.	c #548443",
"<!.	c #61AD42",
"[!.	c #68A84C",
"}!.	c #162F10",
"|!.	c #46772F",
"1!.	c #5E9341",
"2!.	c #02040B",
"3!.	c #061605",
"4!.	c #091108",
"5!.	c #3B5F30",
"6!.	c #669E4D",
"7!.	c #5C9D35",
"8!.	c #519340",
"9!.	c #457336",
"0!.	c #5DA240",
"a!.	c #080003",
"b!.	c #080009",
"c!.	c #26491A",
"d!.	c #59A63F",
"e!.	c #1B420F",
"f!.	c #578041",
"g!.	c #4B6F38",
"h!.	c #69934E",
"i!.	c #0A2003",
"j!.	c #0F2606",
"k!.	c #547F3F",
"l!.	c #589140",
"m!.	c #4B8931",
"n!.	c #66AB4D",
"o!.	c #3D6D2E",
"p!.	c #49743A",
"q!.	c #629E4C",
"r!.	c #6BA75D",
"s!.	c #4D8A3A",
"t!.	c #3A6C1F",
"u!.	c #1D450C",
"v!.	c #061B04",
"w!.	c #031B06",
"x!.	c #18360E",
"y!.	c #538531",
"z!.	c #558D30",
"A!.	c #2A4819",
"B!.	c #7BAC59",
"C!.	c #476C3D",
"D!.	c #75A759",
"E!.	c #446735",
"F!.	c #244018",
"G!.	c #234F0F",
"H!.	c #73CA3D",
"I!.	c #5EAB34",
"J!.	c #67994A",
"K!.	c #638F44",
"L!.	c #334E1C",
"M!.	c #273A1A",
"N!.	c #5D8748",
"O!.	c #66984F",
"P!.	c #284219",
"Q!.	c #4E743B",
"R!.	c #0C1D0C",
"S!.	c #07020F",
"T!.	c #0A0306",
"U!.	c #3E6C25",
"V!.	c #62A443",
"W!.	c #609C4D",
"X!.	c #528C40",
"Y!.	c #57A243",
"Z!.	c #57AD3A",
"`!.	c #61A247",
" ~.	c #3C642A",
".~.	c #060A04",
"+~.	c #1A2815",
"@~.	c #74AA52",
"#~.	c #6EBA44",
"$~.	c #5AAA33",
"%~.	c #68CC3B",
"&~.	c #57B13B",
"*~.	c #538E3A",
"=~.	c #487436",
"-~.	c #6DAE54",
";~.	c #456C31",
">~.	c #1F3713",
",~.	c #6A9950",
"'~.	c #304724",
")~.	c #476534",
"!~.	c #69954A",
"~~.	c #619F47",
"{~.	c #061001",
"]~.	c #4F7C3F",
"^~.	c #548042",
"/~.	c #679753",
"(~.	c #365328",
"_~.	c #0E2608",
":~.	c #345924",
"<~.	c #609B43",
"[~.	c #61A143",
"}~.	c #568C3D",
"|~.	c #4B7937",
"1~.	c #62914C",
"2~.	c #416D2F",
"3~.	c #0C2507",
"4~.	c #355929",
"5~.	c #68AF50",
"6~.	c #6AB843",
"7~.	c #17320C",
"8~.	c #070708",
"9~.	c #00090A",
"0~.	c #000A07",
"a~.	c #00050D",
"b~.	c #39542D",
"c~.	c #628F50",
"d~.	c #23431A",
"e~.	c #549231",
"f~.	c #629A43",
"g~.	c #71A75D",
"h~.	c #457539",
"i~.	c #16300F",
"j~.	c #1C3611",
"k~.	c #46712C",
"l~.	c #67AA44",
"m~.	c #55A23F",
"n~.	c #60AA45",
"o~.	c #52873A",
"p~.	c #0C1709",
"q~.	c #07000E",
"r~.	c #598943",
"s~.	c #6CA359",
"t~.	c #304E25",
"u~.	c #54903F",
"v~.	c #5E9F45",
"w~.	c #1F3514",
"x~.	c #304A27",
"y~.	c #68974F",
"z~.	c #213A15",
"A~.	c #77C24C",
"B~.	c #6EDC3E",
"C~.	c #37731A",
"D~.	c #315922",
"E~.	c #518936",
"F~.	c #467C32",
"G~.	c #5EA43E",
"H~.	c #67AF53",
"I~.	c #305828",
"J~.	c #1C2E18",
"K~.	c #72DC41",
"L~.	c #4EAD30",
"M~.	c #549741",
"N~.	c #659C4F",
"O~.	c #3B642F",
"P~.	c #4D7C32",
"Q~.	c #44772B",
"R~.	c #000A01",
"S~.	c #070913",
"T~.	c #12260A",
"U~.	c #4F7C36",
"V~.	c #5E8F40",
"W~.	c #1D3310",
"X~.	c #03020B",
"Y~.	c #253F19",
"Z~.	c #56853F",
"`~.	c #1B3714",
" {.	c #101C0F",
".{.	c #081007",
"+{.	c #010A06",
"@{.	c #01010E",
"#{.	c #294A1A",
"${.	c #619E4C",
"%{.	c #5EA34B",
"&{.	c #4B7F3A",
"*{.	c #68984A",
"={.	c #578B3F",
"-{.	c #4F7737",
";{.	c #406831",
">{.	c #0E2808",
",{.	c #0D1A06",
"'{.	c #0C0000",
"){.	c #375F2E",
"!{.	c #74B262",
"~{.	c #385B2C",
"{{.	c #3A6A2B",
"]{.	c #6BBD54",
"^{.	c #2B5424",
"/{.	c #699960",
"({.	c #2B4C24",
"_{.	c #3E622D",
":{.	c #1B360D",
"<{.	c #659E42",
"[{.	c #213917",
"}{.	c #65A744",
"|{.	c #234415",
"1{.	c #385D23",
"2{.	c #64A143",
"3{.	c #65AD48",
"4{.	c #64A946",
"5{.	c #508B3A",
"6{.	c #183010",
"7{.	c #021500",
"8{.	c #78C14B",
"9{.	c #78D544",
"0{.	c #6CCA44",
"a{.	c #5A9B3E",
"b{.	c #366127",
"c{.	c #22411A",
"d{.	c #061204",
"e{.	c #527E39",
"f{.	c #74AC5A",
"g{.	c #3F6733",
"h{.	c #1C3A16",
"i{.	c #274E18",
"j{.	c #6AA252",
"k{.	c #10220C",
"l{.	c #0E2307",
"m{.	c #345229",
"n{.	c #568543",
"o{.	c #6DAA52",
"p{.	c #5A993E",
"q{.	c #61AF34",
"r{.	c #1D3D0B",
"s{.	c #1B2C11",
"t{.	c #507431",
"u{.	c #76A849",
"v{.	c #4F7537",
"w{.	c #77A457",
"x{.	c #395324",
"y{.	c #2D4820",
"z{.	c #72A95D",
"A{.	c #49713A",
"B{.	c #080309",
"C{.	c #01060A",
"D{.	c #467127",
"E{.	c #5A8A39",
"F{.	c #41692E",
"G{.	c #679F49",
"H{.	c #53943E",
"I{.	c #71B354",
"J{.	c #2C4B1C",
"K{.	c #121F0E",
"L{.	c #304720",
"M{.	c #5E943D",
"N{.	c #63B03F",
"O{.	c #3F7B2C",
"P{.	c #48872C",
"Q{.	c #4B7E37",
"R{.	c #77BF58",
"S{.	c #56854D",
"T{.	c #304E2C",
"U{.	c #152408",
"V{.	c #5F8D40",
"W{.	c #538940",
"X{.	c #5C9B50",
"Y{.	c #182E11",
"Z{.	c #293C1F",
"`{.	c #76AA5B",
" ].	c #4F7B3A",
".].	c #547C42",
"+].	c #09150F",
"@].	c #0E1E06",
"#].	c #364F28",
"$].	c #5FA048",
"%].	c #548F43",
"&].	c #78AB5B",
"*].	c #577A37",
"=].	c #28411F",
"-].	c #0E1D07",
";].	c #3F652B",
">].	c #64AA47",
",].	c #6DA452",
"'].	c #345C27",
")].	c #2F5B23",
"!].	c #000508",
"~].	c #507F3A",
"{].	c #50803D",
"]].	c #5F8852",
"^].	c #486E3B",
"/].	c #395B2D",
"(].	c #365C2A",
"_].	c #66A852",
":].	c #629154",
"<].	c #3A5C32",
"[].	c #183211",
"}].	c #030C01",
"|].	c #71B14E",
"1].	c #5D9F3F",
"2].	c #6AA74A",
"3].	c #56853C",
"4].	c #28461C",
"5].	c #11270E",
"6].	c #538D47",
"7].	c #4F903A",
"8].	c #4E8735",
"9].	c #081908",
"0].	c #2E5020",
"a].	c #66A747",
"b].	c #6DAA4D",
"c].	c #2E4820",
"d].	c #709E53",
"e].	c #345C1E",
"f].	c #6DB53B",
"g].	c #416D27",
"h].	c #48872D",
"i].	c #77CD4F",
"j].	c #5EA545",
"k].	c #5BA033",
"l].	c #376221",
"m].	c #010609",
"n].	c #2D4C22",
"o].	c #4E9830",
"p].	c #67A94A",
"q].	c #497934",
"r].	c #648B4A",
"s].	c #0F1E09",
"t].	c #304E20",
"u].	c #71A059",
"v].	c #213717",
"w].	c #4C7737",
"x].	c #213916",
"y].	c #090000",
"z].	c #2C491C",
"A].	c #70A74E",
"B].	c #517C3E",
"C].	c #41652E",
"D].	c #050C01",
"E].	c #040510",
"F].	c #0C0311",
"G].	c #0A1709",
"H].	c #346524",
"I].	c #67B749",
"J].	c #4F8C3B",
"K].	c #69AB55",
"L].	c #4C793B",
"M].	c #456D36",
"N].	c #70A253",
"O].	c #517C39",
"P].	c #5F974A",
"Q].	c #648F4C",
"R].	c #2D451E",
"S].	c #102A0A",
"T].	c #345328",
"U].	c #5C874D",
"V].	c #63A04E",
"W].	c #3A622A",
"X].	c #366A20",
"Y].	c #385C2C",
"Z].	c #112409",
"`].	c #5D9049",
" ^.	c #559945",
".^.	c #509447",
"+^.	c #436D3C",
"@^.	c #48793E",
"#^.	c #1B3311",
"$^.	c #67954F",
"%^.	c #375127",
"&^.	c #639845",
"*^.	c #11210F",
"=^.	c #08120C",
"-^.	c #588B43",
";^.	c #3E652E",
">^.	c #539134",
",^.	c #5AA43E",
"'^.	c #3B692B",
")^.	c #264719",
"!^.	c #5CA041",
"~^.	c #5EA842",
"{^.	c #3D622F",
"]^.	c #70AC56",
"^^.	c #537F3D",
"/^.	c #426B30",
"(^.	c #346520",
"_^.	c #519533",
":^.	c #63AA58",
"<^.	c #57804A",
"[^.	c #335026",
"}^.	c #0D2508",
"|^.	c #111C0B",
"1^.	c #38532D",
"2^.	c #588B48",
"3^.	c #6FAD5B",
"4^.	c #4D8833",
"5^.	c #5A9336",
"6^.	c #0C1912",
"7^.	c #0E1910",
"8^.	c #2A431F",
"9^.	c #5E9B45",
"0^.	c #13210F",
"a^.	c #090D0A",
"b^.	c #2E4B1B",
"c^.	c #619C46",
"d^.	c #6AA15A",
"e^.	c #345226",
"f^.	c #4B6835",
"g^.	c #82B251",
"h^.	c #3D5C29",
"i^.	c #0C0502",
"j^.	c #325127",
"k^.	c #76A857",
"l^.	c #436330",
"m^.	c #080510",
"n^.	c #0B0605",
"o^.	c #1D2B12",
"p^.	c #70984E",
"q^.	c #395822",
"r^.	c #0A1B06",
"s^.	c #558439",
"t^.	c #5F9942",
"u^.	c #66A748",
"v^.	c #538B36",
"w^.	c #4D7436",
"x^.	c #68974D",
"y^.	c #010804",
"z^.	c #00040D",
"A^.	c #2F541C",
"B^.	c #55A237",
"C^.	c #52953F",
"D^.	c #66BB49",
"E^.	c #478A33",
"F^.	c #5C833D",
"G^.	c #70B254",
"H^.	c #335F26",
"I^.	c #609147",
"J^.	c #1E3D11",
"K^.	c #6BA94A",
"L^.	c #5B9C41",
"M^.	c #385C29",
"N^.	c #497033",
"O^.	c #629B4F",
"P^.	c #73AE5F",
"Q^.	c #578243",
"R^.	c #6DA44C",
"S^.	c #63A453",
"T^.	c #4F8642",
"U^.	c #2D4923",
"V^.	c #0D1103",
"W^.	c #00020A",
"X^.	c #12290B",
"Y^.	c #61854E",
"Z^.	c #74B15A",
"`^.	c #395C29",
" /.	c #4C6D3C",
"./.	c #58983C",
"+/.	c #4F9531",
"@/.	c #071701",
"#/.	c #0A0604",
"$/.	c #0E0605",
"%/.	c #1D3B14",
"&/.	c #6AB24D",
"*/.	c #5EAE3E",
"=/.	c #487A33",
"-/.	c #579143",
";/.	c #4D883D",
">/.	c #3D662B",
",/.	c #77A75C",
"'/.	c #508140",
")/.	c #62A051",
"!/.	c #68A54F",
"~/.	c #1E3A13",
"{/.	c #030C02",
"]/.	c #061303",
"^/.	c #2A481A",
"//.	c #55883A",
"(/.	c #6BAD4D",
"_/.	c #58983E",
":/.	c #5EA33E",
"</.	c #4F8A3A",
"[/.	c #69C046",
"}/.	c #6BB54C",
"|/.	c #112206",
"1/.	c #5C9240",
"2/.	c #54943B",
"3/.	c #528A3B",
"4/.	c #63AA49",
"5/.	c #5D9145",
"6/.	c #6BA549",
"7/.	c #3E6128",
"8/.	c #284519",
"9/.	c #4F7740",
"0/.	c #1C3714",
"a/.	c #75B751",
"b/.	c #284F12",
"c/.	c #080D06",
"d/.	c #203716",
"e/.	c #6C9F49",
"f/.	c #0F1F0A",
"g/.	c #223616",
"h/.	c #60974C",
"i/.	c #345B25",
"j/.	c #0A1808",
"k/.	c #5A8A43",
"l/.	c #467430",
"m/.	c #000807",
"n/.	c #0F0E07",
"o/.	c #4A6D37",
"p/.	c #71A951",
"q/.	c #497233",
"r/.	c #0D1F05",
"s/.	c #2D4925",
"t/.	c #699F5B",
"u/.	c #558A3F",
"v/.	c #70AC50",
"w/.	c #2E4D22",
"x/.	c #76C656",
"y/.	c #66B445",
"z/.	c #52833D",
"A/.	c #355B27",
"B/.	c #5B9C46",
"C/.	c #579146",
"D/.	c #142A0C",
"E/.	c #3A572C",
"F/.	c #5D954C",
"G/.	c #66B14B",
"H/.	c #365A2C",
"I/.	c #56983F",
"J/.	c #78D84D",
"K/.	c #4E8D32",
"L/.	c #091502",
"M/.	c #406229",
"N/.	c #72A94B",
"O/.	c #5C964E",
"P/.	c #477536",
"Q/.	c #60A150",
"R/.	c #193015",
"S/.	c #3B622A",
"T/.	c #122D08",
"U/.	c #578942",
"V/.	c #416A31",
"W/.	c #38562D",
"X/.	c #52A734",
"Y/.	c #61B84B",
"Z/.	c #29531F",
"`/.	c #042101",
" (.	c #479C2D",
".(.	c #59BF3F",
"+(.	c #437B2F",
"@(.	c #66A743",
"#(.	c #568A44",
"$(.	c #5E9751",
"%(.	c #569045",
"&(.	c #6CA852",
"*(.	c #487334",
"=(.	c #619449",
"-(.	c #2D5222",
";(.	c #516E42",
">(.	c #679F4E",
",(.	c #5F954B",
"'(.	c #375629",
")(.	c #10290A",
"!(.	c #091C05",
"~(.	c #2F5024",
"{(.	c #568B3E",
"](.	c #47752B",
"^(.	c #060F08",
"/(.	c #07060E",
"((.	c #7AB068",
"_(.	c #22351D",
":(.	c #020404",
"<(.	c #030205",
"[(.	c #142915",
"}(.	c #446C36",
"|(.	c #70A850",
"1(.	c #4A7336",
"2(.	c #43662F",
"3(.	c #7AB361",
"4(.	c #000605",
"5(.	c #040A06",
"6(.	c #3B552D",
"7(.	c #79A45D",
"8(.	c #365125",
"9(.	c #406929",
"0(.	c #1E3C13",
"a(.	c #64974C",
"b(.	c #365425",
"c(.	c #0F2206",
"d(.	c #172912",
"e(.	c #5D8C4C",
"f(.	c #4D783A",
"g(.	c #0B0D05",
"h(.	c #000607",
"i(.	c #14340D",
"j(.	c #477532",
"k(.	c #052107",
"l(.	c #213615",
"m(.	c #1C360D",
"n(.	c #6BAC3F",
"o(.	c #63A44A",
"p(.	c #70B345",
"q(.	c #55893F",
"r(.	c #5C983F",
"s(.	c #6CA352",
"t(.	c #1E3314",
"u(.	c #5AA641",
"v(.	c #66BC39",
"w(.	c #498D2B",
"x(.	c #63A349",
"y(.	c #5B8C42",
"z(.	c #6CA358",
"A(.	c #2D4A21",
"B(.	c #18340D",
"C(.	c #3D6029",
"D(.	c #649949",
"E(.	c #619E45",
"F(.	c #578445",
"G(.	c #6DA95A",
"H(.	c #49803C",
"I(.	c #64A343",
"J(.	c #51743E",
"K(.	c #558F39",
"L(.	c #7BC14D",
"M(.	c #254017",
"N(.	c #0C0603",
"O(.	c #060415",
"P(.	c #3A6A25",
"Q(.	c #7AD74C",
"R(.	c #4F8F30",
"S(.	c #001400",
"T(.	c #152E0F",
"U(.	c #589441",
"V(.	c #68A14B",
"W(.	c #5A9645",
"X(.	c #6BA551",
"Y(.	c #508338",
"Z(.	c #5B9844",
"`(.	c #66A84B",
" _.	c #2C411A",
"._.	c #061405",
"+_.	c #0B1707",
"@_.	c #578E40",
"#_.	c #64A346",
"$_.	c #4F8E37",
"%_.	c #65C338",
"&_.	c #4A932E",
"*_.	c #183611",
"=_.	c #64A341",
"-_.	c #65A54C",
";_.	c #60A047",
">_.	c #244618",
",_.	c #3C5D2B",
"'_.	c #619742",
")_.	c #69AB44",
"!_.	c #1D420F",
"~_.	c #081D03",
"{_.	c #193012",
"]_.	c #4A773D",
"^_.	c #060106",
"/_.	c #0C1A05",
"(_.	c #588C43",
"__.	c #5B8B41",
":_.	c #1D2B16",
"<_.	c #6AA756",
"[_.	c #4D8438",
"}_.	c #39542B",
"|_.	c #26441D",
"1_.	c #2C501F",
"2_.	c #6BA553",
"3_.	c #27461B",
"4_.	c #76A65D",
"5_.	c #3A562B",
"6_.	c #050900",
"7_.	c #334920",
"8_.	c #79AA55",
"9_.	c #507339",
"0_.	c #0C1708",
"a_.	c #1B3214",
"b_.	c #6DA859",
"c_.	c #507843",
"d_.	c #60994D",
"e_.	c #1C3118",
"f_.	c #53853E",
"g_.	c #315921",
"h_.	c #58A03D",
"i_.	c #4F9936",
"j_.	c #60A34E",
"k_.	c #1C3613",
"l_.	c #122407",
"m_.	c #659A4F",
"n_.	c #67974F",
"o_.	c #4A7338",
"p_.	c #5AB343",
"q_.	c #5BAA42",
"r_.	c #11210B",
"s_.	c #17320E",
"t_.	c #548240",
"u_.	c #0E220B",
"v_.	c #5D8C4B",
"w_.	c #41662E",
"x_.	c #345525",
"y_.	c #66AC48",
"z_.	c #62944F",
"A_.	c #294820",
"B_.	c #335326",
"C_.	c #1A3910",
"D_.	c #61A446",
"E_.	c #244219",
"F_.	c #5CA24B",
"G_.	c #4D8F34",
"H_.	c #4F863F",
"I_.	c #60AB3F",
"J_.	c #4E8F32",
"K_.	c #6FD64B",
"L_.	c #559E40",
"M_.	c #63A247",
"N_.	c #50893D",
"O_.	c #638D53",
"P_.	c #37592D",
"Q_.	c #6C9E54",
"R_.	c #2C471D",
"S_.	c #14230E",
"T_.	c #568838",
"U_.	c #568A3C",
"V_.	c #264419",
"W_.	c #1C3713",
"X_.	c #62994A",
"Y_.	c #609849",
"Z_.	c #345027",
"`_.	c #0E1907",
" :.	c #0B1605",
".:.	c #05080E",
"+:.	c #435D2E",
"@:.	c #73A250",
"#:.	c #466E37",
"$:.	c #335324",
"%:.	c #76B759",
"&:.	c #3F6231",
"*:.	c #76B254",
"=:.	c #3C5F29",
"-:.	c #040C0B",
";:.	c #090D09",
">:.	c #42602F",
",:.	c #6F9C54",
"':.	c #28431D",
"):.	c #193411",
"!:.	c #6AA751",
"~:.	c #376124",
"{:.	c #233A14",
"]:.	c #355328",
"^:.	c #6B9D4A",
"/:.	c #2D441E",
"(:.	c #232E27",
"_:.	c #36552F",
"::.	c #76A85C",
"<:.	c #375027",
"[:.	c #446732",
"}:.	c #6CA153",
"|:.	c #112407",
"1:.	c #0A1D05",
"2:.	c #082007",
"3:.	c #2E5016",
"4:.	c #639E39",
"5:.	c #476F35",
"6:.	c #23411A",
"7:.	c #608A45",
"8:.	c #5CA340",
"9:.	c #5E9B43",
"0:.	c #41672D",
"a:.	c #152B0C",
"b:.	c #427A2B",
"c:.	c #7BD738",
"d:.	c #5EA635",
"e:.	c #5A8D43",
"f:.	c #375229",
"g:.	c #070C02",
"h:.	c #213817",
"i:.	c #3E6C31",
"j:.	c #5EA743",
"k:.	c #629C45",
"l:.	c #63984D",
"m:.	c #426736",
"n:.	c #192713",
"o:.	c #577F43",
"p:.	c #436E31",
"q:.	c #1F3E10",
"r:.	c #7FC058",
"s:.	c #467531",
"t:.	c #172213",
"u:.	c #709C4E",
"v:.	c #4F8333",
"w:.	c #6B9D50",
"x:.	c #375622",
"y:.	c #446D33",
"z:.	c #69A64F",
"A:.	c #41662D",
"B:.	c #060903",
"C:.	c #355623",
"D:.	c #58933B",
"E:.	c #65A951",
"F:.	c #4D7F3F",
"G:.	c #5C8843",
"H:.	c #70A244",
"I:.	c #5C8949",
"J:.	c #2A4A26",
"K:.	c #0D1E0B",
"L:.	c #0D1F08",
"M:.	c #5C8E40",
"N:.	c #69A650",
"O:.	c #5C9C4A",
"P:.	c #3C6428",
"Q:.	c #579A50",
"R:.	c #56914A",
"S:.	c #537E44",
"T:.	c #639450",
"U:.	c #031208",
"V:.	c #335729",
"W:.	c #64A44B",
"X:.	c #70A351",
"Y:.	c #6C974E",
"Z:.	c #719F53",
"`:.	c #69A344",
" <.	c #4E6F3B",
".<.	c #385E29",
"+<.	c #2A451D",
"@<.	c #080E07",
"#<.	c #25461D",
"$<.	c #4B713A",
"%<.	c #5F8A4C",
"&<.	c #64A350",
"*<.	c #659853",
"=<.	c #2A4E1D",
"-<.	c #6F9C58",
";<.	c #415E2E",
"><.	c #2E451F",
",<.	c #78A053",
"'<.	c #536B3A",
")<.	c #0D170E",
"!<.	c #0E1F09",
"~<.	c #4E8338",
"{<.	c #568A3F",
"]<.	c #172B0F",
"^<.	c #659850",
"/<.	c #060D01",
"(<.	c #080202",
"_<.	c #18300B",
":<.	c #437721",
"<<.	c #62B241",
"[<.	c #61AE49",
"}<.	c #5C9542",
"|<.	c #335023",
"1<.	c #0E1F0A",
"2<.	c #2C4C1E",
"3<.	c #639648",
"4<.	c #6C9C49",
"5<.	c #3F602D",
"6<.	c #223F17",
"7<.	c #659045",
"8<.	c #4F8C31",
"9<.	c #62AF45",
"0<.	c #315520",
"a<.	c #305126",
"b<.	c #203A14",
"c<.	c #34632A",
"d<.	c #5CA850",
"e<.	c #182F12",
"f<.	c #5DA13C",
"g<.	c #4C8B2C",
"h<.	c #6FA85A",
"i<.	c #28401E",
"j<.	c #345A28",
"k<.	c #599849",
"l<.	c #0A2106",
"m<.	c #041002",
"n<.	c #5B8447",
"o<.	c #639446",
"p<.	c #6DBF4E",
"q<.	c #7AD440",
"r<.	c #539738",
"s<.	c #476C34",
"t<.	c #5C8C47",
"u<.	c #6BAC5D",
"v<.	c #2B5023",
"w<.	c #6E9A58",
"x<.	c #446439",
"y<.	c #03060D",
"z<.	c #0A010C",
"A<.	c #547F41",
"B<.	c #68A247",
"C<.	c #4F6E38",
"D<.	c #4D743C",
"E<.	c #6C9951",
"F<.	c #40602B",
"G<.	c #82B55B",
"H<.	c #415F2D",
"I<.	c #061308",
"J<.	c #1E3318",
"K<.	c #5F8A51",
"L<.	c #618B4C",
"M<.	c #203016",
"N<.	c #12040D",
"O<.	c #0B1005",
"P<.	c #42662E",
"Q<.	c #7DB55E",
"R<.	c #3C5A2C",
"S<.	c #649B51",
"T<.	c #407C25",
"U<.	c #60A042",
"V<.	c #608346",
"W<.	c #6A9B4B",
"X<.	c #62954A",
"Y<.	c #547E41",
"Z<.	c #2D471A",
"`<.	c #09130C",
" [.	c #25331F",
".[.	c #678B56",
"+[.	c #6A994D",
"@[.	c #1E2C14",
"#[.	c #68A251",
"$[.	c #639E56",
"%[.	c #64A254",
"&[.	c #66A04C",
"*[.	c #4B713F",
"=[.	c #050B01",
"-[.	c #000900",
";[.	c #4D7443",
">[.	c #415D32",
",[.	c #619A4F",
"'[.	c #6AA94E",
")[.	c #65984C",
"![.	c #63A44C",
"~[.	c #6CB54A",
"{[.	c #679C49",
"][.	c #3D5933",
"^[.	c #13260E",
"/[.	c #2B431D",
"([.	c #4D743A",
"_[.	c #498037",
":[.	c #66A34C",
"<[.	c #65A14C",
"[[.	c #3C5F2E",
"}[.	c #182F13",
"|[.	c #3F712E",
"1[.	c #5BA443",
"2[.	c #477837",
"3[.	c #60B43D",
"4[.	c #61AA49",
"5[.	c #132A0D",
"6[.	c #05080B",
"7[.	c #0B0704",
"8[.	c #0B0408",
"9[.	c #2E4C25",
"0[.	c #6B955B",
"a[.	c #1E3816",
"b[.	c #3E6329",
"c[.	c #65A03D",
"d[.	c #5F9146",
"e[.	c #2E4B21",
"f[.	c #30491B",
"g[.	c #1F3911",
"h[.	c #010901",
"i[.	c #31562A",
"j[.	c #599149",
"k[.	c #6CAA51",
"l[.	c #507C3C",
"m[.	c #508148",
"n[.	c #64A353",
"o[.	c #619043",
"p[.	c #13270A",
"q[.	c #14270E",
"r[.	c #3E5D2F",
"s[.	c #679C50",
"t[.	c #4F853D",
"u[.	c #669C44",
"v[.	c #5CA346",
"w[.	c #6BA550",
"x[.	c #365029",
"y[.	c #68994F",
"z[.	c #001000",
"A[.	c #476D36",
"B[.	c #51823C",
"C[.	c #314B22",
"D[.	c #304622",
"E[.	c #314725",
"F[.	c #1E3612",
"G[.	c #021006",
"H[.	c #55863A",
"I[.	c #4C6938",
"J[.	c #26371A",
"K[.	c #3E5A31",
"L[.	c #111C0E",
"M[.	c #041702",
"N[.	c #3E5D2E",
"O[.	c #5DA03A",
"P[.	c #6ACD3C",
"Q[.	c #62B23D",
"R[.	c #507F36",
"S[.	c #0C1908",
"T[.	c #26381B",
"U[.	c #729A5A",
"V[.	c #4E6F39",
"W[.	c #27381A",
"X[.	c #151C0B",
"Y[.	c #162E0C",
"Z[.	c #56863B",
"`[.	c #112308",
" }.	c #2D4A25",
".}.	c #74AD5C",
"+}.	c #335225",
"@}.	c #244613",
"#}.	c #55A539",
"$}.	c #69C93C",
"%}.	c #5BB03D",
"&}.	c #3B6B2D",
"*}.	c #172C0F",
"=}.	c #66A446",
"-}.	c #457231",
";}.	c #050905",
">}.	c #6AA451",
",}.	c #457E2C",
"'}.	c #57A934",
")}.	c #5A9D3C",
"!}.	c #5D994C",
"~}.	c #5A9A4C",
"{}.	c #5F983F",
"]}.	c #3C742E",
"^}.	c #67B642",
"/}.	c #35491C",
"(}.	c #0A1E06",
"_}.	c #355A23",
":}.	c #6AAC4C",
"<}.	c #5C9A46",
"[}.	c #2F5321",
"}}.	c #649C47",
"|}.	c #263F19",
"1}.	c #608F48",
"2}.	c #3F6633",
"3}.	c #3B5A30",
"4}.	c #639857",
"5}.	c #223A16",
"6}.	c #29491D",
"7}.	c #244510",
"8}.	c #1A2E11",
"9}.	c #63974D",
"0}.	c #4B8234",
"a}.	c #58A03E",
"b}.	c #75A061",
"c}.	c #4D6B37",
"d}.	c #0B1A08",
"e}.	c #060310",
"f}.	c #0C120A",
"g}.	c #253C15",
"h}.	c #3B5726",
"i}.	c #486938",
"j}.	c #548241",
"k}.	c #55803E",
"l}.	c #75A454",
"m}.	c #4D7139",
"n}.	c #1F3013",
"o}.	c #0C180F",
"p}.	c #649845",
"q}.	c #03000F",
"r}.	c #263F17",
"s}.	c #659548",
"t}.	c #192B13",
"u}.	c #12080E",
"v}.	c #0B010B",
"w}.	c #070E07",
"x}.	c #466835",
"y}.	c #7FB159",
"z}.	c #000109",
"A}.	c #1C2D18",
"B}.	c #518838",
"C}.	c #67B140",
"D}.	c #62A13E",
"E}.	c #435E2D",
"F}.	c #253A19",
"G}.	c #091D07",
"H}.	c #04010C",
"I}.	c #08100B",
"J}.	c #1A2D12",
"K}.	c #5D9142",
"L}.	c #5D8849",
"M}.	c #486A37",
"N}.	c #2E4822",
"O}.	c #2E4926",
"P}.	c #2D4B24",
"Q}.	c #4E813F",
"R}.	c #5B854B",
"S}.	c #569B40",
"T}.	c #6AAB4C",
"U}.	c #588B42",
"V}.	c #69A44E",
"W}.	c #386328",
"X}.	c #162D0D",
"Y}.	c #29481B",
"Z}.	c #588243",
"`}.	c #6CA44D",
" |.	c #52823D",
".|.	c #639B51",
"+|.	c #385B2A",
"@|.	c #172B0C",
"#|.	c #254421",
"$|.	c #3F643B",
"%|.	c #1F4116",
"&|.	c #54943C",
"*|.	c #61A242",
"=|.	c #57844B",
"-|.	c #264C1B",
";|.	c #60994B",
">|.	c #090904",
",|.	c #407E28",
"'|.	c #56923C",
")|.	c #6D974F",
"!|.	c #64924E",
"~|.	c #40682F",
"{|.	c #132C08",
"]|.	c #35511F",
"^|.	c #76B54E",
"/|.	c #62B23F",
"(|.	c #4A7E31",
"_|.	c #22410E",
":|.	c #0A0F01",
"<|.	c #325225",
"[|.	c #558841",
"}|.	c #69A443",
"||.	c #567F3B",
"1|.	c #4B743B",
"2|.	c #669944",
"3|.	c #3B5A2A",
"4|.	c #17260E",
"5|.	c #26441B",
"6|.	c #6FA855",
"7|.	c #5B8543",
"8|.	c #061207",
"9|.	c #67A24A",
"0|.	c #5E9053",
"a|.	c #487539",
"b|.	c #599043",
"c|.	c #5F8F4B",
"d|.	c #0C010C",
"e|.	c #060110",
"f|.	c #1C2B15",
"g|.	c #5E9149",
"h|.	c #77B84E",
"i|.	c #406A2A",
"j|.	c #69914D",
"k|.	c #80B75F",
"l|.	c #496D36",
"m|.	c #0C0C05",
"n|.	c #0C040F",
"o|.	c #050A0F",
"p|.	c #102B07",
"q|.	c #5B8D3C",
"r|.	c #6BA446",
"s|.	c #192F0F",
"t|.	c #638948",
"u|.	c #5B7A44",
"v|.	c #73A452",
"w|.	c #597B3C",
"x|.	c #121D10",
"y|.	c #28411A",
"z|.	c #6EA54A",
"A|.	c #4A7737",
"B|.	c #0B2007",
"C|.	c #66974F",
"D|.	c #669C3B",
"E|.	c #68CB45",
"F|.	c #4E9A36",
"G|.	c #204512",
"H|.	c #021401",
"I|.	c #315028",
"J|.	c #659D51",
"K|.	c #5C8D47",
"L|.	c #264217",
"M|.	c #69A34B",
"N|.	c #538F40",
"O|.	c #356321",
"P|.	c #2B4B20",
"Q|.	c #326022",
"R|.	c #73A656",
"S|.	c #14230D",
"T|.	c #60A741",
"U|.	c #3E622E",
"V|.	c #588E49",
"W|.	c #66A042",
"X|.	c #497735",
"Y|.	c #68A353",
"Z|.	c #2C4E1E",
"`|.	c #589239",
" 1.	c #2B4B1B",
".1.	c #619E46",
"+1.	c #27441A",
"@1.	c #274118",
"#1.	c #0C1406",
"$1.	c #2E5024",
"%1.	c #26461B",
"&1.	c #6EA458",
"*1.	c #538F32",
"=1.	c #7EBE55",
"-1.	c #365A2B",
";1.	c #2B3F27",
">1.	c #0B1509",
",1.	c #04040A",
"'1.	c #0A0D04",
")1.	c #29441A",
"!1.	c #669F41",
"~1.	c #6DAD41",
"{1.	c #324F22",
"]1.	c #679450",
"^1.	c #65A24D",
"/1.	c #2A4C1F",
"(1.	c #223918",
"_1.	c #679553",
":1.	c #28421D",
"<1.	c #6D9F51",
"[1.	c #4F783A",
"}1.	c #13260B",
"|1.	c #0F0D0B",
"11.	c #1F3813",
"21.	c #324D22",
"31.	c #0B1B04",
"41.	c #496C37",
"51.	c #679A4C",
"61.	c #233D13",
"71.	c #65A54F",
"81.	c #0F2806",
"91.	c #365228",
"01.	c #7EB35E",
"a1.	c #345A24",
"b1.	c #7EBC59",
"c1.	c #4B7931",
"d1.	c #71A75F",
"e1.	c #02030C",
"f1.	c #060B04",
"g1.	c #65AA47",
"h1.	c #446B35",
"i1.	c #41622D",
"j1.	c #719D55",
"k1.	c #4E7237",
"l1.	c #568644",
"m1.	c #2E5222",
"n1.	c #72AB58",
"o1.	c #111A05",
"p1.	c #63A246",
"q1.	c #4D7A38",
"r1.	c #64954B",
"s1.	c #37582B",
"t1.	c #14290E",
"u1.	c #112908",
"v1.	c #3B7223",
"w1.	c #62A74D",
"x1.	c #70AD5B",
"y1.	c #407328",
"z1.	c #052103",
"A1.	c #19390A",
"B1.	c #497237",
"C1.	c #599542",
"D1.	c #4C8038",
"E1.	c #090600",
"F1.	c #1B3118",
"G1.	c #71C63B",
"H1.	c #6CB743",
"I1.	c #3E5B2B",
"J1.	c #79AE4F",
"K1.	c #4B6C2C",
"L1.	c #27461C",
"M1.	c #56AA40",
"N1.	c #5FCA30",
"O1.	c #7BD43D",
"P1.	c #6FC541",
"Q1.	c #4F9338",
"R1.	c #224710",
"S1.	c #031601",
"T1.	c #0D1B04",
"U1.	c #2C471C",
"V1.	c #6FA74E",
"W1.	c #557E3F",
"X1.	c #43672F",
"Y1.	c #6EA253",
"Z1.	c #496C35",
"`1.	c #10270D",
" 2.	c #67A357",
".2.	c #345228",
"+2.	c #74A35A",
"@2.	c #304923",
"#2.	c #213818",
"$2.	c #3A5A32",
"%2.	c #4E6F3E",
"&2.	c #4C6E40",
"*2.	c #2D4724",
"=2.	c #090004",
"-2.	c #0A1604",
";2.	c #4B763E",
">2.	c #5C8B4C",
",2.	c #63AC32",
"'2.	c #65AC37",
")2.	c #4B803B",
"!2.	c #568646",
"~2.	c #04070C",
"{2.	c #05090A",
"]2.	c #365D2A",
"^2.	c #71AC56",
"/2.	c #2B431B",
"(2.	c #11210A",
"_2.	c #5C8447",
":2.	c #69904D",
"<2.	c #1A2B0D",
"[2.	c #3C5F2D",
"}2.	c #649B49",
"|2.	c #6FA04F",
"12.	c #516F3A",
"22.	c #65A454",
"32.	c #406D35",
"42.	c #5B9240",
"52.	c #4C753D",
"62.	c #324A1E",
"72.	c #31571F",
"82.	c #092208",
"92.	c #1C2912",
"02.	c #50753B",
"a2.	c #6CA05C",
"b2.	c #416439",
"c2.	c #122610",
"d2.	c #52943A",
"e2.	c #5CA03C",
"f2.	c #609D4A",
"g2.	c #59AC3E",
"h2.	c #55903A",
"i2.	c #081503",
"j2.	c #3B6927",
"k2.	c #60AA44",
"l2.	c #6BA355",
"m2.	c #406E2E",
"n2.	c #5E864C",
"o2.	c #34582B",
"p2.	c #508C42",
"q2.	c #345B2B",
"r2.	c #538946",
"s2.	c #70B64B",
"t2.	c #1E3911",
"u2.	c #2F4B1E",
"v2.	c #6FB855",
"w2.	c #65AB53",
"x2.	c #599342",
"y2.	c #3D662C",
"z2.	c #3B622E",
"A2.	c #4A7F3B",
"B2.	c #5CAC3D",
"C2.	c #45782B",
"D2.	c #010016",
"E2.	c #02040F",
"F2.	c #13240B",
"G2.	c #4B7536",
"H2.	c #31521F",
"I2.	c #437735",
"J2.	c #71B45C",
"K2.	c #1A3011",
"L2.	c #4F7935",
"M2.	c #325526",
"N2.	c #000F04",
"O2.	c #73B453",
"P2.	c #0F200C",
"Q2.	c #030409",
"R2.	c #0E0508",
"S2.	c #0A0101",
"T2.	c #72AF4E",
"U2.	c #395627",
"V2.	c #071A04",
"W2.	c #4E7732",
"X2.	c #618E40",
"Y2.	c #2E4E23",
"Z2.	c #6DA253",
"`2.	c #28441C",
" 3.	c #6A9C56",
".3.	c #436833",
"+3.	c #57863E",
"@3.	c #5E9A30",
"#3.	c #71BE2D",
"$3.	c #4A7C3C",
"%3.	c #578E4B",
"&3.	c #0E2209",
"*3.	c #01010A",
"=3.	c #192C0E",
"-3.	c #325A22",
";3.	c #557C41",
">3.	c #3F602E",
",3.	c #0B0001",
"'3.	c #243B1A",
")3.	c #6CA156",
"!3.	c #3B592A",
"~3.	c #729E56",
"{3.	c #3A5B23",
"]3.	c #73AD51",
"^3.	c #4D6F39",
"/3.	c #4F783E",
"(3.	c #67A346",
"_3.	c #5D8E42",
":3.	c #5E9C39",
"<3.	c #78D841",
"[3.	c #54A92A",
"}3.	c #579044",
"|3.	c #2D5521",
"13.	c #263A1D",
"23.	c #62914D",
"33.	c #67A447",
"43.	c #4D8C39",
"53.	c #6ABB50",
"63.	c #71B256",
"73.	c #070700",
"83.	c #72C049",
"93.	c #4F8931",
"03.	c #021100",
"a3.	c #3C5824",
"b3.	c #78AD56",
"c3.	c #549138",
"d3.	c #5EBB31",
"e3.	c #4D972D",
"f3.	c #5DAC44",
"g3.	c #74D243",
"h3.	c #75CE43",
"i3.	c #508E34",
"j3.	c #284C1B",
"k3.	c #0A1F09",
"l3.	c #2F4D1F",
"m3.	c #679C51",
"n3.	c #3F6033",
"o3.	c #5C8C40",
"p3.	c #3A5A2C",
"q3.	c #204314",
"r3.	c #5EA849",
"s3.	c #45712E",
"t3.	c #5C8E3D",
"u3.	c #3A572B",
"v3.	c #467E2E",
"w3.	c #7DD547",
"x3.	c #4B872C",
"y3.	c #6F9E55",
"z3.	c #2C4A21",
"A3.	c #3F672E",
"B3.	c #68A557",
"C3.	c #27471F",
"D3.	c #263D1B",
"E3.	c #6A9D54",
"F3.	c #39622B",
"G3.	c #44682D",
"H3.	c #6EA04B",
"I3.	c #293C1D",
"J3.	c #182E10",
"K3.	c #31491F",
"L3.	c #82B257",
"M3.	c #070F0C",
"N3.	c #28481E",
"O3.	c #66A24F",
"P3.	c #52833A",
"Q3.	c #6D9E50",
"R3.	c #17220F",
"S3.	c #203912",
"T3.	c #719952",
"U3.	c #2C4621",
"V3.	c #020907",
"W3.	c #030D01",
"X3.	c #213A16",
"Y3.	c #4D7037",
"Z3.	c #689B4F",
"`3.	c #609B4D",
" 4.	c #669D49",
".4.	c #1A360F",
"+4.	c #1D3E11",
"@4.	c #2B521F",
"#4.	c #203718",
"$4.	c #0B2002",
"%4.	c #4D7230",
"&4.	c #6E9D48",
"*4.	c #223818",
"=4.	c #4B7541",
"-4.	c #4C7644",
";4.	c #568A48",
">4.	c #4E893E",
",4.	c #59A437",
"'4.	c #062602",
")4.	c #264618",
"!4.	c #5DA744",
"~4.	c #457A38",
"{4.	c #62A249",
"]4.	c #5E9A49",
"^4.	c #0D1E0D",
"/4.	c #49833E",
"(4.	c #446F3A",
"_4.	c #4E7844",
":4.	c #040414",
"<4.	c #0E1A14",
"[4.	c #4B8330",
"}4.	c #244017",
"|4.	c #061406",
"14.	c #335728",
"24.	c #061803",
"34.	c #3C602F",
"44.	c #6EA45A",
"54.	c #4D7D3B",
"64.	c #71AA56",
"74.	c #497335",
"84.	c #080808",
"94.	c #060F03",
"04.	c #31501C",
"a4.	c #6EA144",
"b4.	c #457033",
"c4.	c #41672B",
"d4.	c #76A852",
"e4.	c #1A2C0F",
"f4.	c #69964A",
"g4.	c #527D3D",
"h4.	c #3C672C",
"i4.	c #649D4F",
"j4.	c #1F3916",
"k4.	c #0A0104",
"l4.	c #1D3010",
"m4.	c #6C954B",
"n4.	c #577E3E",
"o4.	c #061606",
"p4.	c #658F4E",
"q4.	c #508A30",
"r4.	c #7ED147",
"s4.	c #4C8D2D",
"t4.	c #405E30",
"u4.	c #253B14",
"v4.	c #53A236",
"w4.	c #5CA13F",
"x4.	c #669E47",
"y4.	c #375729",
"z4.	c #567A38",
"A4.	c #507134",
"B4.	c #5FA540",
"C4.	c #2D561F",
"D4.	c #2E4C1F",
"E4.	c #61A252",
"F4.	c #2E4D20",
"G4.	c #000706",
"H4.	c #4A6B34",
"I4.	c #70AD4C",
"J4.	c #69A743",
"K4.	c #599D2C",
"L4.	c #58A531",
"M4.	c #659C55",
"N4.	c #6D944B",
"O4.	c #1A3B0E",
"P4.	c #193C0F",
"Q4.	c #5C8E3C",
"R4.	c #619B45",
"S4.	c #466936",
"T4.	c #0C1C0A",
"U4.	c #5C8E3E",
"V4.	c #4B7933",
"W4.	c #70A747",
"X4.	c #42672A",
"Y4.	c #344E29",
"Z4.	c #517642",
"`4.	c #49773B",
" 5.	c #6A9854",
".5.	c #446B2F",
"+5.	c #69A552",
"@5.	c #436A32",
"#5.	c #33621E",
"$5.	c #5EA141",
"%5.	c #6FCC44",
"&5.	c #64B848",
"*5.	c #5B9441",
"=5.	c #355725",
"-5.	c #1A3112",
";5.	c #6C9A51",
">5.	c #395A28",
",5.	c #77AE59",
"'5.	c #213616",
")5.	c #3F622C",
"!5.	c #73A157",
"~5.	c #507B39",
"{5.	c #031302",
"]5.	c #031201",
"^5.	c #253A17",
"/5.	c #74A158",
"(5.	c #477234",
"_5.	c #63B93C",
":5.	c #64B442",
"<5.	c #46792C",
"[5.	c #58833D",
"}5.	c #1D350F",
"|5.	c #152D0A",
"15.	c #0C2505",
"25.	c #51893E",
"35.	c #5D9843",
"45.	c #172C0C",
"55.	c #5A8944",
"65.	c #649448",
"75.	c #385627",
"85.	c #78A957",
"95.	c #324E1F",
"05.	c #3F5E2F",
"a5.	c #629849",
"b5.	c #355425",
"c5.	c #73AD58",
"d5.	c #3C5A2B",
"e5.	c #040B06",
"f5.	c #080004",
"g5.	c #507A46",
"h5.	c #233817",
"i5.	c #2D4A1F",
"j5.	c #689C49",
"k5.	c #537A37",
"l5.	c #090A05",
"m5.	c #4A733F",
"n5.	c #68A150",
"o5.	c #588241",
"p5.	c #2F4D20",
"q5.	c #5C8E44",
"r5.	c #335924",
"s5.	c #4E7933",
"t5.	c #6BA448",
"u5.	c #203D18",
"v5.	c #569D3E",
"w5.	c #5EA542",
"x5.	c #5B8846",
"y5.	c #0E2309",
"z5.	c #5F914D",
"A5.	c #5EA244",
"B5.	c #63B346",
"C5.	c #244416",
"D5.	c #071905",
"E5.	c #478E2F",
"F5.	c #325D23",
"G5.	c #100F0E",
"H5.	c #08030E",
"I5.	c #010904",
"J5.	c #060912",
"K5.	c #68A555",
"L5.	c #5F914A",
"M5.	c #2C4220",
"N5.	c #101507",
"O5.	c #080308",
"P5.	c #0C040E",
"Q5.	c #213919",
"R5.	c #3D622E",
"S5.	c #0A140F",
"T5.	c #05020F",
"U5.	c #071303",
"V5.	c #3D642A",
"W5.	c #6FAB4C",
"X5.	c #3C6325",
"Y5.	c #0D1703",
"Z5.	c #101805",
"`5.	c #4F7939",
" 6.	c #5C8948",
".6.	c #253E1B",
"+6.	c #6BA85A",
"@6.	c #406435",
"#6.	c #61954B",
"$6.	c #578842",
"%6.	c #0C1C08",
"&6.	c #517D3E",
"*6.	c #1F3113",
"=6.	c #183110",
"-6.	c #2D531D",
";6.	c #64AA49",
">6.	c #56A53A",
",6.	c #60B931",
"'6.	c #78A660",
")6.	c #213819",
"!6.	c #31581B",
"~6.	c #73C640",
"{6.	c #62BC37",
"]6.	c #44852F",
"^6.	c #709B56",
"/6.	c #0F2807",
"(6.	c #466530",
"_6.	c #7CA458",
":6.	c #4B7A3E",
"<6.	c #466E3B",
"[6.	c #16280E",
"}6.	c #66A651",
"|6.	c #264B18",
"16.	c #070901",
"26.	c #080209",
"36.	c #031509",
"46.	c #467928",
"56.	c #7BB352",
"66.	c #3B5E27",
"76.	c #305420",
"86.	c #649C43",
"96.	c #447332",
"06.	c #568639",
"a6.	c #5A8048",
"b6.	c #53A040",
"c6.	c #62A24D",
"d6.	c #669C50",
"e6.	c #293D1B",
"f6.	c #71A350",
"g6.	c #4F8539",
"h6.	c #6AAC52",
"i6.	c #73A561",
"j6.	c #609948",
"k6.	c #578142",
"l6.	c #405F2D",
"m6.	c #669947",
"n6.	c #6B9F46",
"o6.	c #436830",
"p6.	c #689C55",
"q6.	c #5D943E",
"r6.	c #437427",
"s6.	c #509D2F",
"t6.	c #58AA37",
"u6.	c #6AB148",
"v6.	c #64964D",
"w6.	c #305121",
"x6.	c #74A759",
"y6.	c #496B32",
"z6.	c #588536",
"A6.	c #0A1502",
"B6.	c #0C2005",
"C6.	c #608D41",
"D6.	c #425F30",
"E6.	c #344C27",
"F6.	c #629047",
"G6.	c #6A9E4F",
"H6.	c #446537",
"I6.	c #0C1303",
"J6.	c #5C933C",
"K6.	c #508937",
"L6.	c #416F35",
"M6.	c #102307",
"N6.	c #14250D",
"O6.	c #5A8E3D",
"P6.	c #4A7630",
"Q6.	c #497E35",
"R6.	c #57A63A",
"S6.	c #6BAC4A",
"T6.	c #58963C",
"U6.	c #5D973C",
"V6.	c #5B983B",
"W6.	c #4A8131",
"X6.	c #375F24",
"Y6.	c #70AD54",
"Z6.	c #1F3616",
"`6.	c #6C9E50",
" 7.	c #446830",
".7.	c #182C10",
"+7.	c #729D5A",
"@7.	c #3C592E",
"#7.	c #000509",
"$7.	c #3A592A",
"%7.	c #73A759",
"&7.	c #090E06",
"*7.	c #36582C",
"=7.	c #75B15C",
"-7.	c #102007",
";7.	c #4B7337",
">7.	c #568347",
",7.	c #36582B",
"'7.	c #426A34",
")7.	c #5F9548",
"!7.	c #25411A",
"~7.	c #3C6725",
"{7.	c #689E44",
"]7.	c #17250C",
"^7.	c #010F02",
"/7.	c #456F32",
"(7.	c #6BA34D",
"_7.	c #274418",
":7.	c #0B2008",
"<7.	c #4D7D41",
"[7.	c #497F3C",
"}7.	c #38602A",
"|7.	c #61A749",
"17.	c #508D34",
"27.	c #507948",
"37.	c #436439",
"47.	c #486B37",
"57.	c #558043",
"67.	c #438031",
"77.	c #63BD41",
"87.	c #3A6825",
"97.	c #172B11",
"07.	c #63A04D",
"a7.	c #214415",
"b7.	c #01050A",
"c7.	c #04090C",
"d7.	c #0A090E",
"e7.	c #253D1D",
"f7.	c #4F6F3E",
"g7.	c #73A85D",
"h7.	c #548547",
"i7.	c #071B05",
"j7.	c #203918",
"k7.	c #55863D",
"l7.	c #669948",
"m7.	c #0C1F0A",
"n7.	c #020C05",
"o7.	c #0E1B0A",
"p7.	c #78B258",
"q7.	c #385A25",
"r7.	c #293E1A",
"s7.	c #2A3921",
"t7.	c #233E19",
"u7.	c #679954",
"v7.	c #466F39",
"w7.	c #79AD5D",
"x7.	c #040808",
"y7.	c #73A451",
"z7.	c #3D6625",
"A7.	c #3E6E23",
"B7.	c #6BA44A",
"C7.	c #3E6734",
"D7.	c #55834C",
"E7.	c #5E9D49",
"F7.	c #65A745",
"G7.	c #477E3C",
"H7.	c #53A83B",
"I7.	c #52A42F",
"J7.	c #56923E",
"K7.	c #548142",
"L7.	c #000F00",
"M7.	c #16310F",
"N7.	c #2D451F",
"O7.	c #4A6730",
"P7.	c #598D47",
"Q7.	c #4A9D2C",
"R7.	c #67CC3F",
"S7.	c #6CD835",
"T7.	c #477C2F",
"U7.	c #608D4C",
"V7.	c #3E6431",
"W7.	c #5B9841",
"X7.	c #6DA351",
"Y7.	c #3D592B",
"Z7.	c #304C29",
"`7.	c #719C5F",
" 8.	c #182A12",
".8.	c #487831",
"+8.	c #4F8636",
"@8.	c #466F32",
"#8.	c #020409",
"$8.	c #050709",
"%8.	c #43692A",
"&8.	c #77C74D",
"*8.	c #509833",
"=8.	c #51893C",
"-8.	c #649B4B",
";8.	c #447231",
">8.	c #629A4C",
",8.	c #56903E",
"'8.	c #5D9444",
")8.	c #5D9F48",
"!8.	c #3D5C30",
"~8.	c #335A24",
"{8.	c #4E733A",
"]8.	c #66A250",
"^8.	c #2C4F22",
"/8.	c #0A0401",
"(8.	c #0D0204",
"_8.	c #050401",
":8.	c #496A36",
"<8.	c #56833C",
"[8.	c #6FA44F",
"}8.	c #4E8A39",
"|8.	c #68B045",
"18.	c #3F692A",
"28.	c #395628",
"38.	c #608548",
"48.	c #13280B",
"58.	c #427029",
"68.	c #81CB4A",
"78.	c #56892D",
"88.	c #1F3912",
"98.	c #4A7A37",
"08.	c #6CC241",
"a8.	c #76CE38",
"b8.	c #5E9E3B",
"c8.	c #4A6E3A",
"d8.	c #4A7937",
"e8.	c #5A8043",
"f8.	c #426130",
"g8.	c #234113",
"h8.	c #72AA4A",
"i8.	c #253816",
"j8.	c #213617",
"k8.	c #50793A",
"l8.	c #6D9E55",
"m8.	c #649B46",
"n8.	c #2E4C21",
"o8.	c #5F973E",
"p8.	c #70BD47",
"q8.	c #529142",
"r8.	c #5F944B",
"s8.	c #6DA64B",
"t8.	c #5E9946",
"u8.	c #4F7E43",
"v8.	c #2F4C26",
"w8.	c #4B6C36",
"x8.	c #699D55",
"y8.	c #395D28",
"z8.	c #6AA456",
"A8.	c #6CAE53",
"B8.	c #45792C",
"C8.	c #71C948",
"D8.	c #3E5A2D",
"E8.	c #567C43",
"F8.	c #67AD4B",
"G8.	c #6CC343",
"H8.	c #6AAE4B",
"I8.	c #03020E",
"J8.	c #0E1B06",
"K8.	c #527B43",
"L8.	c #588344",
"M8.	c #141E0A",
"N8.	c #336025",
"O8.	c #59A142",
"P8.	c #48743B",
"Q8.	c #01010C",
"R8.	c #010E02",
"S8.	c #3F652C",
"T8.	c #71AC4F",
"U8.	c #2A491B",
"V8.	c #3A5B2C",
"W8.	c #7AB661",
"X8.	c #446D38",
"Y8.	c #487637",
"Z8.	c #6CA851",
"`8.	c #4B713D",
" 9.	c #679E57",
".9.	c #5F934D",
"+9.	c #2A461E",
"@9.	c #192C0D",
"#9.	c #385C28",
"$9.	c #193912",
"%9.	c #4B753A",
"&9.	c #57963D",
"*9.	c #66BC4B",
"=9.	c #2E5A1F",
"-9.	c #26441C",
";9.	c #63A74D",
">9.	c #29581C",
",9.	c #62C848",
"'9.	c #5E9F43",
")9.	c #6CA54E",
"!9.	c #000D02",
"~9.	c #1B321A",
"{9.	c #051308",
"]9.	c #08080D",
"^9.	c #49723C",
"/9.	c #6BA954",
"(9.	c #4D883C",
"_9.	c #0C190A",
":9.	c #16260D",
"<9.	c #4A7333",
"[9.	c #669C4D",
"}9.	c #27411B",
"|9.	c #13220A",
"19.	c #50753C",
"29.	c #71A755",
"39.	c #214112",
"49.	c #64A740",
"59.	c #74B355",
"69.	c #72A65D",
"79.	c #56933B",
"89.	c #548144",
"99.	c #6AB44E",
"09.	c #32591D",
"a9.	c #5E9045",
"b9.	c #65AE4A",
"c9.	c #63C33A",
"d9.	c #65B63F",
"e9.	c #619554",
"f9.	c #3F6338",
"g9.	c #1D3E0F",
"h9.	c #497B3B",
"i9.	c #4B913E",
"j9.	c #57A744",
"k9.	c #66BF3D",
"l9.	c #477033",
"m9.	c #72A05D",
"n9.	c #3E5F32",
"o9.	c #456636",
"p9.	c #558246",
"q9.	c #5AA342",
"r9.	c #6DA259",
"s9.	c #5A7938",
"t9.	c #49713B",
"u9.	c #599539",
"v9.	c #50A128",
"w9.	c #74D63E",
"x9.	c #62AB3B",
"y9.	c #618F4D",
"z9.	c #162B11",
"A9.	c #66A450",
"B9.	c #325725",
"C9.	c #365028",
"D9.	c #61904B",
"E9.	c #456B35",
"F9.	c #5A7F45",
"G9.	c #090A0D",
"H9.	c #46682A",
"I9.	c #73C446",
"J9.	c #66C145",
"K9.	c #2C481E",
"L9.	c #467935",
"M9.	c #61B944",
"N9.	c #559A41",
"O9.	c #1D3814",
"P9.	c #406932",
"Q9.	c #5D8945",
"R9.	c #548338",
"S9.	c #6BA452",
"T9.	c #5F9D41",
"U9.	c #4C8732",
"V9.	c #021000",
"W9.	c #1A2A14",
"X9.	c #669D55",
"Y9.	c #529336",
"Z9.	c #2B4B19",
"`9.	c #6D9D44",
" 0.	c #568638",
".0.	c #669F4C",
"+0.	c #071509",
"@0.	c #427024",
"#0.	c #5C8F4B",
"$0.	c #4E8133",
"%0.	c #5A953C",
"&0.	c #3F7028",
"*0.	c #2F560F",
"=0.	c #112C06",
"-0.	c #112B0C",
";0.	c #031301",
">0.	c #0A1C08",
",0.	c #56874B",
"'0.	c #406A35",
")0.	c #74AA5F",
"!0.	c #223A1A",
"~0.	c #41612E",
"{0.	c #476F2C",
"]0.	c #87CF51",
"^0.	c #32591E",
"/0.	c #6DAB51",
"(0.	c #4F8039",
"_0.	c #0C2604",
":0.	c #4B8335",
"<0.	c #538448",
"[0.	c #0F250C",
"}0.	c #4B7140",
"|0.	c #6DA05C",
"10.	c #72A654",
"20.	c #324D21",
"30.	c #558A33",
"40.	c #538044",
"50.	c #65A141",
"60.	c #6BC345",
"70.	c #255416",
"80.	c #112D08",
"90.	c #4F8A33",
"00.	c #619F43",
"a0.	c #3E5925",
"b0.	c #749F51",
"c0.	c #273C1E",
"d0.	c #11280A",
"e0.	c #67B138",
"f0.	c #68AF4B",
"g0.	c #5E8E46",
"h0.	c #071705",
"i0.	c #4A7632",
"j0.	c #223A14",
"k0.	c #355B26",
"l0.	c #74B959",
"m0.	c #426932",
"n0.	c #4D763E",
"o0.	c #6BA65A",
"p0.	c #4E7E40",
"q0.	c #48713D",
"r0.	c #69A455",
"s0.	c #335528",
"t0.	c #588341",
"u0.	c #577D41",
"v0.	c #051D02",
"w0.	c #3F692C",
"x0.	c #619949",
"y0.	c #324D24",
"z0.	c #577B40",
"A0.	c #76A75D",
"B0.	c #164009",
"C0.	c #5BB93A",
"D0.	c #549F39",
"E0.	c #294C1C",
"F0.	c #5C9E44",
"G0.	c #0A2206",
"H0.	c #599349",
"I0.	c #4F952D",
"J0.	c #6DBB44",
"K0.	c #2F5220",
"L0.	c #72A460",
"M0.	c #356424",
"N0.	c #53823E",
"O0.	c #589B43",
"P0.	c #467233",
"Q0.	c #142813",
"R0.	c #0A0508",
"S0.	c #2C441F",
"T0.	c #6FA34E",
"U0.	c #50803A",
"V0.	c #355826",
"W0.	c #69A44F",
"X0.	c #528B3B",
"Y0.	c #2E4C20",
"Z0.	c #0F1907",
"`0.	c #0D1F06",
" a.	c #446D32",
".a.	c #649948",
"+a.	c #3D662F",
"@a.	c #264318",
"#a.	c #4F7D37",
"$a.	c #76CF4A",
"%a.	c #6EB84C",
"&a.	c #55A738",
"*a.	c #56923B",
"=a.	c #548B3E",
"-a.	c #78C94A",
";a.	c #6EB542",
">a.	c #1F3D0F",
",a.	c #6A974E",
"'a.	c #4E7338",
")a.	c #091704",
"!a.	c #5A8F3D",
"~a.	c #5D9E3A",
"{a.	c #1B460B",
"]a.	c #0C220A",
"^a.	c #20441A",
"/a.	c #64A157",
"(a.	c #41732F",
"_a.	c #65BD44",
":a.	c #4E9034",
"<a.	c #649647",
"[a.	c #43653A",
"}a.	c #72A763",
"|a.	c #587E41",
"1a.	c #3D5C32",
"2a.	c #264B1B",
"3a.	c #456B38",
"4a.	c #609347",
"5a.	c #70C046",
"6a.	c #6BC93D",
"7a.	c #2B5614",
"8a.	c #152009",
"9a.	c #0A0000",
"0a.	c #0D2303",
"aa.	c #487739",
"ba.	c #477139",
"ca.	c #1D2E14",
"da.	c #76AC58",
"ea.	c #3B6527",
"fa.	c #659346",
"ga.	c #1A2D0F",
"ha.	c #223515",
"ia.	c #263A1B",
"ja.	c #366426",
"ka.	c #5E8B42",
"la.	c #567B3F",
"ma.	c #558545",
"na.	c #64A74B",
"oa.	c #234717",
"pa.	c #192C11",
"qa.	c #689753",
"ra.	c #314C27",
"sa.	c #548446",
"ta.	c #548A42",
"ua.	c #243D19",
"va.	c #5EA035",
"wa.	c #7BC541",
"xa.	c #21380F",
"ya.	c #01000E",
"za.	c #334E25",
"Aa.	c #61934E",
"Ba.	c #4E8038",
"Ca.	c #567944",
"Da.	c #213719",
"Ea.	c #416238",
"Fa.	c #75A74B",
"Ga.	c #4E7430",
"Ha.	c #64A14C",
"Ia.	c #060D04",
"Ja.	c #284326",
"Ka.	c #6AA64A",
"La.	c #44792D",
"Ma.	c #4F733E",
"Na.	c #558234",
"Oa.	c #4A8C27",
"Pa.	c #57A543",
"Qa.	c #3D772B",
"Ra.	c #24431C",
"Sa.	c #6EA060",
"Ta.	c #456D32",
"Ua.	c #5C923F",
"Va.	c #0E1C05",
"Wa.	c #5E8F46",
"Xa.	c #4C7936",
"Ya.	c #73A853",
"Za.	c #72A054",
"`a.	c #7CBD4D",
" b.	c #52893E",
".b.	c #193A06",
"+b.	c #62C331",
"@b.	c #5CAB35",
"#b.	c #609F47",
"$b.	c #111707",
"%b.	c #15300A",
"&b.	c #6BA149",
"*b.	c #68A14C",
"=b.	c #5C8A45",
"-b.	c #59863E",
";b.	c #050908",
">b.	c #274218",
",b.	c #699A4D",
"'b.	c #2C4A1E",
")b.	c #263D18",
"!b.	c #79A858",
"~b.	c #3D5926",
"{b.	c #3A6524",
"]b.	c #73C44E",
"^b.	c #4A7D2E",
"/b.	c #6AAE48",
"(b.	c #00010E",
"_b.	c #73C050",
":b.	c #2B4A1B",
"<b.	c #77AF50",
"[b.	c #456C30",
"}b.	c #021003",
"|b.	c #497C3E",
"1b.	c #6AAF57",
"2b.	c #4B7B3B",
"3b.	c #385D2C",
"4b.	c #4B773B",
"5b.	c #68A357",
"6b.	c #58814C",
"7b.	c #4C8F37",
"8b.	c #66C53F",
"9b.	c #499C2A",
"0b.	c #37522D",
"ab.	c #689155",
"bb.	c #365329",
"cb.	c #112109",
"db.	c #577A45",
"eb.	c #7CA95D",
"fb.	c #659048",
"gb.	c #2E4520",
"hb.	c #2C681C",
"ib.	c #66D641",
"jb.	c #3D7128",
"kb.	c #5D884C",
"lb.	c #031602",
"mb.	c #45663D",
"nb.	c #52814B",
"ob.	c #3D6A25",
"pb.	c #6CCA40",
"qb.	c #41762A",
"rb.	c #67A059",
"sb.	c #4D9833",
"tb.	c #507E3B",
"ub.	c #2B4D20",
"vb.	c #294D18",
"wb.	c #659E4C",
"xb.	c #4F7639",
"yb.	c #080A07",
"zb.	c #3C502D",
"Ab.	c #070F02",
"Bb.	c #0B0002",
"Cb.	c #698E51",
"Db.	c #58823F",
"Eb.	c #52783D",
"Fb.	c #75A459",
"Gb.	c #74A256",
"Hb.	c #58833E",
"Ib.	c #111D07",
"Jb.	c #0D1C03",
"Kb.	c #456A30",
"Lb.	c #619951",
"Mb.	c #28451D",
"Nb.	c #6CAA53",
"Ob.	c #3D622D",
"Pb.	c #65B23B",
"Qb.	c #3F6E2D",
"Rb.	c #569943",
"Sb.	c #5CA645",
"Tb.	c #71BD52",
"Ub.	c #508934",
"Vb.	c #6DB546",
"Wb.	c #538B34",
"Xb.	c #132409",
"Yb.	c #304B24",
"Zb.	c #7BB35F",
"`b.	c #050210",
" c.	c #233A15",
".c.	c #709B54",
"+c.	c #3D572D",
"@c.	c #335623",
"#c.	c #74A657",
"$c.	c #253D18",
"%c.	c #6BBB48",
"&c.	c #68D136",
"*c.	c #47683A",
"=c.	c #10280E",
"-c.	c #233D1C",
";c.	c #1B2A15",
">c.	c #264019",
",c.	c #6AA24B",
"'c.	c #498D28",
")c.	c #79DB32",
"!c.	c #325B14",
"~c.	c #030A01",
"{c.	c #455F31",
"]c.	c #6A9243",
"^c.	c #578739",
"/c.	c #6DA54C",
"(c.	c #538339",
"_c.	c #4E763A",
":c.	c #699D5C",
"<c.	c #4C8033",
"[c.	c #6DAB49",
"}c.	c #72AA5A",
"|c.	c #67A359",
"1c.	c #477335",
"2c.	c #699F52",
"3c.	c #28461F",
"4c.	c #172E0F",
"5c.	c #0A0106",
"6c.	c #32531F",
"7c.	c #75A852",
"8c.	c #192B11",
"9c.	c #437134",
"0c.	c #62AA44",
"ac.	c #2D4720",
"bc.	c #3A552C",
"cc.	c #669F47",
"dc.	c #6AA941",
"ec.	c #42662B",
"fc.	c #0E0111",
"gc.	c #05050D",
"hc.	c #4D7B32",
"ic.	c #3B6529",
"jc.	c #629648",
"kc.	c #64A149",
"lc.	c #639359",
"mc.	c #324D27",
"nc.	c #3D682D",
"oc.	c #5F9248",
"pc.	c #14200A",
"qc.	c #568246",
"rc.	c #45662D",
"sc.	c #426A2B",
"tc.	c #518939",
"uc.	c #73C24C",
"vc.	c #509533",
"wc.	c #559F41",
"xc.	c #557B45",
"yc.	c #446636",
"zc.	c #214417",
"Ac.	c #6EB853",
"Bc.	c #73A558",
"Cc.	c #3C5D28",
"Dc.	c #13270D",
"Ec.	c #233C19",
"Fc.	c #679859",
"Gc.	c #4F7834",
"Hc.	c #2A4D11",
"Ic.	c #71CA38",
"Jc.	c #67BE3A",
"Kc.	c #62A74E",
"Lc.	c #10250B",
"Mc.	c #090D03",
"Nc.	c #4B7734",
"Oc.	c #70B357",
"Pc.	c #4E7B3D",
"Qc.	c #1D3614",
"Rc.	c #54903E",
"Sc.	c #51853D",
"Tc.	c #689351",
"Uc.	c #5C9943",
"Vc.	c #26441A",
"Wc.	c #0B1608",
"Xc.	c #55843E",
"Yc.	c #0E0306",
"Zc.	c #54833D",
"`c.	c #0A1908",
" d.	c #65A644",
".d.	c #386324",
"+d.	c #639B5C",
"@d.	c #4C753E",
"#d.	c #060F01",
"$d.	c #2A4325",
"%d.	c #102311",
"&d.	c #27451C",
"*d.	c #68A84B",
"=d.	c #396528",
"-d.	c #213815",
";d.	c #649C52",
">d.	c #436C35",
",d.	c #0D1C05",
"'d.	c #263E21",
")d.	c #487B31",
"!d.	c #6CAA4E",
"~d.	c #4F7D42",
"{d.	c #395F30",
"]d.	c #4C7842",
"^d.	c #70A75D",
"/d.	c #39612B",
"(d.	c #3F7D29",
"_d.	c #456534",
":d.	c #6EA357",
"<d.	c #366227",
"[d.	c #456E38",
"}d.	c #5A994E",
"|d.	c #0F1C08",
"1d.	c #203714",
"2d.	c #53A13A",
"3d.	c #6DD445",
"4d.	c #5A8B4E",
"5d.	c #45613A",
"6d.	c #599540",
"7d.	c #629E48",
"8d.	c #213D1B",
"9d.	c #59A04C",
"0d.	c #255218",
"ad.	c #6BC93F",
"bd.	c #66A742",
"cd.	c #4A902F",
"dd.	c #4E8C3D",
"ed.	c #466A39",
"fd.	c #72AC56",
"gd.	c #1F3E15",
"hd.	c #254418",
"id.	c #71A94B",
"jd.	c #425F2D",
"kd.	c #7CA45A",
"ld.	c #253618",
"md.	c #070B03",
"nd.	c #2A431E",
"od.	c #4B7339",
"pd.	c #6CAA4D",
"qd.	c #4C8238",
"rd.	c #3A5C2B",
"sd.	c #76A154",
"td.	c #304D28",
"ud.	c #497533",
"vd.	c #609643",
"wd.	c #1D3615",
"xd.	c #385829",
"yd.	c #70A94B",
"zd.	c #2E501D",
"Ad.	c #466F2E",
"Bd.	c #7BCA45",
"Cd.	c #6AB344",
"Dd.	c #426A35",
"Ed.	c #437634",
"Fd.	c #6AB548",
"Gd.	c #5DAD43",
"Hd.	c #477E32",
"Id.	c #6CA746",
"Jd.	c #44672F",
"Kd.	c #47723B",
"Ld.	c #5A8C4B",
"Md.	c #41632F",
"Nd.	c #6C9C4D",
"Od.	c #1B2F0E",
"Pd.	c #598B45",
"Qd.	c #40682E",
"Rd.	c #3A7A1E",
"Sd.	c #6BD83E",
"Td.	c #4D8537",
"Ud.	c #6B9D4F",
"Vd.	c #1B2E12",
"Wd.	c #49763B",
"Xd.	c #7BBE64",
"Yd.	c #4E7B38",
"Zd.	c #081304",
"`d.	c #0A0E09",
" e.	c #4B7535",
".e.	c #64AB47",
"+e.	c #64C640",
"@e.	c #69CC37",
"#e.	c #3B6720",
"$e.	c #4E723A",
"%e.	c #6FA949",
"&e.	c #5D8946",
"*e.	c #4D6A35",
"=e.	c #75B15B",
"-e.	c #67AA45",
";e.	c #5E8847",
">e.	c #4D8A36",
",e.	c #568939",
"'e.	c #668D4B",
")e.	c #31561F",
"!e.	c #214317",
"~e.	c #395C2D",
"{e.	c #658F47",
"]e.	c #729951",
"^e.	c #253518",
"/e.	c #09120E",
"(e.	c #557E40",
"_e.	c #4D7736",
":e.	c #092103",
"<e.	c #476E37",
"[e.	c #7BAB60",
"}e.	c #6EA558",
"|e.	c #426C2F",
"1e.	c #518E33",
"2e.	c #549E32",
"3e.	c #031808",
"4e.	c #0C1E08",
"5e.	c #4F9730",
"6e.	c #60AE41",
"7e.	c #64B13E",
"8e.	c #66B94D",
"9e.	c #48962F",
"0e.	c #3D6F28",
"ae.	c #1E3C15",
"be.	c #1E3216",
"ce.	c #6C9547",
"de.	c #496A2C",
"ee.	c #3F6631",
"fe.	c #629D4A",
"ge.	c #669050",
"he.	c #496B33",
"ie.	c #41692C",
"je.	c #59883F",
"ke.	c #4A8133",
"le.	c #77A65E",
"me.	c #2A4022",
"ne.	c #3C6630",
"oe.	c #5D9F44",
"pe.	c #5A8F39",
"qe.	c #3D6428",
"re.	c #70AC4A",
"se.	c #1E3D0D",
"te.	c #5B963E",
"ue.	c #477F35",
"ve.	c #5DB44A",
"we.	c #264C1D",
"xe.	c #263D1D",
"ye.	c #72AA58",
"ze.	c #356125",
"Ae.	c #518F3B",
"Be.	c #6FA257",
"Ce.	c #51963F",
"De.	c #4D7D3A",
"Ee.	c #6C9A54",
"Fe.	c #1C3614",
"Ge.	c #061105",
"He.	c #577E3B",
"Ie.	c #638545",
"Je.	c #131D0B",
"Ke.	c #2F4D21",
"Le.	c #6AA154",
"Me.	c #355727",
"Ne.	c #76AF5F",
"Oe.	c #102211",
"Pe.	c #4D7C36",
"Qe.	c #496B37",
"Re.	c #5F934B",
"Se.	c #234116",
"Te.	c #6CAE4A",
"Ue.	c #4A7C30",
"Ve.	c #62954F",
"We.	c #447137",
"Xe.	c #132A10",
"Ye.	c #508A40",
"Ze.	c #4D7B3A",
"`e.	c #70A968",
" f.	c #4C773E",
".f.	c #3E612A",
"+f.	c #537842",
"@f.	c #749F64",
"#f.	c #4F7346",
"$f.	c #2A4622",
"%f.	c #030E00",
"&f.	c #6B995A",
"*f.	c #4A733A",
"=f.	c #65994F",
"-f.	c #3B5E2C",
";f.	c #579A3D",
">f.	c #1C3A17",
",f.	c #5E9653",
"'f.	c #315225",
")f.	c #000408",
"!f.	c #060213",
"~f.	c #143608",
"{f.	c #64BF40",
"]f.	c #4F9432",
"^f.	c #1C3F14",
"/f.	c #5FA54F",
"(f.	c #223E1B",
"_f.	c #1F3C16",
":f.	c #5CA740",
"<f.	c #62A947",
"[f.	c #2B481F",
"}f.	c #578C42",
"|f.	c #385A29",
"1f.	c #4E8F2A",
"2f.	c #74CC44",
"3f.	c #4C8D32",
"4f.	c #507D3E",
"5f.	c #0F280A",
"6f.	c #304D26",
"7f.	c #6BA563",
"8f.	c #1C3918",
"9f.	c #0A1104",
"0f.	c #548841",
"af.	c #538840",
"bf.	c #2C5020",
"cf.	c #538540",
"df.	c #435F30",
"ef.	c #02080B",
"ff.	c #264317",
"gf.	c #456F34",
"hf.	c #73AD59",
"if.	c #4E8436",
"jf.	c #3C5E29",
"kf.	c #466C36",
"lf.	c #71A75C",
"mf.	c #5A883E",
"nf.	c #335424",
"of.	c #050C02",
"pf.	c #3C6127",
"qf.	c #669F42",
"rf.	c #3D6626",
"sf.	c #579133",
"tf.	c #62A449",
"uf.	c #38582D",
"vf.	c #2F571B",
"wf.	c #5AAE3C",
"xf.	c #65C538",
"yf.	c #4B8630",
"zf.	c #71A35B",
"Af.	c #1A3015",
"Bf.	c #446630",
"Cf.	c #659440",
"Df.	c #4C722D",
"Ef.	c #49652F",
"Ff.	c #76A053",
"Gf.	c #1C3015",
"Hf.	c #010011",
"If.	c #1A3C0F",
"Jf.	c #70C44B",
"Kf.	c #69B53A",
"Lf.	c #406631",
"Mf.	c #70A657",
"Nf.	c #75A958",
"Of.	c #314E24",
"Pf.	c #030012",
"Qf.	c #60AF32",
"Rf.	c #4EA033",
"Sf.	c #5BA552",
"Tf.	c #46712A",
"Uf.	c #78AC48",
"Vf.	c #5A7E41",
"Wf.	c #2F4D1D",
"Xf.	c #4A8436",
"Yf.	c #579442",
"Zf.	c #71A458",
"`f.	c #5C8745",
" g.	c #62894B",
".g.	c #76AC54",
"+g.	c #6FA944",
"@g.	c #598D37",
"#g.	c #406632",
"$g.	c #1F3510",
"%g.	c #3E5C27",
"&g.	c #78A351",
"*g.	c #0D1C06",
"=g.	c #325E1E",
"-g.	c #4B902A",
";g.	c #5FB73E",
">g.	c #63B139",
",g.	c #60B13C",
"'g.	c #6EC151",
")g.	c #1C3615",
"!g.	c #000306",
"~g.	c #080804",
"{g.	c #161718",
"]g.	c #233517",
"^g.	c #7DAD5B",
"/g.	c #44732F",
"(g.	c #6EAF52",
"_g.	c #59A838",
":g.	c #5AAB3B",
"<g.	c #6CBA58",
"[g.	c #589A3A",
"}g.	c #436F24",
"|g.	c #416528",
"1g.	c #729F56",
"2g.	c #5B8A3D",
"3g.	c #518F33",
"4g.	c #75AB50",
"5g.	c #5A8243",
"6g.	c #000F01",
"7g.	c #527840",
"8g.	c #5C9F43",
"9g.	c #112008",
"0g.	c #0E2006",
"ag.	c #57913D",
"bg.	c #528D39",
"cg.	c #426C2C",
"dg.	c #223913",
"eg.	c #6BA444",
"fg.	c #508435",
"gg.	c #5DA143",
"hg.	c #629355",
"ig.	c #5CA53D",
"jg.	c #1C3810",
"kg.	c #020809",
"lg.	c #537D3E",
"mg.	c #1C3411",
"ng.	c #65A646",
"og.	c #4D913A",
"pg.	c #4B783B",
"qg.	c #4F7433",
"rg.	c #1C3414",
"sg.	c #1C3012",
"tg.	c #2C441D",
"ug.	c #6F9951",
"vg.	c #486D2F",
"wg.	c #0E2109",
"xg.	c #649550",
"yg.	c #4C7837",
"zg.	c #5C8F47",
"Ag.	c #466D35",
"Bg.	c #619D4E",
"Cg.	c #0E2208",
"Dg.	c #5B9246",
"Eg.	c #5B9839",
"Fg.	c #83C84B",
"Gg.	c #4A7732",
"Hg.	c #437429",
"Ig.	c #5DA046",
"Jg.	c #50803C",
"Kg.	c #77A654",
"Lg.	c #50783B",
"Mg.	c #6FA452",
"Ng.	c #4D6F3C",
"Og.	c #061206",
"Pg.	c #294121",
"Qg.	c #70A05D",
"Rg.	c #0F1D0F",
"Sg.	c #2E5C1F",
"Tg.	c #66AD4E",
"Ug.	c #5C9E4D",
"Vg.	c #4F823F",
"Wg.	c #67B350",
"Xg.	c #1A3D13",
"Yg.	c #447430",
"Zg.	c #559637",
"`g.	c #0A0800",
" h.	c #2F5D16",
".h.	c #75D043",
"+h.	c #2F5B19",
"@h.	c #395C2C",
"#h.	c #061E03",
"$h.	c #5F8F52",
"%h.	c #4E7E3B",
"&h.	c #466332",
"*h.	c #59863F",
"=h.	c #345E1B",
"-h.	c #72D939",
";h.	c #539A39",
">h.	c #487238",
",h.	c #6BAB54",
"'h.	c #639D42",
")h.	c #253B1B",
"!h.	c #101D08",
"~h.	c #2B4921",
"{h.	c #273F1C",
"]h.	c #061902",
"^h.	c #1D3F0D",
"/h.	c #264519",
"(h.	c #1E2E14",
"_h.	c #10200B",
":h.	c #254019",
"<h.	c #76A957",
"[h.	c #5C8743",
"}h.	c #40602F",
"|h.	c #4B7034",
"1h.	c #6BA359",
"2h.	c #589241",
"3h.	c #6CA749",
"4h.	c #4A7E2D",
"5h.	c #031701",
"6h.	c #0F1B0D",
"7h.	c #517A34",
"8h.	c #68A252",
"9h.	c #395D2E",
"0h.	c #66A151",
"ah.	c #163010",
"bh.	c #3C7327",
"ch.	c #73D246",
"dh.	c #71BC54",
"eh.	c #51873B",
"fh.	c #406F2C",
"gh.	c #375621",
"hh.	c #6FA04B",
"ih.	c #263A17",
"jh.	c #29471A",
"kh.	c #74A95B",
"lh.	c #3C5A29",
"mh.	c #1B2B11",
"nh.	c #4A8227",
"oh.	c #7ED340",
"ph.	c #4B7D33",
"qh.	c #589740",
"rh.	c #6FA55D",
"sh.	c #42642F",
"th.	c #618E45",
"uh.	c #16250C",
"vh.	c #5FA23D",
"wh.	c #73D73A",
"xh.	c #5BB837",
"yh.	c #6DC144",
"zh.	c #6AB940",
"Ah.	c #437331",
"Bh.	c #315824",
"Ch.	c #589C46",
"Dh.	c #1A3514",
"Eh.	c #081609",
"Fh.	c #519536",
"Gh.	c #4B8135",
"Hh.	c #62874B",
"Ih.	c #22460E",
"Jh.	c #3C5D29",
"Kh.	c #71AA57",
"Lh.	c #529338",
"Mh.	c #407E35",
"Nh.	c #4D8B38",
"Oh.	c #71A954",
"Ph.	c #496E31",
"Qh.	c #3C6925",
"Rh.	c #559138",
"Sh.	c #6BB24F",
"Th.	c #5DAC38",
"Uh.	c #60A440",
"Vh.	c #6BB34E",
"Wh.	c #4EA334",
"Xh.	c #4B8935",
"Yh.	c #30491F",
"Zh.	c #161719",
"`h.	c #060401",
" i.	c #080402",
".i.	c #628F4B",
"+i.	c #4F7735",
"@i.	c #3B5E28",
"#i.	c #345B20",
"$i.	c #46772D",
"%i.	c #70B243",
"&i.	c #64B23D",
"*i.	c #64A842",
"=i.	c #63A842",
"-i.	c #62AA43",
";i.	c #569437",
">i.	c #54873F",
",i.	c #3F6D2E",
"'i.	c #234413",
")i.	c #071403",
"!i.	c #629751",
"~i.	c #234615",
"{i.	c #6B9764",
"]i.	c #2B4525",
"^i.	c #66A14C",
"/i.	c #66A144",
"(i.	c #75BB55",
"_i.	c #5C934A",
":i.	c #537E3D",
"<i.	c #050E0B",
"[i.	c #1C3215",
"}i.	c #6CA451",
"|i.	c #395D29",
"1i.	c #629449",
"2i.	c #5DA34B",
"3i.	c #4C7C3A",
"4i.	c #69BC34",
"5i.	c #68B64B",
"6i.	c #6DA657",
"7i.	c #73A953",
"8i.	c #519937",
"9i.	c #72B44E",
"0i.	c #6DA25E",
"ai.	c #3E632E",
"bi.	c #72A85A",
"ci.	c #1B3113",
"di.	c #6CB449",
"ei.	c #6F9653",
"fi.	c #40612E",
"gi.	c #68A14E",
"hi.	c #538042",
"ii.	c #182C0C",
"ji.	c #7DC643",
"ki.	c #73B249",
"li.	c #497038",
"mi.	c #4B8238",
"ni.	c #5EA33A",
"oi.	c #488837",
"pi.	c #27441F",
"qi.	c #1F3114",
"ri.	c #5E8D4C",
"si.	c #16260E",
"ti.	c #27561A",
"ui.	c #5FBC3F",
"vi.	c #66B247",
"wi.	c #467236",
"xi.	c #0A2409",
"yi.	c #16290B",
"zi.	c #66A73E",
"Ai.	c #448620",
"Bi.	c #1E3F11",
"Ci.	c #68A34E",
"Di.	c #2F4E1F",
"Ei.	c #050700",
"Fi.	c #46772A",
"Gi.	c #66B338",
"Hi.	c #18370C",
"Ii.	c #679757",
"Ji.	c #3E602F",
"Ki.	c #36552B",
"Li.	c #182E0E",
"Mi.	c #223D14",
"Ni.	c #62A745",
"Oi.	c #244B15",
"Pi.	c #63BC31",
"Qi.	c #5EB635",
"Ri.	c #6F9D56",
"Si.	c #39612A",
"Ti.	c #66A943",
"Ui.	c #6EAB55",
"Vi.	c #477A37",
"Wi.	c #5D9C47",
"Xi.	c #72B458",
"Yi.	c #5A8941",
"Zi.	c #325122",
"`i.	c #46782B",
" j.	c #5F9444",
".j.	c #74A957",
"+j.	c #78AE62",
"@j.	c #529445",
"#j.	c #427F2F",
"$j.	c #3A5B29",
"%j.	c #4B6A39",
"&j.	c #75A056",
"*j.	c #619138",
"=j.	c #3E652C",
"-j.	c #446C2F",
";j.	c #6EAC4A",
">j.	c #7ACE44",
",j.	c #376323",
"'j.	c #080902",
")j.	c #1A2C10",
"!j.	c #5D9544",
"~j.	c #69BD4F",
"{j.	c #1D4312",
"]j.	c #61934D",
"^j.	c #3E5C30",
"/j.	c #4B7838",
"(j.	c #43742D",
"_j.	c #519739",
":j.	c #69BE43",
"<j.	c #2E5719",
"[j.	c #63904C",
"}j.	c #557543",
"|j.	c #081805",
"1j.	c #5E873F",
"2j.	c #537D33",
"3j.	c #508C2A",
"4j.	c #5FB239",
"5j.	c #649E4D",
"6j.	c #73A54F",
"7j.	c #6D9F4E",
"8j.	c #40742E",
"9j.	c #6BCA42",
"0j.	c #509C31",
"aj.	c #6BA655",
"bj.	c #4D6C30",
"cj.	c #1E3510",
"dj.	c #75A252",
"ej.	c #334A21",
"fj.	c #345B1F",
"gj.	c #70BD45",
"hj.	c #265B0E",
"ij.	c #5C9044",
"jj.	c #5D8B4A",
"kj.	c #5F8343",
"lj.	c #1B3115",
"mj.	c #6CAD59",
"nj.	c #5AA740",
"oj.	c #365D26",
"pj.	c #366228",
"qj.	c #568B45",
"rj.	c #203E14",
"sj.	c #4D863E",
"tj.	c #529B3B",
"uj.	c #5EAB40",
"vj.	c #5FAE3E",
"wj.	c #58A636",
"xj.	c #59AE3C",
"yj.	c #61B253",
"zj.	c #488433",
"Aj.	c #3D5E2E",
"Bj.	c #386426",
"Cj.	c #6DBA48",
"Dj.	c #6DA948",
"Ej.	c #4A7534",
"Fj.	c #446637",
"Gj.	c #16171A",
"Hj.	c #070401",
"Ij.	c #0A0507",
"Jj.	c #3F6A30",
"Kj.	c #51953B",
"Lj.	c #79AD5A",
"Mj.	c #587A3C",
"Nj.	c #73A14D",
"Oj.	c #406228",
"Pj.	c #041401",
"Qj.	c #1A300B",
"Rj.	c #325426",
"Sj.	c #66B544",
"Tj.	c #53A03B",
"Uj.	c #539D3B",
"Vj.	c #6EAC56",
"Wj.	c #4F8A34",
"Xj.	c #3B6329",
"Yj.	c #22391B",
"Zj.	c #121F0C",
"`j.	c #204811",
" k.	c #65AE48",
".k.	c #2D4421",
"+k.	c #426536",
"@k.	c #528E3F",
"#k.	c #6CA05A",
"$k.	c #203019",
"%k.	c #061109",
"&k.	c #557C42",
"*k.	c #63A542",
"=k.	c #4D952B",
"-k.	c #487632",
";k.	c #538949",
">k.	c #304B27",
",k.	c #669C55",
"'k.	c #1A3410",
")k.	c #5A973E",
"!k.	c #518940",
"~k.	c #6CA04F",
"{k.	c #4B882E",
"]k.	c #77C749",
"^k.	c #33681D",
"/k.	c #1B3514",
"(k.	c #214813",
"_k.	c #4A7136",
":k.	c #0A0710",
"<k.	c #61944F",
"[k.	c #64AA40",
"}k.	c #72B848",
"|k.	c #497534",
"1k.	c #639247",
"2k.	c #1B2B12",
"3k.	c #6CA84E",
"4k.	c #0E150B",
"5k.	c #547549",
"6k.	c #4E7A33",
"7k.	c #59893E",
"8k.	c #4A783A",
"9k.	c #4F8235",
"0k.	c #78B056",
"ak.	c #3E612B",
"bk.	c #5C8343",
"ck.	c #628A4B",
"dk.	c #1D3216",
"ek.	c #1D450E",
"fk.	c #5CB93D",
"gk.	c #6ACA4F",
"hk.	c #3F752A",
"ik.	c #0D1B06",
"jk.	c #0E1A0C",
"kk.	c #0E2105",
"lk.	c #539633",
"mk.	c #67C73F",
"nk.	c #244E17",
"ok.	c #487432",
"pk.	c #568D38",
"qk.	c #0D1709",
"rk.	c #0F2107",
"sk.	c #6EA44E",
"tk.	c #477830",
"uk.	c #254C21",
"vk.	c #5EA750",
"wk.	c #2B461C",
"xk.	c #65A245",
"yk.	c #1C3511",
"zk.	c #10260A",
"Ak.	c #599644",
"Bk.	c #335526",
"Ck.	c #031800",
"Dk.	c #50863D",
"Ek.	c #385B2B",
"Fk.	c #488029",
"Gk.	c #72C63D",
"Hk.	c #58853F",
"Ik.	c #568041",
"Jk.	c #518A39",
"Kk.	c #54963F",
"Lk.	c #528F3A",
"Mk.	c #324925",
"Nk.	c #6B9454",
"Ok.	c #0E1B0C",
"Pk.	c #437F2C",
"Qk.	c #204119",
"Rk.	c #2A5721",
"Sk.	c #5A8542",
"Tk.	c #6CAB55",
"Uk.	c #569340",
"Vk.	c #3D5932",
"Wk.	c #1C2C13",
"Xk.	c #223612",
"Yk.	c #46692C",
"Zk.	c #67A452",
"`k.	c #559740",
" l.	c #3D652A",
".l.	c #46752B",
"+l.	c #628A52",
"@l.	c #1B2916",
"#l.	c #1C3915",
"$l.	c #619F3E",
"%l.	c #3F5A27",
"&l.	c #3F5A30",
"*l.	c #75A84F",
"=l.	c #274015",
"-l.	c #436E33",
";l.	c #456E33",
">l.	c #6EC245",
",l.	c #60BC37",
"'l.	c #598F3B",
")l.	c #16280B",
"!l.	c #334A2A",
"~l.	c #719B58",
"{l.	c #273E19",
"]l.	c #304A22",
"^l.	c #76A562",
"/l.	c #456F2E",
"(l.	c #3E6D22",
"_l.	c #284A1A",
":l.	c #1E3812",
"<l.	c #38572C",
"[l.	c #71A558",
"}l.	c #4FA332",
"|l.	c #66C743",
"1l.	c #497A36",
"2l.	c #58873E",
"3l.	c #71A053",
"4l.	c #558040",
"5l.	c #456834",
"6l.	c #1D3811",
"7l.	c #66A24D",
"8l.	c #547540",
"9l.	c #4E8D3B",
"0l.	c #578640",
"al.	c #0F1D06",
"bl.	c #010E06",
"cl.	c #46802D",
"dl.	c #57923E",
"el.	c #1F3517",
"fl.	c #6DA257",
"gl.	c #5DA43B",
"hl.	c #38661D",
"il.	c #121F0A",
"jl.	c #203A18",
"kl.	c #356326",
"ll.	c #4A882F",
"ml.	c #71AC5A",
"nl.	c #5BAF3C",
"ol.	c #66AB48",
"pl.	c #467C2A",
"ql.	c #325E22",
"rl.	c #183612",
"sl.	c #061201",
"tl.	c #2A4A1A",
"ul.	c #69A34A",
"vl.	c #386024",
"wl.	c #4D7535",
"xl.	c #5F9D45",
"yl.	c #4B893A",
"zl.	c #121918",
"Al.	c #4D8B35",
"Bl.	c #6AC847",
"Cl.	c #366524",
"Dl.	c #365320",
"El.	c #71B351",
"Fl.	c #3B6923",
"Gl.	c #254C18",
"Hl.	c #3D6F2F",
"Il.	c #55903D",
"Jl.	c #70B752",
"Kl.	c #5CAA3E",
"Ll.	c #6CA558",
"Ml.	c #3E6626",
"Nl.	c #427E22",
"Ol.	c #64C43A",
"Pl.	c #16200D",
"Ql.	c #688E56",
"Rl.	c #4E7B3C",
"Sl.	c #518E34",
"Tl.	c #608B4A",
"Ul.	c #65BA3F",
"Vl.	c #75E03E",
"Wl.	c #69B043",
"Xl.	c #294423",
"Yl.	c #64A853",
"Zl.	c #457834",
"`l.	c #65994A",
" m.	c #579D3E",
".m.	c #4E833A",
"+m.	c #537F3B",
"@m.	c #6FC43F",
"#m.	c #52912F",
"$m.	c #07020B",
"%m.	c #6B9851",
"&m.	c #253C18",
"*m.	c #040110",
"=m.	c #476B30",
"-m.	c #679D47",
";m.	c #253C1A",
">m.	c #6EA356",
",m.	c #4B7A35",
"'m.	c #5C9335",
")m.	c #7BBB59",
"!m.	c #5D883E",
"~m.	c #58883F",
"{m.	c #000209",
"]m.	c #131F06",
"^m.	c #578F44",
"/m.	c #679A52",
"(m.	c #4B6C37",
"_m.	c #0D2608",
":m.	c #385A23",
"<m.	c #6FA556",
"[m.	c #5D9C41",
"}m.	c #213515",
"|m.	c #0A0004",
"1m.	c #5DAD38",
"2m.	c #75D44B",
"3m.	c #3C742A",
"4m.	c #081A05",
"5m.	c #4C8837",
"6m.	c #5AA53B",
"7m.	c #458233",
"8m.	c #4CA035",
"9m.	c #28491A",
"0m.	c #204713",
"am.	c #6BB84F",
"bm.	c #537F45",
"cm.	c #497941",
"dm.	c #011400",
"em.	c #4D753D",
"fm.	c #588246",
"gm.	c #041106",
"hm.	c #426B36",
"im.	c #5F904D",
"jm.	c #3B5A32",
"km.	c #5F9150",
"lm.	c #2C5216",
"mm.	c #80D43E",
"nm.	c #447822",
"om.	c #4A6B3F",
"pm.	c #68965D",
"qm.	c #4D7B3D",
"rm.	c #61A44F",
"sm.	c #2D5620",
"tm.	c #658C4B",
"um.	c #50723B",
"vm.	c #1E3D15",
"wm.	c #5C9F42",
"xm.	c #58B132",
"ym.	c #6FD147",
"zm.	c #59AA42",
"Am.	c #0F0607",
"Bm.	c #628C55",
"Cm.	c #73A557",
"Dm.	c #527B35",
"Em.	c #3A512A",
"Fm.	c #193812",
"Gm.	c #679A4F",
"Hm.	c #5C9847",
"Im.	c #3A5E2D",
"Jm.	c #3F5925",
"Km.	c #75A04C",
"Lm.	c #273F15",
"Mm.	c #5B863B",
"Nm.	c #6CAB4D",
"Om.	c #487C33",
"Pm.	c #42762D",
"Qm.	c #61963E",
"Rm.	c #4B6D31",
"Sm.	c #557D3F",
"Tm.	c #07140B",
"Um.	c #578647",
"Vm.	c #487B36",
"Wm.	c #4E6F38",
"Xm.	c #5BB538",
"Ym.	c #4C8A36",
"Zm.	c #588648",
"`m.	c #56893B",
" n.	c #68A14F",
".n.	c #2D4823",
"+n.	c #001600",
"@n.	c #5B8848",
"#n.	c #3F612F",
"$n.	c #3B6727",
"%n.	c #72BF47",
"&n.	c #5A9F48",
"*n.	c #1C3A15",
"=n.	c #395926",
"-n.	c #629644",
";n.	c #1D3A13",
">n.	c #080A04",
",n.	c #486F37",
"'n.	c #71C643",
")n.	c #5B9D35",
"!n.	c #3B6D2E",
"~n.	c #53973D",
"{n.	c #549E33",
"]n.	c #6BB248",
"^n.	c #60934A",
"/n.	c #477238",
"(n.	c #2A541C",
"_n.	c #18300E",
":n.	c #030602",
"<n.	c #477235",
"[n.	c #508039",
"}n.	c #6FC051",
"|n.	c #4CA039",
"1n.	c #0D2109",
"2n.	c #121917",
"3n.	c #0A0301",
"4n.	c #141F09",
"5n.	c #529034",
"6n.	c #539838",
"7n.	c #3D702C",
"8n.	c #70CB3F",
"9n.	c #4F8C2F",
"0n.	c #234617",
"an.	c #538A43",
"bn.	c #6FB755",
"cn.	c #55A433",
"dn.	c #5C9041",
"en.	c #68A742",
"fn.	c #74C83F",
"gn.	c #457D2B",
"hn.	c #293E1B",
"in.	c #69AD4D",
"jn.	c #4A7335",
"kn.	c #172510",
"ln.	c #1C3119",
"mn.	c #1C3313",
"nn.	c #295915",
"on.	c #448126",
"pn.	c #386723",
"qn.	c #62924F",
"rn.	c #69A04F",
"sn.	c #3C6230",
"tn.	c #1F341C",
"un.	c #13250E",
"vn.	c #37602B",
"wn.	c #63A059",
"xn.	c #477639",
"yn.	c #6DA24D",
"zn.	c #669E52",
"An.	c #4B7C33",
"Bn.	c #68AF41",
"Cn.	c #0D1605",
"Dn.	c #0D0202",
"En.	c #5E8844",
"Fn.	c #03040E",
"Gn.	c #699552",
"Hn.	c #3A5929",
"In.	c #19290F",
"Jn.	c #618B45",
"Kn.	c #132712",
"Ln.	c #4C743A",
"Mn.	c #4B7434",
"Nn.	c #030F02",
"On.	c #3C5C29",
"Pn.	c #659A47",
"Qn.	c #0B1807",
"Rn.	c #060209",
"Sn.	c #2A451B",
"Tn.	c #5F913B",
"Un.	c #375B32",
"Vn.	c #3A5A35",
"Wn.	c #436135",
"Xn.	c #6B9057",
"Yn.	c #192D10",
"Zn.	c #274219",
"`n.	c #538134",
" o.	c #396D21",
".o.	c #05000D",
"+o.	c #3D7924",
"@o.	c #76D04A",
"#o.	c #4F9B35",
"$o.	c #3B8121",
"%o.	c #34572A",
"&o.	c #518935",
"*o.	c #41672E",
"=o.	c #59963F",
"-o.	c #2B4F27",
";o.	c #6EAF64",
">o.	c #254220",
",o.	c #132B08",
"'o.	c #253E17",
")o.	c #61A552",
"!o.	c #284E1E",
"~o.	c #63A43D",
"{o.	c #64A444",
"]o.	c #0C2307",
"^o.	c #172714",
"/o.	c #031403",
"(o.	c #42692C",
"_o.	c #56863F",
":o.	c #314F25",
"<o.	c #709856",
"[o.	c #28540F",
"}o.	c #316916",
"|o.	c #427932",
"1o.	c #384E31",
"2o.	c #151011",
"3o.	c #2E4E1D",
"4o.	c #54773B",
"5o.	c #62854C",
"6o.	c #70A451",
"7o.	c #66AF49",
"8o.	c #417431",
"9o.	c #172D12",
"0o.	c #3E6730",
"ao.	c #5B904A",
"bo.	c #5E9C4B",
"co.	c #36612E",
"do.	c #0C190E",
"eo.	c #13230B",
"fo.	c #608C46",
"go.	c #456A35",
"ho.	c #43722F",
"io.	c #619344",
"jo.	c #63904E",
"ko.	c #192B16",
"lo.	c #374837",
"mo.	c #28441B",
"no.	c #2A451E",
"oo.	c #76A056",
"po.	c #2A3E1A",
"qo.	c #6AA558",
"ro.	c #51853C",
"so.	c #6BB64B",
"to.	c #60AA40",
"uo.	c #568B43",
"vo.	c #4D7639",
"wo.	c #6CA14B",
"xo.	c #3A6328",
"yo.	c #497B33",
"zo.	c #6AAC56",
"Ao.	c #547B40",
"Bo.	c #73A555",
"Co.	c #284A19",
"Do.	c #182610",
"Eo.	c #182913",
"Fo.	c #041507",
"Go.	c #203119",
"Ho.	c #72AB5B",
"Io.	c #569E3B",
"Jo.	c #3E682E",
"Ko.	c #326722",
"Lo.	c #63B93A",
"Mo.	c #6AB047",
"No.	c #68B34A",
"Oo.	c #54913F",
"Po.	c #2A501A",
"Qo.	c #16290E",
"Ro.	c #0F1A09",
"So.	c #1F321A",
"To.	c #4F8031",
"Uo.	c #77B058",
"Vo.	c #2E4A23",
"Wo.	c #43642D",
"Xo.	c #60A043",
"Yo.	c #60AB4E",
"Zo.	c #1E3819",
"`o.	c #26351C",
" p.	c #77A761",
".p.	c #2A4C1E",
"+p.	c #5A824C",
"@p.	c #6C9F59",
"#p.	c #578844",
"$p.	c #58963D",
"%p.	c #6A9B55",
"&p.	c #66A148",
"*p.	c #3F7626",
"=p.	c #355629",
"-p.	c #1F3216",
";p.	c #0D1A09",
">p.	c #0B1C08",
",p.	c #224416",
"'p.	c #3D6A29",
")p.	c #5C8C41",
"!p.	c #70964C",
"~p.	c #6BA350",
"{p.	c #4A8336",
"]p.	c #5D8347",
"^p.	c #384E2C",
"/p.	c #041009",
"(p.	c #3F5F2B",
"_p.	c #73A653",
":p.	c #6EA15B",
"<p.	c #73A44D",
"[p.	c #385624",
"}p.	c #5B8A4B",
"|p.	c #679D5A",
"1p.	c #6AA34E",
"2p.	c #599B3D",
"3p.	c #477530",
"4p.	c #477638",
"5p.	c #5D8E4B",
"6p.	c #5B9D40",
"7p.	c #3F6D2A",
"8p.	c #69A551",
"9p.	c #3D682E",
"0p.	c #72A25A",
"ap.	c #334F23",
"bp.	c #05010A",
"cp.	c #426A30",
"dp.	c #649D4C",
"ep.	c #1C2D12",
"fp.	c #58763F",
"gp.	c #608946",
"hp.	c #1B2D10",
"ip.	c #0D1A0C",
"jp.	c #1F390C",
"kp.	c #68AD3C",
"lp.	c #5EB139",
"mp.	c #63A544",
"np.	c #0E0F0C",
"op.	c #132210",
"pp.	c #416631",
"qp.	c #6AB94C",
"rp.	c #467F28",
"sp.	c #679D50",
"tp.	c #60905A",
"up.	c #57834D",
"vp.	c #649852",
"wp.	c #26421E",
"xp.	c #618F4B",
"yp.	c #4C7339",
"zp.	c #0A1406",
"Ap.	c #3D6B27",
"Bp.	c #33541E",
"Cp.	c #182A15",
"Dp.	c #284F18",
"Ep.	c #5FA43C",
"Fp.	c #6ABC47",
"Gp.	c #3C7620",
"Hp.	c #3D642F",
"Ip.	c #669851",
"Jp.	c #2B4C1C",
"Kp.	c #71AF57",
"Lp.	c #2A4A23",
"Mp.	c #10240B",
"Np.	c #61904E",
"Op.	c #588446",
"Pp.	c #639A4E",
"Qp.	c #15290A",
"Rp.	c #365A27",
"Sp.	c #75C156",
"Tp.	c #274F19",
"Up.	c #70A555",
"Vp.	c #3A5E26",
"Wp.	c #4C7937",
"Xp.	c #040A02",
"Yp.	c #273B1D",
"Zp.	c #6C9257",
"`p.	c #031105",
" q.	c #2E5321",
".q.	c #5CAA3F",
"+q.	c #67C844",
"@q.	c #60A143",
"#q.	c #5F9139",
"$q.	c #3E5F30",
"%q.	c #1E3E18",
"&q.	c #2D5223",
"*q.	c #5FA146",
"=q.	c #68A358",
"-q.	c #1E361A",
";q.	c #08170A",
">q.	c #304B26",
",q.	c #71A854",
"'q.	c #131F09",
")q.	c #13200F",
"!q.	c #09060E",
"~q.	c #547C40",
"{q.	c #5A7F43",
"]q.	c #12210B",
"^q.	c #5B8443",
"/q.	c #567C45",
"(q.	c #578C49",
"_q.	c #3C6B31",
":q.	c #2E4F23",
"<q.	c #699C50",
"[q.	c #4A8037",
"}q.	c #59A13E",
"|q.	c #4E873D",
"1q.	c #4B8237",
"2q.	c #426B31",
"3q.	c #70A85D",
"4q.	c #6C9B5C",
"5q.	c #587E44",
"6q.	c #527A3C",
"7q.	c #2E5521",
"8q.	c #345126",
"9q.	c #598F3F",
"0q.	c #6BA254",
"aq.	c #6CA95A",
"bq.	c #558539",
"cq.	c #253717",
"dq.	c #4B8436",
"eq.	c #548F3C",
"fq.	c #71A443",
"gq.	c #72AA56",
"hq.	c #589A44",
"iq.	c #61884C",
"jq.	c #486D36",
"kq.	c #254A15",
"lq.	c #10260B",
"mq.	c #0E1609",
"nq.	c #1C2F15",
"oq.	c #436F26",
"pq.	c #679644",
"qq.	c #598D45",
"rq.	c #74B148",
"sq.	c #73A35A",
"tq.	c #648944",
"uq.	c #344F21",
"vq.	c #6B9757",
"wq.	c #2E4424",
"xq.	c #131A11",
"yq.	c #050500",
"zq.	c #29441E",
"Aq.	c #60944A",
"Bq.	c #375F27",
"Cq.	c #5C8B44",
"Dq.	c #6EAB4B",
"Eq.	c #599A35",
"Fq.	c #488438",
"Gq.	c #528840",
"Hq.	c #6A9E57",
"Iq.	c #407424",
"Jq.	c #1F2F0F",
"Kq.	c #254119",
"Lq.	c #52773A",
"Mq.	c #35562A",
"Nq.	c #7EB46C",
"Oq.	c #273921",
"Pq.	c #74A157",
"Qq.	c #3E6229",
"Rq.	c #44682A",
"Sq.	c #72A254",
"Tq.	c #365527",
"Uq.	c #0C1D09",
"Vq.	c #203F1A",
"Wq.	c #265016",
"Xq.	c #568742",
"Yq.	c #567B40",
"Zq.	c #5B9440",
"`q.	c #539B3D",
" r.	c #699758",
".r.	c #182E12",
"+r.	c #6FA65D",
"@r.	c #4E7643",
"#r.	c #1F341A",
"$r.	c #396228",
"%r.	c #5F8E4A",
"&r.	c #14240B",
"*r.	c #608C4A",
"=r.	c #3A622C",
"-r.	c #517239",
";r.	c #253B17",
">r.	c #030809",
",r.	c #1C2F0C",
"'r.	c #538B30",
")r.	c #73C745",
"!r.	c #3F6E26",
"~r.	c #3A6325",
"{r.	c #57913F",
"]r.	c #62A44D",
"^r.	c #6AAE43",
"/r.	c #2F561D",
"(r.	c #172C14",
"_r.	c #0E2409",
":r.	c #598948",
"<r.	c #72AC60",
"[r.	c #3D6333",
"}r.	c #6EA24F",
"|r.	c #365824",
"1r.	c #0C0307",
"2r.	c #0B050B",
"3r.	c #498632",
"4r.	c #5EC23C",
"5r.	c #68B246",
"6r.	c #49762F",
"7r.	c #244213",
"8r.	c #668D52",
"9r.	c #334C29",
"0r.	c #487337",
"ar.	c #4E7F37",
"br.	c #021004",
"cr.	c #35661B",
"dr.	c #73C949",
"er.	c #406D2A",
"fr.	c #669747",
"gr.	c #386526",
"hr.	c #3A612E",
"ir.	c #4C8138",
"jr.	c #5DA145",
"kr.	c #0A2505",
"lr.	c #18370D",
"mr.	c #519637",
"nr.	c #467B30",
"or.	c #40672D",
"pr.	c #5B8744",
"qr.	c #355225",
"rr.	c #060008",
"sr.	c #619041",
"tr.	c #31481F",
"ur.	c #141B09",
"vr.	c #0B0707",
"wr.	c #537E38",
"xr.	c #52923B",
"yr.	c #75BA50",
"zr.	c #33571D",
"Ar.	c #466A2D",
"Br.	c #5A894D",
"Cr.	c #5C9259",
"Dr.	c #679059",
"Er.	c #517A3C",
"Fr.	c #091C03",
"Gr.	c #578343",
"Hr.	c #111509",
"Ir.	c #0B0000",
"Jr.	c #6FA45D",
"Kr.	c #385E2E",
"Lr.	c #2C4825",
"Mr.	c #699655",
"Nr.	c #356129",
"Or.	c #66A252",
"Pr.	c #142011",
"Qr.	c #182A0E",
"Rr.	c #6DA459",
"Sr.	c #426832",
"Tr.	c #081000",
"Ur.	c #385F27",
"Vr.	c #55963E",
"Wr.	c #5CA146",
"Xr.	c #40672F",
"Yr.	c #21381A",
"Zr.	c #061107",
"`r.	c #2D5021",
" s.	c #71A657",
".s.	c #55813F",
"+s.	c #27481B",
"@s.	c #294B1E",
"#s.	c #648E44",
"$s.	c #689149",
"%s.	c #3F6329",
"&s.	c #50732D",
"*s.	c #5B9647",
"=s.	c #477032",
"-s.	c #274716",
";s.	c #111F08",
">s.	c #0D170A",
",s.	c #3C7225",
"'s.	c #5D943C",
")s.	c #6F9D57",
"!s.	c #5B8747",
"~s.	c #57853D",
"{s.	c #559C40",
"]s.	c #70AB5E",
"^s.	c #618D47",
"/s.	c #1D3017",
"(s.	c #29421D",
"_s.	c #41672F",
":s.	c #3C6B2B",
"<s.	c #4D7E3C",
"[s.	c #121A14",
"}s.	c #3E692D",
"|s.	c #5DAB3F",
"1s.	c #5F8A43",
"2s.	c #40632C",
"3s.	c #162B0D",
"4s.	c #254515",
"5s.	c #3F6C27",
"6s.	c #56834B",
"7s.	c #5E8F4E",
"8s.	c #6AA64E",
"9s.	c #518D39",
"0s.	c #477D35",
"as.	c #58893C",
"bs.	c #5F873D",
"cs.	c #6C974D",
"ds.	c #679B4F",
"es.	c #40702D",
"fs.	c #1C3211",
"gs.	c #080F05",
"hs.	c #6D9D5E",
"is.	c #264020",
"js.	c #2C5123",
"ks.	c #599847",
"ls.	c #2A4C1C",
"ms.	c #75AD58",
"ns.	c #425B32",
"os.	c #43642E",
"ps.	c #69A148",
"qs.	c #090203",
"rs.	c #031300",
"ss.	c #69AA4B",
"ts.	c #6AAF4F",
"us.	c #4D6937",
"vs.	c #17270C",
"ws.	c #223114",
"xs.	c #6CA24B",
"ys.	c #3A621D",
"zs.	c #3B5E22",
"As.	c #72A44F",
"Bs.	c #29411E",
"Cs.	c #7AB05B",
"Ds.	c #5B9938",
"Es.	c #364C29",
"Fs.	c #14210E",
"Gs.	c #355125",
"Hs.	c #6BA646",
"Is.	c #1C350D",
"Js.	c #1E3111",
"Ks.	c #6CA847",
"Ls.	c #6FB157",
"Ms.	c #325527",
"Ns.	c #2B4723",
"Os.	c #4A723E",
"Ps.	c #051009",
"Qs.	c #101E07",
"Rs.	c #528A39",
"Ss.	c #487532",
"Ts.	c #406C34",
"Us.	c #72A759",
"Vs.	c #1A2D11",
"Ws.	c #386521",
"Xs.	c #68A54C",
"Ys.	c #395728",
"Zs.	c #468C2A",
"`s.	c #429925",
" t.	c #53803E",
".t.	c #344D21",
"+t.	c #051803",
"@t.	c #538043",
"#t.	c #274116",
"$t.	c #2B511F",
"%t.	c #63AF37",
"&t.	c #6DD437",
"*t.	c #66AD47",
"=t.	c #060E06",
"-t.	c #4B693E",
";t.	c #55843D",
">t.	c #567F47",
",t.	c #5A8045",
"'t.	c #5A8044",
")t.	c #4C7A39",
"!t.	c #0C200E",
"~t.	c #162710",
"{t.	c #4C7D3F",
"]t.	c #4C932F",
"^t.	c #72C24E",
"/t.	c #2B4D1D",
"(t.	c #70A650",
"_t.	c #5A9C42",
":t.	c #233F1D",
"<t.	c #12190B",
"[t.	c #274322",
"}t.	c #37642D",
"|t.	c #416F2F",
"1t.	c #598A3E",
"2t.	c #649E43",
"3t.	c #639D41",
"4t.	c #080C05",
"5t.	c #447033",
"6t.	c #609541",
"7t.	c #6FA353",
"8t.	c #598648",
"9t.	c #315121",
"0t.	c #08100D",
"at.	c #010112",
"bt.	c #1A301A",
"ct.	c #1E2B19",
"dt.	c #6AAB46",
"et.	c #2B451B",
"ft.	c #71A354",
"gt.	c #355226",
"ht.	c #121B08",
"it.	c #589248",
"jt.	c #65934A",
"kt.	c #487234",
"lt.	c #192A12",
"mt.	c #64904D",
"nt.	c #3C6A28",
"ot.	c #5F9A43",
"pt.	c #609148",
"qt.	c #375828",
"rt.	c #1E3316",
"st.	c #63A450",
"tt.	c #5F9640",
"ut.	c #5DAD46",
"vt.	c #2B5520",
"wt.	c #639053",
"xt.	c #2B4826",
"yt.	c #0D0003",
"zt.	c #457031",
"At.	c #69A246",
"Bt.	c #3C6029",
"Ct.	c #283B19",
"Dt.	c #739B58",
"Et.	c #244619",
"Ft.	c #182910",
"Gt.	c #304C28",
"Ht.	c #619349",
"It.	c #6C9A55",
"Jt.	c #5A9046",
"Kt.	c #558C3E",
"Lt.	c #488034",
"Mt.	c #4B8E36",
"Nt.	c #66AA50",
"Ot.	c #619053",
"Pt.	c #52803F",
"Qt.	c #3C6D29",
"Rt.	c #26451E",
"St.	c #14230B",
"Tt.	c #0B1A03",
"Ut.	c #527438",
"Vt.	c #5A8F46",
"Wt.	c #6EBB49",
"Xt.	c #4D8938",
"Yt.	c #001002",
"Zt.	c #11181D",
"`t.	c #05040A",
" u.	c #000B01",
".u.	c #4F8C36",
"+u.	c #76CE4D",
"@u.	c #2A531B",
"#u.	c #3E672B",
"$u.	c #7EBD5F",
"%u.	c #2D511D",
"&u.	c #5D824E",
"*u.	c #70985F",
"=u.	c #619648",
"-u.	c #497E30",
";u.	c #55823F",
">u.	c #608948",
",u.	c #6FA648",
"'u.	c #59893F",
")u.	c #0A160F",
"!u.	c #071907",
"~u.	c #537E43",
"{u.	c #38522D",
"]u.	c #426839",
"^u.	c #4A7C3E",
"/u.	c #507937",
"(u.	c #071505",
"_u.	c #172C0A",
":u.	c #68A04F",
"<u.	c #1C3417",
"[u.	c #60A348",
"}u.	c #427B33",
"|u.	c #61B33E",
"1u.	c #487D2E",
"2u.	c #5A8B33",
"3u.	c #6D9C48",
"4u.	c #5F8B43",
"5u.	c #628F4D",
"6u.	c #699855",
"7u.	c #79B94E",
"8u.	c #71B543",
"9u.	c #203916",
"0u.	c #0B1507",
"au.	c #598942",
"bu.	c #436F2B",
"cu.	c #020B05",
"du.	c #4C7634",
"eu.	c #6D925D",
"fu.	c #6A9A58",
"gu.	c #436A2E",
"hu.	c #243918",
"iu.	c #090F07",
"ju.	c #071103",
"ku.	c #617F45",
"lu.	c #557540",
"mu.	c #486A33",
"nu.	c #628E46",
"ou.	c #406636",
"pu.	c #14290C",
"qu.	c #0A170D",
"ru.	c #557D3E",
"su.	c #214113",
"tu.	c #66A754",
"uu.	c #4C7A3A",
"vu.	c #325B1B",
"wu.	c #73BE45",
"xu.	c #46762A",
"yu.	c #00020B",
"zu.	c #213418",
"Au.	c #386227",
"Bu.	c #224518",
"Cu.	c #447D30",
"Du.	c #244415",
"Eu.	c #6B9E4F",
"Fu.	c #223B18",
"Gu.	c #4C753B",
"Hu.	c #5F9E41",
"Iu.	c #569A34",
"Ju.	c #529633",
"Ku.	c #345F21",
"Lu.	c #070B06",
"Mu.	c #00000F",
"Nu.	c #1C3919",
"Ou.	c #568149",
"Pu.	c #68B345",
"Qu.	c #589D38",
"Ru.	c #5B9A3E",
"Su.	c #588A3C",
"Tu.	c #366A2A",
"Uu.	c #689754",
"Vu.	c #649950",
"Wu.	c #5A984A",
"Xu.	c #689E5E",
"Yu.	c #58864C",
"Zu.	c #60874C",
"`u.	c #5A8744",
" v.	c #5EA644",
".v.	c #558843",
"+v.	c #5E8F4F",
"@v.	c #314925",
"#v.	c #395D2A",
"$v.	c #5C9440",
"%v.	c #649A49",
"&v.	c #42642E",
"*v.	c #1A2B16",
"=v.	c #374A27",
"-v.	c #0C0008",
";v.	c #5C8646",
">v.	c #507442",
",v.	c #688F48",
"'v.	c #0D1C04",
")v.	c #142A0A",
"!v.	c #1D2E11",
"~v.	c #619250",
"{v.	c #709A56",
"]v.	c #315A22",
"^v.	c #5A9549",
"/v.	c #12290F",
"(v.	c #6BCB4A",
"_v.	c #71C550",
":v.	c #659E4B",
"<v.	c #68934E",
"[v.	c #5C8B4D",
"}v.	c #629E50",
"|v.	c #5E923F",
"1v.	c #579447",
"2v.	c #3C752E",
"3v.	c #60BA41",
"4v.	c #488030",
"5v.	c #527A44",
"6v.	c #446634",
"7v.	c #000206",
"8v.	c #304D1F",
"9v.	c #71A54F",
"0v.	c #182F0E",
"av.	c #55833E",
"bv.	c #16290A",
"cv.	c #659A42",
"dv.	c #3E6526",
"ev.	c #5A854A",
"fv.	c #417025",
"gv.	c #679E48",
"hv.	c #437F32",
"iv.	c #589C3E",
"jv.	c #6E9D58",
"kv.	c #5E8951",
"lv.	c #4B803C",
"mv.	c #2A561D",
"nv.	c #030A04",
"ov.	c #060400",
"pv.	c #3D5D25",
"qv.	c #6FA946",
"rv.	c #243D15",
"sv.	c #4B8629",
"tv.	c #73BF41",
"uv.	c #2B4316",
"vv.	c #15161C",
"wv.	c #0D2107",
"xv.	c #529434",
"yv.	c #65AF40",
"zv.	c #386126",
"Av.	c #598741",
"Bv.	c #3F7B2B",
"Cv.	c #3A681F",
"Dv.	c #20380E",
"Ev.	c #273C20",
"Fv.	c #56833D",
"Gv.	c #658E4B",
"Hv.	c #6D9E51",
"Iv.	c #427226",
"Jv.	c #66A247",
"Kv.	c #121E0C",
"Lv.	c #588749",
"Mv.	c #2D4422",
"Nv.	c #457139",
"Ov.	c #80AA5F",
"Pv.	c #2E4321",
"Qv.	c #08110D",
"Rv.	c #0D0D09",
"Sv.	c #0C1206",
"Tv.	c #4D7641",
"Uv.	c #547B46",
"Vv.	c #6A9C55",
"Wv.	c #529836",
"Xv.	c #6FC146",
"Yv.	c #477A30",
"Zv.	c #5A903C",
"`v.	c #2E4A1A",
" w.	c #1C3813",
".w.	c #284918",
"+w.	c #40752B",
"@w.	c #568B3F",
"#w.	c #040F03",
"$w.	c #2B4522",
"%w.	c #73A260",
"&w.	c #203B19",
"*w.	c #1B2D1B",
"=w.	c #395E2C",
"-w.	c #608C49",
";w.	c #73A45E",
">w.	c #5C864F",
",w.	c #2D4B26",
"'w.	c #2A491E",
")w.	c #7AA755",
"!w.	c #2D3E1D",
"~w.	c #325123",
"{w.	c #669C4C",
"]w.	c #375427",
"^w.	c #24391D",
"/w.	c #5E8F45",
"(w.	c #609341",
"_w.	c #589044",
":w.	c #132D0E",
"<w.	c #66BA3D",
"[w.	c #68B949",
"}w.	c #5B8448",
"|w.	c #5B874A",
"1w.	c #4A7531",
"2w.	c #609A46",
"3w.	c #5B9548",
"4w.	c #639949",
"5w.	c #56A82D",
"6w.	c #579B30",
"7w.	c #78A759",
"8w.	c #051601",
"9w.	c #080D0B",
"0w.	c #22361C",
"aw.	c #497C29",
"bw.	c #689848",
"cw.	c #253718",
"dw.	c #639D4B",
"ew.	c #3E8028",
"fw.	c #315C25",
"gw.	c #203C17",
"hw.	c #03080A",
"iw.	c #041406",
"jw.	c #234816",
"kw.	c #7CB45D",
"lw.	c #3C6129",
"mw.	c #02010C",
"nw.	c #233719",
"ow.	c #305922",
"pw.	c #051005",
"qw.	c #4C783B",
"rw.	c #6E9755",
"sw.	c #70A152",
"tw.	c #5C8742",
"uw.	c #66A04A",
"vw.	c #598F42",
"ww.	c #699B50",
"xw.	c #52773D",
"yw.	c #070207",
"zw.	c #071704",
"Aw.	c #587F47",
"Bw.	c #749D57",
"Cw.	c #639345",
"Dw.	c #1A250E",
"Ew.	c #6DA950",
"Fw.	c #274019",
"Gw.	c #72A245",
"Hw.	c #375121",
"Iw.	c #162D0E",
"Jw.	c #689947",
"Kw.	c #425F2B",
"Lw.	c #273E1C",
"Mw.	c #4E7635",
"Nw.	c #729B54",
"Ow.	c #61924C",
"Pw.	c #21331A",
"Qw.	c #132D0F",
"Rw.	c #6CA55E",
"Sw.	c #294F1B",
"Tw.	c #73AE53",
"Uw.	c #274B1A",
"Vw.	c #27401B",
"Ww.	c #26491B",
"Xw.	c #568B37",
"Yw.	c #59A63E",
"Zw.	c #427F37",
"`w.	c #6ABB3F",
" x.	c #60AA2E",
".x.	c #59813E",
"+x.	c #000E02",
"@x.	c #486538",
"#x.	c #5D8147",
"$x.	c #0A0402",
"%x.	c #294220",
"&x.	c #7BAD5C",
"*x.	c #1F3913",
"=x.	c #689352",
"-x.	c #1E3416",
";x.	c #000C03",
">x.	c #447F27",
",x.	c #336225",
"'x.	c #67A254",
")x.	c #518742",
"!x.	c #326720",
"~x.	c #28411D",
"{x.	c #0C1A0D",
"]x.	c #081A03",
"^x.	c #263F1B",
"/x.	c #3D6729",
"(x.	c #3E681E",
"_x.	c #355521",
":x.	c #71B051",
"<x.	c #3E642D",
"[x.	c #254812",
"}x.	c #5BA42D",
"|x.	c #72C542",
"1x.	c #284316",
"2x.	c #1A1611",
"3x.	c #23341A",
"4x.	c #6D9B56",
"5x.	c #325920",
"6x.	c #689859",
"7x.	c #5F894B",
"8x.	c #6DB54D",
"9x.	c #61A23E",
"0x.	c #64A731",
"ax.	c #3B7022",
"bx.	c #417829",
"cx.	c #529337",
"dx.	c #487533",
"ex.	c #467A2C",
"fx.	c #68A057",
"gx.	c #6C9D52",
"hx.	c #3B5A2C",
"ix.	c #6AA546",
"jx.	c #67954E",
"kx.	c #639A4A",
"lx.	c #65A54D",
"mx.	c #0F2208",
"nx.	c #4A773B",
"ox.	c #6FCA39",
"px.	c #52902F",
"qx.	c #56A042",
"rx.	c #529837",
"sx.	c #0B1908",
"tx.	c #669E54",
"ux.	c #4C763F",
"vx.	c #0A1705",
"wx.	c #19240C",
"xx.	c #0A0D05",
"yx.	c #2C4725",
"zx.	c #507945",
"Ax.	c #629153",
"Bx.	c #6D9F54",
"Cx.	c #5B8A42",
"Dx.	c #4C733B",
"Ex.	c #5A8741",
"Fx.	c #0E1E07",
"Gx.	c #446535",
"Hx.	c #669A4F",
"Ix.	c #122C09",
"Jx.	c #172E0E",
"Kx.	c #071803",
"Lx.	c #4D772F",
"Mx.	c #609142",
"Nx.	c #28421B",
"Ox.	c #689C4C",
"Px.	c #4A7D38",
"Qx.	c #3A5E23",
"Rx.	c #60A246",
"Sx.	c #2F511B",
"Tx.	c #336620",
"Ux.	c #6CCC3E",
"Vx.	c #68AB42",
"Wx.	c #2E461D",
"Xx.	c #23321C",
"Yx.	c #0F1F0C",
"Zx.	c #345A23",
"`x.	c #4E843B",
" y.	c #66944F",
".y.	c #669054",
"+y.	c #508634",
"@y.	c #6AB74D",
"#y.	c #244217",
"$y.	c #69B848",
"%y.	c #498931",
"&y.	c #5C924A",
"*y.	c #619249",
"=y.	c #699254",
"-y.	c #366221",
";y.	c #15270F",
">y.	c #2C3F21",
",y.	c #131709",
"'y.	c #111B07",
")y.	c #628641",
"!y.	c #7EB157",
"~y.	c #598240",
"{y.	c #263817",
"]y.	c #365822",
"^y.	c #214016",
"/y.	c #51733A",
"(y.	c #76A853",
"_y.	c #070D07",
":y.	c #6BA453",
"<y.	c #426530",
"[y.	c #679942",
"}y.	c #19310B",
"|y.	c #558447",
"1y.	c #4C763E",
"2y.	c #010C01",
"3y.	c #4C7033",
"4y.	c #3D562A",
"5y.	c #7CA95F",
"6y.	c #689950",
"7y.	c #5F8B46",
"8y.	c #080E04",
"9y.	c #437135",
"0y.	c #578845",
"ay.	c #081105",
"by.	c #18230C",
"cy.	c #678745",
"dy.	c #334B22",
"ey.	c #71C34B",
"fy.	c #4C9133",
"gy.	c #437B1B",
"hy.	c #7DCE3E",
"iy.	c #416529",
"jy.	c #5D8C42",
"ky.	c #051801",
"ly.	c #456433",
"my.	c #69A149",
"ny.	c #478228",
"oy.	c #528C32",
"py.	c #375E29",
"qy.	c #040D04",
"ry.	c #5F9844",
"sy.	c #385D28",
"ty.	c #3C5632",
"uy.	c #597D4A",
"vy.	c #72A851",
"wy.	c #38652B",
"xy.	c #578447",
"yy.	c #3B6D24",
"zy.	c #182F11",
"Ay.	c #081208",
"By.	c #192D14",
"Cy.	c #265218",
"Dy.	c #43881C",
"Ey.	c #65B22C",
"Fy.	c #70B544",
"Gy.	c #79B455",
"Hy.	c #2F4521",
"Iy.	c #5FA443",
"Jy.	c #437A27",
"Ky.	c #2B4323",
"Ly.	c #181711",
"My.	c #2A401B",
"Ny.	c #71A256",
"Oy.	c #335627",
"Py.	c #396B29",
"Qy.	c #41862C",
"Ry.	c #204D14",
"Sy.	c #17240D",
"Ty.	c #588B3E",
"Uy.	c #5CB43A",
"Vy.	c #6BC23A",
"Wy.	c #64AE34",
"Xy.	c #65A144",
"Yy.	c #699E4F",
"Zy.	c #52863C",
"`y.	c #26431B",
" z.	c #386C23",
".z.	c #44812E",
"+z.	c #1F4414",
"@z.	c #6D9D55",
"#z.	c #304F28",
"$z.	c #223E12",
"%z.	c #65A738",
"&z.	c #5FA037",
"*z.	c #396325",
"=z.	c #346020",
"-z.	c #2B5A1C",
";z.	c #061401",
">z.	c #041906",
",z.	c #558B3E",
"'z.	c #436F30",
")z.	c #75C448",
"!z.	c #3B6826",
"~z.	c #619F56",
"{z.	c #4D7F3A",
"]z.	c #4C743B",
"^z.	c #0E0413",
"/z.	c #0A000C",
"(z.	c #1B3015",
"_z.	c #6A995D",
":z.	c #25401F",
"<z.	c #679356",
"[z.	c #32512A",
"}z.	c #304E16",
"|z.	c #6C9E42",
"1z.	c #588439",
"2z.	c #2E4A1F",
"3z.	c #0F1B0C",
"4z.	c #395824",
"5z.	c #223A12",
"6z.	c #274618",
"7z.	c #69AC48",
"8z.	c #28441E",
"9z.	c #23371A",
"0z.	c #5F9C47",
"az.	c #6C9A52",
"bz.	c #6CA047",
"cz.	c #274114",
"dz.	c #23361A",
"ez.	c #466C31",
"fz.	c #395A2E",
"gz.	c #5F8C49",
"hz.	c #1D3312",
"iz.	c #5A923B",
"jz.	c #40702A",
"kz.	c #1F4417",
"lz.	c #5AA444",
"mz.	c #539537",
"nz.	c #70A352",
"oz.	c #374F26",
"pz.	c #030610",
"qz.	c #639F40",
"rz.	c #629D46",
"sz.	c #649548",
"tz.	c #457A31",
"uz.	c #305422",
"vz.	c #629D53",
"wz.	c #132F0E",
"xz.	c #0A1E07",
"yz.	c #588B41",
"zz.	c #061904",
"Az.	c #5A8C41",
"Bz.	c #61A046",
"Cz.	c #090703",
"Dz.	c #456724",
"Ez.	c #6D9A48",
"Fz.	c #3A5C26",
"Gz.	c #608D43",
"Hz.	c #77A050",
"Iz.	c #48652C",
"Jz.	c #15230D",
"Kz.	c #172C13",
"Lz.	c #2F531F",
"Mz.	c #2C431D",
"Nz.	c #0C1B05",
"Oz.	c #0B0214",
"Pz.	c #050B04",
"Qz.	c #548140",
"Rz.	c #5B8850",
"Sz.	c #4F6D3D",
"Tz.	c #24471B",
"Uz.	c #63A650",
"Vz.	c #27431E",
"Wz.	c #1E3118",
"Xz.	c #2A411F",
"Yz.	c #315024",
"Zz.	c #5FA942",
"`z.	c #335222",
" A.	c #233F18",
".A.	c #0F1B09",
"+A.	c #2F4821",
"@A.	c #578641",
"#A.	c #6DB154",
"$A.	c #568545",
"%A.	c #263F1C",
"&A.	c #659452",
"*A.	c #21371A",
"=A.	c #407530",
"-A.	c #07020C",
";A.	c #13310B",
">A.	c #6CBB4C",
",A.	c #2C4F18",
"'A.	c #73B345",
")A.	c #406B2A",
"!A.	c #559135",
"~A.	c #162C0F",
"{A.	c #3F6B21",
"]A.	c #36721B",
"^A.	c #519E37",
"/A.	c #77BF51",
"(A.	c #305920",
"_A.	c #477437",
":A.	c #243318",
"<A.	c #74965C",
"[A.	c #5D9F3B",
"}A.	c #285414",
"|A.	c #3D6429",
"1A.	c #668E4E",
"2A.	c #030907",
"3A.	c #3B6A26",
"4A.	c #628E4B",
"5A.	c #5EAF43",
"6A.	c #71D33F",
"7A.	c #62BB2B",
"8A.	c #5CA52F",
"9A.	c #4C8D33",
"0A.	c #629A4E",
"aA.	c #203E0E",
"bA.	c #41722F",
"cA.	c #65AD40",
"dA.	c #599543",
"eA.	c #5E9540",
"fA.	c #3A5626",
"gA.	c #18190B",
"hA.	c #3F6727",
"iA.	c #77BF52",
"jA.	c #679C52",
"kA.	c #5BAB3A",
"lA.	c #508F3A",
"mA.	c #2F551F",
"nA.	c #63B042",
"oA.	c #5DA344",
"pA.	c #528240",
"qA.	c #28481C",
"rA.	c #53883E",
"sA.	c #68A744",
"tA.	c #568D30",
"uA.	c #152B0A",
"vA.	c #47752F",
"wA.	c #3A7221",
"xA.	c #557D45",
"yA.	c #39592D",
"zA.	c #255315",
"AA.	c #579B3D",
"BA.	c #416430",
"CA.	c #519337",
"DA.	c #64A248",
"EA.	c #0A0607",
"FA.	c #203A0C",
"GA.	c #5F9136",
"HA.	c #5B8738",
"IA.	c #1D2E0E",
"JA.	c #639D44",
"KA.	c #608F4C",
"LA.	c #537A3E",
"MA.	c #2D4922",
"NA.	c #72AE58",
"OA.	c #3C612A",
"PA.	c #150D16",
"QA.	c #5C874A",
"RA.	c #6FA253",
"SA.	c #14250E",
"TA.	c #55783C",
"UA.	c #508232",
"VA.	c #4F7D33",
"WA.	c #6A9A51",
"XA.	c #61954D",
"YA.	c #3A672A",
"ZA.	c #1F3518",
"`A.	c #020B02",
" B.	c #50743B",
".B.	c #70B248",
"+B.	c #638A48",
"@B.	c #718D47",
"#B.	c #537A40",
"$B.	c #598A45",
"%B.	c #1B3310",
"&B.	c #5D9646",
"*B.	c #4C8731",
"=B.	c #6AAE4E",
"-B.	c #325424",
";B.	c #1C3214",
">B.	c #608D51",
",B.	c #538742",
"'B.	c #5D9644",
")B.	c #75B957",
"!B.	c #010A05",
"~B.	c #0C0F10",
"{B.	c #101F0B",
"]B.	c #2C5A23",
"^B.	c #54A340",
"/B.	c #63B843",
"(B.	c #619C40",
"_B.	c #2F4E20",
":B.	c #14170A",
"<B.	c #4A6E32",
"[B.	c #0D2209",
"}B.	c #6C9E56",
"|B.	c #456137",
"1B.	c #68A24B",
"2B.	c #29461B",
"3B.	c #416231",
"4B.	c #6BA755",
"5B.	c #517537",
"6B.	c #323A1F",
"7B.	c #1C2813",
"8B.	c #7AAA4A",
"9B.	c #466C29",
"0B.	c #101B06",
"aB.	c #415C26",
"bB.	c #719F54",
"cB.	c #659249",
"dB.	c #3A5B1E",
"eB.	c #49712B",
"fB.	c #68924D",
"gB.	c #65A34A",
"hB.	c #4B882A",
"iB.	c #0B0311",
"jB.	c #233B16",
"kB.	c #6BA24B",
"lB.	c #3F6531",
"mB.	c #689F59",
"nB.	c #213B1B",
"oB.	c #4F8343",
"pB.	c #52893F",
"qB.	c #618949",
"rB.	c #5E8A4D",
"sB.	c #5F8649",
"tB.	c #60A54B",
"uB.	c #59854C",
"vB.	c #182D17",
"wB.	c #3A5E25",
"xB.	c #659245",
"yB.	c #6A9852",
"zB.	c #3D6A2B",
"AB.	c #63944B",
"BB.	c #416A2A",
"CB.	c #356223",
"DB.	c #5E9D40",
"EB.	c #111D0A",
"FB.	c #080205",
"GB.	c #5CA246",
"HB.	c #6CA85B",
"IB.	c #233B1C",
"JB.	c #5C7E47",
"KB.	c #598049",
"LB.	c #66A543",
"MB.	c #29431A",
"NB.	c #102206",
"OB.	c #305322",
"PB.	c #325128",
"QB.	c #659752",
"RB.	c #203519",
"SB.	c #6E9C58",
"TB.	c #478F2D",
"UB.	c #598646",
"VB.	c #628D4F",
"WB.	c #82BF5A",
"XB.	c #64AA42",
"YB.	c #49832E",
"ZB.	c #60A14B",
"`B.	c #386924",
" C.	c #406B2F",
".C.	c #64AB45",
"+C.	c #69B546",
"@C.	c #335921",
"#C.	c #497F1F",
"$C.	c #6BBA3D",
"%C.	c #67A04E",
"&C.	c #396D26",
"*C.	c #72BC48",
"=C.	c #559132",
"-C.	c #1A170E",
";C.	c #01060E",
">C.	c #030C0C",
",C.	c #4E8D2E",
"'C.	c #60A837",
")C.	c #234215",
"!C.	c #0E2706",
"~C.	c #428128",
"{C.	c #53913F",
"]C.	c #6BBA4C",
"^C.	c #5F9E4E",
"/C.	c #44742F",
"(C.	c #5A8D3E",
"_C.	c #5C8B48",
":C.	c #639553",
"<C.	c #568B2F",
"[C.	c #6AB83C",
"}C.	c #69AF41",
"|C.	c #213C13",
"1C.	c #54833C",
"2C.	c #3D7328",
"3C.	c #5A814E",
"4C.	c #2E4526",
"5C.	c #416B2E",
"6C.	c #43802B",
"7C.	c #5A9044",
"8C.	c #080C07",
"9C.	c #04080E",
"0C.	c #1C330D",
"aC.	c #5F8D41",
"bC.	c #577E3F",
"cC.	c #0F2009",
"dC.	c #6A9D5B",
"eC.	c #497042",
"fC.	c #354D2F",
"gC.	c #3C5A2D",
"hC.	c #51793C",
"iC.	c #071605",
"jC.	c #78AF62",
"kC.	c #3A562E",
"lC.	c #44712D",
"mC.	c #5C8442",
"nC.	c #4C7833",
"oC.	c #5F8546",
"pC.	c #385028",
"qC.	c #1C3115",
"rC.	c #60994A",
"sC.	c #699B58",
"tC.	c #08150B",
"uC.	c #293E1C",
"vC.	c #2B491B",
"wC.	c #3B691B",
"xC.	c #60A333",
"yC.	c #4D862E",
"zC.	c #4F702F",
"AC.	c #6DA151",
"BC.	c #2D5023",
"CC.	c #305C22",
"DC.	c #78D245",
"EC.	c #5DA138",
"FC.	c #162E10",
"GC.	c #172810",
"HC.	c #5A9443",
"IC.	c #5F9D53",
"JC.	c #2B4F1E",
"KC.	c #142D11",
"LC.	c #15250B",
"MC.	c #3C712F",
"NC.	c #548E49",
"OC.	c #5FA54D",
"PC.	c #63B145",
"QC.	c #5C9040",
"RC.	c #1D3815",
"SC.	c #1D0006",
"TC.	c #45120E",
"UC.	c #5A481D",
"VC.	c #939854",
"WC.	c #8C995C",
"XC.	c #818D4C",
"YC.	c #556835",
"ZC.	c #649349",
"`C.	c #447731",
" D.	c #0A1605",
".D.	c #61914A",
"+D.	c #04020C",
"@D.	c #62884A",
"#D.	c #0B1B05",
"$D.	c #6B9D4B",
"%D.	c #708C47",
"&D.	c #A1A762",
"*D.	c #A9B068",
"=D.	c #62673D",
"-D.	c #2E110C",
";D.	c #48131A",
">D.	c #25050B",
",D.	c #0E1204",
"'D.	c #537634",
")D.	c #344920",
"!D.	c #253312",
"~D.	c #446C28",
"{D.	c #80BA4F",
"]D.	c #8BCF54",
"^D.	c #5E9E39",
"/D.	c #34521F",
"(D.	c #457430",
"_D.	c #428027",
":D.	c #011305",
"<D.	c #0C0708",
"[D.	c #476838",
"}D.	c #588A40",
"|D.	c #638D50",
"1D.	c #49643D",
"2D.	c #214318",
"3D.	c #65AF51",
"4D.	c #70A655",
"5D.	c #4F7838",
"6D.	c #3C6A2C",
"7D.	c #5C8C4E",
"8D.	c #447434",
"9D.	c #21361E",
"0D.	c #020309",
"aD.	c #050B07",
"bD.	c #659B58",
"cD.	c #66954E",
"dD.	c #44692A",
"eD.	c #1C3312",
"fD.	c #000805",
"gD.	c #68944D",
"hD.	c #3D6526",
"iD.	c #09190E",
"jD.	c #244019",
"kD.	c #324B24",
"lD.	c #5F894C",
"mD.	c #6B9B5A",
"nD.	c #639C53",
"oD.	c #25401B",
"pD.	c #2F4429",
"qD.	c #6CA454",
"rD.	c #2F4C23",
"sD.	c #0C1904",
"tD.	c #487836",
"uD.	c #659C4C",
"vD.	c #0B0610",
"wD.	c #1C3216",
"xD.	c #70B45E",
"yD.	c #234C1A",
"zD.	c #44832A",
"AD.	c #53933C",
"BD.	c #557A45",
"CD.	c #638E50",
"DD.	c #3F6832",
"ED.	c #5F8B4E",
"FD.	c #192D0F",
"GD.	c #618D44",
"HD.	c #6FB242",
"ID.	c #79D43E",
"JD.	c #53A52C",
"KD.	c #4C8434",
"LD.	c #628D46",
"MD.	c #5D8F3E",
"ND.	c #73B644",
"OD.	c #67CB34",
"PD.	c #4D8D25",
"QD.	c #6ABE40",
"RD.	c #18310A",
"SD.	c #549833",
"TD.	c #6CA848",
"UD.	c #568845",
"VD.	c #5AA34A",
"WD.	c #538A3E",
"XD.	c #50863E",
"YD.	c #63994C",
"ZD.	c #67A848",
"`D.	c #3E682B",
" E.	c #284521",
".E.	c #77C247",
"+E.	c #528C2E",
"@E.	c #18340F",
"#E.	c #5B8A46",
"$E.	c #618954",
"%E.	c #1E3018",
"&E.	c #527540",
"*E.	c #568F46",
"=E.	c #3C632D",
"-E.	c #0A1B03",
";E.	c #518837",
">E.	c #528730",
",E.	c #6A9F51",
"'E.	c #2D4921",
")E.	c #52794C",
"!E.	c #254422",
"~E.	c #0D1C0B",
"{E.	c #3A592E",
"]E.	c #071504",
"^E.	c #030C0A",
"/E.	c #466639",
"(E.	c #6FA653",
"_E.	c #34561F",
":E.	c #0C1704",
"<E.	c #5D9340",
"[E.	c #335E1E",
"}E.	c #6A9354",
"|E.	c #324823",
"1E.	c #244119",
"2E.	c #70A254",
"3E.	c #1F2F11",
"4E.	c #0B1C06",
"5E.	c #2D4B25",
"6E.	c #4F8143",
"7E.	c #416434",
"8E.	c #3F7023",
"9E.	c #7FCD41",
"0E.	c #75CB36",
"aE.	c #72CE4A",
"bE.	c #54963A",
"cE.	c #518334",
"dE.	c #599E3C",
"eE.	c #609747",
"fE.	c #54A135",
"gE.	c #5CAB40",
"hE.	c #54893B",
"iE.	c #699D51",
"jE.	c #061607",
"kE.	c #060F05",
"lE.	c #1F3619",
"mE.	c #24471A",
"nE.	c #578240",
"oE.	c #618C46",
"pE.	c #76A057",
"qE.	c #588F42",
"rE.	c #37732D",
"sE.	c #66A348",
"tE.	c #58853B",
"uE.	c #3E0F10",
"vE.	c #6F2E25",
"wE.	c #7C3D31",
"xE.	c #B5994C",
"yE.	c #93953F",
"zE.	c #48532A",
"AE.	c #717A3F",
"BE.	c #9DA567",
"CE.	c #8AA046",
"DE.	c #72AF51",
"EE.	c #67A153",
"FE.	c #05040C",
"GE.	c #0D0311",
"HE.	c #243817",
"IE.	c #284922",
"JE.	c #749049",
"KE.	c #9BAE62",
"LE.	c #4D5429",
"ME.	c #646639",
"NE.	c #B5B978",
"OE.	c #897347",
"PE.	c #893B37",
"QE.	c #702C2F",
"RE.	c #370F10",
"SE.	c #131906",
"TE.	c #527037",
"UE.	c #759C51",
"VE.	c #65894C",
"WE.	c #739451",
"XE.	c #739B45",
"YE.	c #4B742A",
"ZE.	c #4C8532",
"`E.	c #468130",
" F.	c #031502",
".F.	c #568046",
"+F.	c #0D070F",
"@F.	c #192410",
"#F.	c #1F2E15",
"$F.	c #000908",
"%F.	c #1F3B13",
"&F.	c #679B59",
"*F.	c #527F3B",
"=F.	c #64AE4A",
"-F.	c #467134",
";F.	c #65A945",
">F.	c #69AB41",
",F.	c #65BC3C",
"'F.	c #53842E",
")F.	c #0E2003",
"!F.	c #6F9E4E",
"~F.	c #5B8D3D",
"{F.	c #12230D",
"]F.	c #0E1B0B",
"^F.	c #2F581C",
"/F.	c #1F3718",
"(F.	c #619A50",
"_F.	c #22411C",
":F.	c #162A13",
"<F.	c #5B924F",
"[F.	c #2E5B20",
"}F.	c #56893D",
"|F.	c #77A858",
"1F.	c #51753D",
"2F.	c #091E06",
"3F.	c #5F944D",
"4F.	c #05160B",
"5F.	c #224920",
"6F.	c #4F7C43",
"7F.	c #3B6231",
"8F.	c #2F5125",
"9F.	c #70AC5B",
"0F.	c #0C1508",
"aF.	c #517933",
"bF.	c #63A53F",
"cF.	c #254713",
"dF.	c #4D9040",
"eF.	c #3A6832",
"fF.	c #3D6D2B",
"gF.	c #5D9648",
"hF.	c #4E753E",
"iF.	c #0C1C0B",
"jF.	c #69944F",
"kF.	c #5E894C",
"lF.	c #05140D",
"mF.	c #2D5611",
"nF.	c #62B52D",
"oF.	c #65CA41",
"pF.	c #448C2E",
"qF.	c #335822",
"rF.	c #3E662B",
"sF.	c #68A64F",
"tF.	c #61964A",
"uF.	c #5A933E",
"vF.	c #549740",
"wF.	c #6CAD45",
"xF.	c #46752D",
"yF.	c #558B3F",
"zF.	c #5C9E41",
"AF.	c #599838",
"BF.	c #1A2E0F",
"CF.	c #111916",
"DF.	c #1A2C0E",
"EF.	c #5A973A",
"FF.	c #2F571F",
"GF.	c #477C34",
"HF.	c #305728",
"IF.	c #73A059",
"JF.	c #27451A",
"KF.	c #446D2F",
"LF.	c #65B647",
"MF.	c #6DAC50",
"NF.	c #6E9E57",
"OF.	c #4F783B",
"PF.	c #101D0B",
"QF.	c #5B8548",
"RF.	c #447437",
"SF.	c #6B9A5B",
"TF.	c #527542",
"UF.	c #456C38",
"VF.	c #2A451F",
"WF.	c #2D5C19",
"XF.	c #72D44A",
"YF.	c #68B440",
"ZF.	c #142B0C",
"`F.	c #54843A",
" G.	c #244617",
".G.	c #5F924F",
"+G.	c #3E5D31",
"@G.	c #4C8436",
"#G.	c #588340",
"$G.	c #5B8943",
"%G.	c #61AA47",
"&G.	c #68A04E",
"*G.	c #213317",
"=G.	c #6C9E55",
"-G.	c #26451B",
";G.	c #060105",
">G.	c #2D5921",
",G.	c #64A253",
"'G.	c #3C6425",
")G.	c #659847",
"!G.	c #13150D",
"~G.	c #061602",
"{G.	c #3C6226",
"]G.	c #55773A",
"^G.	c #131509",
"/G.	c #598242",
"(G.	c #2F5921",
"_G.	c #6CC346",
":G.	c #6BB639",
"<G.	c #26510E",
"[G.	c #55A132",
"}G.	c #54933B",
"|G.	c #629C47",
"1G.	c #629C43",
"2G.	c #334F25",
"3G.	c #6BAC59",
"4G.	c #639F46",
"5G.	c #436039",
"6G.	c #5A7F4C",
"7G.	c #182815",
"8G.	c #70B955",
"9G.	c #5A9541",
"0G.	c #3F6C2A",
"aG.	c #1E2B14",
"bG.	c #233E1A",
"cG.	c #62984D",
"dG.	c #588B3F",
"eG.	c #1B250C",
"fG.	c #4A1711",
"gG.	c #84332B",
"hG.	c #692319",
"iG.	c #2B0907",
"jG.	c #847C3F",
"kG.	c #7E7D38",
"lG.	c #515622",
"mG.	c #AABE47",
"nG.	c #679255",
"oG.	c #253F25",
"pG.	c #36532A",
"qG.	c #0D030D",
"rG.	c #578E51",
"sG.	c #74B252",
"tG.	c #B5CA68",
"uG.	c #4E5129",
"vG.	c #51502D",
"wG.	c #C8BA65",
"xG.	c #897740",
"yG.	c #60241E",
"zG.	c #81312F",
"AG.	c #551514",
"BG.	c #151007",
"CG.	c #496C30",
"DG.	c #131908",
"EG.	c #2C561D",
"FG.	c #324E20",
"GG.	c #273E1D",
"HG.	c #12210A",
"IG.	c #628348",
"JG.	c #719B50",
"KG.	c #537933",
"LG.	c #589139",
"MG.	c #6A9754",
"NG.	c #3E5F35",
"OG.	c #28421C",
"PG.	c #63A14C",
"QG.	c #3E692B",
"RG.	c #67AE44",
"SG.	c #62A941",
"TG.	c #406E21",
"UG.	c #549D2B",
"VG.	c #85D542",
"WG.	c #38601B",
"XG.	c #5D8D43",
"YG.	c #040C03",
"ZG.	c #518731",
"`G.	c #46762E",
" H.	c #3C6F2C",
".H.	c #01020D",
"+H.	c #4B8032",
"@H.	c #61AA38",
"#H.	c #78C251",
"$H.	c #589041",
"%H.	c #598642",
"&H.	c #568139",
"*H.	c #75AA59",
"=H.	c #293F1F",
"-H.	c #010F03",
";H.	c #020D04",
">H.	c #528043",
",H.	c #4E7D3F",
"'H.	c #3E6132",
")H.	c #446733",
"!H.	c #4B7F2C",
"~H.	c #66C140",
"{H.	c #457E2A",
"]H.	c #446839",
"^H.	c #507640",
"/H.	c #538B3E",
"(H.	c #12260C",
"_H.	c #0C150E",
":H.	c #6B994F",
"<H.	c #406D2F",
"[H.	c #588249",
"}H.	c #0E1B09",
"|H.	c #0F2906",
"1H.	c #326324",
"2H.	c #669D4C",
"3H.	c #6B9A4E",
"4H.	c #6CAF3F",
"5H.	c #4F7D32",
"6H.	c #30511F",
"7H.	c #61B23C",
"8H.	c #59A93D",
"9H.	c #2A531F",
"0H.	c #6D9C58",
"aH.	c #2C4121",
"bH.	c #151717",
"cH.	c #080103",
"dH.	c #6AAF48",
"eH.	c #62954B",
"fH.	c #5A7E45",
"gH.	c #243A16",
"hH.	c #619147",
"iH.	c #316820",
"jH.	c #3E732B",
"kH.	c #4B862E",
"lH.	c #59983E",
"mH.	c #111A0B",
"nH.	c #598047",
"oH.	c #437435",
"pH.	c #6B9E56",
"qH.	c #0F1B0A",
"rH.	c #588049",
"sH.	c #3B6A30",
"tH.	c #509A3D",
"uH.	c #5AA836",
"vH.	c #70D342",
"wH.	c #295A1D",
"xH.	c #66A444",
"yH.	c #62AD3C",
"zH.	c #70BA46",
"AH.	c #314A25",
"BH.	c #5C963F",
"CH.	c #3C6F21",
"DH.	c #437E26",
"EH.	c #387822",
"FH.	c #3C6E27",
"GH.	c #326326",
"HH.	c #2A4121",
"IH.	c #60934D",
"JH.	c #0A1305",
"KH.	c #558737",
"LH.	c #477F2B",
"MH.	c #55813C",
"NH.	c #457B2C",
"OH.	c #386323",
"PH.	c #5B8343",
"QH.	c #6FA74B",
"RH.	c #7AAD51",
"SH.	c #2F401C",
"TH.	c #203A10",
"UH.	c #78A84D",
"VH.	c #283B1A",
"WH.	c #1A2414",
"XH.	c #293C20",
"YH.	c #66B742",
"ZH.	c #5DA040",
"`H.	c #558241",
" I.	c #4E7D41",
".I.	c #519C2D",
"+I.	c #467035",
"@I.	c #63944F",
"#I.	c #608442",
"$I.	c #517237",
"%I.	c #0E2308",
"&I.	c #22321D",
"*I.	c #6D9C57",
"=I.	c #456930",
"-I.	c #406628",
";I.	c #669B46",
">I.	c #2A461F",
",I.	c #17290F",
"'I.	c #5E9151",
")I.	c #5E9350",
"!I.	c #1D2511",
"~I.	c #521820",
"{I.	c #8B362F",
"]I.	c #591C13",
"^I.	c #190205",
"/I.	c #1F0000",
"(I.	c #7E6534",
"_I.	c #A49A50",
":I.	c #282811",
"<I.	c #6B733E",
"[I.	c #768644",
"}I.	c #6C9D5D",
"|I.	c #263C20",
"1I.	c #639B4B",
"2I.	c #19320F",
"3I.	c #1E3215",
"4I.	c #6CAA52",
"5I.	c #A5BF63",
"6I.	c #65693C",
"7I.	c #0E0C03",
"8I.	c #3B3B22",
"9I.	c #8D8A57",
"0I.	c #BFB25B",
"aI.	c #5F5625",
"bI.	c #190206",
"cI.	c #5F1915",
"dI.	c #8B3632",
"eI.	c #4E1E21",
"fI.	c #0D0307",
"gI.	c #0B0005",
"hI.	c #0C0D07",
"iI.	c #5E974B",
"jI.	c #5C883D",
"kI.	c #558032",
"lI.	c #060E02",
"mI.	c #090309",
"nI.	c #3F592B",
"oI.	c #729B50",
"pI.	c #537D30",
"qI.	c #7CA35D",
"rI.	c #456C32",
"sI.	c #669E49",
"tI.	c #1C3010",
"uI.	c #4D7B44",
"vI.	c #518242",
"wI.	c #599841",
"xI.	c #5EA943",
"yI.	c #5EAC40",
"zI.	c #1E3E13",
"AI.	c #3A6720",
"BI.	c #76D835",
"CI.	c #4A832E",
"DI.	c #41572D",
"EI.	c #334223",
"FI.	c #6CA74F",
"GI.	c #2E4F20",
"HI.	c #05010C",
"II.	c #01000D",
"JI.	c #5D944B",
"KI.	c #497E2F",
"LI.	c #2C521A",
"MI.	c #39652B",
"NI.	c #457528",
"OI.	c #48712D",
"PI.	c #3F672B",
"QI.	c #03110A",
"RI.	c #5B984E",
"SI.	c #051C03",
"TI.	c #3A5C2C",
"UI.	c #70A057",
"VI.	c #599E3F",
"WI.	c #70C14D",
"XI.	c #1C3D0E",
"YI.	c #18380E",
"ZI.	c #5DB443",
"`I.	c #67B947",
" J.	c #396028",
".J.	c #619248",
"+J.	c #2A441A",
"@J.	c #63A84C",
"#J.	c #558633",
"$J.	c #43772A",
"%J.	c #58804C",
"&J.	c #152410",
"*J.	c #050400",
"=J.	c #518439",
"-J.	c #426429",
";J.	c #456C20",
">J.	c #0C1C03",
",J.	c #74AD5B",
"'J.	c #2D4A20",
")J.	c #4D7B39",
"!J.	c #6AAD52",
"~J.	c #5D9749",
"{J.	c #5D9845",
"]J.	c #7CD14E",
"^J.	c #5B9F3A",
"/J.	c #5E9342",
"(J.	c #608F41",
"_J.	c #648E4D",
":J.	c #67A641",
"<J.	c #62A23C",
"[J.	c #578541",
"}J.	c #5B8E3B",
"|J.	c #365619",
"1J.	c #597E46",
"2J.	c #6C9F5C",
"3J.	c #4B7741",
"4J.	c #71A655",
"5J.	c #44772D",
"6J.	c #6DC63E",
"7J.	c #021707",
"8J.	c #41622F",
"9J.	c #58953D",
"0J.	c #7FCB48",
"aJ.	c #4A7932",
"bJ.	c #09000C",
"cJ.	c #5E9940",
"dJ.	c #466D36",
"eJ.	c #4B8430",
"fJ.	c #6EC149",
"gJ.	c #1D440E",
"hJ.	c #354F2D",
"iJ.	c #68A157",
"jJ.	c #548645",
"kJ.	c #5C7E46",
"lJ.	c #5C7C45",
"mJ.	c #345224",
"nJ.	c #041302",
"oJ.	c #678B4E",
"pJ.	c #344E24",
"qJ.	c #598748",
"rJ.	c #5B9F3B",
"sJ.	c #446C2D",
"tJ.	c #283E1A",
"uJ.	c #51793A",
"vJ.	c #3A652A",
"wJ.	c #5F9534",
"xJ.	c #0C2004",
"yJ.	c #2E521E",
"zJ.	c #5E983A",
"AJ.	c #61AE3E",
"BJ.	c #5BAB3E",
"CJ.	c #5C9143",
"DJ.	c #578C3D",
"EJ.	c #6EA454",
"FJ.	c #6AA34C",
"GJ.	c #385828",
"HJ.	c #344723",
"IJ.	c #76AD55",
"JJ.	c #72A153",
"KJ.	c #425E2C",
"LJ.	c #070C03",
"MJ.	c #4D773C",
"NJ.	c #669553",
"OJ.	c #1F331B",
"PJ.	c #4B1318",
"QJ.	c #8A3433",
"RJ.	c #571818",
"SJ.	c #350B09",
"TJ.	c #7E4530",
"UJ.	c #A7A56A",
"VJ.	c #7B914F",
"WJ.	c #737A42",
"XJ.	c #A4A76B",
"YJ.	c #48612A",
"ZJ.	c #61B044",
"`J.	c #2D5022",
" K.	c #284A1F",
".K.	c #61A948",
"+K.	c #41772D",
"@K.	c #031405",
"#K.	c #020606",
"$K.	c #2F5621",
"%K.	c #6BB647",
"&K.	c #2F5B20",
"*K.	c #2E5122",
"=K.	c #62A84A",
"-K.	c #506531",
";K.	c #A9AE75",
">K.	c #8E945C",
",K.	c #A3A76A",
"'K.	c #908654",
")K.	c #754828",
"!K.	c #2A0104",
"~K.	c #4C1813",
"{K.	c #80352D",
"]K.	c #4E1B19",
"^K.	c #1D390E",
"/K.	c #51703C",
"(K.	c #7EA36E",
"_K.	c #467237",
":K.	c #263D17",
"<K.	c #709650",
"[K.	c #445A30",
"}K.	c #040F06",
"|K.	c #223316",
"1K.	c #5F8B47",
"2K.	c #486F39",
"3K.	c #62A752",
"4K.	c #26481F",
"5K.	c #599142",
"6K.	c #67A84C",
"7K.	c #63B742",
"8K.	c #3B6924",
"9K.	c #7BB34E",
"0K.	c #517C36",
"aK.	c #4A7D3B",
"bK.	c #4A763C",
"cK.	c #62884F",
"dK.	c #121E0D",
"eK.	c #669858",
"fK.	c #21371D",
"gK.	c #2D431C",
"hK.	c #59743E",
"iK.	c #5C7D45",
"jK.	c #5F9753",
"kK.	c #3C6B33",
"lK.	c #51873C",
"mK.	c #61A93B",
"nK.	c #60A43C",
"oK.	c #52A937",
"pK.	c #092A03",
"qK.	c #0F170D",
"rK.	c #40702B",
"sK.	c #71C353",
"tK.	c #5BB33E",
"uK.	c #62C63C",
"vK.	c #3C6F25",
"wK.	c #397027",
"xK.	c #64C143",
"yK.	c #498433",
"zK.	c #67A95B",
"AK.	c #295021",
"BK.	c #72A75B",
"CK.	c #68B54F",
"DK.	c #214B16",
"EK.	c #3B6E1D",
"FK.	c #568B3A",
"GK.	c #5D844D",
"HK.	c #2A4D25",
"IK.	c #487D37",
"JK.	c #548843",
"KK.	c #65A154",
"LK.	c #3B642A",
"MK.	c #578B3E",
"NK.	c #558042",
"OK.	c #6EB24A",
"PK.	c #101A03",
"QK.	c #46802F",
"RK.	c #72CB4E",
"SK.	c #497E32",
"TK.	c #181517",
"UK.	c #355624",
"VK.	c #6AAE41",
"WK.	c #60A63F",
"XK.	c #294A1B",
"YK.	c #4B7A31",
"ZK.	c #1F3012",
"`K.	c #729F54",
" L.	c #496C33",
".L.	c #162509",
"+L.	c #2A481C",
"@L.	c #497B36",
"#L.	c #71B148",
"$L.	c #5C8735",
"%L.	c #060806",
"&L.	c #111D08",
"*L.	c #597C3F",
"=L.	c #538839",
"-L.	c #3A7022",
";L.	c #1E4714",
">L.	c #63A34D",
",L.	c #517843",
"'L.	c #3B6831",
")L.	c #63AE46",
"!L.	c #65B446",
"~L.	c #6FC141",
"{L.	c #284711",
"]L.	c #132910",
"^L.	c #689F4C",
"/L.	c #45752D",
"(L.	c #5DA735",
"_L.	c #5E9048",
":L.	c #0C1A0B",
"<L.	c #06030E",
"[L.	c #65A94B",
"}L.	c #69B444",
"|L.	c #6BA54D",
"1L.	c #499125",
"2L.	c #55AC35",
"3L.	c #274B14",
"4L.	c #1B2D16",
"5L.	c #3A5B30",
"6L.	c #34542A",
"7L.	c #3B532B",
"8L.	c #78AE59",
"9L.	c #6B9959",
"0L.	c #264620",
"aL.	c #699B5D",
"bL.	c #5A8346",
"cL.	c #406A30",
"dL.	c #457F2F",
"eL.	c #488F2F",
"fL.	c #3B5A28",
"gL.	c #071805",
"hL.	c #579639",
"iL.	c #5D934C",
"jL.	c #315023",
"kL.	c #569738",
"lL.	c #5EB43E",
"mL.	c #63A645",
"nL.	c #66955B",
"oL.	c #4A6B3C",
"pL.	c #649654",
"qL.	c #132D0C",
"rL.	c #517241",
"sL.	c #020C02",
"tL.	c #497138",
"uL.	c #71A94E",
"vL.	c #000407",
"wL.	c #71AD51",
"xL.	c #325120",
"yL.	c #375522",
"zL.	c #6DA555",
"AL.	c #29481F",
"BL.	c #37090C",
"CL.	c #833136",
"DL.	c #5E1C1B",
"EL.	c #320707",
"FL.	c #4E0609",
"GL.	c #681813",
"HL.	c #7A2A27",
"IL.	c #803134",
"JL.	c #403F23",
"KL.	c #677A34",
"LL.	c #797F38",
"ML.	c #4D4A2A",
"NL.	c #325221",
"OL.	c #67B24C",
"PL.	c #6F9F5E",
"QL.	c #73A35F",
"RL.	c #6FA652",
"SL.	c #1A220A",
"TL.	c #0E0302",
"UL.	c #120203",
"VL.	c #120804",
"WL.	c #74B24F",
"XL.	c #69A655",
"YL.	c #72A355",
"ZL.	c #21310E",
"`L.	c #46432A",
" M.	c #6E7340",
".M.	c #545731",
"+M.	c #3E1B18",
"@M.	c #822A36",
"#M.	c #702326",
"$M.	c #6A1C19",
"%M.	c #550807",
"&M.	c #3C0607",
"*M.	c #591B19",
"=M.	c #853635",
"-M.	c #3E100F",
";M.	c #588E3A",
">M.	c #6CAA46",
",M.	c #39502B",
"'M.	c #618E47",
")M.	c #04040E",
"!M.	c #537642",
"~M.	c #648E4A",
"{M.	c #243819",
"]M.	c #1A2C14",
"^M.	c #284319",
"/M.	c #71974B",
"(M.	c #1C3111",
"_M.	c #558440",
":M.	c #051202",
"<M.	c #405F36",
"[M.	c #69995A",
"}M.	c #4C7337",
"|M.	c #699854",
"1M.	c #427532",
"2M.	c #437734",
"3M.	c #5E8A4F",
"4M.	c #53853D",
"5M.	c #6EA75A",
"6M.	c #75A45E",
"7M.	c #689251",
"8M.	c #091708",
"9M.	c #335925",
"0M.	c #7BAA5E",
"aM.	c #5C7D3E",
"bM.	c #3C572B",
"cM.	c #324E29",
"dM.	c #34532E",
"eM.	c #193216",
"fM.	c #04070B",
"gM.	c #08000A",
"hM.	c #28471E",
"iM.	c #63AF3B",
"jM.	c #5D9C3B",
"kM.	c #53AB2B",
"lM.	c #64C63E",
"mM.	c #214215",
"nM.	c #384C2A",
"oM.	c #6BA94B",
"pM.	c #559E34",
"qM.	c #376E27",
"rM.	c #63BD43",
"sM.	c #69B046",
"tM.	c #1B380F",
"uM.	c #17350E",
"vM.	c #60B93F",
"wM.	c #6ABA45",
"xM.	c #499037",
"yM.	c #3E6A33",
"zM.	c #649849",
"AM.	c #2B591D",
"BM.	c #366225",
"CM.	c #5C9047",
"DM.	c #61874C",
"EM.	c #27391B",
"FM.	c #4C823D",
"GM.	c #60AD41",
"HM.	c #42702D",
"IM.	c #0E1208",
"JM.	c #71A255",
"KM.	c #314D21",
"LM.	c #73B051",
"MM.	c #40612B",
"NM.	c #1D4213",
"OM.	c #589540",
"PM.	c #579A3F",
"QM.	c #54933C",
"RM.	c #131815",
"SM.	c #486C3B",
"TM.	c #4B7C31",
"UM.	c #4E8337",
"VM.	c #68AA48",
"WM.	c #6BAE4C",
"XM.	c #324722",
"YM.	c #769F57",
"ZM.	c #4A7635",
"`M.	c #3D692E",
" N.	c #507A45",
".N.	c #679B56",
"+N.	c #396426",
"@N.	c #58843D",
"#N.	c #5E9143",
"$N.	c #2C5B1E",
"%N.	c #4E9636",
"&N.	c #6A9159",
"*N.	c #29511E",
"=N.	c #6FC251",
"-N.	c #529D3C",
";N.	c #49892D",
">N.	c #071501",
",N.	c #375624",
"'N.	c #549443",
")N.	c #70C940",
"!N.	c #5EB63B",
"~N.	c #3D6B2A",
"{N.	c #305523",
"]N.	c #55993D",
"^N.	c #4D9C29",
"/N.	c #518A35",
"(N.	c #5F9F45",
"_N.	c #518533",
":N.	c #597A38",
"<N.	c #121F0B",
"[N.	c #345326",
"}N.	c #47842A",
"|N.	c #59973C",
"1N.	c #3F6B32",
"2N.	c #5A924C",
"3N.	c #587F41",
"4N.	c #619A44",
"5N.	c #74AD52",
"6N.	c #70A75B",
"7N.	c #2A471F",
"8N.	c #4D703B",
"9N.	c #6D9459",
"0N.	c #346626",
"aN.	c #43782D",
"bN.	c #67984A",
"cN.	c #142511",
"dN.	c #1D3113",
"eN.	c #70A350",
"fN.	c #2A401F",
"gN.	c #76A855",
"hN.	c #4B7935",
"iN.	c #6E9F59",
"jN.	c #468132",
"kN.	c #579B43",
"lN.	c #6DAF5B",
"mN.	c #407233",
"nN.	c #588A43",
"oN.	c #72A553",
"pN.	c #385C27",
"qN.	c #23361B",
"rN.	c #6E984E",
"sN.	c #426728",
"tN.	c #1F0603",
"uN.	c #6D2F2C",
"vN.	c #6B2924",
"wN.	c #350E12",
"xN.	c #783436",
"yN.	c #9E2C22",
"zN.	c #AD291E",
"AN.	c #9A2E28",
"BN.	c #742625",
"CN.	c #53281F",
"DN.	c #502122",
"EN.	c #4D2221",
"FN.	c #4B2022",
"GN.	c #552629",
"HN.	c #4F3621",
"IN.	c #543023",
"JN.	c #5A2D1C",
"KN.	c #662618",
"LN.	c #6E2615",
"MN.	c #7C1F1E",
"NN.	c #7E2120",
"ON.	c #811F23",
"PN.	c #7E1F1F",
"QN.	c #75231D",
"RN.	c #672814",
"SN.	c #592D23",
"TN.	c #572E26",
"UN.	c #4E2D21",
"VN.	c #552A2D",
"WN.	c #512829",
"XN.	c #461E20",
"YN.	c #4D2227",
"ZN.	c #5F2327",
"`N.	c #7C2224",
" O.	c #972A2D",
".O.	c #A72A2A",
"+O.	c #A3282B",
"@O.	c #893330",
"#O.	c #3E1611",
"$O.	c #622220",
"%O.	c #7E3333",
"&O.	c #310D0F",
"*O.	c #30571E",
"=O.	c #65A64C",
"-O.	c #739950",
";O.	c #18290F",
">O.	c #2F4C1E",
",O.	c #72A956",
"'O.	c #4C7438",
")O.	c #749D59",
"!O.	c #669154",
"~O.	c #78A955",
"{O.	c #5D8C3F",
"]O.	c #253818",
"^O.	c #73A553",
"/O.	c #2B401B",
"(O.	c #4E783E",
"_O.	c #669655",
":O.	c #5A9F3D",
"<O.	c #6DBE4A",
"[O.	c #579632",
"}O.	c #608F47",
"|O.	c #6EA153",
"1O.	c #15220F",
"2O.	c #6A9E4C",
"3O.	c #375B26",
"4O.	c #020211",
"5O.	c #2E581D",
"6O.	c #4A7A2D",
"7O.	c #508E30",
"8O.	c #426331",
"9O.	c #051203",
"0O.	c #0F200B",
"aO.	c #4A7F3C",
"bO.	c #4A8334",
"cO.	c #3E9920",
"dO.	c #68CC3E",
"eO.	c #274D16",
"fO.	c #43712B",
"gO.	c #65A442",
"hO.	c #73AC5A",
"iO.	c #5CA646",
"jO.	c #569D3C",
"kO.	c #3F8423",
"lO.	c #54A033",
"mO.	c #579C3B",
"nO.	c #477C35",
"oO.	c #39741E",
"pO.	c #4D9636",
"qO.	c #49733C",
"rO.	c #588C45",
"sO.	c #60894A",
"tO.	c #2A401E",
"uO.	c #477C2D",
"vO.	c #678F56",
"wO.	c #567445",
"xO.	c #527342",
"yO.	c #587C48",
"zO.	c #3D632C",
"AO.	c #030E06",
"BO.	c #365523",
"CO.	c #6FA44D",
"DO.	c #54AC3C",
"EO.	c #396C27",
"FO.	c #57A242",
"GO.	c #112D0C",
"HO.	c #141711",
"IO.	c #386A2A",
"JO.	c #6BB141",
"KO.	c #6DB547",
"LO.	c #57AE34",
"MO.	c #428E28",
"NO.	c #437430",
"OO.	c #4A733C",
"PO.	c #335E23",
"QO.	c #1D460C",
"RO.	c #46832E",
"SO.	c #478A2F",
"TO.	c #426E37",
"UO.	c #060205",
"VO.	c #5D8E49",
"WO.	c #558B3C",
"XO.	c #468935",
"YO.	c #71A95B",
"ZO.	c #619C47",
"`O.	c #4C7738",
" P.	c #466B35",
".P.	c #031802",
"+P.	c #54843E",
"@P.	c #547E3E",
"#P.	c #5AA145",
"$P.	c #407629",
"%P.	c #69B347",
"&P.	c #71A754",
"*P.	c #487237",
"=P.	c #4D8D31",
"-P.	c #448C23",
";P.	c #457B30",
">P.	c #7DA550",
",P.	c #597D3B",
"'P.	c #2D471B",
")P.	c #091509",
"!P.	c #020508",
"~P.	c #4C7329",
"{P.	c #7CC74A",
"]P.	c #33671D",
"^P.	c #487430",
"/P.	c #3D7423",
"(P.	c #569347",
"_P.	c #497F39",
":P.	c #6F9952",
"<P.	c #345528",
"[P.	c #20321A",
"}P.	c #447134",
"|P.	c #66B246",
"1P.	c #7DCD58",
"2P.	c #6AB844",
"3P.	c #5A8C49",
"4P.	c #416C35",
"5P.	c #225018",
"6P.	c #486435",
"7P.	c #5D884B",
"8P.	c #6CA94F",
"9P.	c #0A1806",
"0P.	c #172E11",
"aP.	c #72AD59",
"bP.	c #487E36",
"cP.	c #67B353",
"dP.	c #497F37",
"eP.	c #1F3315",
"fP.	c #4D6C36",
"gP.	c #668C4B",
"hP.	c #15220B",
"iP.	c #55181B",
"jP.	c #7B3236",
"kP.	c #2E0F11",
"lP.	c #261212",
"mP.	c #40181A",
"nP.	c #5F1711",
"oP.	c #841D1C",
"pP.	c #521412",
"qP.	c #401511",
"rP.	c #401712",
"sP.	c #3D1112",
"tP.	c #461316",
"uP.	c #59181B",
"vP.	c #65191D",
"wP.	c #722122",
"xP.	c #782828",
"yP.	c #822623",
"zP.	c #952622",
"AP.	c #9F2720",
"BP.	c #A93229",
"CP.	c #A9322B",
"DP.	c #AD2F2F",
"EP.	c #AD2F30",
"FP.	c #A32929",
"GP.	c #982725",
"HP.	c #8B2624",
"IP.	c #7E2A25",
"JP.	c #722420",
"KP.	c #621D1C",
"LP.	c #571B1C",
"MP.	c #441618",
"NP.	c #3D1619",
"OP.	c #451517",
"PP.	c #45110F",
"QP.	c #551515",
"RP.	c #5B191C",
"SP.	c #501113",
"TP.	c #441712",
"UP.	c #230B07",
"VP.	c #240909",
"WP.	c #7B3235",
"XP.	c #652324",
"YP.	c #100D06",
"ZP.	c #497931",
"`P.	c #7FC25D",
" Q.	c #3D602B",
".Q.	c #0F1D09",
"+Q.	c #4B8131",
"@Q.	c #22391C",
"#Q.	c #213217",
"$Q.	c #0B1906",
"%Q.	c #091601",
"&Q.	c #1B320E",
"*Q.	c #2C4914",
"=Q.	c #446927",
"-Q.	c #588440",
";Q.	c #61AF3A",
">Q.	c #70D052",
",Q.	c #68B945",
"'Q.	c #497C31",
")Q.	c #263D1A",
"!Q.	c #50813E",
"~Q.	c #447335",
"{Q.	c #00050C",
"]Q.	c #050C0F",
"^Q.	c #0E0E0B",
"/Q.	c #4D8138",
"(Q.	c #457533",
"_Q.	c #2D521B",
":Q.	c #78C450",
"<Q.	c #538F37",
"[Q.	c #071305",
"}Q.	c #070411",
"|Q.	c #080810",
"1Q.	c #080B07",
"2Q.	c #233818",
"3Q.	c #53773C",
"4Q.	c #74AC5B",
"5Q.	c #24411C",
"6Q.	c #5E854C",
"7Q.	c #47912B",
"8Q.	c #65C934",
"9Q.	c #34631A",
"0Q.	c #151E10",
"aQ.	c #527940",
"bQ.	c #3D7726",
"cQ.	c #4A8E36",
"dQ.	c #689E53",
"eQ.	c #335F24",
"fQ.	c #477F33",
"gQ.	c #66B43F",
"hQ.	c #397128",
"iQ.	c #557C44",
"jQ.	c #26401A",
"kQ.	c #568F42",
"lQ.	c #619448",
"mQ.	c #2C4B1E",
"nQ.	c #14240E",
"oQ.	c #2C4122",
"pQ.	c #456436",
"qQ.	c #4A7838",
"rQ.	c #2E5D1C",
"sQ.	c #426F35",
"tQ.	c #478A27",
"uQ.	c #50B32A",
"vQ.	c #6AB94F",
"wQ.	c #65B13F",
"xQ.	c #408E2B",
"yQ.	c #0A240A",
"zQ.	c #161612",
"AQ.	c #4E8A3B",
"BQ.	c #559735",
"CQ.	c #6FAF50",
"DQ.	c #59A73C",
"EQ.	c #4C9E29",
"FQ.	c #5FA43D",
"GQ.	c #5AAC38",
"HQ.	c #62B141",
"IQ.	c #75B758",
"JQ.	c #5A9C3E",
"KQ.	c #42842C",
"LQ.	c #406C30",
"MQ.	c #305622",
"NQ.	c #1D4310",
"OQ.	c #18390F",
"PQ.	c #22331B",
"QQ.	c #6A9758",
"RQ.	c #4E763D",
"SQ.	c #508C39",
"TQ.	c #468928",
"UQ.	c #071E02",
"VQ.	c #577D3F",
"WQ.	c #284F1A",
"XQ.	c #62B349",
"YQ.	c #588C41",
"ZQ.	c #50873B",
"`Q.	c #6DB050",
" R.	c #4A7B2E",
".R.	c #010F01",
"+R.	c #578E45",
"@R.	c #5C9841",
"#R.	c #539038",
"$R.	c #3F712B",
"%R.	c #5D9248",
"&R.	c #0C1E09",
"*R.	c #273A17",
"=R.	c #537735",
"-R.	c #77A051",
";R.	c #365622",
">R.	c #2A4018",
",R.	c #74A854",
"'R.	c #28461E",
")R.	c #67914E",
"!R.	c #4D7C33",
"~R.	c #427C28",
"{R.	c #569440",
"]R.	c #67945A",
"^R.	c #21381B",
"/R.	c #486939",
"(R.	c #789A69",
"_R.	c #629647",
":R.	c #437C27",
"<R.	c #44702C",
"[R.	c #416A2B",
"}R.	c #426E38",
"|R.	c #417D33",
"1R.	c #5FA74F",
"2R.	c #46763C",
"3R.	c #69B244",
"4R.	c #2F5719",
"5R.	c #13210B",
"6R.	c #456531",
"7R.	c #6EA24E",
"8R.	c #2C4C1A",
"9R.	c #122A10",
"0R.	c #0A1105",
"aR.	c #7CA461",
"bR.	c #2D050A",
"cR.	c #792F33",
"dR.	c #551418",
"eR.	c #541E21",
"fR.	c #673533",
"gR.	c #481411",
"hR.	c #801C1D",
"iR.	c #B32E37",
"jR.	c #4C0F15",
"kR.	c #160302",
"lR.	c #421014",
"mR.	c #5C2325",
"nR.	c #652B29",
"oR.	c #88383C",
"pR.	c #843635",
"qR.	c #772320",
"rR.	c #661F1F",
"sR.	c #521717",
"tR.	c #46100F",
"uR.	c #3F0C0B",
"vR.	c #360A09",
"wR.	c #2D0A08",
"xR.	c #2F0A08",
"yR.	c #37090A",
"zR.	c #3E0D0F",
"AR.	c #451011",
"BR.	c #581715",
"CR.	c #66221A",
"DR.	c #77221A",
"ER.	c #89302E",
"FR.	c #8B3638",
"GR.	c #652926",
"HR.	c #5D2223",
"IR.	c #451112",
"JR.	c #1D0403",
"KR.	c #3D1A18",
"LR.	c #8E4243",
"MR.	c #7C2A2E",
"NR.	c #662121",
"OR.	c #581C18",
"PR.	c #511E19",
"QR.	c #431413",
"RR.	c #7B393B",
"SR.	c #3B1216",
"TR.	c #182811",
"UR.	c #46673C",
"VR.	c #3D5A2C",
"WR.	c #6A9B4E",
"XR.	c #345C21",
"YR.	c #233716",
"ZR.	c #010610",
"`R.	c #244315",
" S.	c #76B357",
".S.	c #477538",
"+S.	c #507840",
"@S.	c #77A24D",
"#S.	c #4F7F29",
"$S.	c #436D2D",
"%S.	c #386423",
"&S.	c #38702A",
"*S.	c #3F782E",
"=S.	c #558D37",
"-S.	c #7C9F60",
";S.	c #52733D",
">S.	c #4B7C35",
",S.	c #2F4F25",
"'S.	c #679656",
")S.	c #162811",
"!S.	c #3D5A23",
"~S.	c #557E34",
"{S.	c #1D350D",
"]S.	c #628E50",
"^S.	c #70AC54",
"/S.	c #365E27",
"(S.	c #0C040A",
"_S.	c #04010F",
":S.	c #0E2507",
"<S.	c #76A15B",
"[S.	c #608D46",
"}S.	c #28431C",
"|S.	c #4F7E42",
"1S.	c #609B49",
"2S.	c #67BD35",
"3S.	c #4E8334",
"4S.	c #060C08",
"5S.	c #14200E",
"6S.	c #436531",
"7S.	c #55A436",
"8S.	c #71BE4F",
"9S.	c #65AA3E",
"0S.	c #4D8435",
"aS.	c #569C3A",
"bS.	c #3B6127",
"cS.	c #538147",
"dS.	c #375E2D",
"eS.	c #366728",
"fS.	c #55923F",
"gS.	c #52803C",
"hS.	c #619B50",
"iS.	c #72B25A",
"jS.	c #2C511F",
"kS.	c #193310",
"lS.	c #1D3D0E",
"mS.	c #2B4E1D",
"nS.	c #416836",
"oS.	c #406E31",
"pS.	c #407D25",
"qS.	c #539531",
"rS.	c #71B450",
"sS.	c #69B645",
"tS.	c #52AC31",
"uS.	c #5AA748",
"vS.	c #5DA540",
"wS.	c #529E2B",
"xS.	c #60B935",
"yS.	c #4F9736",
"zS.	c #4E912D",
"AS.	c #0A2005",
"BS.	c #171516",
"CS.	c #010113",
"DS.	c #041606",
"ES.	c #548D3F",
"FS.	c #5E884F",
"GS.	c #5C944F",
"HS.	c #386528",
"IS.	c #385B22",
"JS.	c #49722B",
"KS.	c #457E27",
"LS.	c #538F3E",
"MS.	c #72AC5B",
"NS.	c #67AF47",
"OS.	c #56AB39",
"PS.	c #57AD3B",
"QS.	c #5BAA41",
"RS.	c #54A534",
"SS.	c #67BD44",
"TS.	c #6DBC4E",
"US.	c #5EA443",
"VS.	c #437F2B",
"WS.	c #3C702D",
"XS.	c #4E853E",
"YS.	c #1E4011",
"ZS.	c #19380F",
"`S.	c #578740",
" T.	c #416E2B",
".T.	c #4B733D",
"+T.	c #375E26",
"@T.	c #6DA34A",
"#T.	c #608E46",
"$T.	c #050F05",
"%T.	c #031D01",
"&T.	c #4D9135",
"*T.	c #5B9741",
"=T.	c #4F7A3C",
"-T.	c #4E763F",
";T.	c #2A5217",
">T.	c #497635",
",T.	c #609D44",
"'T.	c #77BA4D",
")T.	c #59913F",
"!T.	c #3C6726",
"~T.	c #254117",
"{T.	c #091107",
"]T.	c #2D4024",
"^T.	c #0D1C0A",
"/T.	c #2E4920",
"(T.	c #426332",
"_T.	c #6F9255",
":T.	c #476834",
"<T.	c #5D8C40",
"[T.	c #6A9956",
"}T.	c #22371A",
"|T.	c #5EA24D",
"1T.	c #74B852",
"2T.	c #517F3B",
"3T.	c #335D29",
"4T.	c #3E6836",
"5T.	c #426737",
"6T.	c #406834",
"7T.	c #3F6831",
"8T.	c #294E1B",
"9T.	c #213E1C",
"0T.	c #396033",
"aT.	c #47823B",
"bT.	c #71BF4D",
"cT.	c #1A300D",
"dT.	c #84B364",
"eT.	c #000E03",
"fT.	c #466B37",
"gT.	c #648F50",
"hT.	c #621E21",
"iT.	c #7A2F31",
"jT.	c #571515",
"kT.	c #B23637",
"lT.	c #9B2C26",
"mT.	c #A33634",
"nT.	c #B52D2B",
"oT.	c #962828",
"pT.	c #4A1114",
"qT.	c #662529",
"rT.	c #8A3B3F",
"sT.	c #762729",
"tT.	c #4E1E1C",
"uT.	c #341112",
"vT.	c #2C0A0A",
"wT.	c #2A0302",
"xT.	c #220302",
"yT.	c #220402",
"zT.	c #2A0303",
"AT.	c #2F0404",
"BT.	c #2E0404",
"CT.	c #2C0404",
"DT.	c #2D0403",
"ET.	c #2C0403",
"FT.	c #290503",
"GT.	c #270403",
"HT.	c #230303",
"IT.	c #210503",
"JT.	c #270503",
"KT.	c #320A08",
"LT.	c #35110E",
"MT.	c #4F1B1A",
"NT.	c #792327",
"OT.	c #8A3736",
"PT.	c #6C2D2B",
"QT.	c #4D181A",
"RT.	c #9A3E3C",
"ST.	c #B8343A",
"TT.	c #A43232",
"UT.	c #95302A",
"VT.	c #A82D28",
"WT.	c #62130D",
"XT.	c #642A25",
"YT.	c #6A2E24",
"ZT.	c #100002",
"`T.	c #233C16",
" U.	c #7EAE5C",
".U.	c #6D9359",
"+U.	c #679A53",
"@U.	c #112305",
"#U.	c #608140",
"$U.	c #688C4B",
"%U.	c #2A4B1B",
"&U.	c #74C350",
"*U.	c #52923C",
"=U.	c #406738",
"-U.	c #2A4C1D",
";U.	c #2F4B1C",
">U.	c #3B5F2B",
",U.	c #496335",
"'U.	c #4D672E",
")U.	c #4C6836",
"!U.	c #44652C",
"~U.	c #334E24",
"{U.	c #4A7131",
"]U.	c #73B347",
"^U.	c #17310D",
"/U.	c #73AD5E",
"(U.	c #080B01",
"_U.	c #53772E",
":U.	c #81B94F",
"<U.	c #335317",
"[U.	c #2F4825",
"}U.	c #628C4F",
"|U.	c #4F6E44",
"1U.	c #283D22",
"2U.	c #070B02",
"3U.	c #3E6E2B",
"4U.	c #5DA042",
"5U.	c #7AC659",
"6U.	c #65AD49",
"7U.	c #517E3A",
"8U.	c #32571F",
"9U.	c #193011",
"0U.	c #5B8F4A",
"aU.	c #59A046",
"bU.	c #55A836",
"cU.	c #031605",
"dU.	c #223B19",
"eU.	c #6CAD4E",
"fU.	c #2E581E",
"gU.	c #2A491C",
"hU.	c #70B255",
"iU.	c #61A841",
"jU.	c #5C7C44",
"kU.	c #557941",
"lU.	c #2F5328",
"mU.	c #4D843F",
"nU.	c #234417",
"oU.	c #18390D",
"pU.	c #3E7835",
"qU.	c #519241",
"rU.	c #43772C",
"sU.	c #417B27",
"tU.	c #589B45",
"uU.	c #6AB250",
"vU.	c #6FBA4B",
"wU.	c #58A839",
"xU.	c #5CA547",
"yU.	c #5BAA3F",
"zU.	c #5EAD39",
"AU.	c #6CB550",
"BU.	c #549D3B",
"CU.	c #3C8026",
"DU.	c #407533",
"EU.	c #326023",
"FU.	c #346121",
"GU.	c #64A644",
"HU.	c #5FA63C",
"IU.	c #508B39",
"JU.	c #50922F",
"KU.	c #152C0C",
"LU.	c #18131A",
"MU.	c #040011",
"NU.	c #031D05",
"OU.	c #4C9926",
"PU.	c #72B44A",
"QU.	c #466735",
"RU.	c #71AD5A",
"SU.	c #406733",
"TU.	c #0A1A08",
"UU.	c #0F1E0C",
"VU.	c #19310E",
"WU.	c #41792C",
"XU.	c #428326",
"YU.	c #519333",
"ZU.	c #70B252",
"`U.	c #6DB84E",
" V.	c #60B23E",
".V.	c #5CAE3C",
"+V.	c #58A339",
"@V.	c #56A32E",
"#V.	c #6BB446",
"$V.	c #67B74A",
"%V.	c #60AB44",
"&V.	c #51813F",
"*V.	c #528F3B",
"=V.	c #102509",
"-V.	c #314E22",
";V.	c #3B5C29",
">V.	c #74A254",
",V.	c #283C1D",
"'V.	c #080303",
")V.	c #47912C",
"!V.	c #469523",
"~V.	c #509437",
"{V.	c #3E5D33",
"]V.	c #405D28",
"^V.	c #609D3F",
"/V.	c #488431",
"(V.	c #41772E",
"_V.	c #6FBA4C",
":V.	c #549234",
"<V.	c #76A755",
"[V.	c #5F8B3D",
"}V.	c #3F5C27",
"|V.	c #0C160B",
"1V.	c #1B320F",
"2V.	c #5A9C43",
"3V.	c #405734",
"4V.	c #192D0E",
"5V.	c #4F823D",
"6V.	c #64A146",
"7V.	c #579147",
"8V.	c #5B8B51",
"9V.	c #589E4A",
"0V.	c #43783A",
"aV.	c #437336",
"bV.	c #498237",
"cV.	c #6DA066",
"dV.	c #1E340F",
"eV.	c #1B2915",
"fV.	c #061208",
"gV.	c #4F7D2A",
"hV.	c #578539",
"iV.	c #0D1F0C",
"jV.	c #345F1F",
"kV.	c #44732E",
"lV.	c #496739",
"mV.	c #709B5C",
"nV.	c #200605",
"oV.	c #6E2F2A",
"pV.	c #4F1615",
"qV.	c #8D3030",
"rV.	c #C73327",
"sV.	c #A8321D",
"tV.	c #7A2622",
"uV.	c #9C2924",
"vV.	c #8F3229",
"wV.	c #7F312C",
"xV.	c #752628",
"yV.	c #531A1A",
"zV.	c #5D1E1A",
"AV.	c #5C241D",
"BV.	c #5C2C2B",
"CV.	c #682B2C",
"DV.	c #722423",
"EV.	c #6C2C24",
"FV.	c #6D2E25",
"GV.	c #792925",
"HV.	c #842927",
"IV.	c #7D2B25",
"JV.	c #752C22",
"KV.	c #792A21",
"LV.	c #7D2C22",
"MV.	c #772E25",
"NV.	c #7A2B27",
"OV.	c #762B29",
"PV.	c #6F302B",
"QV.	c #732F2B",
"RV.	c #67332A",
"SV.	c #662D26",
"TV.	c #642925",
"UV.	c #592320",
"VV.	c #511B19",
"WV.	c #6B242B",
"XV.	c #8B3641",
"YV.	c #9F333B",
"ZV.	c #832527",
"`V.	c #783836",
" W.	c #9C3635",
".W.	c #C52F28",
"+W.	c #9F3023",
"@W.	c #4A150F",
"#W.	c #713028",
"$W.	c #370D0E",
"%W.	c #283F1B",
"&W.	c #76A556",
"*W.	c #3D5E30",
"=W.	c #5A9144",
"-W.	c #1A2811",
";W.	c #527E3A",
">W.	c #5B9B38",
",W.	c #203720",
"'W.	c #24421A",
")W.	c #476B39",
"!W.	c #689851",
"~W.	c #76A553",
"{W.	c #518738",
"]W.	c #466233",
"^W.	c #47602D",
"/W.	c #4E7038",
"(W.	c #659843",
"_W.	c #719D5F",
":W.	c #284315",
"<W.	c #4F8030",
"[W.	c #183309",
"}W.	c #0C1B0C",
"|W.	c #325B1F",
"1W.	c #121E09",
"2W.	c #1E3311",
"3W.	c #090C09",
"4W.	c #648D50",
"5W.	c #273E1E",
"6W.	c #152014",
"7W.	c #09140B",
"8W.	c #374B24",
"9W.	c #56753A",
"0W.	c #71BB52",
"aW.	c #3F662A",
"bW.	c #4A7F31",
"cW.	c #5F953E",
"dW.	c #72A459",
"eW.	c #466733",
"fW.	c #3B5A2D",
"gW.	c #5A9546",
"hW.	c #3B9722",
"iW.	c #499A29",
"jW.	c #559839",
"kW.	c #44712F",
"lW.	c #325A23",
"mW.	c #54803F",
"nW.	c #476535",
"oW.	c #26431E",
"pW.	c #52843F",
"qW.	c #5EA43F",
"rW.	c #67B542",
"sW.	c #6BB847",
"tW.	c #57AB32",
"uW.	c #54A039",
"vW.	c #5EAD3D",
"wW.	c #59AF2F",
"xW.	c #66B63B",
"yW.	c #75B652",
"zW.	c #5C9B41",
"AW.	c #418628",
"BW.	c #427C2F",
"CW.	c #376623",
"DW.	c #284C16",
"EW.	c #18330D",
"FW.	c #0F2310",
"GW.	c #12280B",
"HW.	c #1E3B12",
"IW.	c #62A939",
"JW.	c #64BB35",
"KW.	c #1A380C",
"LW.	c #111811",
"MW.	c #092705",
"NW.	c #59B330",
"OW.	c #6CB73E",
"PW.	c #477038",
"QW.	c #7EB266",
"RW.	c #344B26",
"SW.	c #010C03",
"TW.	c #0F200E",
"UW.	c #1C3017",
"VW.	c #3B6225",
"WW.	c #488327",
"XW.	c #559739",
"YW.	c #6FB955",
"ZW.	c #438929",
"`W.	c #598645",
" X.	c #28391B",
".X.	c #204013",
"+X.	c #75B44E",
"@X.	c #314E1E",
"#X.	c #060611",
"$X.	c #629F4B",
"%X.	c #499825",
"&X.	c #3E8E1E",
"*X.	c #538D44",
"=X.	c #78A452",
"-X.	c #3A5826",
";X.	c #16280D",
">X.	c #040F08",
",X.	c #18230D",
"'X.	c #335124",
")X.	c #75B346",
"!X.	c #63943D",
"~X.	c #508B49",
"{X.	c #5AA852",
"]X.	c #11310B",
"^X.	c #03010C",
"/X.	c #25441A",
"(X.	c #7AB057",
"_X.	c #223517",
":X.	c #699C49",
"<X.	c #172F11",
"[X.	c #223F19",
"}X.	c #305A26",
"|X.	c #59A03B",
"1X.	c #78A15A",
"2X.	c #4F7042",
"3X.	c #315524",
"4X.	c #051306",
"5X.	c #538723",
"6X.	c #3A5F1C",
"7X.	c #060909",
"8X.	c #3E6037",
"9X.	c #83D354",
"0X.	c #6AB640",
"aX.	c #50763E",
"bX.	c #466A37",
"cX.	c #521714",
"dX.	c #70312D",
"eX.	c #5F1C21",
"fX.	c #A1323C",
"gX.	c #AF3126",
"hX.	c #7C1E12",
"iX.	c #6A352F",
"jX.	c #832725",
"kX.	c #AD2827",
"lX.	c #752527",
"mX.	c #52201F",
"nX.	c #8E4242",
"oX.	c #7D2724",
"pX.	c #5A2017",
"qX.	c #4E1E19",
"rX.	c #552020",
"sX.	c #7D2C2E",
"tX.	c #8A2222",
"uX.	c #85201E",
"vX.	c #6B221B",
"wX.	c #692824",
"xX.	c #6D2123",
"yX.	c #6A2224",
"zX.	c #652425",
"AX.	c #6B2125",
"BX.	c #711F24",
"CX.	c #6E1F1E",
"DX.	c #72241F",
"EX.	c #85242A",
"FX.	c #631922",
"GX.	c #3D1B1B",
"HX.	c #4C1919",
"IX.	c #4E1B18",
"JX.	c #6B2622",
"KX.	c #8C3737",
"LX.	c #5D2726",
"MX.	c #6B2323",
"NX.	c #BF3432",
"OX.	c #892826",
"PX.	c #7C3B3A",
"QX.	c #822421",
"RX.	c #BA362E",
"SX.	c #A32A21",
"TX.	c #69221C",
"UX.	c #6C2120",
"VX.	c #6A1D1B",
"WX.	c #161E09",
"XX.	c #5F8345",
"YX.	c #4E7733",
"ZX.	c #294317",
"`X.	c #040410",
" Y.	c #274A0F",
".Y.	c #63973B",
"+Y.	c #18240D",
"@Y.	c #213416",
"#Y.	c #051502",
"$Y.	c #142409",
"%Y.	c #77A65C",
"&Y.	c #2C4722",
"*Y.	c #061000",
"=Y.	c #467A2E",
"-Y.	c #486F33",
";Y.	c #6B9657",
">Y.	c #577B37",
",Y.	c #7FB851",
"'Y.	c #396128",
")Y.	c #1E4215",
"!Y.	c #6CA751",
"~Y.	c #182C12",
"{Y.	c #13240A",
"]Y.	c #478E29",
"^Y.	c #54A43D",
"/Y.	c #263F1A",
"(Y.	c #537F44",
"_Y.	c #6D9B59",
":Y.	c #2D4722",
"<Y.	c #2D4F21",
"[Y.	c #72B358",
"}Y.	c #27471B",
"|Y.	c #387527",
"1Y.	c #6CB850",
"2Y.	c #62A644",
"3Y.	c #458727",
"4Y.	c #285519",
"5Y.	c #1B3C0C",
"6Y.	c #203114",
"7Y.	c #18240F",
"8Y.	c #1E410E",
"9Y.	c #74B147",
"0Y.	c #438221",
"aY.	c #72D339",
"bY.	c #1F430D",
"cY.	c #141421",
"dY.	c #162D10",
"eY.	c #549934",
"fY.	c #639742",
"gY.	c #577943",
"hY.	c #4D713B",
"iY.	c #75A357",
"jY.	c #507A3B",
"kY.	c #416730",
"lY.	c #405E34",
"mY.	c #3C6030",
"nY.	c #204510",
"oY.	c #16390A",
"pY.	c #14300C",
"qY.	c #0B1C0A",
"rY.	c #386123",
"sY.	c #528F33",
"tY.	c #6C9D59",
"uY.	c #1A2B12",
"vY.	c #3B5D2A",
"wY.	c #4A8035",
"xY.	c #5A823B",
"yY.	c #29401D",
"zY.	c #749D5D",
"AY.	c #0C030C",
"BY.	c #2D4121",
"CY.	c #70A358",
"DY.	c #64A749",
"EY.	c #539D3A",
"FY.	c #438D2D",
"GY.	c #4D6B3C",
"HY.	c #182110",
"IY.	c #6FA252",
"JY.	c #578046",
"KY.	c #588E43",
"LY.	c #528638",
"MY.	c #355621",
"NY.	c #73AB4B",
"OY.	c #71A258",
"PY.	c #1E2F14",
"QY.	c #0A040C",
"RY.	c #0F0402",
"SY.	c #476A35",
"TY.	c #608E48",
"UY.	c #102406",
"VY.	c #132B0B",
"WY.	c #5D824A",
"XY.	c #6FA859",
"YY.	c #71BA54",
"ZY.	c #12250E",
"`Y.	c #324424",
" Z.	c #4E7942",
".Z.	c #64A54A",
"+Z.	c #162612",
"@Z.	c #6CA349",
"#Z.	c #19330B",
"$Z.	c #150907",
"%Z.	c #753128",
"&Z.	c #5E1C17",
"*Z.	c #7A3235",
"=Z.	c #8E2223",
"-Z.	c #A43130",
";Z.	c #6C1C17",
">Z.	c #893A32",
",Z.	c #8D1E1C",
"'Z.	c #B72D23",
")Z.	c #5B1A1A",
"!Z.	c #893839",
"~Z.	c #491A19",
"{Z.	c #190403",
"]Z.	c #1A0404",
"^Z.	c #4B1713",
"/Z.	c #942422",
"(Z.	c #AF272F",
"_Z.	c #721A1E",
":Z.	c #491814",
"<Z.	c #4F1417",
"[Z.	c #531318",
"}Z.	c #4C1517",
"|Z.	c #4E1518",
"1Z.	c #51141C",
"2Z.	c #4E1213",
"3Z.	c #861B1D",
"4Z.	c #A5292D",
"5Z.	c #42070A",
"6Z.	c #160000",
"7Z.	c #361813",
"8Z.	c #7D3838",
"9Z.	c #5A201F",
"0Z.	c #972227",
"aZ.	c #982C2E",
"bZ.	c #8C3438",
"cZ.	c #7E2B2C",
"dZ.	c #B02B24",
"eZ.	c #AD1F1B",
"fZ.	c #7E2E29",
"gZ.	c #561115",
"hZ.	c #7B2C35",
"iZ.	c #1D0806",
"jZ.	c #5E8B40",
"kZ.	c #7FAF5D",
"lZ.	c #577F41",
"mZ.	c #254218",
"nZ.	c #244609",
"oZ.	c #5E9B2F",
"pZ.	c #628650",
"qZ.	c #73A756",
"rZ.	c #4F713B",
"sZ.	c #26351B",
"tZ.	c #49743D",
"uZ.	c #5F8943",
"vZ.	c #587E42",
"wZ.	c #496D38",
"xZ.	c #3D6433",
"yZ.	c #214117",
"zZ.	c #030A00",
"AZ.	c #4D723E",
"BZ.	c #5C894E",
"CZ.	c #0E1C07",
"DZ.	c #446A33",
"EZ.	c #4E733C",
"FZ.	c #457632",
"GZ.	c #142608",
"HZ.	c #3F7227",
"IZ.	c #457332",
"JZ.	c #74AD5A",
"KZ.	c #1D2A15",
"LZ.	c #0B0107",
"MZ.	c #415C35",
"NZ.	c #5F924E",
"OZ.	c #4B9630",
"PZ.	c #66A64C",
"QZ.	c #62A849",
"RZ.	c #67A654",
"SZ.	c #2D4A24",
"TZ.	c #577E47",
"UZ.	c #75A75E",
"VZ.	c #68B04C",
"WZ.	c #578A39",
"XZ.	c #4E6B3E",
"YZ.	c #407932",
"ZZ.	c #517E43",
"`Z.	c #11290D",
" `.	c #13310C",
".`.	c #173A0B",
"+`.	c #264818",
"@`.	c #38562A",
"#`.	c #3F5E33",
"$`.	c #3C6032",
"%`.	c #416C34",
"&`.	c #456928",
"*`.	c #4D723C",
"=`.	c #6CBB48",
"-`.	c #73C152",
";`.	c #2A461D",
">`.	c #1A121B",
",`.	c #65A742",
"'`.	c #2B531F",
")`.	c #557B48",
"!`.	c #518240",
"~`.	c #5A9D3E",
"{`.	c #61A746",
"]`.	c #589146",
"^`.	c #568D49",
"/`.	c #519041",
"(`.	c #4A952B",
"_`.	c #5FA545",
":`.	c #6FAC58",
"<`.	c #588A44",
"[`.	c #3D652E",
"}`.	c #3B5F2E",
"|`.	c #2D5618",
"1`.	c #4D962D",
"2`.	c #6AA555",
"3`.	c #142710",
"4`.	c #2F5121",
"5`.	c #648D4B",
"6`.	c #172513",
"7`.	c #2F441E",
"8`.	c #669D4D",
"9`.	c #64A34E",
"0`.	c #69AA55",
"a`.	c #499931",
"b`.	c #5BA141",
"c`.	c #0D0304",
"d`.	c #0F050B",
"e`.	c #0E1A09",
"f`.	c #7BBE52",
"g`.	c #456830",
"h`.	c #2B451F",
"i`.	c #719B56",
"j`.	c #4A6934",
"k`.	c #497232",
"l`.	c #345023",
"m`.	c #1C2B0F",
"n`.	c #4E833D",
"o`.	c #26421D",
"p`.	c #5F8F47",
"q`.	c #3A5729",
"r`.	c #65A34D",
"s`.	c #71BF61",
"t`.	c #456E3D",
"u`.	c #5E8F3C",
"v`.	c #4E7836",
"w`.	c #2B0C08",
"x`.	c #643125",
"y`.	c #481613",
"z`.	c #793536",
"A`.	c #982522",
"B`.	c #AA2827",
"C`.	c #6B2824",
"D`.	c #72221B",
"E`.	c #952E22",
"F`.	c #851811",
"G`.	c #672E2D",
"H`.	c #5E2423",
"I`.	c #160401",
"J`.	c #2A5320",
"K`.	c #111E06",
"L`.	c #2F0204",
"M`.	c #6E1724",
"N`.	c #8E2A3D",
"O`.	c #51121B",
"P`.	c #110100",
"Q`.	c #210203",
"R`.	c #631721",
"S`.	c #9A2A37",
"T`.	c #4D2F15",
"U`.	c #0D3203",
"V`.	c #4C1817",
"W`.	c #763833",
"X`.	c #641618",
"Y`.	c #A53134",
"Z`.	c #882120",
"``.	c #813532",
"  +	c #AC2924",
". +	c #A31F1A",
"+ +	c #702B22",
"@ +	c #44100E",
"# +	c #672C2F",
"$ +	c #401314",
"% +	c #171F0E",
"& +	c #6DA551",
"* +	c #214613",
"= +	c #75BF58",
"- +	c #649D47",
"; +	c #4A6A36",
"> +	c #263719",
", +	c #02040E",
"' +	c #243F17",
") +	c #3B5F2F",
"! +	c #4C7440",
"~ +	c #569747",
"{ +	c #65A950",
"] +	c #4D7F3E",
"^ +	c #253E18",
"/ +	c #7CAC59",
"( +	c #517A40",
"_ +	c #041103",
": +	c #346228",
"< +	c #60974F",
"[ +	c #050A07",
"} +	c #070E08",
"| +	c #324E25",
"1 +	c #60A83E",
"2 +	c #6EBE4F",
"3 +	c #04090B",
"4 +	c #69B34C",
"5 +	c #68B050",
"6 +	c #5B8F42",
"7 +	c #509635",
"8 +	c #579534",
"9 +	c #375D20",
"0 +	c #0B1604",
"a +	c #568D40",
"b +	c #6FA15F",
"c +	c #1F4712",
"d +	c #4D7835",
"e +	c #6F9758",
"f +	c #6AA14E",
"g +	c #44832F",
"h +	c #537D3C",
"i +	c #0A0D0F",
"j +	c #2F4C21",
"k +	c #3D5C2A",
"l +	c #3F5C2D",
"m +	c #49733E",
"n +	c #608F4F",
"o +	c #699F58",
"p +	c #6AAB55",
"q +	c #5AA440",
"r +	c #4B972E",
"s +	c #559143",
"t +	c #529042",
"u +	c #579940",
"v +	c #79B650",
"w +	c #4B693C",
"x +	c #325621",
"y +	c #6FA054",
"z +	c #2E4522",
"A +	c #0D1B10",
"B +	c #76BD53",
"C +	c #5E9850",
"D +	c #172D0F",
"E +	c #42722F",
"F +	c #4B992D",
"G +	c #519D30",
"H +	c #71A451",
"I +	c #6A964F",
"J +	c #598344",
"K +	c #4C743C",
"L +	c #437631",
"M +	c #487838",
"N +	c #568445",
"O +	c #548D40",
"P +	c #69AA4E",
"Q +	c #2C4920",
"R +	c #2A5519",
"S +	c #4B952C",
"T +	c #75A65B",
"U +	c #192511",
"V +	c #42652C",
"W +	c #5C923D",
"X +	c #517A43",
"Y +	c #619944",
"Z +	c #3F5C28",
"` +	c #549637",
" .+	c #539B39",
"..+	c #71BB5B",
"+.+	c #68AB53",
"@.+	c #0C0507",
"#.+	c #040D03",
"$.+	c #3C6729",
"%.+	c #395C28",
"&.+	c #304A1D",
"*.+	c #346423",
"=.+	c #609C48",
"-.+	c #051603",
";.+	c #2A421B",
">.+	c #6D9751",
",.+	c #64994B",
"'.+	c #40732F",
").+	c #2D4E1F",
"!.+	c #6FAB5A",
"~.+	c #669C45",
"{.+	c #2E481F",
"].+	c #639F4A",
"^.+	c #000B03",
"/.+	c #58803C",
"(.+	c #476B2D",
"_.+	c #0C1808",
":.+	c #182B10",
"<.+	c #385D30",
"[.+	c #273E24",
"}.+	c #5E8D50",
"|.+	c #040D07",
"1.+	c #4C1313",
"2.+	c #6D2E2F",
"3.+	c #481819",
"4.+	c #753F3C",
"5.+	c #97241D",
"6.+	c #AE241F",
"7.+	c #763135",
"8.+	c #6A1717",
"9.+	c #A53026",
"0.+	c #6B1615",
"a.+	c #77352D",
"b.+	c #30110E",
"c.+	c #4A8036",
"d.+	c #55A740",
"e.+	c #61B04D",
"f.+	c #40742A",
"g.+	c #334E1E",
"h.+	c #542A20",
"i.+	c #8E3742",
"j.+	c #3D1114",
"k.+	c #0C0004",
"l.+	c #59191B",
"m.+	c #883235",
"n.+	c #586932",
"o.+	c #5BB951",
"p.+	c #62C642",
"q.+	c #6CAE4C",
"r.+	c #1E0905",
"s.+	c #7E3831",
"t.+	c #641714",
"u.+	c #AB2E33",
"v.+	c #932023",
"w.+	c #9C3F3F",
"x.+	c #9D221F",
"y.+	c #A7302A",
"z.+	c #852B2B",
"A.+	c #561010",
"B.+	c #622725",
"C.+	c #621D1E",
"D.+	c #0E0407",
"E.+	c #091602",
"F.+	c #19380E",
"G.+	c #588641",
"H.+	c #467034",
"I.+	c #081406",
"J.+	c #213D1E",
"K.+	c #61A144",
"L.+	c #041A03",
"M.+	c #4E7E38",
"N.+	c #6CA150",
"O.+	c #2F4D22",
"P.+	c #57843F",
"Q.+	c #466333",
"R.+	c #5D934D",
"S.+	c #11240B",
"T.+	c #0D1F07",
"U.+	c #304B20",
"V.+	c #182A0F",
"W.+	c #080A08",
"X.+	c #1A360E",
"Y.+	c #0F1813",
"Z.+	c #07060C",
"`.+	c #0B0905",
" ++	c #121F0D",
".++	c #6CB950",
"+++	c #41812B",
"@++	c #479834",
"#++	c #4A8E2E",
"$++	c #508437",
"%++	c #0C150A",
"&++	c #4F8241",
"*++	c #4F7738",
"=++	c #4C6E36",
"-++	c #6CA34C",
";++	c #41822D",
">++	c #4B763A",
",++	c #1B3715",
"'++	c #5A913D",
")++	c #487537",
"!++	c #477433",
"~++	c #467235",
"{++	c #436D31",
"]++	c #4D773E",
"^++	c #5A8A49",
"/++	c #649D52",
"(++	c #69A955",
"_++	c #66A54A",
":++	c #50942B",
"<++	c #46962E",
"[++	c #4E813C",
"}++	c #12260E",
"|++	c #254018",
"1++	c #425E30",
"2++	c #7CB856",
"3++	c #2A411B",
"4++	c #121716",
"5++	c #050A03",
"6++	c #223C16",
"7++	c #537F3C",
"8++	c #061B01",
"9++	c #172E0C",
"0++	c #253917",
"a++	c #375329",
"b++	c #436336",
"c++	c #53913A",
"d++	c #49962F",
"e++	c #5DA741",
"f++	c #679C4D",
"g++	c #5A8748",
"h++	c #2B5715",
"i++	c #4C962B",
"j++	c #71A25D",
"k++	c #78A95E",
"l++	c #285119",
"m++	c #5E9643",
"n++	c #030B00",
"o++	c #669649",
"p++	c #457D2E",
"q++	c #71BA4B",
"r++	c #4C8634",
"s++	c #4D7C3F",
"t++	c #0A050B",
"u++	c #0D1909",
"v++	c #335021",
"w++	c #62924B",
"x++	c #82C15D",
"y++	c #3F712C",
"z++	c #395425",
"A++	c #7BB952",
"B++	c #3E6D2A",
"C++	c #639153",
"D++	c #2D4F1D",
"E++	c #4B9030",
"F++	c #1D3313",
"G++	c #71A950",
"H++	c #0D0207",
"I++	c #5C8947",
"J++	c #652021",
"K++	c #631E21",
"L++	c #591619",
"M++	c #883434",
"N++	c #A43529",
"O++	c #A01B13",
"P++	c #8A3034",
"Q++	c #802021",
"R++	c #BA3030",
"S++	c #671414",
"T++	c #86312C",
"U++	c #270808",
"V++	c #6DA65A",
"W++	c #2E5D26",
"X++	c #3A672B",
"Y++	c #62B643",
"Z++	c #67CE44",
"`++	c #57A03E",
" @+	c #48893E",
".@+	c #66312D",
"+@+	c #642323",
"@@+	c #130300",
"#@+	c #360A10",
"$@+	c #8C3031",
"%@+	c #586F2E",
"&@+	c #5BAA3B",
"*@+	c #53B044",
"=@+	c #5ABE3A",
"-@+	c #43762A",
";@+	c #427638",
">@+	c #5D9555",
",@+	c #10200E",
"'@+	c #180805",
")@+	c #843733",
"!@+	c #651713",
"~@+	c #B62930",
"{@+	c #A8242D",
"]@+	c #AB393B",
"^@+	c #932523",
"/@+	c #AE3E3E",
"(@+	c #902A22",
"_@+	c #5F150C",
":@+	c #531417",
"<@+	c #773035",
"[@+	c #13050C",
"}@+	c #72B060",
"|@+	c #5C9C48",
"1@+	c #011302",
"2@+	c #63904F",
"3@+	c #446533",
"4@+	c #699A4B",
"5@+	c #4F763A",
"6@+	c #4C6937",
"7@+	c #2E4623",
"8@+	c #5C864B",
"9@+	c #162912",
"0@+	c #649151",
"a@+	c #29411F",
"b@+	c #7EBC5A",
"c@+	c #6B9B54",
"d@+	c #3C5B2F",
"e@+	c #507C3D",
"f@+	c #396527",
"g@+	c #7EBB59",
"h@+	c #518737",
"i@+	c #2E5220",
"j@+	c #132610",
"k@+	c #041004",
"l@+	c #122310",
"m@+	c #699D54",
"n@+	c #375A2C",
"o@+	c #30541E",
"p@+	c #75A55A",
"q@+	c #2F4B20",
"r@+	c #101B0D",
"s@+	c #689B48",
"t@+	c #43852D",
"u@+	c #203C19",
"v@+	c #23421A",
"w@+	c #68A44D",
"x@+	c #559733",
"y@+	c #4F9132",
"z@+	c #549040",
"A@+	c #4D7D38",
"B@+	c #27441D",
"C@+	c #243D1D",
"D@+	c #223719",
"E@+	c #18260C",
"F@+	c #021708",
"G@+	c #456635",
"H@+	c #5F8746",
"I@+	c #090F05",
"J@+	c #151226",
"K@+	c #001300",
"L@+	c #75A24A",
"M@+	c #1B330F",
"N@+	c #071304",
"O@+	c #000E01",
"P@+	c #224017",
"Q@+	c #668E4D",
"R@+	c #375628",
"S@+	c #568449",
"T@+	c #275A14",
"U@+	c #439C26",
"V@+	c #66A64F",
"W@+	c #13240D",
"X@+	c #365226",
"Y@+	c #68AC4A",
"Z@+	c #56A43B",
"`@+	c #0E2A0B",
" #+	c #3F5631",
".#+	c #4B7440",
"+#+	c #6E9E5B",
"@#+	c #73A55C",
"##+	c #507639",
"$#+	c #233A18",
"%#+	c #13250F",
"&#+	c #010D01",
"*#+	c #050A04",
"=#+	c #13200B",
"-#+	c #638747",
";#+	c #6F9D4A",
">#+	c #4A7037",
",#+	c #689A58",
"'#+	c #335927",
")#+	c #091B05",
"!#+	c #5F8A4A",
"~#+	c #345327",
"{#+	c #2D4621",
"]#+	c #22381B",
"^#+	c #487037",
"/#+	c #457135",
"(#+	c #355E22",
"_#+	c #5EA13F",
":#+	c #031206",
"<#+	c #436232",
"[#+	c #6FA755",
"}#+	c #182C0E",
"|#+	c #080B08",
"1#+	c #427629",
"2#+	c #46742F",
"3#+	c #0E0103",
"4#+	c #733333",
"5#+	c #4F1314",
"6#+	c #621312",
"7#+	c #902825",
"8#+	c #A94136",
"9#+	c #9E1C13",
"0#+	c #A52624",
"a#+	c #7E2527",
"b#+	c #972C2B",
"c#+	c #611715",
"d#+	c #7E3237",
"e#+	c #320F16",
"f#+	c #35622D",
"g#+	c #54A347",
"h#+	c #468A36",
"i#+	c #3D7034",
"j#+	c #458435",
"k#+	c #5CAF4A",
"l#+	c #489F3D",
"m#+	c #433A19",
"n#+	c #7F2A20",
"o#+	c #260301",
"p#+	c #0A0300",
"q#+	c #5C1F24",
"r#+	c #67332B",
"s#+	c #57AC3F",
"t#+	c #5FC73D",
"u#+	c #285D19",
"v#+	c #4B7A36",
"w#+	c #416A2E",
"x#+	c #537B45",
"y#+	c #180809",
"z#+	c #823F3B",
"A#+	c #5E1B14",
"B#+	c #8C2823",
"C#+	c #9E262A",
"D#+	c #B43227",
"E#+	c #B23529",
"F#+	c #A83631",
"G#+	c #A12F24",
"H#+	c #681A10",
"I#+	c #430E10",
"J#+	c #713032",
"K#+	c #1A0608",
"L#+	c #749F59",
"M#+	c #172F15",
"N#+	c #678C4B",
"O#+	c #4E7A3F",
"P#+	c #1F321E",
"Q#+	c #5E8E3E",
"R#+	c #508037",
"S#+	c #4D7A3E",
"T#+	c #2C4424",
"U#+	c #557F44",
"V#+	c #0C0E0C",
"W#+	c #689451",
"X#+	c #2B4720",
"Y#+	c #6D9755",
"Z#+	c #3F5C31",
"`#+	c #679551",
" $+	c #3D5A28",
".$+	c #0F190C",
"+$+	c #293C1B",
"@$+	c #426D31",
"#$+	c #6B9C53",
"$$+	c #567B43",
"%$+	c #3D562C",
"&$+	c #284419",
"*$+	c #102809",
"=$+	c #395B30",
"-$+	c #5D9A4A",
";$+	c #5FA23A",
">$+	c #416B2D",
",$+	c #06150A",
"'$+	c #0F1908",
")$+	c #41882A",
"!$+	c #1F3C18",
"~$+	c #578B45",
"{$+	c #638F52",
"]$+	c #162F0D",
"^$+	c #041D02",
"/$+	c #001008",
"($+	c #081D0A",
"_$+	c #142C0F",
":$+	c #3D6D35",
"<$+	c #15141C",
"[$+	c #0B0105",
"}$+	c #0B0D03",
"|$+	c #66954B",
"1$+	c #558136",
"2$+	c #5E914A",
"3$+	c #699B4D",
"4$+	c #4B862C",
"5$+	c #337414",
"6$+	c #2C5C14",
"7$+	c #284A1C",
"8$+	c #19380D",
"9$+	c #0C2805",
"0$+	c #6D9251",
"a$+	c #3F652D",
"b$+	c #54854A",
"c$+	c #255A1A",
"d$+	c #3F9E2B",
"e$+	c #61A650",
"f$+	c #112312",
"g$+	c #061802",
"h$+	c #244516",
"i$+	c #3A592D",
"j$+	c #56844B",
"k$+	c #61A550",
"l$+	c #6A8F54",
"m$+	c #517145",
"n$+	c #36522C",
"o$+	c #273A1F",
"p$+	c #0B120B",
"q$+	c #0B050D",
"r$+	c #040910",
"s$+	c #070C0E",
"t$+	c #3F6031",
"u$+	c #6B9C48",
"v$+	c #4F6F3A",
"w$+	c #233417",
"x$+	c #6F9552",
"y$+	c #385726",
"z$+	c #223B1D",
"A$+	c #689E55",
"B$+	c #375C25",
"C$+	c #2F4B25",
"D$+	c #386C1E",
"E$+	c #71D640",
"F$+	c #336B1A",
"G$+	c #00010C",
"H$+	c #01030A",
"I$+	c #0D1D04",
"J$+	c #4D7C40",
"K$+	c #090C0D",
"L$+	c #476C2E",
"M$+	c #6AA251",
"N$+	c #6FAA5D",
"O$+	c #0A1309",
"P$+	c #578C3F",
"Q$+	c #305E1C",
"R$+	c #1A0303",
"S$+	c #662829",
"T$+	c #3D0C0C",
"U$+	c #571210",
"V$+	c #A63C37",
"W$+	c #963127",
"X$+	c #B8251C",
"Y$+	c #CB211B",
"Z$+	c #91282B",
"`$+	c #692A27",
" %+	c #611F1C",
".%+	c #6E2C2A",
"+%+	c #591D1F",
"@%+	c #0B1705",
"#%+	c #397A26",
"$%+	c #65CF47",
"%%+	c #649456",
"&%+	c #5B8B4D",
"*%+	c #417F34",
"=%+	c #3F3213",
"-%+	c #87281C",
";%+	c #2E0203",
">%+	c #190501",
",%+	c #78262F",
"'%+	c #461B1B",
")%+	c #387B27",
"!%+	c #6DD244",
"~%+	c #65A84A",
"{%+	c #4A8B39",
"]%+	c #62BE46",
"^%+	c #60BE47",
"/%+	c #330E12",
"(%+	c #813539",
"_%+	c #642019",
":%+	c #632E22",
"<%+	c #963439",
"[%+	c #B42C2C",
"}%+	c #C2312B",
"|%+	c #AC2D28",
"1%+	c #AA332A",
"2%+	c #63140E",
"3%+	c #2D0A0A",
"4%+	c #662F2E",
"5%+	c #270B0A",
"6%+	c #274319",
"7%+	c #76A555",
"8%+	c #17230C",
"9%+	c #6D9C52",
"0%+	c #6C994F",
"a%+	c #5A9047",
"b%+	c #2D551B",
"c%+	c #4E8B3B",
"d%+	c #6CAC4A",
"e%+	c #5B803F",
"f%+	c #2D4522",
"g%+	c #355B2D",
"h%+	c #579743",
"i%+	c #0E2207",
"j%+	c #2F4B29",
"k%+	c #5D914C",
"l%+	c #315320",
"m%+	c #2C4C1B",
"n%+	c #2A4B1E",
"o%+	c #2A4E1F",
"p%+	c #598E3D",
"q%+	c #4C7B32",
"r%+	c #314928",
"s%+	c #739561",
"t%+	c #17290D",
"u%+	c #3E5B2A",
"v%+	c #6A954A",
"w%+	c #020312",
"x%+	c #0B0F09",
"y%+	c #4C663A",
"z%+	c #638649",
"A%+	c #5F953C",
"B%+	c #679D4C",
"C%+	c #5B8445",
"D%+	c #39592A",
"E%+	c #2F5625",
"F%+	c #1F4311",
"G%+	c #101F05",
"H%+	c #0A1307",
"I%+	c #50852D",
"J%+	c #458E28",
"K%+	c #1D3B19",
"L%+	c #558C47",
"M%+	c #668C52",
"N%+	c #1F3A13",
"O%+	c #2F5E19",
"P%+	c #397614",
"Q%+	c #4F8734",
"R%+	c #5D8D42",
"S%+	c #61A241",
"T%+	c #649E4A",
"U%+	c #65A550",
"V%+	c #161419",
"W%+	c #1C3314",
"X%+	c #6AA951",
"Y%+	c #5E8946",
"Z%+	c #4B6A37",
"`%+	c #1A2B0F",
" &+	c #4A7438",
".&+	c #78DB3B",
"+&+	c #70E32E",
"@&+	c #68CE35",
"#&+	c #61BA42",
"$&+	c #59A93F",
"%&+	c #49992A",
"&&+	c #58A630",
"*&+	c #3D6A21",
"=&+	c #111C12",
"-&+	c #396C21",
";&+	c #285919",
">&+	c #439C2B",
",&+	c #63A54F",
"'&+	c #2A4720",
")&+	c #395A2D",
"!&+	c #5F8A4D",
"~&+	c #62983E",
"{&+	c #5F8B48",
"]&+	c #2A4821",
"^&+	c #173210",
"/&+	c #061B05",
"(&+	c #0B0213",
"_&+	c #06070D",
":&+	c #030612",
"<&+	c #213216",
"[&+	c #415F33",
"}&+	c #203415",
"|&+	c #679054",
"1&+	c #1C3715",
"2&+	c #5A993B",
"3&+	c #5B933F",
"4&+	c #599740",
"5&+	c #5B9546",
"6&+	c #589141",
"7&+	c #58953B",
"8&+	c #5E953E",
"9&+	c #60914B",
"0&+	c #407A20",
"a&+	c #77DD46",
"b&+	c #214710",
"c&+	c #0B1F05",
"d&+	c #26431F",
"e&+	c #73AB66",
"f&+	c #34532C",
"g&+	c #182911",
"h&+	c #76AA57",
"i&+	c #365723",
"j&+	c #548F41",
"k&+	c #39622C",
"l&+	c #0F170C",
"m&+	c #66994E",
"n&+	c #2C571B",
"o&+	c #280B0A",
"p&+	c #682D2D",
"q&+	c #2E090A",
"r&+	c #420F10",
"s&+	c #9E4141",
"t&+	c #80201E",
"u&+	c #BA2E26",
"v&+	c #CB231B",
"w&+	c #A62A2C",
"x&+	c #5B1A1B",
"y&+	c #852E32",
"z&+	c #5E1916",
"A&+	c #953326",
"B&+	c #320B08",
"C&+	c #294C22",
"D&+	c #54A741",
"E&+	c #4DAB2C",
"F&+	c #427136",
"G&+	c #4C7E45",
"H&+	c #64A15B",
"I&+	c #39612C",
"J&+	c #4A1818",
"K&+	c #7E2C2A",
"L&+	c #240305",
"M&+	c #1C0202",
"N&+	c #7B2934",
"O&+	c #44151B",
"P&+	c #132B07",
"Q&+	c #568D32",
"R&+	c #468A34",
"S&+	c #62B138",
"T&+	c #67C040",
"U&+	c #1E0205",
"V&+	c #692325",
"W&+	c #6A292C",
"X&+	c #752726",
"Y&+	c #5C2520",
"Z&+	c #912C34",
"`&+	c #B43B42",
" *+	c #A43433",
".*+	c #8D2724",
"+*+	c #8A312A",
"@*+	c #48100D",
"#*+	c #1E0808",
"$*+	c #612E2F",
"%*+	c #330E11",
"&*+	c #284A1B",
"**+	c #73AA57",
"=*+	c #204318",
"-*+	c #73AF61",
";*+	c #2C4D23",
">*+	c #6FAE5A",
",*+	c #5D923F",
"'*+	c #7CC44F",
")*+	c #548839",
"!*+	c #040D06",
"~*+	c #22401E",
"{*+	c #61A453",
"]*+	c #11250A",
"^*+	c #23401A",
"/*+	c #5B9641",
"(*+	c #5A9739",
"_*+	c #5A943E",
":*+	c #55973D",
"<*+	c #559838",
"[*+	c #539637",
"}*+	c #529B3D",
"|*+	c #58A23E",
"1*+	c #467532",
"2*+	c #2D4C21",
"3*+	c #699551",
"4*+	c #182A0D",
"5*+	c #3B5A2B",
"6*+	c #64924C",
"7*+	c #284621",
"8*+	c #071603",
"9*+	c #2C451F",
"0*+	c #476435",
"a*+	c #5C8A4A",
"b*+	c #5DA24D",
"c*+	c #63A14A",
"d*+	c #5E9049",
"e*+	c #3A6530",
"f*+	c #2E4D24",
"g*+	c #438426",
"h*+	c #45902A",
"i*+	c #4F773C",
"j*+	c #1F371B",
"k*+	c #55874D",
"l*+	c #38602E",
"m*+	c #689556",
"n*+	c #203C10",
"o*+	c #5D9B38",
"p*+	c #509927",
"q*+	c #5EA043",
"r*+	c #6BCA3F",
"s*+	c #71E232",
"t*+	c #75DC46",
"u*+	c #669945",
"v*+	c #548232",
"w*+	c #4C713E",
"x*+	c #539143",
"y*+	c #75B558",
"z*+	c #10171A",
"A*+	c #5A9D49",
"B*+	c #16400C",
"C*+	c #12290E",
"D*+	c #52863B",
"E*+	c #5A8D46",
"F*+	c #569830",
"G*+	c #3B7926",
"H*+	c #4B8932",
"I*+	c #58A03F",
"J*+	c #4EAA24",
"K*+	c #6EC631",
"L*+	c #71AA45",
"M*+	c #407329",
"N*+	c #3C7721",
"O*+	c #587F40",
"P*+	c #304822",
"Q*+	c #2B5716",
"R*+	c #489829",
"S*+	c #6DB55A",
"T*+	c #629953",
"U*+	c #5E9A48",
"V*+	c #5E8B4E",
"W*+	c #3F6234",
"X*+	c #172D0A",
"Y*+	c #06020A",
"Z*+	c #0A030F",
"`*+	c #476533",
" =+	c #5F8148",
".=+	c #020110",
"+=+	c #060C03",
"@=+	c #355828",
"#=+	c #082401",
"$=+	c #0A2304",
"%=+	c #092307",
"&=+	c #072203",
"*=+	c #082506",
"==+	c #0A2604",
"-=+	c #0B2502",
";=+	c #0B2005",
">=+	c #02070F",
",=+	c #447F24",
"'=+	c #6BCB3A",
")=+	c #234610",
"!=+	c #577B47",
"~=+	c #6C9858",
"{=+	c #040D00",
"]=+	c #48693D",
"^=+	c #678C4E",
"/=+	c #2C4720",
"(=+	c #6FA258",
"_=+	c #1B3212",
":=+	c #40822A",
"<=+	c #3D6D2D",
"[=+	c #0F190A",
"}=+	c #6BA153",
"|=+	c #2E0C0C",
"1=+	c #642A2B",
"2=+	c #270707",
"3=+	c #190807",
"4=+	c #572E2B",
"5=+	c #4F1A17",
"6=+	c #902D2C",
"7=+	c #AC2222",
"8=+	c #851518",
"9=+	c #340C0A",
"0=+	c #803C38",
"a=+	c #4D1716",
"b=+	c #723128",
"c=+	c #7B3330",
"d=+	c #3C1210",
"e=+	c #3E5B2D",
"f=+	c #569D3F",
"g=+	c #3F9427",
"h=+	c #4E9A42",
"i=+	c #4C7C47",
"j=+	c #244222",
"k=+	c #220C05",
"l=+	c #76262D",
"m=+	c #5B1E22",
"n=+	c #0E0300",
"o=+	c #0F0100",
"p=+	c #5F2025",
"q=+	c #692227",
"r=+	c #150300",
"s=+	c #305525",
"t=+	c #4A8244",
"u=+	c #519238",
"v=+	c #5B8B43",
"w=+	c #42371B",
"x=+	c #6A2F2D",
"y=+	c #813430",
"z=+	c #4C1818",
"A=+	c #803C3E",
"B=+	c #3F1010",
"C=+	c #631D1E",
"D=+	c #B7494C",
"E=+	c #752526",
"F=+	c #3C0E0B",
"G=+	c #441E18",
"H=+	c #230908",
"I=+	c #140405",
"J=+	c #5F262B",
"K=+	c #3D0D13",
"L=+	c #29521B",
"M=+	c #6EA958",
"N=+	c #131F0F",
"O=+	c #64A94A",
"P=+	c #1D3715",
"Q=+	c #46742D",
"R=+	c #77AC4F",
"S=+	c #3C5825",
"T=+	c #17240A",
"U=+	c #4E6F35",
"V=+	c #66984E",
"W=+	c #537E41",
"X=+	c #0C1507",
"Y=+	c #031101",
"Z=+	c #010802",
"`=+	c #081F02",
" -+	c #0B2302",
".-+	c #0A2104",
"+-+	c #072304",
"@-+	c #072306",
"#-+	c #0C2309",
"$-+	c #072402",
"%-+	c #6A974B",
"&-+	c #0A1704",
"*-+	c #4E7939",
"=-+	c #508033",
"--+	c #0A0511",
";-+	c #04000B",
">-+	c #55844C",
",-+	c #5E9B4B",
"'-+	c #5A9B40",
")-+	c #468D2D",
"!-+	c #22351B",
"~-+	c #5C8450",
"{-+	c #39682C",
"]-+	c #63964F",
"^-+	c #4A762A",
"/-+	c #7ACE49",
"(-+	c #54B035",
"_-+	c #4C9B2D",
":-+	c #5A943A",
"<-+	c #407A25",
"[-+	c #4D8935",
"}-+	c #60A234",
"|-+	c #5A8642",
"1-+	c #1B310D",
"2-+	c #52823B",
"3-+	c #446534",
"4-+	c #0B1A16",
"5-+	c #447035",
"6-+	c #6C9E5D",
"7-+	c #578448",
"8-+	c #355525",
"9-+	c #4F7F3B",
"0-+	c #335D24",
"a-+	c #4B7D3A",
"b-+	c #51803C",
"c-+	c #658C53",
"d-+	c #5B9D45",
"e-+	c #72CB3A",
"f-+	c #76BC41",
"g-+	c #2E4F16",
"h-+	c #326317",
"i-+	c #538F33",
"j-+	c #5B7F43",
"k-+	c #33531C",
"l-+	c #518831",
"m-+	c #3E6930",
"n-+	c #36572C",
"o-+	c #14340C",
"p-+	c #041703",
"q-+	c #0A050A",
"r-+	c #08050E",
"s-+	c #476934",
"t-+	c #587A43",
"u-+	c #030D00",
"v-+	c #08090A",
"w-+	c #6B9359",
"x-+	c #36582A",
"y-+	c #04020F",
"z-+	c #437928",
"A-+	c #57A82E",
"B-+	c #080610",
"C-+	c #14260F",
"D-+	c #4E723F",
"E-+	c #72A557",
"F-+	c #36502B",
"G-+	c #467036",
"H-+	c #6EB55C",
"I-+	c #274920",
"J-+	c #7CAC5A",
"K-+	c #476A3B",
"L-+	c #557B47",
"M-+	c #3F802B",
"N-+	c #11190B",
"O-+	c #6BA351",
"P-+	c #29531C",
"Q-+	c #2E0A0C",
"R-+	c #5F2628",
"S-+	c #280507",
"T-+	c #180306",
"U-+	c #250102",
"V-+	c #4A0C10",
"W-+	c #892830",
"X-+	c #511113",
"Y-+	c #0F0201",
"Z-+	c #672422",
"`-+	c #8A302D",
" ;+	c #3C1310",
".;+	c #682922",
"+;+	c #8D332F",
"@;+	c #762625",
"#;+	c #58281D",
"$;+	c #3E3116",
"%;+	c #27280B",
"&;+	c #070D04",
"*;+	c #481214",
"=;+	c #933334",
"-;+	c #380C0E",
";;+	c #3E0C0D",
">;+	c #943132",
",;+	c #451311",
"';+	c #110F04",
");+	c #351C0F",
"!;+	c #55251A",
"~;+	c #6F2B2B",
"{;+	c #8E3435",
"];+	c #6F2D2C",
"^;+	c #3D100E",
"/;+	c #6D292B",
"(;+	c #6C2E30",
"_;+	c #180404",
":;+	c #2F1212",
"<;+	c #813A3B",
"[;+	c #551B1E",
"};+	c #110303",
"|;+	c #5E2527",
"1;+	c #420E12",
"2;+	c #0F1C0C",
"3;+	c #224B11",
"4;+	c #65A44A",
"5;+	c #4C7340",
"6;+	c #4A6C3F",
"7;+	c #496933",
"8;+	c #597D41",
"9;+	c #4B733B",
"0;+	c #324D29",
"a;+	c #518040",
"b;+	c #6CB046",
"c;+	c #4C7C36",
"d;+	c #172310",
"e;+	c #376020",
"f;+	c #508139",
"g;+	c #4A7637",
"h;+	c #618E4A",
"i;+	c #304A1F",
"j;+	c #6F944E",
"k;+	c #33581F",
"l;+	c #111F12",
"m;+	c #0A0409",
"n;+	c #0C0102",
"o;+	c #0F2D06",
"p;+	c #3F7929",
"q;+	c #4D773B",
"r;+	c #233518",
"s;+	c #5F8449",
"t;+	c #3B7222",
"u;+	c #4F8234",
"v;+	c #213C12",
"w;+	c #66B139",
"x;+	c #6ED237",
"y;+	c #5DA04A",
"z;+	c #5E8C4D",
"A;+	c #659549",
"B;+	c #588942",
"C;+	c #5F9345",
"D;+	c #365D25",
"E;+	c #56843E",
"F;+	c #273C1D",
"G;+	c #324F21",
"H;+	c #3F612C",
"I;+	c #506E42",
"J;+	c #0E171C",
"K;+	c #15350A",
"L;+	c #5BB838",
"M;+	c #69AB4A",
"N;+	c #3B5930",
"O;+	c #4E733E",
"P;+	c #67A947",
"Q;+	c #7BCC4C",
"R;+	c #538238",
"S;+	c #64A354",
"T;+	c #3D6C31",
"U;+	c #2D4222",
"V;+	c #39532D",
"W;+	c #69AB4B",
"X;+	c #2C4D19",
"Y;+	c #2E5A1D",
"Z;+	c #65A04B",
"`;+	c #5C7E4F",
" >+	c #314627",
".>+	c #2C5514",
"+>+	c #4A9525",
"@>+	c #6FB552",
"#>+	c #5F9749",
"$>+	c #4B743C",
"%>+	c #223D1D",
"&>+	c #0E0303",
"*>+	c #2C421E",
"=>+	c #7AA859",
"->+	c #090802",
";>+	c #060B05",
">>+	c #659854",
",>+	c #325C27",
"'>+	c #000804",
")>+	c #487233",
"!>+	c #497833",
"~>+	c #061905",
"{>+	c #00080A",
"]>+	c #648F46",
"^>+	c #6D9E54",
"/>+	c #081307",
"(>+	c #4D833F",
"_>+	c #406E37",
":>+	c #51763E",
"<>+	c #649549",
"[>+	c #477A40",
"}>+	c #456B3F",
"|>+	c #67A44D",
"1>+	c #29561A",
"2>+	c #2D090C",
"3>+	c #60292C",
"4>+	c #250809",
"5>+	c #240102",
"6>+	c #5F2E11",
"7>+	c #804D23",
"8>+	c #8F4C26",
"9>+	c #943825",
"0>+	c #3B1909",
"a>+	c #280907",
"b>+	c #772F30",
"c>+	c #77292B",
"d>+	c #350807",
"e>+	c #3B0D0D",
"f>+	c #4D181B",
"g>+	c #662424",
"h>+	c #7E302B",
"i>+	c #6E2528",
"j>+	c #170005",
"k>+	c #230505",
"l>+	c #7C2E31",
"m>+	c #692424",
"n>+	c #150305",
"o>+	c #662421",
"p>+	c #7F3132",
"q>+	c #300A09",
"r>+	c #4D181D",
"s>+	c #7E3139",
"t>+	c #662923",
"u>+	c #451719",
"v>+	c #380C0F",
"w>+	c #330605",
"x>+	c #582826",
"y>+	c #873F3D",
"z>+	c #3E1112",
"A>+	c #190404",
"B>+	c #100200",
"C>+	c #160403",
"D>+	c #5D2825",
"E>+	c #3D0D0F",
"F>+	c #345C1C",
"G>+	c #548B37",
"H>+	c #08150C",
"I>+	c #244C0C",
"J>+	c #67A53E",
"K>+	c #142507",
"L>+	c #426A38",
"M>+	c #4C8440",
"N>+	c #63944C",
"O>+	c #486E34",
"P>+	c #69A05A",
"Q>+	c #2E4B23",
"R>+	c #2D4E1D",
"S>+	c #74B155",
"T>+	c #42682D",
"U>+	c #1D3B0F",
"V>+	c #5BA833",
"W>+	c #6DC249",
"X>+	c #688D51",
"Y>+	c #15240F",
"Z>+	c #03060F",
"`>+	c #020D05",
" ,+	c #021402",
".,+	c #011600",
"+,+	c #011801",
"@,+	c #041806",
"#,+	c #031702",
"$,+	c #2F4A21",
"%,+	c #6D9453",
"&,+	c #0B1307",
"*,+	c #427431",
"=,+	c #0B160C",
"-,+	c #000808",
";,+	c #07140C",
">,+	c #334720",
",,+	c #4C6A38",
"',+	c #619C44",
"),+	c #6FAF4E",
"!,+	c #41832A",
"~,+	c #233617",
"{,+	c #4A872C",
"],+	c #376D1A",
"^,+	c #224013",
"/,+	c #6BA548",
"(,+	c #689A4B",
"_,+	c #38552C",
":,+	c #416628",
"<,+	c #6BA246",
"[,+	c #65B14F",
"},+	c #73C24A",
"|,+	c #487232",
"1,+	c #4E7846",
"2,+	c #1F3119",
"3,+	c #0F171B",
"4,+	c #1A3912",
"5,+	c #6FC84E",
"6,+	c #3F7927",
"7,+	c #1E3614",
"8,+	c #5E9C3E",
"9,+	c #76CF47",
"0,+	c #3C6D27",
"a,+	c #618D45",
"b,+	c #62A545",
"c,+	c #6EBE47",
"d,+	c #4C7338",
"e,+	c #6E9D57",
"f,+	c #29501D",
"g,+	c #619C4A",
"h,+	c #2F4725",
"i,+	c #2B561A",
"j,+	c #4A982B",
"k,+	c #66A24C",
"l,+	c #28451E",
"m,+	c #36532C",
"n,+	c #4D703F",
"o,+	c #5D9744",
"p,+	c #273F1B",
"q,+	c #0F2406",
"r,+	c #030B03",
"s,+	c #0E0B06",
"t,+	c #070809",
"u,+	c #405F30",
"v,+	c #70A258",
"w,+	c #060C06",
"x,+	c #649755",
"y,+	c #315A28",
"z,+	c #0D1707",
"A,+	c #4A673A",
"B,+	c #517D3C",
"C,+	c #51773F",
"D,+	c #50793D",
"E,+	c #507841",
"F,+	c #52773F",
"G,+	c #4F773D",
"H,+	c #557242",
"I,+	c #415C37",
"J,+	c #6BAA58",
"K,+	c #75A25B",
"L,+	c #5C7F44",
"M,+	c #12090A",
"N,+	c #2C4D1F",
"O,+	c #659E51",
"P,+	c #567845",
"Q,+	c #4A9235",
"R,+	c #3D6A31",
"S,+	c #477D2F",
"T,+	c #0F1506",
"U,+	c #5A983E",
"V,+	c #295B14",
"W,+	c #250509",
"X,+	c #63292E",
"Y,+	c #42090C",
"Z,+	c #814717",
"`,+	c #D1A551",
" '+	c #CDBF5B",
".'+	c #D2B258",
"+'+	c #C09047",
"@'+	c #A19152",
"#'+	c #484725",
"$'+	c #33110F",
"%'+	c #7A382E",
"&'+	c #7F3328",
"*'+	c #491A1A",
"='+	c #34060A",
"-'+	c #290201",
";'+	c #5F2323",
">'+	c #823032",
",'+	c #180101",
"''+	c #491712",
")'+	c #8D3032",
"!'+	c #36090F",
"~'+	c #260807",
"{'+	c #622221",
"]'+	c #1C0101",
"^'+	c #6D2626",
"/'+	c #390808",
"('+	c #360E11",
"_'+	c #4B1A1A",
":'+	c #792E27",
"<'+	c #7A342F",
"['+	c #3D1815",
"}'+	c #0E0002",
"|'+	c #0E0F03",
"1'+	c #534C24",
"2'+	c #6C6436",
"3'+	c #646438",
"4'+	c #625F37",
"5'+	c #605F32",
"6'+	c #555226",
"7'+	c #391C0C",
"8'+	c #35080A",
"9'+	c #457A26",
"0'+	c #224B10",
"a'+	c #68A845",
"b'+	c #16260B",
"c'+	c #305F23",
"d'+	c #46962F",
"e'+	c #3D5D2A",
"f'+	c #619744",
"g'+	c #5D8845",
"h'+	c #051703",
"i'+	c #050112",
"j'+	c #325521",
"k'+	c #6FAF4D",
"l'+	c #598E3B",
"m'+	c #64C03D",
"n'+	c #5A9844",
"o'+	c #658D4C",
"p'+	c #13200C",
"q'+	c #162110",
"r'+	c #5E7C49",
"s'+	c #5E9248",
"t'+	c #5D9349",
"u'+	c #5C9449",
"v'+	c #5B9748",
"w'+	c #5D9348",
"x'+	c #557C43",
"y'+	c #14230F",
"z'+	c #2C4D20",
"A'+	c #689752",
"B'+	c #132509",
"C'+	c #4D7538",
"D'+	c #6BA44E",
"E'+	c #28461D",
"F'+	c #446032",
"G'+	c #618E4B",
"H'+	c #689C3E",
"I'+	c #769E4F",
"J'+	c #5B7C41",
"K'+	c #3A572A",
"L'+	c #4C892F",
"M'+	c #45892B",
"N'+	c #4E733D",
"O'+	c #223518",
"P'+	c #5B9A45",
"Q'+	c #2E631D",
"R'+	c #33442C",
"S'+	c #335123",
"T'+	c #102C04",
"U'+	c #243B17",
"V'+	c #669351",
"W'+	c #568043",
"X'+	c #77B657",
"Y'+	c #62A549",
"Z'+	c #699F56",
"`'+	c #3A662C",
" )+	c #446E2F",
".)+	c #011702",
"+)+	c #0C181F",
"@)+	c #173115",
"#)+	c #5DAC46",
"$)+	c #62B440",
"%)+	c #3E6E2C",
"&)+	c #5D9847",
"*)+	c #64954D",
"=)+	c #527F3C",
"-)+	c #577E45",
";)+	c #67AD44",
">)+	c #73AB5F",
",)+	c #25391A",
"')+	c #5D9140",
"))+	c #518642",
"!)+	c #2C4824",
"~)+	c #29571A",
"{)+	c #499930",
"])+	c #142211",
"^)+	c #0D220A",
"/)+	c #446431",
"()+	c #5E894A",
"_)+	c #6BA34C",
":)+	c #5D953F",
"<)+	c #5B8348",
"[)+	c #3D582F",
"})+	c #2B3D22",
"|)+	c #0B0104",
"1)+	c #06090C",
"2)+	c #090701",
"3)+	c #0A0503",
"4)+	c #080305",
"5)+	c #37552C",
"6)+	c #6BA052",
"7)+	c #64944A",
"8)+	c #080B04",
"9)+	c #679651",
"0)+	c #345825",
"a)+	c #1D2F14",
"b)+	c #6C9B54",
"c)+	c #436F2F",
"d)+	c #385E27",
"e)+	c #395A2A",
"f)+	c #3F6128",
"g)+	c #040B02",
"h)+	c #4D6A38",
"i)+	c #658A50",
"j)+	c #517040",
"k)+	c #162510",
"l)+	c #080704",
"m)+	c #0A0605",
"n)+	c #244913",
"o)+	c #6FCC42",
"p)+	c #68B545",
"q)+	c #508040",
"r)+	c #517B43",
"s)+	c #4B8534",
"t)+	c #051004",
"u)+	c #38681F",
"v)+	c #160305",
"w)+	c #72282C",
"x)+	c #862815",
"y)+	c #D3A53D",
"z)+	c #E0D45D",
"A)+	c #A1A557",
"B)+	c #A09F51",
"C)+	c #B8B16B",
"D)+	c #96995B",
"E)+	c #AAAD69",
"F)+	c #262714",
"G)+	c #284F20",
"H)+	c #69733E",
"I)+	c #775036",
"J)+	c #853928",
"K)+	c #7F3323",
"L)+	c #883935",
"M)+	c #531F1D",
"N)+	c #220202",
"O)+	c #752E2C",
"P)+	c #581E1D",
"Q)+	c #10000B",
"R)+	c #3C1211",
"S)+	c #8A3437",
"T)+	c #320506",
"U)+	c #481713",
"V)+	c #912F2A",
"W)+	c #902422",
"X)+	c #843837",
"Y)+	c #734835",
"Z)+	c #5E5D34",
"`)+	c #508443",
" !+	c #284F26",
".!+	c #0C0003",
"+!+	c #615525",
"@!+	c #CFC05E",
"#!+	c #D7CD69",
"$!+	c #B5B56A",
"%!+	c #B5AF6B",
"&!+	c #D1CE6F",
"*!+	c #D1C460",
"=!+	c #915D27",
"-!+	c #78221F",
";!+	c #290102",
">!+	c #517839",
",!+	c #427228",
"'!+	c #204718",
")!+	c #71B25C",
"!!+	c #539E3D",
"~!+	c #2A4E1A",
"{!+	c #426B34",
"]!+	c #041102",
"^!+	c #09030F",
"/!+	c #4B7735",
"(!+	c #78B851",
"_!+	c #64994F",
":!+	c #5B8346",
"<!+	c #0C1A09",
"[!+	c #253417",
"}!+	c #7C9E5F",
"|!+	c #436532",
"1!+	c #395B29",
"2!+	c #365529",
"3!+	c #3C5C2E",
"4!+	c #2D4E23",
"5!+	c #6B9958",
"6!+	c #1D3014",
"7!+	c #5E9641",
"8!+	c #5E844A",
"9!+	c #2B421D",
"0!+	c #100008",
"a!+	c #09020F",
"b!+	c #2D4123",
"c!+	c #456032",
"d!+	c #5A8143",
"e!+	c #5E9044",
"f!+	c #65993F",
"g!+	c #73A25C",
"h!+	c #5E824A",
"i!+	c #3F5D2F",
"j!+	c #17270A",
"k!+	c #070D05",
"l!+	c #09140F",
"m!+	c #538D40",
"n!+	c #44852C",
"o!+	c #4F733C",
"p!+	c #213519",
"q!+	c #5B844A",
"r!+	c #609A50",
"s!+	c #2D5823",
"t!+	c #365322",
"u!+	c #7FC550",
"v!+	c #60A93D",
"w!+	c #527544",
"x!+	c #3C592C",
"y!+	c #71A459",
"z!+	c #132D0B",
"A!+	c #476D37",
"B!+	c #507C3F",
"C!+	c #3A5F29",
"D!+	c #66AA46",
"E!+	c #496D35",
"F!+	c #284B1C",
"G!+	c #14151B",
"H!+	c #549534",
"I!+	c #346822",
"J!+	c #243A1C",
"K!+	c #6B994B",
"L!+	c #76AD54",
"M!+	c #71AB4F",
"N!+	c #528B3C",
"O!+	c #2B4A20",
"P!+	c #2A5811",
"Q!+	c #4B9929",
"R!+	c #162511",
"S!+	c #0A0108",
"T!+	c #09000B",
"U!+	c #091604",
"V!+	c #436132",
"W!+	c #638B4F",
"X!+	c #678F4C",
"Y!+	c #3E602E",
"Z!+	c #04030F",
"`!+	c #09060F",
" ~+	c #090100",
".~+	c #486E36",
"+~+	c #58943C",
"@~+	c #335826",
"#~+	c #669B51",
"$~+	c #325925",
"%~+	c #5D8A4A",
"&~+	c #2C4921",
"*~+	c #48713C",
"=~+	c #456237",
"-~+	c #4E7242",
";~+	c #447330",
">~+	c #72D141",
",~+	c #3A6D1F",
"'~+	c #284421",
")~+	c #74B265",
"!~+	c #446C38",
"~~+	c #65A24E",
"{~+	c #2D5720",
"]~+	c #00030C",
"^~+	c #557E41",
"/~+	c #0E0101",
"(~+	c #6F1A1F",
"_~+	c #934F29",
":~+	c #DCD46D",
"<~+	c #7B7E2F",
"[~+	c #151707",
"}~+	c #171906",
"|~+	c #5C613B",
"1~+	c #A6AF75",
"2~+	c #9A9E64",
"3~+	c #585C36",
"4~+	c #476432",
"5~+	c #6FA349",
"6~+	c #64A238",
"7~+	c #49411F",
"8~+	c #3B1513",
"9~+	c #160303",
"0~+	c #3F0B12",
"a~+	c #9C303F",
"b~+	c #55161B",
"c~+	c #2B0909",
"d~+	c #190100",
"e~+	c #140201",
"f~+	c #290B06",
"g~+	c #4D1612",
"h~+	c #9F2F29",
"i~+	c #4B0F0D",
"j~+	c #361009",
"k~+	c #4F512C",
"l~+	c #5D9938",
"m~+	c #68AA43",
"n~+	c #577F42",
"o~+	c #477E39",
"p~+	c #4E7D44",
"q~+	c #2E1F0D",
"r~+	c #B69349",
"s~+	c #DBC765",
"t~+	c #706A2C",
"u~+	c #24250C",
"v~+	c #25220C",
"w~+	c #747433",
"x~+	c #E2DD70",
"y~+	c #8A642B",
"z~+	c #652320",
"A~+	c #130000",
"B~+	c #587D45",
"C~+	c #446E31",
"D~+	c #162E13",
"E~+	c #629E53",
"F~+	c #4A7A33",
"G~+	c #6F9F4A",
"H~+	c #122D0B",
"I~+	c #3F6232",
"J~+	c #72A55E",
"K~+	c #375529",
"L~+	c #2A431D",
"M~+	c #041403",
"N~+	c #4F753F",
"O~+	c #6DB34D",
"P~+	c #56B228",
"Q~+	c #59A62A",
"R~+	c #49683D",
"S~+	c #5C8A53",
"T~+	c #1F371C",
"U~+	c #6A9E50",
"V~+	c #699D4E",
"W~+	c #365625",
"X~+	c #19340F",
"Y~+	c #101505",
"Z~+	c #020B06",
"`~+	c #060801",
" {+	c #102A0C",
".{+	c #283C1B",
"+{+	c #5F8644",
"@{+	c #7DAC65",
"#{+	c #62824B",
"${+	c #395529",
"%{+	c #12270C",
"&{+	c #071105",
"*{+	c #0A0005",
"={+	c #0A0109",
"-{+	c #0E190C",
";{+	c #609745",
">{+	c #41872B",
",{+	c #558842",
"'{+	c #2A4C20",
"){+	c #0C1D04",
"!{+	c #5B8C46",
"~{+	c #61954F",
"{{+	c #71A44A",
"]{+	c #75B14C",
"^{+	c #274919",
"/{+	c #77AA61",
"({+	c #09170A",
"_{+	c #54813B",
":{+	c #1E1018",
"<{+	c #5B9C42",
"[{+	c #153908",
"}{+	c #1B3013",
"|{+	c #091A06",
"1{+	c #436732",
"2{+	c #6B9C4E",
"3{+	c #233D17",
"4{+	c #122607",
"5{+	c #1D3D0F",
"6{+	c #081408",
"7{+	c #0A010E",
"8{+	c #4D8F38",
"9{+	c #2D5710",
"0{+	c #4E942C",
"a{+	c #72A667",
"b{+	c #162613",
"c{+	c #284019",
"d{+	c #476C40",
"e{+	c #415E31",
"f{+	c #6FA84E",
"g{+	c #406D23",
"h{+	c #68A838",
"i{+	c #3F6F26",
"j{+	c #24391F",
"k{+	c #1A2817",
"l{+	c #0B0701",
"m{+	c #213D14",
"n{+	c #406B2E",
"o{+	c #6CA857",
"p{+	c #74BD63",
"q{+	c #2E5727",
"r{+	c #5D8746",
"s{+	c #365727",
"t{+	c #192F10",
"u{+	c #487E34",
"v{+	c #455F37",
"w{+	c #5D844B",
"x{+	c #040700",
"y{+	c #3A5726",
"z{+	c #5B9348",
"A{+	c #56843C",
"B{+	c #537844",
"C{+	c #040B01",
"D{+	c #406637",
"E{+	c #81C565",
"F{+	c #3C5D2E",
"G{+	c #5F824D",
"H{+	c #2D0004",
"I{+	c #706C28",
"J{+	c #CADC72",
"K{+	c #4A5329",
"L{+	c #020012",
"M{+	c #3D4025",
"N{+	c #9EA96A",
"O{+	c #8A8E5B",
"P{+	c #72804B",
"Q{+	c #6C9E57",
"R{+	c #152A10",
"S{+	c #240D0D",
"T{+	c #621B22",
"U{+	c #7D3132",
"V{+	c #8E282E",
"W{+	c #741E25",
"X{+	c #401619",
"Y{+	c #421316",
"Z{+	c #6F1E23",
"`{+	c #8E2A2A",
" ]+	c #853533",
".]+	c #651F1D",
"+]+	c #270C0A",
"@]+	c #273F1E",
"#]+	c #4E983D",
"$]+	c #4EA843",
"%]+	c #31622A",
"&]+	c #60A55D",
"*]+	c #524D22",
"=]+	c #C7A14E",
"-]+	c #BFBD5C",
";]+	c #3A3D1A",
">]+	c #43461F",
",]+	c #D3D46B",
"']+	c #7A712F",
")]+	c #200006",
"!]+	c #597C43",
"~]+	c #040A01",
"{]+	c #466F31",
"]]+	c #7EBF55",
"^]+	c #34571F",
"/]+	c #0F1707",
"(]+	c #668752",
"_]+	c #455E39",
":]+	c #77AC61",
"<]+	c #54804D",
"[]+	c #315229",
"}]+	c #253F1F",
"|]+	c #253D26",
"1]+	c #243D1F",
"2]+	c #2E5318",
"3]+	c #324924",
"4]+	c #132C0E",
"5]+	c #63A44B",
"6]+	c #6EC53C",
"7]+	c #70B942",
"8]+	c #487034",
"9]+	c #618550",
"0]+	c #729C54",
"a]+	c #3E5A2C",
"b]+	c #243E14",
"c]+	c #5D873E",
"d]+	c #77B952",
"e]+	c #40622E",
"f]+	c #132908",
"g]+	c #0F0515",
"h]+	c #355220",
"i]+	c #47662F",
"j]+	c #2C5420",
"k]+	c #5BA442",
"l]+	c #3D6C28",
"m]+	c #6AA24F",
"n]+	c #587E3E",
"o]+	c #050D01",
"p]+	c #233514",
"q]+	c #385229",
"r]+	c #3C542E",
"s]+	c #203213",
"t]+	c #121D0C",
"u]+	c #70A14F",
"v]+	c #43862A",
"w]+	c #4B7635",
"x]+	c #528E38",
"y]+	c #233C1D",
"z]+	c #53793B",
"A]+	c #274617",
"B]+	c #243E12",
"C]+	c #12290D",
"D]+	c #528246",
"E]+	c #517E42",
"F]+	c #141D10",
"G]+	c #02050B",
"H]+	c #1F3219",
"I]+	c #113507",
"J]+	c #60A543",
"K]+	c #26431A",
"L]+	c #1A1311",
"M]+	c #559038",
"N]+	c #6FB159",
"O]+	c #4C7D42",
"P]+	c #0D1A04",
"Q]+	c #51793B",
"R]+	c #639551",
"S]+	c #34522A",
"T]+	c #263C1B",
"U]+	c #3F5C30",
"V]+	c #5F8A42",
"W]+	c #66974B",
"X]+	c #080212",
"Y]+	c #07020E",
"Z]+	c #50913E",
"`]+	c #5BA738",
" ^+	c #2B4B18",
".^+	c #2C580F",
"+^+	c #4E9328",
"@^+	c #709F5E",
"#^+	c #385428",
"$^+	c #7AB253",
"%^+	c #587F3E",
"&^+	c #436438",
"*^+	c #548347",
"=^+	c #72AA51",
"-^+	c #3F632B",
";^+	c #040E04",
">^+	c #031305",
",^+	c #58853C",
"'^+	c #569F31",
")^+	c #4F8B3B",
"!^+	c #567F41",
"~^+	c #415D30",
"{^+	c #0C120C",
"]^+	c #152211",
"^^+	c #0B050F",
"/^+	c #375E2E",
"(^+	c #142E10",
"_^+	c #5F8D45",
":^+	c #3A6726",
"<^+	c #547F3B",
"[^+	c #5C8643",
"}^+	c #334D26",
"|^+	c #73B351",
"1^+	c #5E9740",
"2^+	c #498828",
"3^+	c #273C1A",
"4^+	c #5C8D3F",
"5^+	c #6EA950",
"6^+	c #689E52",
"7^+	c #5D8C47",
"8^+	c #5C8849",
"9^+	c #3A5C2F",
"0^+	c #71A162",
"a^+	c #38592B",
"b^+	c #273B1E",
"c^+	c #2F4427",
"d^+	c #638052",
"e^+	c #151F0F",
"f^+	c #85923B",
"g^+	c #D6E170",
"h^+	c #52522B",
"i^+	c #4C5126",
"j^+	c #AEB569",
"k^+	c #9E9C6B",
"l^+	c #66814A",
"m^+	c #488235",
"n^+	c #335C22",
"o^+	c #436333",
"p^+	c #0F2717",
"q^+	c #203116",
"r^+	c #30381A",
"s^+	c #4D3720",
"t^+	c #5B3929",
"u^+	c #6F4135",
"v^+	c #774033",
"w^+	c #5D3926",
"x^+	c #4E351D",
"y^+	c #37331B",
"z^+	c #29331C",
"A^+	c #305929",
"B^+	c #69A555",
"C^+	c #507E40",
"D^+	c #407A37",
"E^+	c #63703D",
"F^+	c #977335",
"G^+	c #D2D06C",
"H^+	c #494B22",
"I^+	c #494B24",
"J^+	c #D6D870",
"K^+	c #959445",
"L^+	c #0C0B03",
"M^+	c #5A7D43",
"N^+	c #3F5F2E",
"O^+	c #010213",
"P^+	c #446631",
"Q^+	c #335725",
"R^+	c #132407",
"S^+	c #446434",
"T^+	c #578044",
"U^+	c #294323",
"V^+	c #446B3E",
"W^+	c #619352",
"X^+	c #699F5D",
"Y^+	c #6B9C5E",
"Z^+	c #73BD46",
"`^+	c #152216",
" /+	c #529138",
"./+	c #395E29",
"+/+	c #102F06",
"@/+	c #060F0B",
"#/+	c #3D5D2D",
"$/+	c #74A45D",
"%/+	c #497330",
"&/+	c #578637",
"*/+	c #17310F",
"=/+	c #253E16",
"-/+	c #112113",
";/+	c #2D4920",
">/+	c #15230F",
",/+	c #77AF4D",
"'/+	c #76AE51",
")/+	c #457929",
"!/+	c #4CA229",
"~/+	c #4B912A",
"{/+	c #78A851",
"]/+	c #6E9A4E",
"^/+	c #67924A",
"//+	c #75A653",
"(/+	c #365229",
"_/+	c #14200F",
":/+	c #78A85D",
"</+	c #44842F",
"[/+	c #4F9F3D",
"}/+	c #4B9935",
"|/+	c #132D0D",
"1/+	c #2A401D",
"2/+	c #5A8842",
"3/+	c #62A347",
"4/+	c #416830",
"5/+	c #293B1C",
"6/+	c #304521",
"7/+	c #6FA75C",
"8/+	c #6CA64B",
"9/+	c #72A85F",
"0/+	c #456C37",
"a/+	c #599A3F",
"b/+	c #10190F",
"c/+	c #070301",
"d/+	c #559F34",
"e/+	c #5FA544",
"f/+	c #578A43",
"g/+	c #112210",
"h/+	c #75A35E",
"i/+	c #77A758",
"j/+	c #699350",
"k/+	c #466331",
"l/+	c #213612",
"m/+	c #5B9939",
"n/+	c #79C348",
"o/+	c #2B5915",
"p/+	c #4B9129",
"q/+	c #699750",
"r/+	c #1B2D11",
"s/+	c #79A663",
"t/+	c #486C35",
"u/+	c #0A1B09",
"v/+	c #7DB364",
"w/+	c #3B572A",
"x/+	c #05050E",
"y/+	c #61A24B",
"z/+	c #639F4D",
"A/+	c #58863A",
"B/+	c #6CA14C",
"C/+	c #0D210A",
"D/+	c #040413",
"E/+	c #010909",
"F/+	c #090910",
"G/+	c #3A582C",
"H/+	c #6EA151",
"I/+	c #4E7D39",
"J/+	c #376E22",
"K/+	c #4C7836",
"L/+	c #4B6A38",
"M/+	c #739A5B",
"N/+	c #498B2D",
"O/+	c #4E7934",
"P/+	c #4C7731",
"Q/+	c #07130A",
"R/+	c #183210",
"S/+	c #6BA35B",
"T/+	c #2F481E",
"U/+	c #7DB252",
"V/+	c #507741",
"W/+	c #71AF51",
"X/+	c #416B32",
"Y/+	c #588747",
"Z/+	c #6AAF53",
"`/+	c #396029",
" (+	c #030603",
".(+	c #1D3516",
"+(+	c #6B974F",
"@(+	c #555A29",
"#(+	c #99995D",
"$(+	c #464128",
"%(+	c #88854B",
"&(+	c #D6C86A",
"*(+	c #A49355",
"=(+	c #537D38",
"-(+	c #407633",
";(+	c #5EA650",
">(+	c #345823",
",(+	c #457A37",
"'(+	c #47963B",
")(+	c #63AA51",
"!(+	c #66A455",
"~(+	c #64AE5E",
"{(+	c #64AB57",
"](+	c #70A559",
"^(+	c #6CA35A",
"/(+	c #6DA04B",
"((+	c #76A046",
"_(+	c #69A14F",
":(+	c #68A054",
"<(+	c #6DA654",
"[(+	c #6EA255",
"}(+	c #66A85B",
"|(+	c #549E46",
"1(+	c #457F38",
"2(+	c #629C4C",
"3(+	c #4E8540",
"4(+	c #65884D",
"5(+	c #734923",
"6(+	c #C0A761",
"7(+	c #6F673A",
"8(+	c #4C4B2C",
"9(+	c #C1BF7A",
"0(+	c #787640",
"a(+	c #5B823F",
"b(+	c #3B5D28",
"c(+	c #649244",
"d(+	c #3D582E",
"e(+	c #6AAB4B",
"f(+	c #537A45",
"g(+	c #213C19",
"h(+	c #274621",
"i(+	c #65A446",
"j(+	c #5E9C3F",
"k(+	c #273B1B",
"l(+	c #224015",
"m(+	c #0B0201",
"n(+	c #090005",
"o(+	c #6FB749",
"p(+	c #5A9A3B",
"q(+	c #020D07",
"r(+	c #294622",
"s(+	c #568F44",
"t(+	c #74B759",
"u(+	c #53773A",
"v(+	c #80AF5F",
"w(+	c #60A33F",
"x(+	c #5B8E40",
"y(+	c #4F9A37",
"z(+	c #5A9E3F",
"A(+	c #33512C",
"B(+	c #76AE62",
"C(+	c #53803B",
"D(+	c #2F4B1D",
"E(+	c #12220E",
"F(+	c #4C713A",
"G(+	c #6B9D51",
"H(+	c #1B330E",
"I(+	c #11200E",
"J(+	c #6EA35B",
"K(+	c #418232",
"L(+	c #4B783E",
"M(+	c #1A350F",
"N(+	c #67B445",
"O(+	c #5CA43C",
"P(+	c #122709",
"Q(+	c #365B24",
"R(+	c #739F57",
"S(+	c #7BAB5E",
"T(+	c #233C1B",
"U(+	c #284B1E",
"V(+	c #68AE53",
"W(+	c #314E26",
"X(+	c #69A154",
"Y(+	c #69C33B",
"Z(+	c #234513",
"`(+	c #111715",
" _+	c #14320E",
"._+	c #58B33A",
"+_+	c #67C03A",
"@_+	c #2F511E",
"#_+	c #78B949",
"$_+	c #406625",
"%_+	c #102009",
"&_+	c #294718",
"*_+	c #33551D",
"=_+	c #081401",
"-_+	c #285A17",
";_+	c #4C9032",
">_+	c #396127",
",_+	c #5D9941",
"'_+	c #030116",
")_+	c #010E0E",
"!_+	c #456431",
"~_+	c #06040F",
"{_+	c #679F4D",
"]_+	c #61AA44",
"^_+	c #55A039",
"/_+	c #497F36",
"(_+	c #72BD4F",
"__+	c #2E541D",
":_+	c #4D842A",
"<_+	c #5B8F3E",
"[_+	c #79A459",
"}_+	c #476531",
"|_+	c #0F2308",
"1_+	c #000309",
"2_+	c #346421",
"3_+	c #49862C",
"4_+	c #609149",
"5_+	c #1F3A15",
"6_+	c #486B36",
"7_+	c #71BD53",
"8_+	c #3A8020",
"9_+	c #091407",
"0_+	c #050D09",
"a_+	c #527843",
"b_+	c #567A47",
"c_+	c #476733",
"d_+	c #6C9B56",
"e_+	c #75AF55",
"f_+	c #5B9B37",
"g_+	c #6AA74E",
"h_+	c #70A252",
"i_+	c #4E7A3C",
"j_+	c #5F9742",
"k_+	c #7AA761",
"l_+	c #456637",
"m_+	c #517F39",
"n_+	c #527537",
"o_+	c #081607",
"p_+	c #3C522E",
"q_+	c #629352",
"r_+	c #77BC4E",
"s_+	c #385F1D",
"t_+	c #16130B",
"u_+	c #160F0D",
"v_+	c #81744B",
"w_+	c #8D6F3F",
"x_+	c #4E4E20",
"y_+	c #62A846",
"z_+	c #305C28",
"A_+	c #6DAB54",
"B_+	c #47723A",
"C_+	c #427E33",
"D_+	c #409634",
"E_+	c #42A036",
"F_+	c #2F6D29",
"G_+	c #113910",
"H_+	c #133510",
"I_+	c #183410",
"J_+	c #20421C",
"K_+	c #305D2C",
"L_+	c #3C7032",
"M_+	c #417E34",
"N_+	c #3F902F",
"O_+	c #438933",
"P_+	c #468B37",
"Q_+	c #488638",
"R_+	c #457C36",
"S_+	c #417532",
"T_+	c #447237",
"U_+	c #699F51",
"V_+	c #214118",
"W_+	c #5EA450",
"X_+	c #54AC3D",
"Y_+	c #535C22",
"Z_+	c #7C3C32",
"`_+	c #543D29",
" :+	c #101003",
".:+	c #2C2B17",
"+:+	c #131007",
"@:+	c #0A1203",
"#:+	c #57823A",
"$:+	c #58893D",
"%:+	c #233917",
"&:+	c #549232",
"*:+	c #476732",
"=:+	c #64A049",
"-:+	c #537D42",
";:+	c #517542",
">:+	c #65AF53",
",:+	c #66AC50",
"':+	c #70B162",
"):+	c #629258",
"!:+	c #000C04",
"~:+	c #4E6E40",
"{:+	c #648C4F",
"]:+	c #0E1B07",
"^:+	c #090501",
"/:+	c #031000",
"(:+	c #4C7F30",
"_:+	c #679D49",
"::+	c #0A0206",
"<:+	c #72A55C",
"[:+	c #4C7E3F",
"}:+	c #67A24E",
"|:+	c #76A655",
"1:+	c #344C21",
"2:+	c #15350E",
"3:+	c #4A9233",
"4:+	c #6AA448",
"5:+	c #66A553",
"6:+	c #689E54",
"7:+	c #09010A",
"8:+	c #486F3E",
"9:+	c #0A030D",
"0:+	c #65993B",
"a:+	c #436525",
"b:+	c #10230F",
"c:+	c #679B55",
"d:+	c #407F2E",
"e:+	c #30531E",
"f:+	c #2B4C1A",
"g:+	c #5F9F44",
"h:+	c #3E7424",
"i:+	c #75CF3D",
"j:+	c #141517",
"k:+	c #1C3113",
"l:+	c #56973A",
"m:+	c #467D2B",
"n:+	c #74A954",
"o:+	c #477F2E",
"p:+	c #3E6427",
"q:+	c #1B2C14",
"r:+	c #1E2D13",
"s:+	c #1E3B0F",
"t:+	c #366623",
"u:+	c #40722B",
"v:+	c #437A2E",
"w:+	c #427E2B",
"x:+	c #49962E",
"y:+	c #4C8A2E",
"z:+	c #5A7B45",
"A:+	c #304321",
"B:+	c #52733C",
"C:+	c #110113",
"D:+	c #0D1D05",
"E:+	c #648A4C",
"F:+	c #578542",
"G:+	c #071B07",
"H:+	c #294021",
"I:+	c #68A456",
"J:+	c #4C9B2F",
"K:+	c #429318",
"L:+	c #43782C",
"M:+	c #528B3A",
"N:+	c #709B53",
"O:+	c #2B4120",
"P:+	c #1F3915",
"Q:+	c #6FAB52",
"R:+	c #335F1E",
"S:+	c #73B358",
"T:+	c #12210C",
"U:+	c #295815",
"V:+	c #699A55",
"W:+	c #152D0F",
"X:+	c #5FA44D",
"Y:+	c #498A34",
"Z:+	c #2A3F20",
"`:+	c #729F5B",
" <+	c #10250A",
".<+	c #1B3E0D",
"+<+	c #284E17",
"@<+	c #508340",
"#<+	c #70B062",
"$<+	c #58854F",
"%<+	c #3A5C28",
"&<+	c #051C04",
"*<+	c #4D7846",
"=<+	c #7FAB6E",
"-<+	c #4B6D3D",
";<+	c #5C963A",
"><+	c #639440",
",<+	c #381710",
"'<+	c #6A2B2A",
")<+	c #3E6129",
"!<+	c #419E2D",
"~<+	c #579E44",
"{<+	c #192D15",
"]<+	c #50844B",
"^<+	c #36672D",
"/<+	c #68A654",
"(<+	c #407034",
"_<+	c #0D1904",
":<+	c #203314",
"<<+	c #4D8346",
"[<+	c #549E4A",
"}<+	c #5FB44C",
"|<+	c #67BE4C",
"1<+	c #59BE3E",
"2<+	c #559B42",
"3<+	c #3C692F",
"4<+	c #3C682F",
"5<+	c #4C803D",
"6<+	c #599C49",
"7<+	c #66914F",
"8<+	c #1F3519",
"9<+	c #4B953C",
"0<+	c #3A8A2B",
"a<+	c #713125",
"b<+	c #4C140F",
"c<+	c #5D8542",
"d<+	c #05080A",
"e<+	c #243F16",
"f<+	c #79A757",
"g<+	c #213116",
"h<+	c #3C5E2B",
"i<+	c #73AB5E",
"j<+	c #204118",
"k<+	c #0D220C",
"l<+	c #071806",
"m<+	c #3C5727",
"n<+	c #75AA56",
"o<+	c #0A0606",
"p<+	c #0C0404",
"q<+	c #18280F",
"r<+	c #2D4120",
"s<+	c #05030D",
"t<+	c #6AA447",
"u<+	c #345323",
"v<+	c #759C54",
"w<+	c #1C2D13",
"x<+	c #628746",
"y<+	c #618B42",
"z<+	c #263E19",
"A<+	c #48902D",
"B<+	c #5DA137",
"C<+	c #638E4A",
"D<+	c #334B23",
"E<+	c #010B06",
"F<+	c #4C713B",
"G<+	c #0B030C",
"H<+	c #588042",
"I<+	c #1D3215",
"J<+	c #3B7528",
"K<+	c #497D2B",
"L<+	c #4A7930",
"M<+	c #427429",
"N<+	c #396821",
"O<+	c #366525",
"P<+	c #2F5A22",
"Q<+	c #234A15",
"R<+	c #193F0E",
"S<+	c #1A2F11",
"T<+	c #192B14",
"U<+	c #132414",
"V<+	c #14290B",
"W<+	c #5C8C49",
"X<+	c #558E3E",
"Y<+	c #497D35",
"Z<+	c #151517",
"`<+	c #02040A",
" [+	c #1F3312",
".[+	c #5D9C3D",
"+[+	c #2D5D1B",
"@[+	c #487E2E",
"#[+	c #47762C",
"$[+	c #406F2E",
"%[+	c #427A2D",
"&[+	c #3F7F28",
"*[+	c #428225",
"=[+	c #4E8A2A",
"-[+	c #6FAE57",
";[+	c #77B459",
">[+	c #71B34C",
",[+	c #66AD39",
"'[+	c #5BAA30",
")[+	c #58AF2D",
"![+	c #51AE2D",
"~[+	c #55AC39",
"{[+	c #5FA943",
"][+	c #5FA444",
"^[+	c #59A03D",
"/[+	c #57A539",
"([+	c #55A638",
"_[+	c #2E5B1A",
":[+	c #4E7039",
"<[+	c #3D5B2C",
"[[+	c #638652",
"}[+	c #364D28",
"|[+	c #06020C",
"1[+	c #0B1B0B",
"2[+	c #19310F",
"3[+	c #2D4B23",
"4[+	c #599C3A",
"5[+	c #72B455",
"6[+	c #4F9336",
"7[+	c #459223",
"8[+	c #519434",
"9[+	c #507D3B",
"0[+	c #567745",
"a[+	c #72A753",
"b[+	c #427D2F",
"c[+	c #6ABA3D",
"d[+	c #5AA041",
"e[+	c #549542",
"f[+	c #558B37",
"g[+	c #76B356",
"h[+	c #426C2E",
"i[+	c #245017",
"j[+	c #69C048",
"k[+	c #619D42",
"l[+	c #0C180B",
"m[+	c #0C0101",
"n[+	c #375D27",
"o[+	c #121E08",
"p[+	c #496632",
"q[+	c #334F28",
"r[+	c #6B9957",
"s[+	c #5D8E45",
"t[+	c #334D29",
"u[+	c #35522B",
"v[+	c #456835",
"w[+	c #719E59",
"x[+	c #6D924F",
"y[+	c #476A39",
"z[+	c #274721",
"A[+	c #1A3114",
"B[+	c #19221A",
"C[+	c #76AB58",
"D[+	c #52723D",
"E[+	c #6DA55C",
"F[+	c #31512B",
"G[+	c #091C07",
"H[+	c #58943D",
"I[+	c #77BC55",
"J[+	c #0B060D",
"K[+	c #581E1E",
"L[+	c #6D2122",
"M[+	c #5C9F4E",
"N[+	c #295023",
"O[+	c #639459",
"P[+	c #477338",
"Q[+	c #5E9B44",
"R[+	c #1D3714",
"S[+	c #5A9744",
"T[+	c #468E31",
"U[+	c #428328",
"V[+	c #378325",
"W[+	c #358525",
"X[+	c #368526",
"Y[+	c #348225",
"Z[+	c #358825",
"`[+	c #49A330",
" }+	c #4E8841",
".}+	c #030B08",
"+}+	c #0B2808",
"@}+	c #478A3E",
"#}+	c #45763F",
"$}+	c #64A75B",
"%}+	c #2A5321",
"&}+	c #69A157",
"*}+	c #396C30",
"=}+	c #4A7C42",
"-}+	c #5A2118",
";}+	c #6A2528",
">}+	c #0A020A",
",}+	c #0B070F",
"'}+	c #0B0B03",
")}+	c #14210B",
"!}+	c #4A6E31",
"~}+	c #79A759",
"{}+	c #1F3116",
"]}+	c #6B9055",
"^}+	c #405D2D",
"/}+	c #0E180B",
"(}+	c #182D0E",
"_}+	c #1D3B15",
":}+	c #597841",
"<}+	c #7CA468",
"[}+	c #3F5F33",
"}}+	c #53833B",
"|}+	c #7A9D57",
"1}+	c #425D2D",
"2}+	c #4C7734",
"3}+	c #253E1A",
"4}+	c #0E050A",
"5}+	c #0B0906",
"6}+	c #0E0412",
"7}+	c #06020E",
"8}+	c #3D6C2A",
"9}+	c #57AC3B",
"0}+	c #3B892D",
"a}+	c #498E31",
"b}+	c #78B151",
"c}+	c #324B22",
"d}+	c #6B924A",
"e}+	c #5A7D45",
"f}+	c #1D2F10",
"g}+	c #050012",
"h}+	c #305024",
"i}+	c #54963C",
"j}+	c #4A9427",
"k}+	c #43911B",
"l}+	c #61864A",
"m}+	c #344A26",
"n}+	c #0D1F09",
"o}+	c #5F964B",
"p}+	c #6AAD44",
"q}+	c #4F7438",
"r}+	c #334D27",
"s}+	c #162E0A",
"t}+	c #2E4525",
"u}+	c #2E521F",
"v}+	c #5CA63A",
"w}+	c #5CA338",
"x}+	c #5FA945",
"y}+	c #5EAC41",
"z}+	c #57AE3A",
"A}+	c #59AB36",
"B}+	c #5AAA2D",
"C}+	c #5AAB30",
"D}+	c #65AE3E",
"E}+	c #6EB452",
"F}+	c #72B759",
"G}+	c #6BAC52",
"H}+	c #5A9944",
"I}+	c #4D8F37",
"J}+	c #3E8526",
"K}+	c #3B7E26",
"L}+	c #3F8227",
"M}+	c #40762D",
"N}+	c #43752F",
"O}+	c #4B9335",
"P}+	c #346A21",
"Q}+	c #5FA247",
"R}+	c #161516",
"S}+	c #010317",
"T}+	c #102607",
"U}+	c #4A952F",
"V}+	c #62AD3B",
"W}+	c #50A12B",
"X}+	c #5CA138",
"Y}+	c #5BA343",
"Z}+	c #57A53F",
"`}+	c #54A634",
" |+	c #5BA530",
".|+	c #65AE3D",
"+|+	c #69B94B",
"@|+	c #69B647",
"#|+	c #66AF45",
"$|+	c #5B9836",
"%|+	c #4D8C30",
"&|+	c #3B751F",
"*|+	c #3C712C",
"=|+	c #456F37",
"-|+	c #467630",
";|+	c #4B7B32",
">|+	c #4A7235",
",|+	c #6C985D",
"'|+	c #102A11",
")|+	c #509436",
"!|+	c #7AC944",
"~|+	c #62994D",
"{|+	c #4B763B",
"]|+	c #3A6126",
"^|+	c #1D3B11",
"/|+	c #0F2303",
"(|+	c #468B26",
"_|+	c #5A9143",
":|+	c #507F41",
"<|+	c #3C6331",
"[|+	c #0B1E07",
"}|+	c #4A723F",
"||+	c #5C9147",
"1|+	c #74C048",
"2|+	c #2B5C15",
"3|+	c #35592A",
"4|+	c #213913",
"5|+	c #080F06",
"6|+	c #273A21",
"7|+	c #0A1308",
"8|+	c #7DBB5E",
"9|+	c #427224",
"0|+	c #0D0108",
"a|+	c #142309",
"b|+	c #6EA74D",
"c|+	c #70BE54",
"d|+	c #3D7033",
"e|+	c #314A23",
"f|+	c #466632",
"g|+	c #567B47",
"h|+	c #517A45",
"i|+	c #496B38",
"j|+	c #2F4E21",
"k|+	c #263B1B",
"l|+	c #314A27",
"m|+	c #42742D",
"n|+	c #6BB544",
"o|+	c #51743A",
"p|+	c #6BAB53",
"q|+	c #506F3E",
"r|+	c #659553",
"s|+	c #608644",
"t|+	c #130705",
"u|+	c #642B2F",
"v|+	c #4A1118",
"w|+	c #4C733F",
"x|+	c #437137",
"y|+	c #539F3F",
"z|+	c #66A958",
"A|+	c #69B04A",
"B|+	c #305E2D",
"C|+	c #1A2F1A",
"D|+	c #11270D",
"E|+	c #234817",
"F|+	c #2B5C1E",
"G|+	c #2D551F",
"H|+	c #375D23",
"I|+	c #325822",
"J|+	c #2F5922",
"K|+	c #315D22",
"L|+	c #214418",
"M|+	c #112815",
"N|+	c #122915",
"O|+	c #152C11",
"P|+	c #244A1E",
"Q|+	c #509940",
"R|+	c #4C7F40",
"S|+	c #46953B",
"T|+	c #4C773C",
"U|+	c #32592D",
"V|+	c #4B7B46",
"W|+	c #3F1814",
"X|+	c #702D2E",
"Y|+	c #25070B",
"Z|+	c #0A0708",
"`|+	c #060808",
" 1+	c #25321A",
".1+	c #597B3D",
"+1+	c #24361D",
"@1+	c #425E2E",
"#1+	c #80AC5B",
"$1+	c #1F3213",
"%1+	c #0B2105",
"&1+	c #40662B",
"*1+	c #6FB741",
"=1+	c #497734",
"-1+	c #1D3213",
";1+	c #325720",
">1+	c #4B6D36",
",1+	c #4C713C",
"'1+	c #5F7B42",
")1+	c #4A723B",
"!1+	c #436632",
"~1+	c #416630",
"{1+	c #7BB05A",
"]1+	c #7AB454",
"^1+	c #1E3711",
"/1+	c #070D06",
"(1+	c #0B0414",
"_1+	c #09050F",
":1+	c #0A0600",
"<1+	c #2F6027",
"[1+	c #325F26",
"}1+	c #6D9B61",
"|1+	c #67934C",
"11+	c #273C1B",
"21+	c #39562F",
"31+	c #669F51",
"41+	c #5B9E3C",
"51+	c #4A922D",
"61+	c #324829",
"71+	c #365922",
"81+	c #52723C",
"91+	c #6AA652",
"01+	c #7BC745",
"a1+	c #4E7F31",
"b1+	c #1A2C13",
"c1+	c #76A75E",
"d1+	c #3D5F2D",
"e1+	c #5B8C44",
"f1+	c #38602B",
"g1+	c #446E38",
"h1+	c #477137",
"i1+	c #3D7425",
"j1+	c #427C22",
"k1+	c #4C8C2D",
"l1+	c #579B3A",
"m1+	c #62A447",
"n1+	c #66AE50",
"o1+	c #67BA51",
"p1+	c #6ABD4F",
"q1+	c #63AF41",
"r1+	c #5CA938",
"s1+	c #53A232",
"t1+	c #5EA348",
"u1+	c #5CA445",
"v1+	c #4F9F32",
"w1+	c #519829",
"x1+	c #54A52C",
"y1+	c #549A39",
"z1+	c #151519",
"A1+	c #0E2707",
"B1+	c #58A336",
"C1+	c #4A8B26",
"D1+	c #3F7B26",
"E1+	c #53903C",
"F1+	c #4F8338",
"G1+	c #38652D",
"H1+	c #25490F",
"I1+	c #20420D",
"J1+	c #1B3E10",
"K1+	c #12230A",
"L1+	c #0C000D",
"M1+	c #284A1E",
"N1+	c #73A761",
"O1+	c #4F793E",
"P1+	c #488037",
"Q1+	c #101E0E",
"R1+	c #3C6929",
"S1+	c #5E9D2D",
"T1+	c #6AAD42",
"U1+	c #2B4821",
"V1+	c #0B1C05",
"W1+	c #080A03",
"X1+	c #041A02",
"Y1+	c #4E9135",
"Z1+	c #508839",
"`1+	c #4C872E",
" 2+	c #46722E",
".2+	c #12170A",
"+2+	c #6FA357",
"@2+	c #5F8948",
"#2+	c #3D5C2B",
"$2+	c #081504",
"%2+	c #213F18",
"&2+	c #6DA658",
"*2+	c #294320",
"=2+	c #233A16",
"-2+	c #121F09",
";2+	c #09010D",
">2+	c #0C0406",
",2+	c #0D080B",
"'2+	c #130605",
")2+	c #41712F",
"!2+	c #539140",
"~2+	c #548044",
"{2+	c #7FA15C",
"]2+	c #568335",
"^2+	c #426630",
"/2+	c #346022",
"(2+	c #315E20",
"_2+	c #3C6C2E",
":2+	c #558837",
"<2+	c #76A65C",
"[2+	c #698E58",
"}2+	c #74B94B",
"|2+	c #32561C",
"12+	c #4F7C40",
"22+	c #6EB058",
"32+	c #2E5822",
"42+	c #2E4921",
"52+	c #79AB60",
"62+	c #7BAE60",
"72+	c #334D25",
"82+	c #283E19",
"92+	c #2B4C22",
"02+	c #0A0703",
"a2+	c #030A0D",
"b2+	c #3B0F11",
"c2+	c #793838",
"d2+	c #28050A",
"e2+	c #417235",
"f2+	c #3F8133",
"g2+	c #132F0C",
"h2+	c #6DC152",
"i2+	c #325623",
"j2+	c #549855",
"k2+	c #69AE59",
"l2+	c #58A047",
"m2+	c #61AB4D",
"n2+	c #62AF51",
"o2+	c #1C3617",
"p2+	c #2C020C",
"q2+	c #631D22",
"r2+	c #99383C",
"s2+	c #8F2831",
"t2+	c #6E2323",
"u2+	c #461619",
"v2+	c #243214",
"w2+	c #5FAE4C",
"x2+	c #5DB15C",
"y2+	c #5BAD5E",
"z2+	c #68B058",
"A2+	c #63A051",
"B2+	c #363312",
"C2+	c #6D9938",
"D2+	c #5F9B33",
"E2+	c #1B3B0F",
"F2+	c #3D8032",
"G2+	c #210406",
"H2+	c #74332F",
"I2+	c #4A1914",
"J2+	c #17280D",
"K2+	c #6C8F4F",
"L2+	c #658948",
"M2+	c #5A7D47",
"N2+	c #7BA067",
"O2+	c #84AA63",
"P2+	c #46652F",
"Q2+	c #406930",
"R2+	c #75B35A",
"S2+	c #70A158",
"T2+	c #7FB05A",
"U2+	c #344B2A",
"V2+	c #274A11",
"W2+	c #71B645",
"X2+	c #5D883F",
"Y2+	c #6EAA57",
"Z2+	c #30581B",
"`2+	c #325F1E",
" 3+	c #3A6927",
".3+	c #467E35",
"+3+	c #68AB51",
"@3+	c #4F7B38",
"#3+	c #58803E",
"$3+	c #091303",
"%3+	c #537E3C",
"&3+	c #17290C",
"*3+	c #100709",
"=3+	c #0A0811",
"-3+	c #182412",
";3+	c #415C34",
">3+	c #06080B",
",3+	c #0A0705",
"'3+	c #04000E",
")3+	c #35522C",
"!3+	c #638E49",
"~3+	c #79A35B",
"{3+	c #497834",
"]3+	c #2B4224",
"^3+	c #36562B",
"/3+	c #60A248",
"(3+	c #579D3A",
"_3+	c #5D9B47",
":3+	c #29421F",
"<3+	c #71AB52",
"[3+	c #6EB14B",
"}3+	c #4B7336",
"|3+	c #172518",
"13+	c #0A000F",
"23+	c #172514",
"33+	c #71A658",
"43+	c #557744",
"53+	c #6B9D4C",
"63+	c #030013",
"73+	c #071202",
"83+	c #152B0E",
"93+	c #193B11",
"03+	c #1D3F11",
"a3+	c #1E400D",
"b3+	c #30531B",
"c3+	c #4D8928",
"d3+	c #5A9633",
"e3+	c #071C01",
"f3+	c #05000A",
"g3+	c #061C02",
"h3+	c #58953E",
"i3+	c #70975A",
"j3+	c #598947",
"k3+	c #75AC57",
"l3+	c #456530",
"m3+	c #10170B",
"n3+	c #0D160E",
"o3+	c #142014",
"p3+	c #132410",
"q3+	c #1A2713",
"r3+	c #26381A",
"s3+	c #2A421C",
"t3+	c #1F2D15",
"u3+	c #1A3116",
"v3+	c #639158",
"w3+	c #45842D",
"x3+	c #6A9D4F",
"y3+	c #090903",
"z3+	c #4C773B",
"A3+	c #75A656",
"B3+	c #5D9041",
"C3+	c #2E4A22",
"D3+	c #5E8C44",
"E3+	c #527B3D",
"F3+	c #43852F",
"G3+	c #4F962B",
"H3+	c #588C38",
"I3+	c #344824",
"J3+	c #77A359",
"K3+	c #07040E",
"L3+	c #0F0419",
"M3+	c #3F7230",
"N3+	c #7ACA5C",
"O3+	c #336021",
"P3+	c #090304",
"Q3+	c #0D0609",
"R3+	c #0B0703",
"S3+	c #59953C",
"T3+	c #293E18",
"U3+	c #496E32",
"V3+	c #619947",
"W3+	c #6CC948",
"X3+	c #56963E",
"Y3+	c #28461A",
"Z3+	c #496439",
"`3+	c #63894C",
" 4+	c #121C0E",
".4+	c #0F1B0F",
"+4+	c #3D6930",
"@4+	c #3B5C27",
"#4+	c #385429",
"$4+	c #39562C",
"%4+	c #48773A",
"&4+	c #5F914C",
"*4+	c #5B1920",
"=4+	c #7D2931",
"-4+	c #150002",
";4+	c #234C1D",
">4+	c #61A65A",
",4+	c #1B3717",
"'4+	c #18350B",
")4+	c #426A2E",
"!4+	c #562F2D",
"~4+	c #6C191B",
"{4+	c #5E2D1C",
"]4+	c #52441E",
"^4+	c #454719",
"/4+	c #384E18",
"(4+	c #639343",
"_4+	c #40481D",
":4+	c #863136",
"<4+	c #7D2B31",
"[4+	c #5A1617",
"}4+	c #581418",
"|4+	c #622928",
"14+	c #7F3234",
"24+	c #5B4730",
"34+	c #31531D",
"44+	c #434820",
"54+	c #524720",
"64+	c #613D1B",
"74+	c #863229",
"84+	c #9D2F1E",
"94+	c #754E22",
"04+	c #2E350F",
"a4+	c #22431A",
"b4+	c #68AA56",
"c4+	c #29511F",
"d4+	c #5A1B18",
"e4+	c #6C2C28",
"f4+	c #1B0808",
"g4+	c #051704",
"h4+	c #567C3C",
"i4+	c #7CA95A",
"j4+	c #253517",
"k4+	c #0D140D",
"l4+	c #24371B",
"m4+	c #42652D",
"n4+	c #6FA851",
"o4+	c #335724",
"p4+	c #39572A",
"q4+	c #74A05E",
"r4+	c #548540",
"s4+	c #538240",
"t4+	c #4D7A39",
"u4+	c #122708",
"v4+	c #204418",
"w4+	c #6BBA38",
"x4+	c #69CB45",
"y4+	c #244B1A",
"z4+	c #0C2408",
"A4+	c #4F843F",
"B4+	c #436736",
"C4+	c #081803",
"D4+	c #53933A",
"E4+	c #69B147",
"F4+	c #3D602A",
"G4+	c #395129",
"H4+	c #0E130E",
"I4+	c #84C15C",
"J4+	c #05010E",
"K4+	c #80A371",
"L4+	c #374D29",
"M4+	c #366325",
"N4+	c #55A135",
"O4+	c #43882E",
"P4+	c #568A45",
"Q4+	c #599336",
"R4+	c #152907",
"S4+	c #2F4B23",
"T4+	c #162C0E",
"U4+	c #172511",
"V4+	c #497F38",
"W4+	c #567D45",
"X4+	c #71984E",
"Y4+	c #2A431A",
"Z4+	c #080109",
"`4+	c #1F301A",
" 5+	c #2B4123",
".5+	c #213319",
"+5+	c #192611",
"@5+	c #14210C",
"#5+	c #0F1D08",
"$5+	c #5D964D",
"%5+	c #588A4D",
"&5+	c #538A3A",
"*5+	c #55943B",
"=5+	c #191510",
"-5+	c #50843B",
";5+	c #69AE4B",
">5+	c #4E763B",
",5+	c #12220D",
"'5+	c #375525",
")5+	c #70A64A",
"!5+	c #4B742E",
"~5+	c #1F341D",
"{5+	c #304825",
"]5+	c #3F6E30",
"^5+	c #3C7A27",
"/5+	c #6C9454",
"(5+	c #608C4B",
"_5+	c #739C5E",
":5+	c #456A32",
"<5+	c #547B45",
"[5+	c #457235",
"}5+	c #5B973D",
"|5+	c #1D2E12",
"15+	c #040A07",
"25+	c #03040C",
"35+	c #4A6A33",
"45+	c #28441D",
"55+	c #77A15D",
"65+	c #516F39",
"75+	c #0D1B07",
"85+	c #09080A",
"95+	c #2F4425",
"05+	c #74A160",
"a5+	c #508A36",
"b5+	c #5A853A",
"c5+	c #0D0905",
"d5+	c #171D12",
"e5+	c #00010B",
"f5+	c #305122",
"g5+	c #223B17",
"h5+	c #1A3510",
"i5+	c #1E3617",
"j5+	c #5A9147",
"k5+	c #598841",
"l5+	c #3F792B",
"m5+	c #44822B",
"n5+	c #639045",
"o5+	c #6FA64C",
"p5+	c #395427",
"q5+	c #77A756",
"r5+	c #456E2E",
"s5+	c #1F3416",
"t5+	c #6A9952",
"u5+	c #41662C",
"v5+	c #140507",
"w5+	c #6F2A2D",
"x5+	c #5A161B",
"y5+	c #0E1B0E",
"z5+	c #4B7E3F",
"A5+	c #18100D",
"B5+	c #642D30",
"C5+	c #8F302B",
"D5+	c #802325",
"E5+	c #692021",
"F5+	c #501A1C",
"G5+	c #4F1E11",
"H5+	c #805D2F",
"I5+	c #74602F",
"J5+	c #6F2F25",
"K5+	c #2F060A",
"L5+	c #90573A",
"M5+	c #9F6E3D",
"N5+	c #6F3024",
"O5+	c #611F21",
"P5+	c #62201E",
"Q5+	c #732220",
"R5+	c #9A322E",
"S5+	c #7D2418",
"T5+	c #410C04",
"U5+	c #61A04E",
"V5+	c #538644",
"W5+	c #0D160C",
"X5+	c #3C0E10",
"Y5+	c #793C3D",
"Z5+	c #381514",
"`5+	c #3D652D",
" 6+	c #07000C",
".6+	c #568340",
"+6+	c #71A556",
"@6+	c #2E4B1D",
"#6+	c #76A851",
"$6+	c #528543",
"%6+	c #699C4E",
"&6+	c #52852F",
"*6+	c #41832B",
"=6+	c #55813B",
"-6+	c #1B3312",
";6+	c #6EB051",
">6+	c #284D1C",
",6+	c #203316",
"'6+	c #74A758",
")6+	c #528041",
"!6+	c #08000B",
"~6+	c #0C1E04",
"{6+	c #61A33E",
"]6+	c #609840",
"^6+	c #38621C",
"/6+	c #69A340",
"(6+	c #74A554",
"_6+	c #405E2C",
":6+	c #010A01",
"<6+	c #01050E",
"[6+	c #0B0909",
"}6+	c #4A6736",
"|6+	c #5B8D3A",
"16+	c #4C883B",
"26+	c #52A038",
"36+	c #40812E",
"46+	c #619544",
"56+	c #03080C",
"66+	c #060210",
"76+	c #101C06",
"86+	c #609141",
"96+	c #4E723D",
"06+	c #050F06",
"a6+	c #192610",
"b6+	c #74AB5A",
"c6+	c #428B2B",
"d6+	c #658444",
"e6+	c #1A2810",
"f6+	c #304A21",
"g6+	c #6E985D",
"h6+	c #608C4F",
"i6+	c #5A8B43",
"j6+	c #6DA456",
"k6+	c #639A47",
"l6+	c #4C8130",
"m6+	c #355628",
"n6+	c #101F07",
"o6+	c #5E8643",
"p6+	c #5E9444",
"q6+	c #183112",
"r6+	c #629F48",
"s6+	c #66AD45",
"t6+	c #0D2403",
"u6+	c #19170B",
"v6+	c #386927",
"w6+	c #6CC44C",
"x6+	c #498638",
"y6+	c #32501D",
"z6+	c #6FAC4A",
"A6+	c #5D9740",
"B6+	c #5A923C",
"C6+	c #6BA04C",
"D6+	c #5E8F51",
"E6+	c #568147",
"F6+	c #517B3E",
"G6+	c #477A35",
"H6+	c #31601F",
"I6+	c #4A7D39",
"J6+	c #467F34",
"K6+	c #438428",
"L6+	c #46802C",
"M6+	c #6EA656",
"N6+	c #182B12",
"O6+	c #75AA58",
"P6+	c #679951",
"Q6+	c #50693C",
"R6+	c #5D8F46",
"S6+	c #17360D",
"T6+	c #426330",
"U6+	c #759F5D",
"V6+	c #65AB4A",
"W6+	c #5EA540",
"X6+	c #4E7C39",
"Y6+	c #0B040C",
"Z6+	c #284023",
"`6+	c #233718",
" 7+	c #2A401C",
".7+	c #426633",
"+7+	c #739D5B",
"@7+	c #506A40",
"#7+	c #6D9B58",
"$7+	c #6EA750",
"%7+	c #3C6C2C",
"&7+	c #1E3618",
"*7+	c #101D0D",
"=7+	c #2B3F22",
"-7+	c #446C3C",
";7+	c #3C5E32",
">7+	c #5E864A",
",7+	c #578444",
"'7+	c #417336",
")7+	c #5FA24B",
"!7+	c #62B043",
"~7+	c #41752A",
"{7+	c #4F7C39",
"]7+	c #65934B",
"^7+	c #182B0E",
"/7+	c #122808",
"(7+	c #487C31",
"_7+	c #5C8F3E",
":7+	c #5C8943",
"<7+	c #6FA454",
"[7+	c #486F35",
"}7+	c #6CA24E",
"|7+	c #769F56",
"17+	c #2C401D",
"27+	c #150408",
"37+	c #762E32",
"47+	c #641D1B",
"57+	c #130306",
"67+	c #020212",
"77+	c #1C3C13",
"87+	c #538F41",
"97+	c #51803A",
"07+	c #1E0006",
"a7+	c #3B0D0A",
"b7+	c #522021",
"c7+	c #532220",
"d7+	c #5A2C20",
"e7+	c #722C24",
"f7+	c #8C572F",
"g7+	c #7D803C",
"h7+	c #542C14",
"i7+	c #0D0002",
"j7+	c #311C09",
"k7+	c #917435",
"l7+	c #9C6D32",
"m7+	c #753329",
"n7+	c #6C2929",
"o7+	c #673127",
"p7+	c #612928",
"q7+	c #4A1415",
"r7+	c #1E1906",
"s7+	c #30592A",
"t7+	c #66A35A",
"u7+	c #548544",
"v7+	c #1A3214",
"w7+	c #1D0305",
"x7+	c #772429",
"y7+	c #77292C",
"z7+	c #200404",
"A7+	c #365324",
"B7+	c #74AC59",
"C7+	c #395E2A",
"D7+	c #0B070A",
"E7+	c #2A3F19",
"F7+	c #71A14E",
"G7+	c #3C5A2A",
"H7+	c #629246",
"I7+	c #5D7E50",
"J7+	c #4F763F",
"K7+	c #5F8150",
"L7+	c #649356",
"M7+	c #305721",
"N7+	c #55A233",
"O7+	c #69B941",
"P7+	c #3D7224",
"Q7+	c #436931",
"R7+	c #71A050",
"S7+	c #3A5F2B",
"T7+	c #679F53",
"U7+	c #3C592F",
"V7+	c #65874B",
"W7+	c #28411E",
"X7+	c #2C5E1B",
"Y7+	c #73D24D",
"Z7+	c #417F26",
"`7+	c #020B03",
" 8+	c #608645",
".8+	c #406826",
"+8+	c #486534",
"@8+	c #81AE58",
"#8+	c #4D702E",
"$8+	c #293F22",
"%8+	c #0D0102",
"&8+	c #234512",
"*8+	c #559C30",
"=8+	c #69AB4E",
"-8+	c #64AA4A",
";8+	c #578E49",
">8+	c #70AC4F",
",8+	c #060B0A",
"'8+	c #04000F",
")8+	c #24450F",
"!8+	c #75BD3E",
"~8+	c #2F5318",
"{8+	c #0B140D",
"]8+	c #09130F",
"^8+	c #182712",
"/8+	c #77AE5E",
"(8+	c #5CA844",
"_8+	c #5E7B45",
":8+	c #0E1B0F",
"<8+	c #67914C",
"[8+	c #4D753A",
"}8+	c #497B32",
"|8+	c #4B8827",
"18+	c #457E31",
"28+	c #478137",
"38+	c #3F6E2F",
"48+	c #40682C",
"58+	c #537F3F",
"68+	c #527E3E",
"78+	c #5C8846",
"88+	c #65914E",
"98+	c #61A84A",
"08+	c #5A8541",
"a8+	c #60983E",
"b8+	c #1D3513",
"c8+	c #2E5A1E",
"d8+	c #60C13B",
"e8+	c #081901",
"f8+	c #141910",
"g8+	c #02020D",
"h8+	c #23441C",
"i8+	c #64A851",
"j8+	c #5D9A4D",
"k8+	c #3E6527",
"l8+	c #7CB857",
"m8+	c #539739",
"n8+	c #448531",
"o8+	c #4B892D",
"p8+	c #5F9F47",
"q8+	c #6EA053",
"r8+	c #71975A",
"s8+	c #345623",
"t8+	c #6F975A",
"u8+	c #61894E",
"v8+	c #3C662A",
"w8+	c #344D2B",
"x8+	c #2F561B",
"y8+	c #599C37",
"z8+	c #689B4C",
"A8+	c #589245",
"B8+	c #447831",
"C8+	c #7DBC5C",
"D8+	c #64904E",
"E8+	c #102506",
"F8+	c #528836",
"G8+	c #69B840",
"H8+	c #437633",
"I8+	c #639E4A",
"J8+	c #499528",
"K8+	c #4E8C38",
"L8+	c #5E9E44",
"M8+	c #00060A",
"N8+	c #02000D",
"O8+	c #3A602C",
"P8+	c #69894D",
"Q8+	c #668B49",
"R8+	c #587E45",
"S8+	c #152711",
"T8+	c #628F57",
"U8+	c #2D4B28",
"V8+	c #253D1B",
"W8+	c #73AE5B",
"X8+	c #649855",
"Y8+	c #6B9857",
"Z8+	c #547A42",
"`8+	c #0D1F0B",
" 9+	c #3D602F",
".9+	c #5E9A47",
"+9+	c #679E41",
"@9+	c #5E9D53",
"#9+	c #56AD41",
"$9+	c #65BB45",
"%9+	c #5FA143",
"&9+	c #60A041",
"*9+	c #6A994E",
"=9+	c #60964A",
"-9+	c #37592A",
";9+	c #284021",
">9+	c #0F1E0A",
",9+	c #567F42",
"'9+	c #050A0B",
")9+	c #0B1305",
"!9+	c #587840",
"~9+	c #668F4F",
"{9+	c #1E2D15",
"]9+	c #401112",
"^9+	c #7E3432",
"/9+	c #59181D",
"(9+	c #11070A",
"_9+	c #223C18",
":9+	c #588846",
"<9+	c #6BA35D",
"[9+	c #36542C",
"}9+	c #100402",
"|9+	c #220906",
"19+	c #3B0709",
"29+	c #495225",
"39+	c #699643",
"49+	c #6F3F22",
"59+	c #1D0101",
"69+	c #120003",
"79+	c #59311F",
"89+	c #737E40",
"99+	c #4E5B2A",
"09+	c #2B0A06",
"a9+	c #310A09",
"b9+	c #240605",
"c9+	c #121202",
"d9+	c #29441D",
"e9+	c #639E55",
"f9+	c #3B6436",
"g9+	c #0D1F0A",
"h9+	c #180606",
"i9+	c #641D21",
"j9+	c #802E30",
"k9+	c #3B0809",
"l9+	c #739E55",
"m9+	c #4F723A",
"n9+	c #07070D",
"o9+	c #213015",
"p9+	c #3F572B",
"q9+	c #599B42",
"r9+	c #64964C",
"s9+	c #5D8342",
"t9+	c #0F1F0E",
"u9+	c #7DA35E",
"v9+	c #435B34",
"w9+	c #2C4823",
"x9+	c #6AA14F",
"y9+	c #669846",
"z9+	c #315222",
"A9+	c #59A233",
"B9+	c #68C533",
"C9+	c #5DB634",
"D9+	c #74D041",
"E9+	c #47822B",
"F9+	c #4F7631",
"G9+	c #72B446",
"H9+	c #487832",
"I9+	c #041400",
"J9+	c #59863C",
"K9+	c #4A822D",
"L9+	c #5E9047",
"M9+	c #67C949",
"N9+	c #1E4915",
"O9+	c #15260D",
"P9+	c #314B24",
"Q9+	c #395421",
"R9+	c #5B8139",
"S9+	c #59874E",
"T9+	c #6B9951",
"U9+	c #3C552C",
"V9+	c #589238",
"W9+	c #58A23A",
"X9+	c #72A663",
"Y9+	c #2D4626",
"Z9+	c #4B6F36",
"`9+	c #6B964D",
" 0+	c #203214",
".0+	c #3C7824",
"+0+	c #7ADE3B",
"@0+	c #4C861E",
"#0+	c #070B01",
"$0+	c #19280E",
"%0+	c #639244",
"&0+	c #0D1B08",
"*0+	c #72AA59",
"=0+	c #6EB455",
"-0+	c #4F8A31",
";0+	c #4B6C33",
">0+	c #2E4223",
",0+	c #6B9352",
"'0+	c #345A25",
")0+	c #44712A",
"!0+	c #527D3A",
"~0+	c #709F5B",
"{0+	c #2B4A1C",
"]0+	c #689C56",
"^0+	c #6FA155",
"/0+	c #569A3B",
"(0+	c #43942A",
"_0+	c #67BF43",
":0+	c #6AA349",
"<0+	c #5DA945",
"[0+	c #305A25",
"}0+	c #131916",
"|0+	c #23391E",
"10+	c #68A258",
"20+	c #2A5521",
"30+	c #529736",
"40+	c #68AE41",
"50+	c #3B5B26",
"60+	c #58783C",
"70+	c #558540",
"80+	c #366122",
"90+	c #285718",
"00+	c #4F7A38",
"a0+	c #6EAD4C",
"b0+	c #699F4D",
"c0+	c #426E2E",
"d0+	c #567D48",
"e0+	c #426E34",
"f0+	c #4F8635",
"g0+	c #4C8F39",
"h0+	c #335A28",
"i0+	c #427923",
"j0+	c #7CCC55",
"k0+	c #2C4F1E",
"l0+	c #558244",
"m0+	c #56A238",
"n0+	c #72B157",
"o0+	c #38572B",
"p0+	c #6BA84D",
"q0+	c #62A547",
"r0+	c #40942A",
"s0+	c #549A32",
"t0+	c #48722F",
"u0+	c #68AA4A",
"v0+	c #63AF51",
"w0+	c #417132",
"x0+	c #335129",
"y0+	c #2D4A26",
"z0+	c #26421B",
"A0+	c #0F2204",
"B0+	c #375827",
"C0+	c #588546",
"D0+	c #457634",
"E0+	c #0A1805",
"F0+	c #5D8450",
"G0+	c #3B6032",
"H0+	c #1E3A18",
"I0+	c #2B4E20",
"J0+	c #203517",
"K0+	c #0A0F0A",
"L0+	c #283D1D",
"M0+	c #2C521D",
"N0+	c #79C34F",
"O0+	c #4D752E",
"P0+	c #5F9F3C",
"Q0+	c #6AB147",
"R0+	c #417430",
"S0+	c #2B501E",
"T0+	c #6AA850",
"U0+	c #5AA839",
"V0+	c #4E9534",
"W0+	c #578247",
"X0+	c #517644",
"Y0+	c #030E02",
"Z0+	c #09140C",
"`0+	c #0E150E",
" a+	c #03090B",
".a+	c #6A9455",
"+a+	c #61834A",
"@a+	c #111C07",
"#a+	c #4C181F",
"$a+	c #8B3038",
"%a+	c #581718",
"&a+	c #0C0606",
"*a+	c #162610",
"=a+	c #3E6634",
"-a+	c #619B4E",
";a+	c #569545",
">a+	c #335A2B",
",a+	c #162A10",
"'a+	c #1B4216",
")a+	c #669339",
"!a+	c #88432B",
"~a+	c #310509",
"{a+	c #200305",
"]a+	c #74362C",
"^a+	c #618747",
"/a+	c #23421D",
"(a+	c #4D8540",
"_a+	c #1F3E16",
":a+	c #180104",
"<a+	c #5A1C1C",
"[a+	c #842F33",
"}a+	c #460D13",
"|a+	c #5B8041",
"1a+	c #05060E",
"2a+	c #040D05",
"3a+	c #304E1F",
"4a+	c #6F9C52",
"5a+	c #698B4C",
"6a+	c #6FA24D",
"7a+	c #5F984A",
"8a+	c #1F2E16",
"9a+	c #435C34",
"0a+	c #6E9C57",
"aa+	c #5A8149",
"ba+	c #598B47",
"ca+	c #569643",
"da+	c #4D8034",
"ea+	c #64C343",
"fa+	c #4A8E29",
"ga+	c #163E06",
"ha+	c #509327",
"ia+	c #80D03F",
"ja+	c #396119",
"ka+	c #6CA541",
"la+	c #3D5C24",
"ma+	c #67A951",
"na+	c #395329",
"oa+	c #75AB65",
"pa+	c #62A945",
"qa+	c #63B941",
"ra+	c #54A439",
"sa+	c #071E03",
"ta+	c #69965A",
"ua+	c #04030A",
"va+	c #567846",
"wa+	c #486B39",
"xa+	c #284220",
"ya+	c #324926",
"za+	c #3F6229",
"Aa+	c #67A546",
"Ba+	c #6CB44A",
"Ca+	c #41722E",
"Da+	c #499F32",
"Ea+	c #67AC53",
"Fa+	c #628542",
"Ga+	c #13200D",
"Ha+	c #56A230",
"Ia+	c #6DDB33",
"Ja+	c #589D2F",
"Ka+	c #213812",
"La+	c #79C14F",
"Ma+	c #74BB4B",
"Na+	c #172F0C",
"Oa+	c #5E9F44",
"Pa+	c #5E9E43",
"Qa+	c #6EAB4C",
"Ra+	c #2D5019",
"Sa+	c #3F642A",
"Ta+	c #658C4A",
"Ua+	c #46782C",
"Va+	c #548537",
"Wa+	c #55893A",
"Xa+	c #27451E",
"Ya+	c #275915",
"Za+	c #477533",
"`a+	c #50843A",
" b+	c #365924",
".b+	c #5B9C45",
"+b+	c #59A23D",
"@b+	c #6B905C",
"#b+	c #2E4327",
"$b+	c #1B1417",
"%b+	c #4E973B",
"&b+	c #5C9E47",
"*b+	c #548644",
"=b+	c #43732A",
"-b+	c #78AB57",
";b+	c #334F21",
">b+	c #649A4E",
",b+	c #1B3614",
"'b+	c #25421C",
")b+	c #689952",
"!b+	c #39682B",
"~b+	c #5C9A4C",
"{b+	c #10220B",
"]b+	c #548541",
"^b+	c #589941",
"/b+	c #41702F",
"(b+	c #6FB847",
"_b+	c #72BE4D",
":b+	c #15300E",
"<b+	c #67A252",
"[b+	c #416B2B",
"}b+	c #80D449",
"|b+	c #69B93E",
"1b+	c #61A844",
"2b+	c #537941",
"3b+	c #4C8B2E",
"4b+	c #6BCB37",
"5b+	c #52913F",
"6b+	c #375325",
"7b+	c #598542",
"8b+	c #51893A",
"9b+	c #5B834B",
"0b+	c #416D2D",
"ab+	c #6A9059",
"bb+	c #20331A",
"cb+	c #4B723C",
"db+	c #5C8F49",
"eb+	c #0A0212",
"fb+	c #0A150C",
"gb+	c #5B7F42",
"hb+	c #112906",
"ib+	c #567F40",
"jb+	c #243A17",
"kb+	c #5D963E",
"lb+	c #47822F",
"mb+	c #33641D",
"nb+	c #67B941",
"ob+	c #6DD045",
"pb+	c #50A831",
"qb+	c #67B644",
"rb+	c #385C25",
"sb+	c #77B15F",
"tb+	c #2A441E",
"ub+	c #6D9C55",
"vb+	c #4B7138",
"wb+	c #0D1303",
"xb+	c #521516",
"yb+	c #8C3130",
"zb+	c #5D1B1E",
"Ab+	c #1C0606",
"Bb+	c #183711",
"Cb+	c #3E6E31",
"Db+	c #5E8D51",
"Eb+	c #458531",
"Fb+	c #1B3C13",
"Gb+	c #699241",
"Hb+	c #895041",
"Ib+	c #411417",
"Jb+	c #310E11",
"Kb+	c #843D39",
"Lb+	c #4F8B33",
"Mb+	c #26541E",
"Nb+	c #417F36",
"Ob+	c #66A654",
"Pb+	c #528849",
"Qb+	c #040D02",
"Rb+	c #612224",
"Sb+	c #7D2E2E",
"Tb+	c #481616",
"Ub+	c #0E1503",
"Vb+	c #5B8141",
"Wb+	c #6E9951",
"Xb+	c #1C2F10",
"Yb+	c #548139",
"Zb+	c #71A752",
"`b+	c #4C7335",
" c+	c #40652A",
".c+	c #44673B",
"+c+	c #29461F",
"@c+	c #6AB14F",
"#c+	c #539E35",
"$c+	c #538239",
"%c+	c #5DA341",
"&c+	c #57983C",
"*c+	c #5EA53F",
"=c+	c #72C435",
"-c+	c #2C500F",
";c+	c #192D0D",
">c+	c #0F1B08",
",c+	c #6CA65A",
"'c+	c #0C1605",
")c+	c #335B21",
"!c+	c #45782C",
"~c+	c #63B83F",
"{c+	c #4A8330",
"]c+	c #487731",
"^c+	c #5D8C49",
"/c+	c #0A0C04",
"(c+	c #547B3F",
"_c+	c #6FB443",
":c+	c #6AB33D",
"<c+	c #61824B",
"[c+	c #5D8142",
"}c+	c #538436",
"|c+	c #5D9342",
"1c+	c #294921",
"2c+	c #589D47",
"3c+	c #5A9E4A",
"4c+	c #3F5E29",
"5c+	c #6FA551",
"6c+	c #5E883E",
"7c+	c #609437",
"8c+	c #6F9D51",
"9c+	c #6FAA4F",
"0c+	c #64BD3C",
"ac+	c #60A43F",
"bc+	c #0E250A",
"cc+	c #5AAA3A",
"dc+	c #6EC24F",
"ec+	c #183A0D",
"fc+	c #549937",
"gc+	c #48822E",
"hc+	c #689D52",
"ic+	c #051104",
"jc+	c #569241",
"kc+	c #335825",
"lc+	c #111D09",
"mc+	c #213C15",
"nc+	c #6FA453",
"oc+	c #263F14",
"pc+	c #66A147",
"qc+	c #4E7E39",
"rc+	c #1C1412",
"sc+	c #4D9131",
"tc+	c #71C347",
"uc+	c #1E3F13",
"vc+	c #56813B",
"wc+	c #4D7334",
"xc+	c #102308",
"yc+	c #294B1F",
"zc+	c #2B5B1D",
"Ac+	c #2E691C",
"Bc+	c #3D7A29",
"Cc+	c #599643",
"Dc+	c #61974F",
"Ec+	c #588F4F",
"Fc+	c #579A43",
"Gc+	c #74B057",
"Hc+	c #091809",
"Ic+	c #5D8D48",
"Jc+	c #406E30",
"Kc+	c #699953",
"Lc+	c #213219",
"Mc+	c #4E713D",
"Nc+	c #4F9A36",
"Oc+	c #418029",
"Pc+	c #3F6334",
"Qc+	c #62A34B",
"Rc+	c #1D3019",
"Sc+	c #204114",
"Tc+	c #529335",
"Uc+	c #5D973B",
"Vc+	c #519639",
"Wc+	c #66AE51",
"Xc+	c #26451C",
"Yc+	c #395827",
"Zc+	c #62A040",
"`c+	c #7CD746",
" d+	c #407128",
".d+	c #011101",
"+d+	c #243E19",
"@d+	c #315226",
"#d+	c #5F9F3F",
"$d+	c #3B6228",
"%d+	c #73A263",
"&d+	c #6C9353",
"*d+	c #2B421F",
"=d+	c #25441C",
"-d+	c #6DA55B",
";d+	c #253719",
">d+	c #6D9F58",
",d+	c #486D30",
"'d+	c #0D1809",
")d+	c #234819",
"!d+	c #5CA348",
"~d+	c #5CB339",
"{d+	c #5DAD3B",
"]d+	c #5FAF33",
"^d+	c #478E27",
"/d+	c #66BE41",
"(d+	c #5DA642",
"_d+	c #203414",
":d+	c #1C3317",
"<d+	c #080312",
"[d+	c #487130",
"}d+	c #131903",
"|d+	c #491113",
"1d+	c #802F32",
"2d+	c #78282E",
"3d+	c #350F11",
"4d+	c #448133",
"5d+	c #5EA04D",
"6d+	c #6EBA4F",
"7d+	c #5F5B2F",
"8d+	c #55221E",
"9d+	c #140101",
"0d+	c #43181B",
"ad+	c #6F4132",
"bd+	c #54A22A",
"cd+	c #4C9A30",
"dd+	c #65984F",
"ed+	c #4F8C45",
"fd+	c #264D1D",
"gd+	c #340B0D",
"hd+	c #6F292E",
"id+	c #753336",
"jd+	c #401110",
"kd+	c #40662C",
"ld+	c #6E9E4F",
"md+	c #2D481E",
"nd+	c #567E3C",
"od+	c #609049",
"pd+	c #59913D",
"qd+	c #6C9E52",
"rd+	c #5D873D",
"sd+	c #679352",
"td+	c #324A26",
"ud+	c #689E51",
"vd+	c #569139",
"wd+	c #73CE3F",
"xd+	c #67964B",
"yd+	c #558740",
"zd+	c #4D8832",
"Ad+	c #101909",
"Bd+	c #39552D",
"Cd+	c #70AE57",
"Dd+	c #4B7A33",
"Ed+	c #53933D",
"Fd+	c #599A43",
"Gd+	c #699C4D",
"Hd+	c #2B501A",
"Id+	c #679C4E",
"Jd+	c #375F25",
"Kd+	c #527937",
"Ld+	c #518730",
"Md+	c #609B37",
"Nd+	c #416A2C",
"Od+	c #2F491D",
"Pd+	c #122911",
"Qd+	c #6E974E",
"Rd+	c #3E5F29",
"Sd+	c #243D14",
"Td+	c #76AA47",
"Ud+	c #679E42",
"Vd+	c #71B155",
"Wd+	c #133109",
"Xd+	c #4A8D30",
"Yd+	c #62BC43",
"Zd+	c #18450A",
"`d+	c #3D7129",
" e+	c #557942",
".e+	c #669F52",
"+e+	c #689454",
"@e+	c #1E321D",
"#e+	c #243619",
"$e+	c #5EA140",
"%e+	c #609C43",
"&e+	c #5CA343",
"*e+	c #489132",
"=e+	c #2C5C16",
"-e+	c #122406",
";e+	c #40652D",
">e+	c #59953F",
",e+	c #082004",
"'e+	c #142E0B",
")e+	c #67BF45",
"!e+	c #66BE3D",
"~e+	c #18160C",
"{e+	c #72C24C",
"]e+	c #3E6F2C",
"^e+	c #294521",
"/e+	c #456631",
"(e+	c #6B9E3D",
"_e+	c #5EA445",
":e+	c #79CE59",
"<e+	c #78D157",
"[e+	c #4FA533",
"}e+	c #3F8A27",
"|e+	c #377925",
"1e+	c #569E42",
"2e+	c #4B7F35",
"3e+	c #487633",
"4e+	c #528B38",
"5e+	c #5C8348",
"6e+	c #37542B",
"7e+	c #3E612C",
"8e+	c #4C9233",
"9e+	c #55A540",
"0e+	c #67A351",
"ae+	c #476B3D",
"be+	c #548C45",
"ce+	c #50902F",
"de+	c #4A8F31",
"ee+	c #355E1E",
"fe+	c #76C641",
"ge+	c #6FC440",
"he+	c #2F4D1E",
"ie+	c #112607",
"je+	c #66924F",
"ke+	c #4F833E",
"le+	c #304925",
"me+	c #78AE61",
"ne+	c #3E622C",
"oe+	c #0F1E0B",
"pe+	c #4F823A",
"qe+	c #5B8844",
"re+	c #457232",
"se+	c #59894C",
"te+	c #35582D",
"ue+	c #111E0C",
"ve+	c #305025",
"we+	c #54853E",
"xe+	c #638C4D",
"ye+	c #37582A",
"ze+	c #131F0D",
"Ae+	c #080010",
"Be+	c #060803",
"Ce+	c #29411D",
"De+	c #2B4A1E",
"Ee+	c #325622",
"Fe+	c #51943A",
"Ge+	c #488136",
"He+	c #64A453",
"Ie+	c #77A961",
"Je+	c #2C4521",
"Ke+	c #6A9C53",
"Le+	c #65A640",
"Me+	c #4E8034",
"Ne+	c #0D1C0C",
"Oe+	c #080B0A",
"Pe+	c #6EA251",
"Qe+	c #568138",
"Re+	c #36070B",
"Se+	c #742B30",
"Te+	c #80353A",
"Ue+	c #531D1A",
"Ve+	c #23080A",
"We+	c #254F1B",
"Xe+	c #458430",
"Ye+	c #638940",
"Ze+	c #793F28",
"`e+	c #180103",
" f+	c #642C22",
".f+	c #5E6432",
"+f+	c #6FB04A",
"@f+	c #230705",
"#f+	c #531D17",
"$f+	c #7C353A",
"%f+	c #6D252A",
"&f+	c #330C10",
"*f+	c #79AE5D",
"=f+	c #385626",
"-f+	c #2A4E1E",
";f+	c #6BA74F",
">f+	c #609044",
",f+	c #2D4E20",
"'f+	c #5E9441",
")f+	c #56823C",
"!f+	c #68A740",
"~f+	c #446F2B",
"{f+	c #0D0C0B",
"]f+	c #6BB04F",
"^f+	c #305522",
"/f+	c #214A0E",
"(f+	c #477432",
"_f+	c #6AA54A",
":f+	c #549435",
"<f+	c #253A1F",
"[f+	c #08070A",
"}f+	c #0D1A0B",
"|f+	c #5C8642",
"1f+	c #709751",
"2f+	c #6A9151",
"3f+	c #4D8B36",
"4f+	c #5B9547",
"5f+	c #648E55",
"6f+	c #28401D",
"7f+	c #699951",
"8f+	c #5D8446",
"9f+	c #365027",
"0f+	c #3B6029",
"af+	c #69964F",
"bf+	c #6C9357",
"cf+	c #4A8C31",
"df+	c #091E04",
"ef+	c #466932",
"ff+	c #355B21",
"gf+	c #66AC3E",
"hf+	c #6FA64D",
"if+	c #57A53E",
"jf+	c #153A0B",
"kf+	c #497C30",
"lf+	c #60B43E",
"mf+	c #538C31",
"nf+	c #4F9A2F",
"of+	c #558F3C",
"pf+	c #55763D",
"qf+	c #324723",
"rf+	c #628B48",
"sf+	c #43722C",
"tf+	c #487931",
"uf+	c #61AF3D",
"vf+	c #51953A",
"wf+	c #60A54C",
"xf+	c #5EB63D",
"yf+	c #6ACB4E",
"zf+	c #77D44D",
"Af+	c #73D241",
"Bf+	c #6AC044",
"Cf+	c #5D9D3A",
"Df+	c #6AAF44",
"Ef+	c #4A6E35",
"Ff+	c #75A65A",
"Gf+	c #365224",
"Hf+	c #375626",
"If+	c #6FB14D",
"Jf+	c #539C37",
"Kf+	c #052003",
"Lf+	c #16170C",
"Mf+	c #2B4920",
"Nf+	c #5D9C45",
"Of+	c #67B04B",
"Pf+	c #51792A",
"Qf+	c #6AA647",
"Rf+	c #4B8D31",
"Sf+	c #60AE46",
"Tf+	c #326920",
"Uf+	c #347220",
"Vf+	c #419120",
"Wf+	c #6CC73B",
"Xf+	c #70B552",
"Yf+	c #73A15B",
"Zf+	c #224515",
"`f+	c #6AB051",
" g+	c #71B25F",
".g+	c #6DA35C",
"+g+	c #4A743D",
"@g+	c #548F3F",
"#g+	c #438718",
"$g+	c #071A08",
"%g+	c #204215",
"&g+	c #4C8E31",
"*g+	c #365E22",
"=g+	c #5C9D3A",
"-g+	c #36711C",
";g+	c #67AC4A",
">g+	c #070F04",
",g+	c #64A148",
"'g+	c #33522C",
")g+	c #2B3C27",
"!g+	c #476C36",
"~g+	c #5F8E46",
"{g+	c #070C0B",
"]g+	c #5D8947",
"^g+	c #081709",
"/g+	c #74A361",
"(g+	c #4F8633",
"_g+	c #66924E",
":g+	c #6D9E56",
"<g+	c #4F7F3C",
"[g+	c #28451B",
"}g+	c #72B052",
"|g+	c #5E8445",
"1g+	c #5D8A49",
"2g+	c #6C9555",
"3g+	c #659355",
"4g+	c #477438",
"5g+	c #1C380F",
"6g+	c #456335",
"7g+	c #649556",
"8g+	c #4D7231",
"9g+	c #75B445",
"0g+	c #73BA4A",
"ag+	c #1C330F",
"bg+	c #61863E",
"cg+	c #537035",
"dg+	c #142310",
"eg+	c #2A4419",
"fg+	c #57903E",
"gg+	c #315B23",
"hg+	c #1C1507",
"ig+	c #4B1B19",
"jg+	c #72332D",
"kg+	c #7A3231",
"lg+	c #5B151B",
"mg+	c #2C0609",
"ng+	c #162D11",
"og+	c #72904F",
"pg+	c #927139",
"qg+	c #461E06",
"rg+	c #45120C",
"sg+	c #825533",
"tg+	c #6C9A4C",
"ug+	c #315522",
"vg+	c #210509",
"wg+	c #541317",
"xg+	c #793031",
"yg+	c #7A362D",
"zg+	c #4D1918",
"Ag+	c #1C0506",
"Bg+	c #253916",
"Cg+	c #71A44D",
"Dg+	c #4A7035",
"Eg+	c #27401C",
"Fg+	c #78BA55",
"Gg+	c #77C24E",
"Hg+	c #598E3C",
"Ig+	c #638D45",
"Jg+	c #537C3B",
"Kg+	c #699F47",
"Lg+	c #457724",
"Mg+	c #325B21",
"Ng+	c #32551E",
"Og+	c #609535",
"Pg+	c #49742D",
"Qg+	c #0A1407",
"Rg+	c #375627",
"Sg+	c #5C9547",
"Tg+	c #081708",
"Ug+	c #4F8839",
"Vg+	c #568A3D",
"Wg+	c #6CC145",
"Xg+	c #609942",
"Yg+	c #67A244",
"Zg+	c #0A1610",
"`g+	c #253A1A",
" h+	c #4A6C35",
".h+	c #466F2F",
"+h+	c #497932",
"@h+	c #5B8644",
"#h+	c #476F2E",
"$h+	c #608F45",
"%h+	c #061305",
"&h+	c #6F9E64",
"*h+	c #21391D",
"=h+	c #1E2E16",
"-h+	c #557A3D",
";h+	c #5F9A40",
">h+	c #56943B",
",h+	c #14290D",
"'h+	c #22331E",
")h+	c #334B2D",
"!h+	c #39562A",
"~h+	c #79BC57",
"{h+	c #519032",
"]h+	c #3C5E27",
"^h+	c #5F8C4B",
"/h+	c #499433",
"(h+	c #284E1C",
"_h+	c #47782C",
":h+	c #60A845",
"<h+	c #497639",
"[h+	c #7AA958",
"}h+	c #72B24F",
"|h+	c #589F36",
"1h+	c #386025",
"2h+	c #629951",
"3h+	c #386129",
"4h+	c #62A742",
"5h+	c #68C743",
"6h+	c #40872C",
"7h+	c #2D5821",
"8h+	c #366F28",
"9h+	c #56B237",
"0h+	c #5DB934",
"ah+	c #5D9E42",
"bh+	c #549333",
"ch+	c #6BA34E",
"dh+	c #70A552",
"eh+	c #4F7536",
"fh+	c #181414",
"gh+	c #71AF4F",
"hh+	c #62B142",
"ih+	c #72C650",
"jh+	c #63993B",
"kh+	c #456326",
"lh+	c #041602",
"mh+	c #365A24",
"nh+	c #629D4E",
"oh+	c #53943F",
"ph+	c #5C9646",
"qh+	c #5A864D",
"rh+	c #5F864E",
"sh+	c #6CAC48",
"th+	c #74B845",
"uh+	c #467637",
"vh+	c #111E09",
"wh+	c #558D3F",
"xh+	c #4F8D32",
"yh+	c #418720",
"zh+	c #05180E",
"Ah+	c #17380D",
"Bh+	c #509131",
"Ch+	c #365F25",
"Dh+	c #5EA741",
"Eh+	c #6AB73F",
"Fh+	c #2C4B1F",
"Gh+	c #091B08",
"Hh+	c #528C35",
"Ih+	c #6F9657",
"Jh+	c #426D33",
"Kh+	c #4E853D",
"Lh+	c #223519",
"Mh+	c #6A9B58",
"Nh+	c #1B2B17",
"Oh+	c #678E54",
"Ph+	c #60934E",
"Qh+	c #3B602A",
"Rh+	c #1C3013",
"Sh+	c #32471F",
"Th+	c #0C1807",
"Uh+	c #315321",
"Vh+	c #344E26",
"Wh+	c #609846",
"Xh+	c #70A956",
"Yh+	c #56853D",
"Zh+	c #6A9343",
"`h+	c #395521",
" i+	c #71B153",
".i+	c #090214",
"+i+	c #427426",
"@i+	c #65A33E",
"#i+	c #769F52",
"$i+	c #66834A",
"%i+	c #1E2B12",
"&i+	c #549536",
"*i+	c #7EC955",
"=i+	c #3E6824",
"-i+	c #280608",
";i+	c #56191A",
">i+	c #782931",
",i+	c #792931",
"'i+	c #702627",
")i+	c #4D1513",
"!i+	c #2E0C09",
"~i+	c #100403",
"{i+	c #3B4B20",
"]i+	c #869C44",
"^i+	c #6D6123",
"/i+	c #755529",
"(i+	c #7C8B40",
"_i+	c #17050C",
":i+	c #2D090A",
"<i+	c #4A120E",
"[i+	c #64231E",
"}i+	c #692F2D",
"|i+	c #732B2E",
"1i+	c #5C1C1E",
"2i+	c #3D592A",
"3i+	c #6B9550",
"4i+	c #406C27",
"5i+	c #305419",
"6i+	c #284719",
"7i+	c #456C29",
"8i+	c #4E822E",
"9i+	c #6F9E51",
"0i+	c #627B3C",
"ai+	c #7DB15D",
"bi+	c #416726",
"ci+	c #71A057",
"di+	c #16250A",
"ei+	c #629D48",
"fi+	c #244A16",
"gi+	c #28521A",
"hi+	c #72AC53",
"ii+	c #355820",
"ji+	c #17290E",
"ki+	c #112612",
"li+	c #74AF55",
"mi+	c #3A5E22",
"ni+	c #6CA15B",
"oi+	c #162316",
"pi+	c #0E0509",
"qi+	c #1C3710",
"ri+	c #6CB848",
"si+	c #62A346",
"ti+	c #64884A",
"ui+	c #203E15",
"vi+	c #559236",
"wi+	c #69BD43",
"xi+	c #4A8C25",
"yi+	c #518138",
"zi+	c #51873F",
"Ai+	c #477A2F",
"Bi+	c #6EAE4B",
"Ci+	c #234414",
"Di+	c #071506",
"Ei+	c #5C943F",
"Fi+	c #659655",
"Gi+	c #20391C",
"Hi+	c #090205",
"Ii+	c #183910",
"Ji+	c #54A138",
"Ki+	c #72C456",
"Li+	c #548E44",
"Mi+	c #5A983F",
"Ni+	c #64A246",
"Oi+	c #3E652B",
"Pi+	c #122A07",
"Qi+	c #3A602A",
"Ri+	c #619B4A",
"Si+	c #5DA93F",
"Ti+	c #589733",
"Ui+	c #4F7B39",
"Vi+	c #1C121A",
"Wi+	c #1D330D",
"Xi+	c #72BA45",
"Yi+	c #5CA63F",
"Zi+	c #264E1E",
"`i+	c #3A5A23",
" j+	c #71A84F",
".j+	c #3E7B2A",
"+j+	c #588A3A",
"@j+	c #629748",
"#j+	c #325528",
"$j+	c #0C040C",
"%j+	c #0B0410",
"&j+	c #070712",
"*j+	c #4E783A",
"=j+	c #4F8837",
"-j+	c #6B9D57",
";j+	c #20351B",
">j+	c #080E01",
",j+	c #578B42",
"'j+	c #67B344",
")j+	c #4E902F",
"!j+	c #408B24",
"~j+	c #082106",
"{j+	c #193D10",
"]j+	c #468E30",
"^j+	c #376125",
"/j+	c #73C24B",
"(j+	c #6AB03F",
"_j+	c #71A651",
":j+	c #659B4E",
"<j+	c #5C814C",
"[j+	c #6BA546",
"}j+	c #72BA5A",
"|j+	c #507F3F",
"1j+	c #609B4C",
"2j+	c #577B3F",
"3j+	c #59833D",
"4j+	c #061705",
"5j+	c #1E341D",
"6j+	c #101F0E",
"7j+	c #030C03",
"8j+	c #436C2D",
"9j+	c #66934B",
"0j+	c #7CA65E",
"aj+	c #4C6739",
"bj+	c #5D8A43",
"cj+	c #507E32",
"dj+	c #3B5C31",
"ej+	c #64914A",
"fj+	c #254120",
"gj+	c #68A954",
"hj+	c #6FAE4E",
"ij+	c #304C1E",
"jj+	c #29491C",
"kj+	c #70B15D",
"lj+	c #517930",
"mj+	c #234210",
"nj+	c #3E6C26",
"oj+	c #70AF50",
"pj+	c #537A39",
"qj+	c #6B8A48",
"rj+	c #628245",
"sj+	c #3B641B",
"tj+	c #659745",
"uj+	c #67994C",
"vj+	c #599433",
"wj+	c #77B751",
"xj+	c #30571F",
"yj+	c #1A0504",
"zj+	c #480C13",
"Aj+	c #6B1D20",
"Bj+	c #793434",
"Cj+	c #6D2E2B",
"Dj+	c #632C23",
"Ej+	c #712028",
"Fj+	c #642E27",
"Gj+	c #6C7E39",
"Hj+	c #768E44",
"Ij+	c #808649",
"Jj+	c #708A3D",
"Kj+	c #643A20",
"Lj+	c #6A2424",
"Mj+	c #6C2C2C",
"Nj+	c #6C2D2A",
"Oj+	c #74322B",
"Pj+	c #67221B",
"Qj+	c #421211",
"Rj+	c #1D0607",
"Sj+	c #07130E",
"Tj+	c #223A13",
"Uj+	c #1D3116",
"Vj+	c #2E461C",
"Wj+	c #679046",
"Xj+	c #6AA148",
"Yj+	c #608E4B",
"Zj+	c #12190A",
"`j+	c #2D3D1A",
" k+	c #6E9351",
".k+	c #50823F",
"+k+	c #54903B",
"@k+	c #6D9549",
"#k+	c #63924B",
"$k+	c #2D4A17",
"%k+	c #4C6D29",
"&k+	c #1D320F",
"*k+	c #486E37",
"=k+	c #5F8E4D",
"-k+	c #679846",
";k+	c #6D964A",
">k+	c #4C6B32",
",k+	c #243A1E",
"'k+	c #050F0A",
")k+	c #0C130E",
"!k+	c #1D3318",
"~k+	c #071107",
"{k+	c #689553",
"]k+	c #1A2E15",
"^k+	c #416725",
"/k+	c #548933",
"(k+	c #233D16",
"_k+	c #71BC48",
":k+	c #5CA240",
"<k+	c #77AE41",
"[k+	c #486D39",
"}k+	c #5B8749",
"|k+	c #5C8746",
"1k+	c #73A851",
"2k+	c #65B239",
"3k+	c #6BBE40",
"4k+	c #4D842D",
"5k+	c #57814B",
"6k+	c #558E3B",
"7k+	c #6AB83D",
"8k+	c #538B38",
"9k+	c #51863D",
"0k+	c #5F8E43",
"ak+	c #6F9F55",
"bk+	c #4B7733",
"ck+	c #648D48",
"dk+	c #23441A",
"ek+	c #679851",
"fk+	c #304621",
"gk+	c #619145",
"hk+	c #6D974D",
"ik+	c #568A3A",
"jk+	c #598E34",
"kk+	c #5B8C3E",
"lk+	c #356E24",
"mk+	c #588937",
"nk+	c #6E9B5A",
"ok+	c #1F1317",
"pk+	c #0D0707",
"qk+	c #5DA03C",
"rk+	c #4A7D30",
"sk+	c #1F2F19",
"tk+	c #73A95B",
"uk+	c #68BE4A",
"vk+	c #698E4B",
"wk+	c #618F4A",
"xk+	c #65B442",
"yk+	c #65A83D",
"zk+	c #233E10",
"Ak+	c #011300",
"Bk+	c #2E541C",
"Ck+	c #6EAB4E",
"Dk+	c #375630",
"Ek+	c #456937",
"Fk+	c #569140",
"Gk+	c #508733",
"Hk+	c #6FAF4F",
"Ik+	c #5EA647",
"Jk+	c #2A501C",
"Kk+	c #60B641",
"Lk+	c #568D41",
"Mk+	c #5B874B",
"Nk+	c #5AA13D",
"Ok+	c #27401E",
"Pk+	c #69A355",
"Qk+	c #568D3E",
"Rk+	c #699D49",
"Sk+	c #4E8938",
"Tk+	c #679451",
"Uk+	c #5F8B4D",
"Vk+	c #183413",
"Wk+	c #285015",
"Xk+	c #509A2F",
"Yk+	c #08060B",
"Zk+	c #121C0C",
"`k+	c #2E4A1B",
" l+	c #5A803C",
".l+	c #6A9C5A",
"+l+	c #669A4D",
"@l+	c #365726",
"#l+	c #74A34E",
"$l+	c #73A94F",
"%l+	c #3B5834",
"&l+	c #3D6730",
"*l+	c #5BA93C",
"=l+	c #44792F",
"-l+	c #0B1F09",
";l+	c #548C38",
">l+	c #74C158",
",l+	c #81C051",
"'l+	c #66A53F",
")l+	c #597F40",
"!l+	c #061402",
"~l+	c #395927",
"{l+	c #669650",
"]l+	c #70B03B",
"^l+	c #84D243",
"/l+	c #5F9739",
"(l+	c #0F2306",
"_l+	c #63A33D",
":l+	c #6AB841",
"<l+	c #192F09",
"[l+	c #1D340F",
"}l+	c #315D1A",
"|l+	c #1C370F",
"1l+	c #070B05",
"2l+	c #1C070A",
"3l+	c #330A0A",
"4l+	c #481310",
"5l+	c #671119",
"6l+	c #571218",
"7l+	c #361809",
"8l+	c #1C250D",
"9l+	c #1D210F",
"0l+	c #2C1C07",
"al+	c #5B130E",
"bl+	c #631615",
"cl+	c #4F1414",
"dl+	c #330A0B",
"el+	c #160204",
"fl+	c #0E0A01",
"gl+	c #376B1D",
"hl+	c #264A16",
"il+	c #77C047",
"jl+	c #66A344",
"kl+	c #243A1A",
"ll+	c #0E040F",
"ml+	c #0D010E",
"nl+	c #1B2E17",
"ol+	c #659650",
"pl+	c #4F7933",
"ql+	c #233613",
"rl+	c #5E983F",
"sl+	c #74AB5C",
"tl+	c #405D2A",
"ul+	c #455F26",
"vl+	c #122008",
"wl+	c #101C07",
"xl+	c #3D572C",
"yl+	c #638150",
"zl+	c #6A9D4A",
"Al+	c #7ABB50",
"Bl+	c #466A35",
"Cl+	c #6AA250",
"Dl+	c #517A36",
"El+	c #3E5C28",
"Fl+	c #69904B",
"Gl+	c #6E9D5B",
"Hl+	c #5B8947",
"Il+	c #527C36",
"Jl+	c #58803D",
"Kl+	c #5A8937",
"Ll+	c #4B7A2D",
"Ml+	c #1D3817",
"Nl+	c #5E834A",
"Ol+	c #40891E",
"Pl+	c #598A37",
"Ql+	c #5D9C35",
"Rl+	c #3B582E",
"Sl+	c #0D2304",
"Tl+	c #3A5428",
"Ul+	c #47763B",
"Vl+	c #5A9A44",
"Wl+	c #61A34D",
"Xl+	c #79BD4F",
"Yl+	c #4B8A2E",
"Zl+	c #5C8F45",
"`l+	c #527641",
" m+	c #5F8C47",
".m+	c #609A42",
"+m+	c #436C28",
"@m+	c #081904",
"#m+	c #3E5E2A",
"$m+	c #5DA244",
"%m+	c #5C9142",
"&m+	c #689B53",
"*m+	c #5A9A41",
"=m+	c #508B38",
"-m+	c #2B451C",
";m+	c #070C08",
">m+	c #0B150B",
",m+	c #100513",
"'m+	c #0F0606",
")m+	c #1C160F",
"!m+	c #01080E",
"~m+	c #528337",
"{m+	c #7EB854",
"]m+	c #64884B",
"^m+	c #6E9052",
"/m+	c #3C652D",
"(m+	c #689A49",
"_m+	c #2E4919",
":m+	c #2B4620",
"<m+	c #4A852A",
"[m+	c #6BA140",
"}m+	c #649C4B",
"|m+	c #5E983E",
"1m+	c #5B9040",
"2m+	c #426730",
"3m+	c #0B050E",
"4m+	c #5F8F48",
"5m+	c #558844",
"6m+	c #437730",
"7m+	c #58A13A",
"8m+	c #77A85B",
"9m+	c #496738",
"0m+	c #4C763B",
"am+	c #143508",
"bm+	c #3C8320",
"cm+	c #4A8335",
"dm+	c #163409",
"em+	c #5A953A",
"fm+	c #4F8036",
"gm+	c #7EC740",
"hm+	c #447328",
"im+	c #639147",
"jm+	c #385D2B",
"km+	c #6B8E53",
"lm+	c #608A48",
"mm+	c #539045",
"nm+	c #74B74F",
"om+	c #76BF47",
"pm+	c #65A153",
"qm+	c #02080D",
"rm+	c #3A5D24",
"sm+	c #628841",
"tm+	c #6F9F50",
"um+	c #557C33",
"vm+	c #2D4821",
"wm+	c #0D190A",
"xm+	c #08000E",
"ym+	c #101E06",
"zm+	c #638D44",
"Am+	c #4D7337",
"Bm+	c #081807",
"Cm+	c #577B45",
"Dm+	c #53833A",
"Em+	c #3C5E2E",
"Fm+	c #62A34F",
"Gm+	c #5E8553",
"Hm+	c #548041",
"Im+	c #0F2407",
"Jm+	c #4A7E30",
"Km+	c #5FB242",
"Lm+	c #70A755",
"Mm+	c #69AB48",
"Nm+	c #365722",
"Om+	c #5B8A44",
"Pm+	c #4A7836",
"Qm+	c #537A3A",
"Rm+	c #759E59",
"Sm+	c #608543",
"Tm+	c #344E21",
"Um+	c #3F6625",
"Vm+	c #538F24",
"Wm+	c #68A53E",
"Xm+	c #5CA434",
"Ym+	c #7CCD45",
"Zm+	c #264213",
"`m+	c #53893C",
" n+	c #6FC046",
".n+	c #64A940",
"+n+	c #4D8E32",
"@n+	c #387525",
"#n+	c #244C16",
"$n+	c #203312",
"%n+	c #131D05",
"&n+	c #0D1903",
"*n+	c #204915",
"=n+	c #366E1F",
"-n+	c #62AA42",
";n+	c #6BC540",
">n+	c #589A37",
",n+	c #152C06",
"'n+	c #599D2E",
")n+	c #609F42",
"!n+	c #4C8034",
"~n+	c #2E571E",
"{n+	c #71A45C",
"]n+	c #11260F",
"^n+	c #09090A",
"/n+	c #273D16",
"(n+	c #7BAA59",
"_n+	c #618F43",
":n+	c #405F29",
"<n+	c #0F2008",
"[n+	c #7AA462",
"}n+	c #4C6A3A",
"|n+	c #51773A",
"1n+	c #6BA756",
"2n+	c #628850",
"3n+	c #49673C",
"4n+	c #3E572E",
"5n+	c #7AAA5A",
"6n+	c #2D461E",
"7n+	c #4A7735",
"8n+	c #709D5D",
"9n+	c #688950",
"0n+	c #43672D",
"an+	c #213619",
"bn+	c #6E9E51",
"cn+	c #6FB74C",
"dn+	c #7CC554",
"en+	c #5C904A",
"fn+	c #598148",
"gn+	c #5C8241",
"hn+	c #67974E",
"in+	c #6D9759",
"jn+	c #476B34",
"kn+	c #7AC64D",
"ln+	c #528A35",
"mn+	c #69A649",
"nn+	c #081D04",
"on+	c #5F9949",
"pn+	c #3E5F33",
"qn+	c #24471E",
"rn+	c #45852F",
"sn+	c #24481F",
"tn+	c #5E9F3E",
"un+	c #529436",
"vn+	c #396C24",
"wn+	c #243F1A",
"xn+	c #233A13",
"yn+	c #689A48",
"zn+	c #579741",
"An+	c #315420",
"Bn+	c #2A4A1D",
"Cn+	c #6C9F5A",
"Dn+	c #315329",
"En+	c #71B44D",
"Fn+	c #588143",
"Gn+	c #597842",
"Hn+	c #0A070D",
"In+	c #161910",
"Jn+	c #02060F",
"Kn+	c #07050E",
"Ln+	c #3B612A",
"Mn+	c #578C39",
"Nn+	c #437431",
"On+	c #55782F",
"Pn+	c #608B41",
"Qn+	c #2E4C1B",
"Rn+	c #529135",
"Sn+	c #609E42",
"Tn+	c #081005",
"Un+	c #0A0209",
"Vn+	c #509937",
"Wn+	c #13230C",
"Xn+	c #274817",
"Yn+	c #71B54B",
"Zn+	c #0F270D",
"`n+	c #659B51",
" o+	c #213A1A",
".o+	c #050E02",
"+o+	c #58813F",
"@o+	c #617E46",
"#o+	c #010A08",
"$o+	c #517641",
"%o+	c #517B3C",
"&o+	c #82CF42",
"*o+	c #5A9933",
"=o+	c #6C9B4C",
"-o+	c #385328",
";o+	c #315120",
">o+	c #629354",
",o+	c #3F662B",
"'o+	c #12250B",
")o+	c #76B850",
"!o+	c #446626",
"~o+	c #233414",
"{o+	c #050B06",
"]o+	c #304C1F",
"^o+	c #71A149",
"/o+	c #263916",
"(o+	c #213B12",
"_o+	c #6CAE42",
":o+	c #70AF52",
"<o+	c #3C602D",
"[o+	c #2F4922",
"}o+	c #6CA04C",
"|o+	c #518038",
"1o+	c #5AA544",
"2o+	c #3D6B2E",
"3o+	c #446734",
"4o+	c #3F602B",
"5o+	c #68944B",
"6o+	c #659151",
"7o+	c #78A357",
"8o+	c #436A2C",
"9o+	c #1F3711",
"0o+	c #0E0009",
"ao+	c #55703A",
"bo+	c #80AB59",
"co+	c #508135",
"do+	c #558B39",
"eo+	c #77C64E",
"fo+	c #508E31",
"go+	c #6DC24E",
"ho+	c #6BC246",
"io+	c #64A73F",
"jo+	c #66BC3B",
"ko+	c #6BC647",
"lo+	c #78CB52",
"mo+	c #70B649",
"no+	c #59A030",
"oo+	c #49872A",
"po+	c #547B47",
"qo+	c #577A44",
"ro+	c #4A8732",
"so+	c #519C2B",
"to+	c #65B343",
"uo+	c #72C850",
"vo+	c #69CB43",
"wo+	c #5CA842",
"xo+	c #6DB74D",
"yo+	c #79C74F",
"zo+	c #3E5E29",
"Ao+	c #5E8243",
"Bo+	c #366428",
"Co+	c #539138",
"Do+	c #0C0207",
"Eo+	c #36641E",
"Fo+	c #6B9F4A",
"Go+	c #609C41",
"Ho+	c #568A31",
"Io+	c #0E190E",
"Jo+	c #426533",
"Ko+	c #73A453",
"Lo+	c #354E26",
"Mo+	c #324B25",
"No+	c #6BA850",
"Oo+	c #304D20",
"Po+	c #1E3115",
"Qo+	c #6C9953",
"Ro+	c #456234",
"So+	c #3C5528",
"To+	c #69A946",
"Uo+	c #598441",
"Vo+	c #446F2A",
"Wo+	c #5E8E45",
"Xo+	c #0D030B",
"Yo+	c #66A950",
"Zo+	c #28421E",
"`o+	c #5B9B3A",
" p+	c #76D547",
".p+	c #487930",
"+p+	c #5A8F3E",
"@p+	c #061706",
"#p+	c #416437",
"$p+	c #74A562",
"%p+	c #040E07",
"&p+	c #649048",
"*p+	c #456330",
"=p+	c #2E5A1B",
"-p+	c #3D7F25",
";p+	c #579E3C",
">p+	c #5B8A49",
",p+	c #081707",
"'p+	c #5E8F3D",
")p+	c #0E1408",
"!p+	c #172B0B",
"~p+	c #57853C",
"{p+	c #53813B",
"]p+	c #355724",
"^p+	c #6BB24A",
"/p+	c #76BD4C",
"(p+	c #568342",
"_p+	c #517B3A",
":p+	c #5A8940",
"<p+	c #051506",
"[p+	c #151814",
"}p+	c #274420",
"|p+	c #5E9949",
"1p+	c #5A913E",
"2p+	c #476E2E",
"3p+	c #6DA052",
"4p+	c #5E8C4C",
"5p+	c #629F4E",
"6p+	c #326421",
"7p+	c #30631E",
"8p+	c #527941",
"9p+	c #5E8B44",
"0p+	c #71A250",
"ap+	c #4B7437",
"bp+	c #659455",
"cp+	c #3C6426",
"dp+	c #202D12",
"ep+	c #62984B",
"fp+	c #1F3412",
"gp+	c #304723",
"hp+	c #6F9958",
"ip+	c #72BB4B",
"jp+	c #577944",
"kp+	c #74A062",
"lp+	c #3E642C",
"mp+	c #618F49",
"np+	c #162E12",
"op+	c #5B8142",
"pp+	c #456E2B",
"qp+	c #66A544",
"rp+	c #01050B",
"sp+	c #1C2F0F",
"tp+	c #538A31",
"up+	c #448432",
"vp+	c #69A242",
"wp+	c #1B340F",
"xp+	c #091908",
"yp+	c #70A954",
"zp+	c #82B261",
"Ap+	c #3E542C",
"Bp+	c #244118",
"Cp+	c #52843A",
"Dp+	c #7CBC50",
"Ep+	c #5B823E",
"Fp+	c #0A140B",
"Gp+	c #06070F",
"Hp+	c #101C0D",
"Ip+	c #3C622A",
"Jp+	c #4A8C2B",
"Kp+	c #437E2B",
"Lp+	c #71AF52",
"Mp+	c #588F3B",
"Np+	c #62AE3D",
"Op+	c #396826",
"Pp+	c #2B4E17",
"Qp+	c #3B6A27",
"Rp+	c #448427",
"Sp+	c #60B646",
"Tp+	c #66C441",
"Up+	c #62BA3B",
"Vp+	c #64A548",
"Wp+	c #528B40",
"Xp+	c #5DA041",
"Yp+	c #5EB739",
"Zp+	c #68C039",
"`p+	c #6FB73D",
" q+	c #4E8D28",
".q+	c #366E21",
"+q+	c #2F521C",
"@q+	c #162B09",
"#q+	c #6AAF46",
"$q+	c #61A140",
"%q+	c #74A25C",
"&q+	c #2F5B21",
"*q+	c #689C52",
"=q+	c #0D120D",
"-q+	c #050A06",
";q+	c #050411",
">q+	c #060109",
",q+	c #6CB64D",
"'q+	c #6AAC44",
")q+	c #1F3B12",
"!q+	c #43632D",
"~q+	c #68AE44",
"{q+	c #0E1F07",
"]q+	c #1B2F10",
"^q+	c #0C2305",
"/q+	c #5C9544",
"(q+	c #629446",
"_q+	c #669153",
":q+	c #16230C",
"<q+	c #0D0806",
"[q+	c #6FA651",
"}q+	c #3B5C26",
"|q+	c #70A545",
"1q+	c #375F1E",
"2q+	c #0C0804",
"3q+	c #070109",
"4q+	c #58814D",
"5q+	c #3D6432",
"6q+	c #517A39",
"7q+	c #7DA95A",
"8q+	c #3D5C27",
"9q+	c #1E390F",
"0q+	c #6EAB48",
"aq+	c #6EB648",
"bq+	c #59B035",
"cq+	c #658750",
"dq+	c #436033",
"eq+	c #08050D",
"fq+	c #0B040F",
"gq+	c #16230D",
"hq+	c #5E9144",
"iq+	c #366420",
"jq+	c #61974C",
"kq+	c #3F5A29",
"lq+	c #567C3D",
"mq+	c #6AA052",
"nq+	c #5F9746",
"oq+	c #4C8A35",
"pq+	c #69C347",
"qq+	c #71AC5F",
"rq+	c #345929",
"sq+	c #25431D",
"tq+	c #5A8C47",
"uq+	c #6DA54B",
"vq+	c #467533",
"wq+	c #51713D",
"xq+	c #07020D",
"yq+	c #181614",
"zq+	c #70BB55",
"Aq+	c #6EBC45",
"Bq+	c #3A6028",
"Cq+	c #4E7034",
"Dq+	c #5C8B49",
"Eq+	c #6B9754",
"Fq+	c #4F7542",
"Gq+	c #6C9B59",
"Hq+	c #4E773F",
"Iq+	c #16300B",
"Jq+	c #233D14",
"Kq+	c #305620",
"Lq+	c #4D8C2E",
"Mq+	c #5FB940",
"Nq+	c #57A53B",
"Oq+	c #659D4A",
"Pq+	c #54823A",
"Qq+	c #365826",
"Rq+	c #4B7737",
"Sq+	c #7BC34B",
"Tq+	c #223C1D",
"Uq+	c #060D07",
"Vq+	c #1C2916",
"Wq+	c #4F8439",
"Xq+	c #5D9B42",
"Yq+	c #73A552",
"Zq+	c #68A453",
"`q+	c #0E1A0A",
" r+	c #2B4B1E",
".r+	c #4C6E33",
"+r+	c #699649",
"@r+	c #476D35",
"#r+	c #244014",
"$r+	c #486B2D",
"%r+	c #5D7742",
"&r+	c #59733C",
"*r+	c #567C44",
"=r+	c #588148",
"-r+	c #557443",
";r+	c #7BBA57",
">r+	c #0A050F",
",r+	c #020D03",
"'r+	c #4D7831",
")r+	c #599739",
"!r+	c #548344",
"~r+	c #57A833",
"{r+	c #1A3311",
"]r+	c #365026",
"^r+	c #243319",
"/r+	c #24331A",
"(r+	c #629346",
"_r+	c #66A746",
":r+	c #3C6427",
"<r+	c #142509",
"[r+	c #090207",
"}r+	c #0B1E05",
"|r+	c #527D3E",
"1r+	c #75BA47",
"2r+	c #4B832A",
"3r+	c #567E48",
"4r+	c #557E47",
"5r+	c #3E5F2A",
"6r+	c #17340E",
"7r+	c #508034",
"8r+	c #4E872D",
"9r+	c #2D581A",
"0r+	c #304F1A",
"ar+	c #2E5412",
"br+	c #234815",
"cr+	c #213D16",
"dr+	c #294919",
"er+	c #63A944",
"fr+	c #466D37",
"gr+	c #69A646",
"hr+	c #7BC953",
"ir+	c #4F793B",
"jr+	c #2C5021",
"kr+	c #6A9E55",
"lr+	c #101A0D",
"mr+	c #041704",
"nr+	c #528837",
"or+	c #65AC43",
"pr+	c #3E6A2D",
"qr+	c #2C4519",
"rr+	c #66A345",
"sr+	c #659C4D",
"tr+	c #61824C",
"ur+	c #537D3D",
"vr+	c #6EAE51",
"wr+	c #6C9D4D",
"xr+	c #1F3319",
"yr+	c #7EAD5C",
"zr+	c #02060C",
"Ar+	c #0A0512",
"Br+	c #5E8A4A",
"Cr+	c #081B06",
"Dr+	c #406428",
"Er+	c #699645",
"Fr+	c #14250B",
"Gr+	c #22371F",
"Hr+	c #79A557",
"Ir+	c #2E4521",
"Jr+	c #38651E",
"Kr+	c #5DAF33",
"Lr+	c #569939",
"Mr+	c #73A259",
"Nr+	c #293B1F",
"Or+	c #598A3F",
"Pr+	c #558B38",
"Qr+	c #75A155",
"Rr+	c #7AC44A",
"Sr+	c #193314",
"Tr+	c #091307",
"Ur+	c #578039",
"Vr+	c #4B6B32",
"Wr+	c #59903E",
"Xr+	c #62AA45",
"Yr+	c #5AA53D",
"Zr+	c #62B442",
"`r+	c #68B44D",
" s+	c #4F9032",
".s+	c #497938",
"+s+	c #345F24",
"@s+	c #214311",
"#s+	c #132809",
"$s+	c #193111",
"%s+	c #517F3F",
"&s+	c #6F9E5C",
"*s+	c #527942",
"=s+	c #6BA159",
"-s+	c #558946",
";s+	c #355D24",
">s+	c #64A947",
",s+	c #172F0D",
"'s+	c #60AF41",
")s+	c #6AB650",
"!s+	c #304D21",
"~s+	c #0F230A",
"{s+	c #4F9233",
"]s+	c #619F42",
"^s+	c #567E42",
"/s+	c #729E58",
"(s+	c #5C8741",
"_s+	c #293B19",
":s+	c #33492C",
"<s+	c #437234",
"[s+	c #447F2D",
"}s+	c #477936",
"|s+	c #467E2F",
"1s+	c #5A9833",
"2s+	c #7BBB52",
"3s+	c #66B242",
"4s+	c #62B438",
"5s+	c #69B24F",
"6s+	c #52943E",
"7s+	c #3C7421",
"8s+	c #45722D",
"9s+	c #78A85C",
"0s+	c #293B22",
"as+	c #2D401B",
"bs+	c #557E36",
"cs+	c #79A860",
"ds+	c #527F36",
"es+	c #83BA5B",
"fs+	c #4C7631",
"gs+	c #4E7F38",
"hs+	c #4F763B",
"is+	c #69A256",
"js+	c #6DAA4F",
"ks+	c #4E8430",
"ls+	c #5A9C3D",
"ms+	c #030D0A",
"ns+	c #57803E",
"os+	c #36522A",
"ps+	c #233916",
"qs+	c #7AA75D",
"rs+	c #537E39",
"ss+	c #73B246",
"ts+	c #435C2D",
"us+	c #364E28",
"vs+	c #33482A",
"ws+	c #394E2A",
"xs+	c #3E5D2B",
"ys+	c #090611",
"zs+	c #71A84D",
"As+	c #3B5827",
"Bs+	c #7E9D58",
"Cs+	c #233E12",
"Ds+	c #3B4E2B",
"Es+	c #87B36A",
"Fs+	c #517340",
"Gs+	c #537040",
"Hs+	c #466832",
"Is+	c #264816",
"Js+	c #36572D",
"Ks+	c #71A55F",
"Ls+	c #628C4C",
"Ms+	c #50813C",
"Ns+	c #4EA52A",
"Os+	c #77CF51",
"Ps+	c #6DAD52",
"Qs+	c #73B160",
"Rs+	c #436737",
"Ss+	c #476E38",
"Ts+	c #7BAC52",
"Us+	c #4E7334",
"Vs+	c #59803B",
"Ws+	c #385523",
"Xs+	c #5D7F44",
"Ys+	c #63993D",
"Zs+	c #73A355",
"`s+	c #7DA559",
" t+	c #7DBE59",
".t+	c #539436",
"+t+	c #6E9649",
"@t+	c #2E491F",
"#t+	c #6EA95B",
"$t+	c #3A601C",
"%t+	c #52872F",
"&t+	c #63964D",
"*t+	c #6BAA46",
"=t+	c #609740",
"-t+	c #12290C",
";t+	c #66A155",
">t+	c #3C4E2B",
",t+	c #54833F",
"'t+	c #6FB65D",
")t+	c #3C632B",
"!t+	c #080B02",
"~t+	c #6D9C53",
"{t+	c #466334",
"]t+	c #273B1C",
"^t+	c #7EA462",
"/t+	c #3A532A",
"(t+	c #70A853",
"_t+	c #0C0909",
":t+	c #55853F",
"<t+	c #04050E",
"[t+	c #0D0805",
"}t+	c #50713E",
"|t+	c #5C9F39",
"1t+	c #6EC841",
"2t+	c #5B9445",
"3t+	c #4D7A3C",
"4t+	c #0B1D09",
"5t+	c #0B060B",
"6t+	c #76B64F",
"7t+	c #47722C",
"8t+	c #70AB56",
"9t+	c #558B45",
"0t+	c #222C14",
"at+	c #84AB5F",
"bt+	c #40602E",
"ct+	c #739E58",
"dt+	c #375E23",
"et+	c #3C6F27",
"ft+	c #56943C",
"gt+	c #6CB34D",
"ht+	c #5FB03B",
"it+	c #62AE42",
"jt+	c #65B93C",
"kt+	c #71BD4B",
"lt+	c #5E9F3C",
"mt+	c #416C2C",
"nt+	c #446935",
"ot+	c #406334",
"pt+	c #274020",
"qt+	c #09150C",
"rt+	c #67A04C",
"st+	c #5A843B",
"tt+	c #587A3D",
"ut+	c #6AAB41",
"vt+	c #68B051",
"wt+	c #223A1E",
"xt+	c #070210",
"yt+	c #181615",
"zt+	c #517E3F",
"At+	c #60964B",
"Bt+	c #72B259",
"Ct+	c #416330",
"Dt+	c #162A0D",
"Et+	c #1D380F",
"Ft+	c #2A521B",
"Gt+	c #3D6E30",
"Ht+	c #457C27",
"It+	c #679F42",
"Jt+	c #6CB347",
"Kt+	c #5CA63C",
"Lt+	c #61AC3F",
"Mt+	c #66B449",
"Nt+	c #69AE56",
"Ot+	c #47862F",
"Pt+	c #3B6B26",
"Qt+	c #0A1C0A",
"Rt+	c #53713D",
"St+	c #668E44",
"Tt+	c #597E4D",
"Ut+	c #43603B",
"Vt+	c #3D5821",
"Wt+	c #78B047",
"Xt+	c #081205",
"Yt+	c #385C24",
"Zt+	c #6BB145",
"`t+	c #446B31",
" u+	c #345028",
".u+	c #638E53",
"+u+	c #5B8941",
"@u+	c #51793D",
"#u+	c #6ECD3A",
"$u+	c #53942F",
"%u+	c #6F9855",
"&u+	c #619048",
"*u+	c #4C6C37",
"=u+	c #5C8D41",
"-u+	c #70A456",
";u+	c #0C000B",
">u+	c #0A0203",
",u+	c #0B040A",
"'u+	c #597440",
")u+	c #486C2E",
"!u+	c #5B9D33",
"~u+	c #325D1D",
"{u+	c #080D05",
"]u+	c #1A2712",
"^u+	c #354F2C",
"/u+	c #426134",
"(u+	c #6DAB4B",
"_u+	c #5B923F",
":u+	c #13240F",
"<u+	c #416738",
"[u+	c #71A55A",
"}u+	c #518141",
"|u+	c #426D36",
"1u+	c #476633",
"2u+	c #182F19",
"3u+	c #2D451D",
"4u+	c #70A64E",
"5u+	c #39552C",
"6u+	c #6A9F57",
"7u+	c #557A3C",
"8u+	c #375426",
"9u+	c #547C39",
"0u+	c #749A51",
"au+	c #2C401F",
"bu+	c #192813",
"cu+	c #396328",
"du+	c #5A8C42",
"eu+	c #658F3D",
"fu+	c #527039",
"gu+	c #65994C",
"hu+	c #010B00",
"iu+	c #244013",
"ju+	c #2B4616",
"ku+	c #1D370D",
"lu+	c #77B34C",
"mu+	c #3E622A",
"nu+	c #51793F",
"ou+	c #75B45B",
"pu+	c #699149",
"qu+	c #639148",
"ru+	c #2A4621",
"su+	c #090302",
"tu+	c #597C45",
"uu+	c #6A9357",
"vu+	c #01060C",
"wu+	c #162210",
"xu+	c #060411",
"yu+	c #031008",
"zu+	c #517D3A",
"Au+	c #597C42",
"Bu+	c #0B0F07",
"Cu+	c #040210",
"Du+	c #4C6F41",
"Eu+	c #568F45",
"Fu+	c #5DB534",
"Gu+	c #529930",
"Hu+	c #6A9E48",
"Iu+	c #527945",
"Ju+	c #476635",
"Ku+	c #0A0309",
"Lu+	c #7CBA50",
"Mu+	c #101A0F",
"Nu+	c #69AD4A",
"Ou+	c #364D26",
"Pu+	c #668D4C",
"Qu+	c #50723D",
"Ru+	c #09100B",
"Su+	c #0E1909",
"Tu+	c #73AC5C",
"Uu+	c #6CB34F",
"Vu+	c #60AE3B",
"Wu+	c #60A73F",
"Xu+	c #6EAC49",
"Yu+	c #4C8131",
"Zu+	c #446F33",
"`u+	c #2D591E",
" v+	c #1C3D11",
".v+	c #264014",
"+v+	c #689C3F",
"@v+	c #628946",
"#v+	c #3F6127",
"$v+	c #10220F",
"%v+	c #050713",
"&v+	c #171716",
"*v+	c #4E6F41",
"=v+	c #204412",
"-v+	c #476A31",
";v+	c #589138",
">v+	c #6FB64E",
",v+	c #5EAF3C",
"'v+	c #5BA642",
")v+	c #5EAC3C",
"!v+	c #6EB254",
"~v+	c #3C5F26",
"{v+	c #3A6026",
"]v+	c #2C4B1B",
"^v+	c #518E40",
"/v+	c #5A8342",
"(v+	c #1A2B10",
"_v+	c #3F6027",
":v+	c #74B151",
"<v+	c #01070D",
"[v+	c #213B15",
"}v+	c #69B14D",
"|v+	c #527C3D",
"1v+	c #70A060",
"2v+	c #519A31",
"3v+	c #7FCA52",
"4v+	c #0D2108",
"5v+	c #426B2B",
"6v+	c #375825",
"7v+	c #4C6E37",
"8v+	c #080500",
"9v+	c #010708",
"0v+	c #709F54",
"av+	c #385628",
"bv+	c #72A35B",
"cv+	c #6C994C",
"dv+	c #1F3214",
"ev+	c #273A18",
"fv+	c #0F190E",
"gv+	c #537641",
"hv+	c #496F31",
"iv+	c #619539",
"jv+	c #6DC352",
"kv+	c #5A8C4A",
"lv+	c #04090E",
"mv+	c #3D5B30",
"nv+	c #72A455",
"ov+	c #2A451A",
"pv+	c #6C9751",
"qv+	c #486A36",
"rv+	c #75AB5C",
"sv+	c #45602F",
"tv+	c #040E0B",
"uv+	c #2A461C",
"vv+	c #72A84D",
"wv+	c #466C35",
"xv+	c #609B53",
"yv+	c #547A3B",
"zv+	c #72B552",
"Av+	c #2E4F1F",
"Bv+	c #0D0208",
"Cv+	c #0A1609",
"Dv+	c #4B7039",
"Ev+	c #77B25F",
"Fv+	c #79A559",
"Gv+	c #6E9B4D",
"Hv+	c #547935",
"Iv+	c #061409",
"Jv+	c #415F2E",
"Kv+	c #78AE55",
"Lv+	c #78B14F",
"Mv+	c #3B5F25",
"Nv+	c #518840",
"Ov+	c #477F31",
"Pv+	c #060F0C",
"Qv+	c #436031",
"Rv+	c #7CAD5F",
"Sv+	c #75AF53",
"Tv+	c #548440",
"Uv+	c #5D8A44",
"Vv+	c #7DA54F",
"Wv+	c #46642D",
"Xv+	c #406426",
"Yv+	c #406327",
"Zv+	c #75AB5D",
"`v+	c #6E944F",
" w+	c #4E743A",
".w+	c #273F1F",
"+w+	c #2D4524",
"@w+	c #7AB065",
"#w+	c #3F632A",
"$w+	c #0A0B09",
"%w+	c #0A0805",
"&w+	c #4E852B",
"*w+	c #67AC38",
"=w+	c #2F5419",
"-w+	c #71A251",
";w+	c #58A337",
">w+	c #60B93C",
",w+	c #4F7F2E",
"'w+	c #78A662",
")w+	c #2E4625",
"!w+	c #70A854",
"~w+	c #4A6D31",
"{w+	c #020E05",
"]w+	c #70A453",
"^w+	c #4B7830",
"/w+	c #7BAA62",
"(w+	c #27431A",
"_w+	c #1D3C12",
":w+	c #081605",
"<w+	c #060C01",
"[w+	c #385D22",
"}w+	c #47782D",
"|w+	c #5C9740",
"1w+	c #75B256",
"2w+	c #5DB038",
"3w+	c #70BE51",
"4w+	c #5C9945",
"5w+	c #40632F",
"6w+	c #2D4E1E",
"7w+	c #6AB447",
"8w+	c #68B541",
"9w+	c #609D42",
"0w+	c #69A23B",
"aw+	c #78B356",
"bw+	c #589637",
"cw+	c #44742D",
"dw+	c #1D3415",
"ew+	c #14220F",
"fw+	c #2B4218",
"gw+	c #59814A",
"hw+	c #7AAB57",
"iw+	c #6DAD45",
"jw+	c #5E9640",
"kw+	c #65A757",
"lw+	c #213B19",
"mw+	c #72A651",
"nw+	c #638A53",
"ow+	c #7DAD51",
"pw+	c #3F5E27",
"qw+	c #040B03",
"rw+	c #3A5B27",
"sw+	c #5E8542",
"tw+	c #71AE4D",
"uw+	c #599241",
"vw+	c #4D8039",
"ww+	c #6EBD42",
"xw+	c #6EAF4A",
"yw+	c #56893C",
"zw+	c #669F54",
"Aw+	c #60A640",
"Bw+	c #213316",
"Cw+	c #689D4E",
"Dw+	c #142C0C",
"Ew+	c #486639",
"Fw+	c #537239",
"Gw+	c #060E10",
"Hw+	c #0A020C",
"Iw+	c #0B0E0C",
"Jw+	c #5F8748",
"Kw+	c #66A044",
"Lw+	c #649746",
"Mw+	c #3D5F28",
"Nw+	c #85CD54",
"Ow+	c #67A856",
"Pw+	c #44642D",
"Qw+	c #496432",
"Rw+	c #0E1805",
"Sw+	c #060710",
"Tw+	c #02090C",
"Uw+	c #2A4B1F",
"Vw+	c #415F34",
"Ww+	c #446B33",
"Xw+	c #609545",
"Yw+	c #5D9842",
"Zw+	c #70A85B",
"`w+	c #699B4F",
" x+	c #3C5C2B",
".x+	c #5A8545",
"+x+	c #2C3F1F",
"@x+	c #29411C",
"#x+	c #73A954",
"$x+	c #2B481D",
"%x+	c #497B31",
"&x+	c #487433",
"*x+	c #578136",
"=x+	c #5A7D3F",
"-x+	c #314A1D",
";x+	c #75A54F",
">x+	c #6A9F4F",
",x+	c #3E6B27",
"'x+	c #618F47",
")x+	c #7AAD56",
"!x+	c #354D22",
"~x+	c #0A0F0E",
"{x+	c #0E1708",
"]x+	c #466239",
"^x+	c #79A465",
"/x+	c #3A5129",
"(x+	c #364E27",
"_x+	c #598044",
":x+	c #7FAB62",
"<x+	c #4E753B",
"[x+	c #69A343",
"}x+	c #7AB44F",
"|x+	c #2D461D",
"1x+	c #283D1A",
"2x+	c #78B54F",
"3x+	c #3C6328",
"4x+	c #588346",
"5x+	c #76AB5B",
"6x+	c #355421",
"7x+	c #52763F",
"8x+	c #4A7135",
"9x+	c #5F8D48",
"0x+	c #0A070F",
"ax+	c #244216",
"bx+	c #75CB3A",
"cx+	c #599A38",
"dx+	c #628C45",
"ex+	c #72A45B",
"fx+	c #54893C",
"gx+	c #5FAC3A",
"hx+	c #579E39",
"ix+	c #6C9C5D",
"jx+	c #3B5829",
"kx+	c #79A854",
"lx+	c #5C914E",
"mx+	c #39622A",
"nx+	c #314A21",
"ox+	c #76A452",
"px+	c #5B753F",
"qx+	c #76AB52",
"rx+	c #172913",
"sx+	c #548638",
"tx+	c #527B3B",
"ux+	c #061202",
"vx+	c #5D953C",
"wx+	c #6EB649",
"xx+	c #6EA550",
"yx+	c #5A8046",
"zx+	c #436739",
"Ax+	c #324C21",
"Bx+	c #4E892D",
"Cx+	c #74B657",
"Dx+	c #65AC3D",
"Ex+	c #5D9D44",
"Fx+	c #6DB847",
"Gx+	c #75B553",
"Hx+	c #182E0C",
"Ix+	c #6CA946",
"Jx+	c #74B24B",
"Kx+	c #478A32",
"Lx+	c #1E3013",
"Mx+	c #31521D",
"Nx+	c #496B3A",
"Ox+	c #658E54",
"Px+	c #79AD57",
"Qx+	c #5A8F40",
"Rx+	c #4B773F",
"Sx+	c #31501E",
"Tx+	c #719B57",
"Ux+	c #3C552A",
"Vx+	c #243715",
"Wx+	c #7AA95A",
"Xx+	c #5C8F41",
"Yx+	c #44692B",
"Zx+	c #3A5227",
"`x+	c #120202",
" y+	c #0C0A03",
".y+	c #416732",
"+y+	c #6C9852",
"@y+	c #1A3310",
"#y+	c #588840",
"$y+	c #58843E",
"%y+	c #6AA552",
"&y+	c #54953A",
"*y+	c #324824",
"=y+	c #2B3E21",
"-y+	c #2F4A23",
";y+	c #73A45A",
">y+	c #0B1C0D",
",y+	c #6A954F",
"'y+	c #4B6E32",
")y+	c #5F9344",
"!y+	c #223212",
"~y+	c #7DA257",
"{y+	c #4E7433",
"]y+	c #78A05B",
"^y+	c #2E4121",
"/y+	c #4A6937",
"(y+	c #4F793A",
"_y+	c #62874A",
":y+	c #508433",
"<y+	c #5F9C3F",
"[y+	c #618C3C",
"}y+	c #779D56",
"|y+	c #44652D",
"1y+	c #16220B",
"2y+	c #65A456",
"3y+	c #040D01",
"4y+	c #689B56",
"5y+	c #466433",
"6y+	c #628E48",
"7y+	c #2B511E",
"8y+	c #345E1F",
"9y+	c #547F3E",
"0y+	c #334E26",
"ay+	c #6AA753",
"by+	c #3D5728",
"cy+	c #1B3213",
"dy+	c #5C8242",
"ey+	c #83AA61",
"fy+	c #3F5F28",
"gy+	c #234F15",
"hy+	c #568045",
"iy+	c #5A7C41",
"jy+	c #2D511B",
"ky+	c #609445",
"ly+	c #304B1C",
"my+	c #466B34",
"ny+	c #6AA653",
"oy+	c #5C9E46",
"py+	c #1F4115",
"qy+	c #77A256",
"ry+	c #446229",
"sy+	c #517637",
"ty+	c #4E713B",
"uy+	c #7BA763",
"vy+	c #456837",
"wy+	c #577445",
"xy+	c #7AA05D",
"yy+	c #537B3C",
"zy+	c #6A9D55",
"Ay+	c #61983C",
"By+	c #6F9B58",
"Cy+	c #5E823A",
"Dy+	c #1F310F",
"Ey+	c #17230F",
"Fy+	c #73A654",
"Gy+	c #76A757",
"Hy+	c #75AE55",
"Iy+	c #243D16",
"Jy+	c #2C4120",
"Ky+	c #78AC5D",
"Ly+	c #010908",
"My+	c #09060D",
"Ny+	c #0A150B",
"Oy+	c #5A8440",
"Py+	c #599138",
"Qy+	c #588B37",
"Ry+	c #74A351",
"Sy+	c #354922",
"Ty+	c #2B421B",
"Uy+	c #538C35",
"Vy+	c #69AD42",
"Wy+	c #537C36",
"Xy+	c #659744",
"Yy+	c #253F16",
"Zy+	c #3E6636",
"`y+	c #70A75A",
" z+	c #48703E",
".z+	c #24371D",
"+z+	c #54723E",
"@z+	c #5E7A3F",
"#z+	c #344925",
"$z+	c #33532B",
"%z+	c #6A9F5C",
"&z+	c #7AB151",
"*z+	c #375521",
"=z+	c #2A3E20",
"-z+	c #71A055",
";z+	c #315423",
">z+	c #4D793C",
",z+	c #539142",
"'z+	c #67AA4F",
")z+	c #6A9858",
"!z+	c #4C6B3F",
"~z+	c #395B2A",
"{z+	c #1B3814",
"]z+	c #0C160E",
"^z+	c #1D2F15",
"/z+	c #2A4918",
"(z+	c #416A30",
"_z+	c #487E37",
":z+	c #6FB054",
"<z+	c #70AD5C",
"[z+	c #080703",
"}z+	c #639F42",
"|z+	c #304B1F",
"1z+	c #70A05F",
"2z+	c #5F8E49",
"3z+	c #294018",
"4z+	c #1C3D10",
"5z+	c #3B5D29",
"6z+	c #4F753B",
"7z+	c #71A453",
"8z+	c #65A43F",
"9z+	c #558642",
"0z+	c #4C7739",
"az+	c #6DA75C",
"bz+	c #70A844",
"cz+	c #7EAD4F",
"dz+	c #44622B",
"ez+	c #4E6F30",
"fz+	c #0A1A0B",
"gz+	c #51703B",
"hz+	c #629244",
"iz+	c #539237",
"jz+	c #0A2009",
"kz+	c #000B08",
"lz+	c #010F00",
"mz+	c #0A0902",
"nz+	c #3B592D",
"oz+	c #6FAD58",
"pz+	c #5C9645",
"qz+	c #405E31",
"rz+	c #172A10",
"sz+	c #4F6E40",
"tz+	c #75A75B",
"uz+	c #50763C",
"vz+	c #699B53",
"wz+	c #609938",
"xz+	c #537A3B",
"yz+	c #5A823F",
"zz+	c #5B7F45",
"Az+	c #061408",
"Bz+	c #3D5A2A",
"Cz+	c #7BA75E",
"Dz+	c #27391C",
"Ez+	c #3C5725",
"Fz+	c #71A548",
"Gz+	c #101B0F",
"Hz+	c #3B512D",
"Iz+	c #6A9356",
"Jz+	c #263B18",
"Kz+	c #6E994C",
"Lz+	c #1F3212",
"Mz+	c #649541",
"Nz+	c #47722F",
"Oz+	c #385427",
"Pz+	c #5D8F3C",
"Qz+	c #76A353",
"Rz+	c #152611",
"Sz+	c #3A572E",
"Tz+	c #6C8F54",
"Uz+	c #6E9C54",
"Vz+	c #0F0A0F",
"Wz+	c #0D0008",
"Xz+	c #2C451D",
"Yz+	c #6F9F56",
"Zz+	c #2C4821",
"`z+	c #4E743E",
" A+	c #6EB052",
".A+	c #5EA640",
"+A+	c #447322",
"@A+	c #446430",
"#A+	c #5BA142",
"$A+	c #73BF4D",
"%A+	c #579231",
"&A+	c #5B7E43",
"*A+	c #3E5328",
"=A+	c #08160F",
"-A+	c #6FAE44",
";A+	c #52A631",
">A+	c #4F8E3F",
",A+	c #41732A",
"'A+	c #71BA50",
")A+	c #4E7932",
"!A+	c #5A8943",
"~A+	c #7CCB59",
"{A+	c #356B1F",
"]A+	c #071012",
"^A+	c #3A5326",
"/A+	c #6A9746",
"(A+	c #598140",
"_A+	c #6EA54E",
":A+	c #5A8443",
"<A+	c #578342",
"[A+	c #729F51",
"}A+	c #749E55",
"|A+	c #679844",
"1A+	c #3C5D2F",
"2A+	c #59793A",
"3A+	c #3C582F",
"4A+	c #7BAA58",
"5A+	c #5C8244",
"6A+	c #7BB54F",
"7A+	c #4B7130",
"8A+	c #071502",
"9A+	c #5F7F3C",
"0A+	c #5C7B41",
"aA+	c #72A056",
"bA+	c #4A6332",
"cA+	c #769B52",
"dA+	c #395423",
"eA+	c #73BB4D",
"fA+	c #558041",
"gA+	c #7CAB58",
"hA+	c #618950",
"iA+	c #324F28",
"jA+	c #538445",
"kA+	c #76B756",
"lA+	c #42732B",
"mA+	c #427630",
"nA+	c #030C0B",
"oA+	c #4B7F39",
"pA+	c #5A7F44",
"qA+	c #6AA759",
"rA+	c #76A459",
"sA+	c #5C8147",
"tA+	c #558245",
"uA+	c #5B9D41",
"vA+	c #6CAE5B",
"wA+	c #2E4523",
"xA+	c #61904F",
"yA+	c #6AA152",
"zA+	c #6DA94D",
"AA+	c #588741",
"BA+	c #71AB44",
"CA+	c #4F7936",
"DA+	c #6B9B4E",
"EA+	c #305217",
"FA+	c #44632D",
"GA+	c #5E914F",
"HA+	c #69B04E",
"IA+	c #58973C",
"JA+	c #55823E",
"KA+	c #4D793A",
"LA+	c #71AB54",
"MA+	c #589136",
"NA+	c #3D5C25",
"OA+	c #79AE4D",
"PA+	c #3B5F24",
"QA+	c #7EA65E",
"RA+	c #314E1D",
"SA+	c #6FB247",
"TA+	c #6CAE5D",
"UA+	c #29441F",
"VA+	c #476636",
"WA+	c #152E0E",
"XA+	c #4A683C",
"YA+	c #63934C",
"ZA+	c #446C35",
"`A+	c #6EA05A",
" B+	c #579C43",
".B+	c #527F38",
"+B+	c #67874B",
"@B+	c #5F9C45",
"#B+	c #6C9850",
"$B+	c #05070B",
"%B+	c #638F4B",
"&B+	c #020900",
"*B+	c #567C42",
"=B+	c #53793D",
"-B+	c #496D31",
";B+	c #73B148",
">B+	c #77B450",
",B+	c #335B1F",
"'B+	c #628649",
")B+	c #62834B",
"!B+	c #2B411B",
"~B+	c #5C9652",
"{B+	c #041F02",
"]B+	c #68A854",
"^B+	c #2D481C",
"/B+	c #7CAF57",
"(B+	c #496430",
"_B+	c #0F2404",
":B+	c #74A859",
"<B+	c #233813",
"[B+	c #090908",
"}B+	c #355822",
"|B+	c #6DA74D",
"1B+	c #639A4B",
"2B+	c #466738",
"3B+	c #1E3214",
"4B+	c #6F9858",
"5B+	c #2D4623",
"6B+	c #0E1707",
"7B+	c #537C38",
"8B+	c #2B3E1C",
"9B+	c #759A5F",
"0B+	c #4E7539",
"aB+	c #78B453",
"bB+	c #6FBA4A",
"cB+	c #6ABD45",
"dB+	c #6DB639",
"eB+	c #69A749",
"fB+	c #5AA834",
"gB+	c #68AC43",
"hB+	c #6DA84A",
"iB+	c #5A8539",
"jB+	c #43692B",
"kB+	c #244615",
"lB+	c #365B28",
"mB+	c #66A352",
"nB+	c #59823C",
"oB+	c #3C6323",
"pB+	c #204011",
"qB+	c #3D5B26",
"rB+	c #3F6226",
"sB+	c #4E843C",
"tB+	c #6AAE3F",
"uB+	c #589C33",
"vB+	c #66AE39",
"wB+	c #6AC148",
"xB+	c #71BB53",
"yB+	c #3E5C2B",
"zB+	c #70A55B",
"AB+	c #335125",
"BB+	c #1E3210",
"CB+	c #6EAE45",
"DB+	c #629840",
"EB+	c #0A0F07",
"FB+	c #2C461F",
"GB+	c #6B9153",
"HB+	c #212E18",
"IB+	c #4C7235",
"JB+	c #70AC51",
"KB+	c #537D3F",
"LB+	c #496F3B",
"MB+	c #649743",
"NB+	c #40592D",
"OB+	c #142407",
"PB+	c #51783B",
"QB+	c #122207",
"RB+	c #6EA451",
"SB+	c #446330",
"TB+	c #05080C",
"UB+	c #0D060C",
"VB+	c #538144",
"WB+	c #76AE5D",
"XB+	c #4C7134",
"YB+	c #283D16",
"ZB+	c #0B1503",
"`B+	c #3B582A",
" C+	c #7DA25B",
".C+	c #2C3C1A",
"+C+	c #09080B",
"@C+	c #1A2716",
"#C+	c #43632B",
"$C+	c #769E4E",
"%C+	c #4D8033",
"&C+	c #488033",
"*C+	c #6BA44C",
"=C+	c #44622F",
"-C+	c #669445",
";C+	c #507E3F",
">C+	c #598842",
",C+	c #66C137",
"'C+	c #6A9647",
")C+	c #74AF59",
"!C+	c #669F40",
"~C+	c #43612E",
"{C+	c #1B3017",
"]C+	c #74AC51",
"^C+	c #42692B",
"/C+	c #7AA654",
"(C+	c #2D3E1F",
"_C+	c #4A6938",
":C+	c #579338",
"<C+	c #71AC50",
"[C+	c #668F4E",
"}C+	c #507E3D",
"|C+	c #598E3F",
"1C+	c #70A849",
"2C+	c #6F9556",
"3C+	c #355D20",
"4C+	c #6E9A50",
"5C+	c #50713D",
"6C+	c #5B923C",
"7C+	c #79C94F",
"8C+	c #64B73B",
"9C+	c #163107",
"0C+	c #1B2B10",
"aC+	c #5F9B43",
"bC+	c #64A52F",
"cC+	c #75AD4B",
"dC+	c #5B8A47",
"eC+	c #78A657",
"fC+	c #67A143",
"gC+	c #52853E",
"hC+	c #3C5C30",
"iC+	c #4F7B33",
"jC+	c #538736",
"kC+	c #467234",
"lC+	c #5B8940",
"mC+	c #507835",
"nC+	c #08050C",
"oC+	c #314D23",
"pC+	c #3D592E",
"qC+	c #709A55",
"rC+	c #609144",
"sC+	c #6B9F4B",
"tC+	c #608D4A",
"uC+	c #508A37",
"vC+	c #466D33",
"wC+	c #08080A",
"xC+	c #2E4821",
"yC+	c #709B59",
"zC+	c #26411A",
"AC+	c #71A758",
"BC+	c #456A27",
"CC+	c #78BF45",
"DC+	c #69B639",
"EC+	c #63A139",
"FC+	c #76AA56",
"GC+	c #4A772D",
"HC+	c #589C38",
"IC+	c #1D390F",
"JC+	c #72AD55",
"KC+	c #425B30",
"LC+	c #8AB462",
"MC+	c #40592B",
"NC+	c #629141",
"OC+	c #76AC53",
"PC+	c #44672E",
"QC+	c #4E8232",
"RC+	c #7ABE50",
"SC+	c #2A511B",
"TC+	c #547940",
"UC+	c #6BA649",
"VC+	c #38671F",
"WC+	c #3A5829",
"XC+	c #78A159",
"YC+	c #597A3E",
"ZC+	c #5E8640",
"`C+	c #5B7F44",
" D+	c #496A32",
".D+	c #528635",
"+D+	c #609E3B",
"@D+	c #77AD56",
"#D+	c #659B48",
"$D+	c #538C36",
"%D+	c #5CAE3A",
"&D+	c #71C349",
"*D+	c #68B146",
"=D+	c #5C9B38",
"-D+	c #76C447",
";D+	c #65B43E",
">D+	c #67A941",
",D+	c #529737",
"'D+	c #659B47",
")D+	c #639F3F",
"!D+	c #528A31",
"~D+	c #476E2B",
"{D+	c #274818",
"]D+	c #688F50",
"^D+	c #4C773A",
"/D+	c #0B1709",
"(D+	c #49663C",
"_D+	c #0F140B",
":D+	c #689A46",
"<D+	c #426131",
"[D+	c #669C43",
"}D+	c #4D7637",
"|D+	c #78A463",
"1D+	c #60954E",
"2D+	c #16270B",
"3D+	c #2E4422",
"4D+	c #709A5B",
"5D+	c #4D6F3D",
"6D+	c #132010",
"7D+	c #09010F",
"8D+	c #79B053",
"9D+	c #283F19",
"0D+	c #26391E",
"aD+	c #74A95D",
"bD+	c #0D070E",
"cD+	c #0B0A0F",
"dD+	c #030D07",
"eD+	c #739B61",
"fD+	c #70BB45",
"gD+	c #6CB74E",
"hD+	c #52813D",
"iD+	c #619E40",
"jD+	c #1F3812",
"kD+	c #3E5C2E",
"lD+	c #223916",
"mD+	c #68A752",
"nD+	c #254E10",
"oD+	c #5CA836",
"pD+	c #618C3E",
"qD+	c #5C8C43",
"rD+	c #4D7934",
"sD+	c #598341",
"tD+	c #051402",
"uD+	c #0B1E06",
"vD+	c #253919",
"wD+	c #3E5B30",
"xD+	c #65A344",
"yD+	c #5D7F43",
"zD+	c #54773E",
"AD+	c #71BD47",
"BD+	c #78AC58",
"CD+	c #2A421D",
"DD+	c #3D6421",
"ED+	c #7EC74A",
"FD+	c #090601",
"GD+	c #539333",
"HD+	c #6DCA52",
"ID+	c #326629",
"JD+	c #42612E",
"KD+	c #75A154",
"LD+	c #30541C",
"MD+	c #57933A",
"ND+	c #44683A",
"OD+	c #2E421E",
"PD+	c #1E2D10",
"QD+	c #223E17",
"RD+	c #496B34",
"SD+	c #2C411E",
"TD+	c #86AA6C",
"UD+	c #72A85B",
"VD+	c #629B45",
"WD+	c #02010D",
"XD+	c #060215",
"YD+	c #4A7339",
"ZD+	c #182B15",
"`D+	c #3F6131",
" E+	c #73B45B",
".E+	c #6EA24B",
"+E+	c #55833D",
"@E+	c #5FA349",
"#E+	c #6BBC46",
"$E+	c #2A541A",
"%E+	c #567F43",
"&E+	c #101B09",
"*E+	c #305819",
"=E+	c #75BC47",
"-E+	c #45702B",
";E+	c #061604",
">E+	c #365122",
",E+	c #6FA33B",
"'E+	c #82C654",
")E+	c #15270A",
"!E+	c #699C4B",
"~E+	c #618A4B",
"{E+	c #466034",
"]E+	c #80A75C",
"^E+	c #385122",
"/E+	c #132208",
"(E+	c #335721",
"_E+	c #5C8E41",
":E+	c #7AA85E",
"<E+	c #4C7F3B",
"[E+	c #5F8F44",
"}E+	c #283E1E",
"|E+	c #5A923A",
"1E+	c #2A4620",
"2E+	c #71A35F",
"3E+	c #3A5E2B",
"4E+	c #76AE66",
"5E+	c #2F4923",
"6E+	c #416833",
"7E+	c #4C7F39",
"8E+	c #4E8D38",
"9E+	c #4D9533",
"0E+	c #4F9B2C",
"aE+	c #539E30",
"bE+	c #529B30",
"cE+	c #539C30",
"dE+	c #519832",
"eE+	c #528E33",
"fE+	c #4F7F37",
"gE+	c #2A3C1A",
"hE+	c #1B2A16",
"iE+	c #7B9F69",
"jE+	c #425F31",
"kE+	c #6B9C5A",
"lE+	c #375C2F",
"mE+	c #09130A",
"nE+	c #070A0C",
"oE+	c #54742E",
"pE+	c #85BF50",
"qE+	c #5B8743",
"rE+	c #446531",
"sE+	c #496A37",
"tE+	c #78AC61",
"uE+	c #5F9645",
"vE+	c #3B592F",
"wE+	c #172610",
"xE+	c #334A24",
"yE+	c #79A15F",
"zE+	c #4E6A3A",
"AE+	c #7DAE50",
"BE+	c #365221",
"CE+	c #7AA853",
"DE+	c #415E27",
"EE+	c #041802",
"FE+	c #60814D",
"GE+	c #274419",
"HE+	c #6BA653",
"IE+	c #102106",
"JE+	c #547D3B",
"KE+	c #539437",
"LE+	c #57843C",
"ME+	c #3D562E",
"NE+	c #73A058",
"OE+	c #476734",
"PE+	c #638F4D",
"QE+	c #1A3211",
"RE+	c #5B9846",
"SE+	c #1B3910",
"TE+	c #111C0A",
"UE+	c #5D8B36",
"VE+	c #4D6C40",
"WE+	c #6E9C4D",
"XE+	c #4D7534",
"YE+	c #7FAD5D",
"ZE+	c #1B2F11",
"`E+	c #2D441F",
" F+	c #49643A",
".F+	c #569035",
"+F+	c #3F6D27",
"@F+	c #476935",
"#F+	c #6EAA42",
"$F+	c #6EB03C",
"%F+	c #1E3A10",
"&F+	c #30561F",
"*F+	c #5EAA46",
"=F+	c #67BA4B",
"-F+	c #7AB654",
";F+	c #112B09",
">F+	c #285110",
",F+	c #3F7A21",
"'F+	c #5FA73B",
")F+	c #6EB947",
"!F+	c #64B13D",
"~F+	c #6DAF3E",
"{F+	c #121D07",
"]F+	c #618C4A",
"^F+	c #1D3011",
"/F+	c #71AA4E",
"(F+	c #60A247",
"_F+	c #395B2E",
":F+	c #0B0E04",
"<F+	c #2F5113",
"[F+	c #70A448",
"}F+	c #273F14",
"|F+	c #436136",
"1F+	c #72A95B",
"2F+	c #4B7A34",
"3F+	c #6CA956",
"4F+	c #74C44B",
"5F+	c #4F8B2F",
"6F+	c #1A330D",
"7F+	c #305127",
"8F+	c #53784C",
"9F+	c #72A751",
"0F+	c #5F933B",
"aF+	c #6D994F",
"bF+	c #3B5A24",
"cF+	c #08000F",
"dF+	c #13230D",
"eF+	c #5B8645",
"fF+	c #273F16",
"gF+	c #74A750",
"hF+	c #3C6027",
"iF+	c #45632C",
"jF+	c #202A17",
"kF+	c #547939",
"lF+	c #7BB04F",
"mF+	c #2D471F",
"nF+	c #0D0808",
"oF+	c #41602C",
"pF+	c #7BAA51",
"qF+	c #3C5827",
"rF+	c #080701",
"sF+	c #0C0303",
"tF+	c #344F27",
"uF+	c #496C34",
"vF+	c #112106",
"wF+	c #82C05E",
"xF+	c #71A452",
"yF+	c #587D3B",
"zF+	c #547D39",
"AF+	c #02040C",
"BF+	c #021900",
"CF+	c #051D03",
"DF+	c #071D07",
"EF+	c #031903",
"FF+	c #10060E",
"GF+	c #567C3E",
"HF+	c #3D6735",
"IF+	c #5F9353",
"JF+	c #4B622D",
"KF+	c #496728",
"LF+	c #2F4E1E",
"MF+	c #6FA251",
"NF+	c #100108",
"OF+	c #394F29",
"PF+	c #80A462",
"QF+	c #4C6537",
"RF+	c #0B1607",
"SF+	c #0B0211",
"TF+	c #567C39",
"UF+	c #688F49",
"VF+	c #263818",
"WF+	c #080301",
"XF+	c #263718",
"YF+	c #79A256",
"ZF+	c #09150A",
"`F+	c #436332",
" G+	c #7CA960",
".G+	c #2B3D1F",
"+G+	c #639545",
"@G+	c #6FAA56",
"#G+	c #394F27",
"$G+	c #193010",
"%G+	c #6EA440",
"&G+	c #6EAF4E",
"*G+	c #628E51",
"=G+	c #506F3B",
"-G+	c #70A94D",
";G+	c #41692A",
">G+	c #65B236",
",G+	c #609937",
"'G+	c #558442",
")G+	c #77B14F",
"!G+	c #2A421E",
"~G+	c #314C26",
"{G+	c #4F7C38",
"]G+	c #5C8245",
"^G+	c #0A0709",
"/G+	c #0A1304",
"(G+	c #1C3B11",
"_G+	c #0D2F05",
":G+	c #031203",
"<G+	c #56783F",
"[G+	c #5A953D",
"}G+	c #080107",
"|G+	c #6FA34B",
"1G+	c #518E35",
"2G+	c #47722E",
"3G+	c #5B7D40",
"4G+	c #355F20",
"5G+	c #4F8E35",
"6G+	c #68B842",
"7G+	c #6ECA34",
"8G+	c #78DB41",
"9G+	c #6DBF41",
"0G+	c #569D31",
"aG+	c #72C848",
"bG+	c #427526",
"cG+	c #304C20",
"dG+	c #7CAA5E",
"eG+	c #4A7237",
"fG+	c #659D48",
"gG+	c #619445",
"hG+	c #588D3F",
"iG+	c #344F23",
"jG+	c #607B4B",
"kG+	c #6FC92F",
"lG+	c #5CA23B",
"mG+	c #31541C",
"nG+	c #14250A",
"oG+	c #659146",
"pG+	c #55773C",
"qG+	c #638844",
"rG+	c #517039",
"sG+	c #5D9540",
"tG+	c #5A9442",
"uG+	c #547E3F",
"vG+	c #60AB40",
"wG+	c #5CA73F",
"xG+	c #77A55E",
"yG+	c #70A654",
"zG+	c #4A6E3F",
"AG+	c #6C9A47",
"BG+	c #416324",
"CG+	c #406429",
"DG+	c #203614",
"EG+	c #090006",
"FG+	c #0F0110",
"GG+	c #74A74E",
"HG+	c #141810",
"IG+	c #43632E",
"JG+	c #10200A",
"KG+	c #16200E",
"LG+	c #567D3D",
"MG+	c #7CAF58",
"NG+	c #10110E",
"OG+	c #79AF5B",
"PG+	c #101E0F",
"QG+	c #4E6C3D",
"RG+	c #598241",
"SG+	c #2F4C1F",
"TG+	c #304E21",
"UG+	c #70A150",
"VG+	c #263B14",
"WG+	c #577F44",
"XG+	c #406231",
"YG+	c #0C0501",
"ZG+	c #3D6128",
"`G+	c #1D3611",
" H+	c #6EA34E",
".H+	c #5F8C3B",
"+H+	c #38582B",
"@H+	c #7EAB62",
"#H+	c #4D673D",
"$H+	c #182B0D",
"%H+	c #12240F",
"&H+	c #5A7C42",
"*H+	c #708F53",
"=H+	c #283617",
"-H+	c #111F0A",
";H+	c #5A803E",
">H+	c #64874E",
",H+	c #77A75B",
"'H+	c #4B6D33",
")H+	c #6C9D4F",
"!H+	c #73AA5F",
"~H+	c #54793F",
"{H+	c #71A448",
"]H+	c #638B45",
"^H+	c #518A3D",
"/H+	c #519736",
"(H+	c #589633",
"_H+	c #5E993E",
":H+	c #4D763A",
"<H+	c #629A48",
"[H+	c #4B6E3A",
"}H+	c #689B5A",
"|H+	c #1D3117",
"1H+	c #233A17",
"2H+	c #69A23E",
"3H+	c #719E4F",
"4H+	c #69BB3C",
"5H+	c #75CB3C",
"6H+	c #73D13B",
"7H+	c #56863C",
"8H+	c #020E08",
"9H+	c #4C7935",
"0H+	c #5B973F",
"aH+	c #4F7E37",
"bH+	c #060A01",
"cH+	c #4E7E33",
"dH+	c #55853C",
"eH+	c #6FAA57",
"fH+	c #355A22",
"gH+	c #152908",
"hH+	c #0E0004",
"iH+	c #0E0404",
"jH+	c #06010D",
"kH+	c #000014",
"lH+	c #72B557",
"mH+	c #65BF44",
"nH+	c #559737",
"oH+	c #3A5F22",
"pH+	c #2C3F1C",
"qH+	c #516C3F",
"rH+	c #192810",
"sH+	c #649B3D",
"tH+	c #577E38",
"uH+	c #609244",
"vH+	c #53823B",
"wH+	c #6DA053",
"xH+	c #5FAE3C",
"yH+	c #6BD439",
"zH+	c #5EB136",
"AH+	c #599434",
"BH+	c #427427",
"CH+	c #3E6528",
"DH+	c #548633",
"EH+	c #77B34B",
"FH+	c #6D9B49",
"GH+	c #729D50",
"HH+	c #608F46",
"IH+	c #6F9C50",
"JH+	c #2A3F1A",
"KH+	c #71A84C",
"LH+	c #66A74C",
"MH+	c #2D5321",
"NH+	c #66A346",
"OH+	c #557743",
"PH+	c #396123",
"QH+	c #7BD93F",
"RH+	c #6DCA3A",
"SH+	c #54992D",
"TH+	c #2E4222",
"UH+	c #709D50",
"VH+	c #557539",
"WH+	c #6DA84E",
"XH+	c #6AAA44",
"YH+	c #3D782F",
"ZH+	c #57934A",
"`H+	c #334A26",
" I+	c #2B401E",
".I+	c #4E6F2C",
"+I+	c #6F9A46",
"@I+	c #15240D",
"#I+	c #5D8D3F",
"$I+	c #598639",
"%I+	c #0E0205",
"&I+	c #3B5C2B",
"*I+	c #70A355",
"=I+	c #739C58",
"-I+	c #57783E",
";I+	c #587F44",
">I+	c #78AA51",
",I+	c #65904E",
"'I+	c #2A471D",
")I+	c #7DB160",
"!I+	c #4A6D35",
"~I+	c #050B0C",
"{I+	c #5C8E4C",
"]I+	c #456833",
"^I+	c #101B0C",
"/I+	c #608C4E",
"(I+	c #729E5E",
"_I+	c #0D0705",
":I+	c #03030B",
"<I+	c #0A0A07",
"[I+	c #060B0B",
"}I+	c #020A0D",
"|I+	c #0A060A",
"1I+	c #0B0301",
"2I+	c #0D090B",
"3I+	c #0B060C",
"4I+	c #699450",
"5I+	c #3B6328",
"6I+	c #162F16",
"7I+	c #456336",
"8I+	c #609744",
"9I+	c #2F4624",
"0I+	c #689054",
"aI+	c #476F38",
"bI+	c #16260F",
"cI+	c #79B063",
"dI+	c #6E9D50",
"eI+	c #659343",
"fI+	c #172212",
"gI+	c #60763F",
"hI+	c #74974D",
"iI+	c #273D17",
"jI+	c #0C1306",
"kI+	c #4E713A",
"lI+	c #76A156",
"mI+	c #4C7234",
"nI+	c #041502",
"oI+	c #080809",
"pI+	c #3B4F2B",
"qI+	c #7EA25E",
"rI+	c #5E833E",
"sI+	c #2B3F1C",
"tI+	c #2D3F20",
"uI+	c #385B27",
"vI+	c #69AC50",
"wI+	c #5EA745",
"xI+	c #6EB557",
"yI+	c #253F15",
"zI+	c #496A35",
"AI+	c #5E7C48",
"BI+	c #2B4320",
"CI+	c #090315",
"DI+	c #192C0B",
"EI+	c #3C582A",
"FI+	c #254912",
"GI+	c #3F7026",
"HI+	c #6B9A55",
"II+	c #3A5229",
"JI+	c #61AC3D",
"KI+	c #355823",
"LI+	c #1C2E17",
"MI+	c #73AA61",
"NI+	c #508737",
"OI+	c #5B9141",
"PI+	c #709E4F",
"QI+	c #4E6F3A",
"RI+	c #223118",
"SI+	c #10000A",
"TI+	c #2B4519",
"UI+	c #60AD3B",
"VI+	c #6ECE36",
"WI+	c #5EAB35",
"XI+	c #375A2D",
"YI+	c #425B31",
"ZI+	c #789E54",
"`I+	c #73A24E",
" J+	c #436534",
".J+	c #588342",
"+J+	c #0B1502",
"@J+	c #294717",
"#J+	c #7AC644",
"$J+	c #579633",
"%J+	c #0B2404",
"&J+	c #2A481B",
"*J+	c #4D7738",
"=J+	c #67A04B",
"-J+	c #589F38",
";J+	c #6AC045",
">J+	c #54953F",
",J+	c #568F3D",
"'J+	c #65A246",
")J+	c #76BB48",
"!J+	c #4F7439",
"~J+	c #395527",
"{J+	c #5D7E3E",
"]J+	c #5E8F37",
"^J+	c #76AF61",
"/J+	c #568C40",
"(J+	c #558743",
"_J+	c #6EAC53",
":J+	c #70A653",
"<J+	c #6FA84D",
"[J+	c #224113",
"}J+	c #182608",
"|J+	c #508C31",
"1J+	c #66B442",
"2J+	c #60993D",
"3J+	c #55753F",
"4J+	c #100611",
"5J+	c #162A0A",
"6J+	c #3F5A2D",
"7J+	c #73AE60",
"8J+	c #456A38",
"9J+	c #457932",
"0J+	c #63B740",
"aJ+	c #4D8433",
"bJ+	c #6D9D56",
"cJ+	c #335523",
"dJ+	c #3A5324",
"eJ+	c #294318",
"fJ+	c #6BA64C",
"gJ+	c #09070A",
"hJ+	c #100309",
"iJ+	c #10050B",
"jJ+	c #061507",
"kJ+	c #4E7432",
"lJ+	c #6D9B4C",
"mJ+	c #334C22",
"nJ+	c #7EB156",
"oJ+	c #53793E",
"pJ+	c #567E3E",
"qJ+	c #73B055",
"rJ+	c #739E52",
"sJ+	c #62944B",
"tJ+	c #74AC56",
"uJ+	c #42632F",
"vJ+	c #324C1F",
"wJ+	c #6D9D4E",
"xJ+	c #5B8143",
"yJ+	c #0A080A",
"zJ+	c #0C0608",
"AJ+	c #0C0605",
"BJ+	c #142C0D",
"CJ+	c #579A3B",
"DJ+	c #5AA13A",
"EJ+	c #1C3310",
"FJ+	c #6D9856",
"GJ+	c #0D000C",
"HJ+	c #0B0A04",
"IJ+	c #06070E",
"JJ+	c #110908",
"KJ+	c #0C0B09",
"LJ+	c #19230E",
"MJ+	c #6E9C51",
"NJ+	c #406529",
"OJ+	c #6A934D",
"PJ+	c #25391B",
"QJ+	c #739A58",
"RJ+	c #49763A",
"SJ+	c #699950",
"TJ+	c #658D3C",
"UJ+	c #85AE5E",
"VJ+	c #476235",
"WJ+	c #3C5828",
"XJ+	c #75A258",
"YJ+	c #5D8044",
"ZJ+	c #648744",
"`J+	c #1A2C0D",
" K+	c #587D3F",
".K+	c #709D45",
"+K+	c #2A4116",
"@K+	c #3E5C2A",
"#K+	c #80B256",
"$K+	c #598349",
"%K+	c #668C50",
"&K+	c #719C5A",
"*K+	c #567041",
"=K+	c #080900",
"-K+	c #2A3D1D",
";K+	c #76A359",
">K+	c #538D36",
",K+	c #67BB3F",
"'K+	c #548E3A",
")K+	c #415E29",
"!K+	c #476634",
"~K+	c #090709",
"{K+	c #08070F",
"]K+	c #6D964C",
"^K+	c #71A351",
"/K+	c #59943C",
"(K+	c #172A0D",
"_K+	c #5C964A",
":K+	c #73AE56",
"<K+	c #4D7838",
"[K+	c #638C4B",
"}K+	c #638D4B",
"|K+	c #17300F",
"1K+	c #69A648",
"2K+	c #6AB043",
"3K+	c #5B9234",
"4K+	c #58913B",
"5K+	c #609E48",
"6K+	c #68BB3B",
"7K+	c #68BB37",
"8K+	c #6DA451",
"9K+	c #72A253",
"0K+	c #3B5328",
"aK+	c #2F501B",
"bK+	c #71B74E",
"cK+	c #61A543",
"dK+	c #102104",
"eK+	c #6EAF38",
"fK+	c #558730",
"gK+	c #769F5A",
"hK+	c #214115",
"iK+	c #4B822F",
"jK+	c #72B752",
"kK+	c #335626",
"lK+	c #3B6A23",
"mK+	c #64A140",
"nK+	c #274D1E",
"oK+	c #6FAA5E",
"pK+	c #2B421E",
"qK+	c #3E5A2A",
"rK+	c #82AE5E",
"sK+	c #364D24",
"tK+	c #518B39",
"uK+	c #73AF57",
"vK+	c #365E25",
"wK+	c #6E9654",
"xK+	c #486632",
"yK+	c #0A1E04",
"zK+	c #2C4D1A",
"AK+	c #73A944",
"BK+	c #43682B",
"CK+	c #314A22",
"DK+	c #5E814A",
"EK+	c #71994D",
"FK+	c #7BAC5F",
"GK+	c #67C13D",
"HK+	c #75C045",
"IK+	c #5D8449",
"JK+	c #5A8442",
"KK+	c #0B1606",
"LK+	c #72A855",
"MK+	c #090809",
"NK+	c #0A0510",
"OK+	c #090C05",
"PK+	c #699055",
"QK+	c #5E8150",
"RK+	c #6BA64D",
"SK+	c #6AA254",
"TK+	c #77A855",
"UK+	c #2E4B1F",
"VK+	c #6CA450",
"WK+	c #41622A",
"XK+	c #112107",
"YK+	c #6B9F50",
"ZK+	c #517840",
"`K+	c #70A156",
" L+	c #3A5327",
".L+	c #091608",
"+L+	c #010611",
"@L+	c #3A6B1F",
"#L+	c #6CC345",
"$L+	c #6EC044",
"%L+	c #5C853E",
"&L+	c #568538",
"*L+	c #46752A",
"=L+	c #5B7F3F",
"-L+	c #517937",
";L+	c #1B390F",
">L+	c #1B330D",
",L+	c #7BAC54",
"'L+	c #6C9A4F",
")L+	c #192C16",
"!L+	c #050215",
"~L+	c #101908",
"{L+	c #15230E",
"]L+	c #6AA34D",
"^L+	c #78B259",
"/L+	c #577640",
"(L+	c #273B19",
"_L+	c #03000E",
":L+	c #3C5B27",
"<L+	c #709A4E",
"[L+	c #3E592B",
"}L+	c #354D25",
"|L+	c #65844E",
"1L+	c #365124",
"2L+	c #0B0803",
"3L+	c #11290A",
"4L+	c #64924D",
"5L+	c #11200C",
"6L+	c #609233",
"7L+	c #81C34D",
"8L+	c #3F5D2A",
"9L+	c #3E632A",
"0L+	c #74AF45",
"aL+	c #46652E",
"bL+	c #081608",
"cL+	c #1D2D15",
"dL+	c #658843",
"eL+	c #5C7A42",
"fL+	c #16220C",
"gL+	c #122309",
"hL+	c #74A44A",
"iL+	c #73A44E",
"jL+	c #3B5927",
"kL+	c #0C1B04",
"lL+	c #6A9C57",
"mL+	c #23391B",
"nL+	c #04090A",
"oL+	c #608740",
"pL+	c #5B8240",
"qL+	c #111F0C",
"rL+	c #497030",
"sL+	c #6EA149",
"tL+	c #436B35",
"uL+	c #5F9A48",
"vL+	c #67AE38",
"wL+	c #7ACC40",
"xL+	c #385B23",
"yL+	c #719D4C",
"zL+	c #4F7036",
"AL+	c #668643",
"BL+	c #000A05",
"CL+	c #0A170A",
"DL+	c #375A2F",
"EL+	c #304C25",
"FL+	c #0B1909",
"GL+	c #192A0D",
"HL+	c #395826",
"IL+	c #47832A",
"JL+	c #6EB43E",
"KL+	c #4D742E",
"LL+	c #749F56",
"ML+	c #527141",
"NL+	c #689D4F",
"OL+	c #3C632A",
"PL+	c #679C48",
"QL+	c #346420",
"RL+	c #143005",
"SL+	c #5C8A44",
"TL+	c #70B249",
"UL+	c #558835",
"VL+	c #779F58",
"WL+	c #42632E",
"XL+	c #2C511B",
"YL+	c #60A33B",
"ZL+	c #0D040B",
"`L+	c #406925",
" M+	c #84CD4F",
".M+	c #679F4F",
"+M+	c #5D9439",
"@M+	c #6BA845",
"#M+	c #577F3C",
"$M+	c #4A6F35",
"%M+	c #5D9247",
"&M+	c #6CB150",
"*M+	c #467031",
"=M+	c #4D8237",
"-M+	c #397126",
";M+	c #55943C",
">M+	c #2E4B24",
",M+	c #71A260",
"'M+	c #446033",
")M+	c #6EAD56",
"!M+	c #789E5C",
"~M+	c #3C512D",
"{M+	c #354C22",
"]M+	c #72A848",
"^M+	c #64A34D",
"/M+	c #67B046",
"(M+	c #48702F",
"_M+	c #6A9849",
":M+	c #558542",
"<M+	c #2E511D",
"[M+	c #5DA249",
"}M+	c #5A8E46",
"|M+	c #42642D",
"1M+	c #80C845",
"2M+	c #53842D",
"3M+	c #759A53",
"4M+	c #659456",
"5M+	c #000609",
"6M+	c #0C2108",
"7M+	c #5E9542",
"8M+	c #11270A",
"9M+	c #68964D",
"0M+	c #071703",
"aM+	c #0E0511",
"bM+	c #33511E",
"cM+	c #68AA4E",
"dM+	c #6FA051",
"eM+	c #466A33",
"fM+	c #7AAE5B",
"gM+	c #547A3C",
"hM+	c #76CB46",
"iM+	c #6CBD3E",
"jM+	c #2F541B",
"kM+	c #659547",
"lM+	c #74B952",
"mM+	c #2A411A",
"nM+	c #5BA63A",
"oM+	c #619E37",
"pM+	c #6EA04E",
"qM+	c #486E33",
"rM+	c #699554",
"sM+	c #50703F",
"tM+	c #456535",
"uM+	c #71A051",
"vM+	c #5D8740",
"wM+	c #517539",
"xM+	c #88C161",
"yM+	c #507A34",
"zM+	c #102309",
"AM+	c #4C673D",
"BM+	c #6E9F57",
"CM+	c #648848",
"DM+	c #3B5C2C",
"EM+	c #75AD57",
"FM+	c #244E0F",
"GM+	c #68AC41",
"HM+	c #7AB655",
"IM+	c #284215",
"JM+	c #4F7B3C",
"KM+	c #6CA953",
"LM+	c #30531D",
"MM+	c #759450",
"NM+	c #57763B",
"OM+	c #4E6D35",
"PM+	c #4A6830",
"QM+	c #091A04",
"RM+	c #314822",
"SM+	c #040B0B",
"TM+	c #02050D",
"UM+	c #487834",
"VM+	c #669B4E",
"WM+	c #213814",
"XM+	c #14260A",
"YM+	c #648F4A",
"ZM+	c #61944E",
"`M+	c #4C7E30",
" N+	c #7CC844",
".N+	c #467525",
"+N+	c #668D4F",
"@N+	c #53773B",
"#N+	c #233217",
"$N+	c #597E41",
"%N+	c #405B2C",
"&N+	c #375024",
"*N+	c #426031",
"=N+	c #557B3E",
"-N+	c #67994B",
";N+	c #4D763D",
">N+	c #5D9D3E",
",N+	c #70A94F",
"'N+	c #568244",
")N+	c #0D0503",
"!N+	c #7CB261",
"~N+	c #162808",
"{N+	c #71C140",
"]N+	c #6EB440",
"^N+	c #22360D",
"/N+	c #344E28",
"(N+	c #416634",
"_N+	c #436E2C",
":N+	c #65924B",
"<N+	c #69A553",
"[N+	c #6FB04C",
"}N+	c #61924A",
"|N+	c #436C31",
"1N+	c #4E7936",
"2N+	c #3F5E2D",
"3N+	c #486837",
"4N+	c #61AA40",
"5N+	c #5F9B40",
"6N+	c #497F2F",
"7N+	c #0C0504",
"8N+	c #0E0506",
"9N+	c #77B352",
"0N+	c #345128",
"aN+	c #3A5925",
"bN+	c #82BA5C",
"cN+	c #527E36",
"dN+	c #567B3D",
"eN+	c #679D45",
"fN+	c #6CB73F",
"gN+	c #5F973F",
"hN+	c #669D52",
"iN+	c #5BB03C",
"jN+	c #5DB239",
"kN+	c #031104",
"lN+	c #42682E",
"mN+	c #6AB443",
"nN+	c #66B641",
"oN+	c #456134",
"pN+	c #608747",
"qN+	c #6DAB4A",
"rN+	c #436530",
"sN+	c #1F4316",
"tN+	c #55A134",
"uN+	c #73B452",
"vN+	c #5C8541",
"wN+	c #304D22",
"xN+	c #305120",
"yN+	c #6BB150",
"zN+	c #70B54E",
"AN+	c #11280E",
"BN+	c #0C1D03",
"CN+	c #568D31",
"DN+	c #73AE4E",
"EN+	c #436C2C",
"FN+	c #7FBA5E",
"GN+	c #436733",
"HN+	c #3A5A33",
"IN+	c #74BB41",
"JN+	c #6EB44D",
"KN+	c #436E2E",
"LN+	c #6FA657",
"MN+	c #4A703C",
"NN+	c #36541C",
"ON+	c #73A543",
"PN+	c #021104",
"QN+	c #0B160B",
"RN+	c #27471D",
"SN+	c #5B8F34",
"TN+	c #385822",
"UN+	c #649347",
"VN+	c #6EA455",
"WN+	c #426431",
"XN+	c #709F56",
"YN+	c #71BE47",
"ZN+	c #417A24",
"`N+	c #83C95C",
" O+	c #244515",
".O+	c #274314",
"+O+	c #172A0C",
"@O+	c #2E4323",
"#O+	c #779E5E",
"$O+	c #577E42",
"%O+	c #6DA24F",
"&O+	c #6C9859",
"*O+	c #3F5C2E",
"=O+	c #6DA357",
"-O+	c #2D421C",
";O+	c #608847",
">O+	c #6D954C",
",O+	c #3D5D28",
"'O+	c #6FA44B",
")O+	c #2A441D",
"!O+	c #81B264",
"~O+	c #455F36",
"{O+	c #6DA651",
"]O+	c #679852",
"^O+	c #416C2D",
"/O+	c #618C49",
"(O+	c #567942",
"_O+	c #618D4B",
":O+	c #6AAE44",
"<O+	c #71BC45",
"[O+	c #375822",
"}O+	c #0E0105",
"|O+	c #1B2A17",
"1O+	c #65A947",
"2O+	c #293D1C",
"3O+	c #090C14",
"4O+	c #2D431B",
"5O+	c #75A955",
"6O+	c #55783D",
"7O+	c #435D2F",
"8O+	c #86B366",
"9O+	c #07070F",
"0O+	c #3D572B",
"aO+	c #6DA752",
"bO+	c #5F9044",
"cO+	c #39552E",
"dO+	c #7DC05A",
"eO+	c #54903A",
"fO+	c #64943D",
"gO+	c #699E3B",
"hO+	c #6D9548",
"iO+	c #1F2D17",
"jO+	c #3D5A2D",
"kO+	c #769E53",
"lO+	c #466D32",
"mO+	c #608A4B",
"nO+	c #6BAA52",
"oO+	c #509928",
"pO+	c #2E511C",
"qO+	c #568243",
"rO+	c #6FAD52",
"sO+	c #486833",
"tO+	c #537441",
"uO+	c #577745",
"vO+	c #253A1B",
"wO+	c #3E6428",
"xO+	c #37592E",
"yO+	c #5E9D31",
"zO+	c #72B246",
"AO+	c #244819",
"BO+	c #669144",
"CO+	c #65A545",
"DO+	c #7DB558",
"EO+	c #324825",
"FO+	c #1E3A12",
"GO+	c #214214",
"HO+	c #56803C",
"IO+	c #203417",
"JO+	c #304120",
"KO+	c #72994F",
"LO+	c #445C2F",
"MO+	c #0E2704",
"NO+	c #193807",
"OO+	c #182D0A",
"PO+	c #295319",
"QO+	c #69A94B",
"RO+	c #508137",
"SO+	c #122307",
"TO+	c #284E1A",
"UO+	c #05120A",
"VO+	c #345720",
"WO+	c #71A74A",
"XO+	c #51773E",
"YO+	c #021702",
"ZO+	c #537B39",
"`O+	c #50773A",
" P+	c #70AB54",
".P+	c #78BD51",
"+P+	c #080E09",
"@P+	c #0C070E",
"#P+	c #1E3418",
"$P+	c #62A14A",
"%P+	c #457036",
"&P+	c #2B431E",
"*P+	c #385928",
"=P+	c #6BA14E",
"-P+	c #5C9441",
";P+	c #6C9C43",
">P+	c #365620",
",P+	c #729D4D",
"'P+	c #3B5628",
")P+	c #040400",
"!P+	c #325025",
"~P+	c #77B260",
"{P+	c #446B38",
"]P+	c #0C1403",
"^P+	c #0F0509",
"/P+	c #090D04",
"(P+	c #3D5725",
"_P+	c #74A247",
":P+	c #3D5C21",
"<P+	c #5A8639",
"[P+	c #73A751",
"}P+	c #65AE4E",
"|P+	c #7BBF3C",
"1P+	c #496C29",
"2P+	c #2B4A18",
"3P+	c #2C5812",
"4P+	c #40672B",
"5P+	c #6D9E4B",
"6P+	c #5D823C",
"7P+	c #325923",
"8P+	c #416132",
"9P+	c #579036",
"0P+	c #74BD4B",
"aP+	c #254316",
"bP+	c #030C05",
"cP+	c #5D7F47",
"dP+	c #50733B",
"eP+	c #344F24",
"fP+	c #152510",
"gP+	c #689E4B",
"hP+	c #5A7E42",
"iP+	c #203115",
"jP+	c #294117",
"kP+	c #5F8C45",
"lP+	c #6CA74D",
"mP+	c #71A952",
"nP+	c #3F612E",
"oP+	c #0A1508",
"pP+	c #070100",
"qP+	c #1D3411",
"rP+	c #54783B",
"sP+	c #6D974A",
"tP+	c #203710",
"uP+	c #5F9143",
"vP+	c #3B572B",
"wP+	c #355422",
"xP+	c #1C390E",
"yP+	c #040312",
"zP+	c #0E2107",
"AP+	c #3D612B",
"BP+	c #749B51",
"CP+	c #283819",
"DP+	c #7EB350",
"EP+	c #476B2C",
"FP+	c #0A1102",
"GP+	c #405C28",
"HP+	c #84AE5A",
"IP+	c #415A2D",
"JP+	c #030908",
"KP+	c #07080C",
"LP+	c #39502A",
"MP+	c #395B24",
"NP+	c #5C8A33",
"OP+	c #669D43",
"PP+	c #68914F",
"QP+	c #719955",
"RP+	c #618A54",
"SP+	c #375B2C",
"TP+	c #74A553",
"UP+	c #507332",
"VP+	c #76A047",
"WP+	c #2B401A",
"XP+	c #0D0A07",
"YP+	c #223E1A",
"ZP+	c #6DB153",
"`P+	c #4E7A41",
" Q+	c #466F36",
".Q+	c #082006",
"+Q+	c #07150D",
"@Q+	c #6FA74F",
"#Q+	c #72A650",
"$Q+	c #2E3B28",
"%Q+	c #455D38",
"&Q+	c #3D6728",
"*Q+	c #74B755",
"=Q+	c #385E22",
"-Q+	c #122306",
";Q+	c #1D2E0F",
">Q+	c #193409",
",Q+	c #052002",
"'Q+	c #68944F",
")Q+	c #466A2E",
"!Q+	c #223C11",
"~Q+	c #082202",
"{Q+	c #67A349",
"]Q+	c #0C020D",
"^Q+	c #3A532C",
"/Q+	c #699E4C",
"(Q+	c #799F54",
"_Q+	c #679943",
":Q+	c #78A755",
"<Q+	c #6B9752",
"[Q+	c #0A000E",
"}Q+	c #0B1D0B",
"|Q+	c #2A4B14",
"1Q+	c #51882B",
"2Q+	c #78BF4D",
"3Q+	c #72B34A",
"4Q+	c #2C491A",
"5Q+	c #7BA253",
"6Q+	c #3A4F28",
"7Q+	c #72A14C",
"8Q+	c #659D44",
"9Q+	c #6BB250",
"0Q+	c #68A94C",
"aQ+	c #121D0E",
"bQ+	c #79AC5B",
"cQ+	c #4B7238",
"dQ+	c #57754E",
"eQ+	c #151E12",
"fQ+	c #234318",
"gQ+	c #66A447",
"hQ+	c #416C33",
"iQ+	c #3F5E2C",
"jQ+	c #79B059",
"kQ+	c #29441B",
"lQ+	c #436231",
"mQ+	c #80B061",
"nQ+	c #324C25",
"oQ+	c #0A010B",
"pQ+	c #77BA5A",
"qQ+	c #081308",
"rQ+	c #769F4C",
"sQ+	c #577B3C",
"tQ+	c #142A07",
"uQ+	c #294B12",
"vQ+	c #5BA437",
"wQ+	c #76D23C",
"xQ+	c #599B3C",
"yQ+	c #559A32",
"zQ+	c #73C13C",
"AQ+	c #508227",
"BQ+	c #608A46",
"CQ+	c #79C74E",
"DQ+	c #6ED037",
"EQ+	c #7CCC44",
"FQ+	c #5E8646",
"GQ+	c #395229",
"HQ+	c #132804",
"IQ+	c #152008",
"JQ+	c #0C100C",
"KQ+	c #3B5B31",
"LQ+	c #75A160",
"MQ+	c #57943A",
"NQ+	c #091006",
"OQ+	c #040901",
"PQ+	c #496837",
"QQ+	c #56993A",
"RQ+	c #56A136",
"SQ+	c #0B0008",
"TQ+	c #1B390D",
"UQ+	c #182F0C",
"VQ+	c #0B0601",
"WQ+	c #0D0413",
"XQ+	c #0E070A",
"YQ+	c #6D9A45",
"ZQ+	c #4F772F",
"`Q+	c #183511",
" R+	c #649856",
".R+	c #4F9033",
"+R+	c #518A32",
"@R+	c #385623",
"#R+	c #7CB853",
"$R+	c #538439",
"%R+	c #56763A",
"&R+	c #527338",
"*R+	c #001004",
"=R+	c #0C050F",
"-R+	c #476E2D",
";R+	c #82BA54",
">R+	c #293D15",
",R+	c #3F5B25",
"'R+	c #7DAB4E",
")R+	c #425F2A",
"!R+	c #090D0F",
"~R+	c #07090D",
"{R+	c #324A24",
"]R+	c #82AF64",
"^R+	c #223715",
"/R+	c #2A4020",
"(R+	c #456738",
"_R+	c #68A84F",
":R+	c #629B4B",
"<R+	c #10110A",
"[R+	c #0D150D",
"}R+	c #526A49",
"|R+	c #4B6E38",
"1R+	c #76A44A",
"2R+	c #405825",
"3R+	c #53883B",
"4R+	c #63A948",
"5R+	c #529535",
"6R+	c #629A49",
"7R+	c #476A3E",
"8R+	c #060314",
"9R+	c #6BA256",
"0R+	c #3B6030",
"aR+	c #4E7C35",
"bR+	c #74B14F",
"cR+	c #5A8B3B",
"dR+	c #1C2E16",
"eR+	c #0B110F",
"fR+	c #06020D",
"gR+	c #628F44",
"hR+	c #719A4E",
"iR+	c #375123",
"jR+	c #6C9954",
"kR+	c #4D753B",
"lR+	c #6CAB3D",
"mR+	c #59983A",
"nR+	c #457034",
"oR+	c #547A41",
"pR+	c #08050B",
"qR+	c #4B912E",
"rR+	c #487830",
"sR+	c #3F6F27",
"tR+	c #365423",
"uR+	c #6DA347",
"vR+	c #65943E",
"wR+	c #65904F",
"xR+	c #366126",
"yR+	c #59993A",
"zR+	c #74BD49",
"AR+	c #73BB44",
"BR+	c #71B14A",
"CR+	c #639B44",
"DR+	c #5B7843",
"ER+	c #5B7D45",
"FR+	c #09160C",
"GR+	c #63A743",
"HR+	c #72A755",
"IR+	c #68904A",
"JR+	c #3B512A",
"KR+	c #0F0609",
"LR+	c #6F9B4F",
"MR+	c #3B522F",
"NR+	c #171C1B",
"OR+	c #243717",
"PR+	c #76A84E",
"QR+	c #43672C",
"RR+	c #1E2F15",
"SR+	c #6D9458",
"TR+	c #415F32",
"UR+	c #4F743D",
"VR+	c #1F3D15",
"WR+	c #7EB35F",
"XR+	c #081A06",
"YR+	c #324B1F",
"ZR+	c #73A04A",
"`R+	c #639940",
" S+	c #77D137",
".S+	c #73DC35",
"+S+	c #62C428",
"@S+	c #64B240",
"#S+	c #6ABD3C",
"$S+	c #6CCB2C",
"%S+	c #86D93B",
"&S+	c #578932",
"*S+	c #4E8935",
"=S+	c #6EB755",
"-S+	c #3C6723",
";S+	c #6D9E4A",
">S+	c #69914B",
",S+	c #38522C",
"'S+	c #2E4423",
")S+	c #6D9258",
"!S+	c #13290A",
"~S+	c #10070B",
"{S+	c #3B5830",
"]S+	c #6A9853",
"^S+	c #5A8F45",
"/S+	c #5FAA41",
"(S+	c #74BD48",
"_S+	c #406224",
":S+	c #05000F",
"<S+	c #0C050C",
"[S+	c #0B0604",
"}S+	c #0A040E",
"|S+	c #0D0607",
"1S+	c #0E0F08",
"2S+	c #05030B",
"3S+	c #539736",
"4S+	c #62B044",
"5S+	c #60AE3F",
"6S+	c #152A0B",
"7S+	c #52833F",
"8S+	c #5F9546",
"9S+	c #021608",
"0S+	c #496833",
"aS+	c #74A44B",
"bS+	c #426527",
"cS+	c #132108",
"dS+	c #425F28",
"eS+	c #7CAB4D",
"fS+	c #425D29",
"gS+	c #0F110F",
"hS+	c #597E43",
"iS+	c #43642B",
"jS+	c #6B934C",
"kS+	c #182810",
"lS+	c #396925",
"mS+	c #0D110E",
"nS+	c #111A13",
"oS+	c #405537",
"pS+	c #6C934B",
"qS+	c #4D6F2D",
"rS+	c #060E09",
"sS+	c #050C00",
"tS+	c #577F4A",
"uS+	c #4A9431",
"vS+	c #244215",
"wS+	c #091306",
"xS+	c #719457",
"yS+	c #6EAB3F",
"zS+	c #69AE43",
"AS+	c #7BC052",
"BS+	c #41682F",
"CS+	c #060011",
"DS+	c #202F19",
"ES+	c #678E4F",
"FS+	c #6CA051",
"GS+	c #4A6D33",
"HS+	c #41592E",
"IS+	c #5F823D",
"JS+	c #82AE52",
"KS+	c #4B6734",
"LS+	c #6E9E4B",
"MS+	c #2E5018",
"NS+	c #55973A",
"OS+	c #7EA760",
"PS+	c #2D3C1D",
"QS+	c #040900",
"RS+	c #60AE42",
"SS+	c #487D33",
"TS+	c #447928",
"US+	c #59863B",
"VS+	c #44652B",
"WS+	c #6E9A53",
"XS+	c #4B6D38",
"YS+	c #203C14",
"ZS+	c #406F28",
"`S+	c #5BA23D",
" T+	c #6FC24F",
".T+	c #192E0C",
"+T+	c #73A754",
"@T+	c #334923",
"#T+	c #0C1007",
"$T+	c #50773D",
"%T+	c #699454",
"&T+	c #2D4C1F",
"*T+	c #7EA763",
"=T+	c #516F41",
"-T+	c #648E51",
";T+	c #182611",
">T+	c #44602D",
",T+	c #769A55",
"'T+	c #283C1A",
")T+	c #43662A",
"!T+	c #497A35",
"~T+	c #5B8F40",
"{T+	c #7EB055",
"]T+	c #4F6B3B",
"^T+	c #283C18",
"/T+	c #3E6327",
"(T+	c #66BB38",
"_T+	c #66D829",
":T+	c #59B72B",
"<T+	c #518433",
"[T+	c #2B4F1B",
"}T+	c #25500D",
"|T+	c #548828",
"1T+	c #568A35",
"2T+	c #79C444",
"3T+	c #70B234",
"4T+	c #2E4519",
"5T+	c #6EA557",
"6T+	c #618E46",
"7T+	c #354C27",
"8T+	c #273E1B",
"9T+	c #74A455",
"0T+	c #5D8944",
"aT+	c #4D6C38",
"bT+	c #2D4721",
"cT+	c #20371B",
"dT+	c #69A054",
"eT+	c #63A245",
"fT+	c #5B7F48",
"gT+	c #75B446",
"hT+	c #74A944",
"iT+	c #0A040A",
"jT+	c #5A7F42",
"kT+	c #7FAE57",
"lT+	c #385E24",
"mT+	c #183B0B",
"nT+	c #315421",
"oT+	c #486336",
"pT+	c #212C17",
"qT+	c #405933",
"rT+	c #4C7238",
"sT+	c #4E7C3D",
"tT+	c #547242",
"uT+	c #395328",
"vT+	c #577846",
"wT+	c #6A904F",
"xT+	c #436338",
"yT+	c #5A874D",
"zT+	c #233815",
"AT+	c #53813A",
"BT+	c #73A455",
"CT+	c #385225",
"DT+	c #4B6637",
"ET+	c #88B359",
"FT+	c #415E28",
"GT+	c #669648",
"HT+	c #507538",
"IT+	c #19260E",
"JT+	c #68984E",
"KT+	c #3B6528",
"LT+	c #0A0E04",
"MT+	c #618841",
"NT+	c #122206",
"OT+	c #739750",
"PT+	c #1B290F",
"QT+	c #05030E",
"RT+	c #79A959",
"ST+	c #719A51",
"TT+	c #476B35",
"UT+	c #020800",
"VT+	c #233B1B",
"WT+	c #69A854",
"XT+	c #436731",
"YT+	c #75A453",
"ZT+	c #396027",
"`T+	c #69AF3F",
" U+	c #6FB742",
".U+	c #6BAA40",
"+U+	c #4C7A2F",
"@U+	c #264215",
"#U+	c #12210D",
"$U+	c #5B8340",
"%U+	c #698D4E",
"&U+	c #304619",
"*U+	c #2B4919",
"=U+	c #76A54E",
"-U+	c #57993E",
";U+	c #69B83F",
">U+	c #5CA939",
",U+	c #60A646",
"'U+	c #101B0B",
")U+	c #2B481E",
"!U+	c #6EB251",
"~U+	c #61B33B",
"{U+	c #64B33A",
"]U+	c #579634",
"^U+	c #325A21",
"/U+	c #132C0A",
"(U+	c #669B42",
"_U+	c #57793E",
":U+	c #6E884E",
"<U+	c #101D09",
"[U+	c #253B1E",
"}U+	c #6FA950",
"|U+	c #50723C",
"1U+	c #7FA663",
"2U+	c #25341B",
"3U+	c #6D9B55",
"4U+	c #49892E",
"5U+	c #618C44",
"6U+	c #658B48",
"7U+	c #42632B",
"8U+	c #598744",
"9U+	c #152C10",
"0U+	c #08070B",
"aU+	c #344A21",
"bU+	c #719B4D",
"cU+	c #4C7532",
"dU+	c #142611",
"eU+	c #508337",
"fU+	c #71C147",
"gU+	c #55943D",
"hU+	c #76B053",
"iU+	c #172D10",
"jU+	c #213D15",
"kU+	c #4E6F37",
"lU+	c #7BAF5B",
"mU+	c #4A7734",
"nU+	c #71A45D",
"oU+	c #6DAE55",
"pU+	c #558F3A",
"qU+	c #36552C",
"rU+	c #243B1E",
"sU+	c #102609",
"tU+	c #0C030D",
"uU+	c #203B0D",
"vU+	c #72BA43",
"wU+	c #6EB645",
"xU+	c #36611C",
"yU+	c #77CD40",
"zU+	c #15280F",
"AU+	c #405D32",
"BU+	c #66984A",
"CU+	c #5C8D48",
"DU+	c #1D2818",
"EU+	c #79A65F",
"FU+	c #518637",
"GU+	c #3E5E33",
"HU+	c #60904D",
"IU+	c #71AA58",
"JU+	c #548545",
"KU+	c #597B44",
"LU+	c #79A05C",
"MU+	c #2E471F",
"NU+	c #719A58",
"OU+	c #3F5B32",
"PU+	c #78A952",
"QU+	c #0C2009",
"RU+	c #7CA862",
"SU+	c #3E582A",
"TU+	c #1F3411",
"UU+	c #639041",
"VU+	c #507938",
"WU+	c #13260A",
"XU+	c #39692C",
"YU+	c #5A924D",
"ZU+	c #71A04F",
"`U+	c #639A40",
" V+	c #5B9634",
".V+	c #487134",
"+V+	c #74A55F",
"@V+	c #2A3E1E",
"#V+	c #52763A",
"$V+	c #7EC350",
"%V+	c #406729",
"&V+	c #6A9F52",
"*V+	c #61914C",
"=V+	c #4D7238",
"-V+	c #152709",
";V+	c #34551C",
">V+	c #5A8A40",
",V+	c #6EB14D",
"'V+	c #65B03F",
")V+	c #6BAD43",
"!V+	c #548934",
"~V+	c #0E1C0B",
"{V+	c #090C02",
"]V+	c #3B5F26",
"^V+	c #63933B",
"/V+	c #629841",
"(V+	c #405F2A",
"_V+	c #04050F",
":V+	c #182311",
"<V+	c #72A552",
"[V+	c #4F8736",
"}V+	c #77C343",
"|V+	c #51773B",
"1V+	c #182A11",
"2V+	c #3E5B27",
"3V+	c #578F3C",
"4V+	c #66B14F",
"5V+	c #5FAE43",
"6V+	c #6ABA4A",
"7V+	c #2E4F1B",
"8V+	c #35502A",
"9V+	c #5F8944",
"0V+	c #749B59",
"aV+	c #2E4322",
"bV+	c #709F51",
"cV+	c #0E2206",
"dV+	c #74A45C",
"eV+	c #08080F",
"fV+	c #29421C",
"gV+	c #68AE4D",
"hV+	c #76CC4B",
"iV+	c #63A940",
"jV+	c #618E44",
"kV+	c #6BAD45",
"lV+	c #427125",
"mV+	c #021305",
"nV+	c #04040D",
"oV+	c #263B1C",
"pV+	c #172911",
"qV+	c #020609",
"rV+	c #689655",
"sV+	c #608848",
"tV+	c #203B15",
"uV+	c #5A7F48",
"vV+	c #739A54",
"wV+	c #354E25",
"xV+	c #010B05",
"yV+	c #1A2617",
"zV+	c #709F4E",
"AV+	c #2C4E1D",
"BV+	c #090806",
"CV+	c #457433",
"DV+	c #5F964C",
"EV+	c #0C170F",
"FV+	c #090905",
"GV+	c #214213",
"HV+	c #4A6D38",
"IV+	c #689458",
"JV+	c #78B367",
"KV+	c #589A42",
"LV+	c #508341",
"MV+	c #2A3D1E",
"NV+	c #1E2D12",
"OV+	c #0C1302",
"PV+	c #375126",
"QV+	c #699B4B",
"RV+	c #5B874D",
"SV+	c #456C36",
"TV+	c #6DA54A",
"UV+	c #6BBB41",
"VV+	c #50843D",
"WV+	c #5D9C3E",
"XV+	c #79AF59",
"YV+	c #456432",
"ZV+	c #030D08",
"`V+	c #51853A",
" W+	c #172D0E",
".W+	c #67AC4F",
"+W+	c #4D8A3D",
"@W+	c #548249",
"#W+	c #629447",
"$W+	c #81A95F",
"%W+	c #364A29",
"&W+	c #426B25",
"*W+	c #6DAD3D",
"=W+	c #496E2E",
"-W+	c #70A24E",
";W+	c #223315",
">W+	c #5C803F",
",W+	c #699857",
"'W+	c #2F4926",
")W+	c #1E3511",
"!W+	c #557E38",
"~W+	c #182B0B",
"{W+	c #3B6925",
"]W+	c #639C47",
"^W+	c #649352",
"/W+	c #58903D",
"(W+	c #66A649",
"_W+	c #69C043",
":W+	c #79BE51",
"<W+	c #0C060F",
"[W+	c #273B17",
"}W+	c #4E7730",
"|W+	c #78AD50",
"1W+	c #507C2E",
"2W+	c #609C37",
"3W+	c #203810",
"4W+	c #527E3C",
"5W+	c #6B9A59",
"6W+	c #1E3217",
"7W+	c #0F1F07",
"8W+	c #0D1406",
"9W+	c #294A1D",
"0W+	c #447D2E",
"aW+	c #6AB149",
"bW+	c #60A83C",
"cW+	c #67B544",
"dW+	c #63A041",
"eW+	c #466631",
"fW+	c #030F0A",
"gW+	c #496B36",
"hW+	c #5A9734",
"iW+	c #65B53C",
"jW+	c #7DCF4B",
"kW+	c #243417",
"lW+	c #44682E",
"mW+	c #59803F",
"nW+	c #72AC4B",
"oW+	c #3D6B24",
"pW+	c #456133",
"qW+	c #76A759",
"rW+	c #355B22",
"sW+	c #041407",
"tW+	c #233915",
"uW+	c #73AB4E",
"vW+	c #62A641",
"wW+	c #67B14E",
"xW+	c #427832",
"yW+	c #101E0A",
"zW+	c #77AC53",
"AW+	c #67A643",
"BW+	c #547E42",
"CW+	c #66984D",
"DW+	c #061008",
"EW+	c #426829",
"FW+	c #7FC753",
"GW+	c #599042",
"HW+	c #4F7643",
"IW+	c #4C6E34",
"JW+	c #3C5529",
"KW+	c #365F26",
"LW+	c #6EBA42",
"MW+	c #63AF38",
"NW+	c #5C9741",
"OW+	c #4C8134",
"PW+	c #6DB245",
"QW+	c #4F7C33",
"RW+	c #395828",
"SW+	c #1C2D0B",
"TW+	c #6A9E58",
"UW+	c #598548",
"VW+	c #1F3118",
"WW+	c #6FA952",
"XW+	c #17240F",
"YW+	c #516E3B",
"ZW+	c #77A956",
"`W+	c #74A65A",
" X+	c #578437",
".X+	c #42632A",
"+X+	c #172111",
"@X+	c #3A5D2A",
"#X+	c #69AF48",
"$X+	c #4D813C",
"%X+	c #3D5934",
"&X+	c #0E1A03",
"*X+	c #2E5422",
"=X+	c #446A37",
"-X+	c #51883D",
";X+	c #496C38",
">X+	c #5C8345",
",X+	c #567740",
"'X+	c #54784B",
")X+	c #618F53",
"!X+	c #385727",
"~X+	c #476E34",
"{X+	c #629342",
"]X+	c #4E883C",
"^X+	c #65A84B",
"/X+	c #70AA55",
"(X+	c #1A3610",
"_X+	c #051400",
":X+	c #1E3015",
"<X+	c #3A5329",
"[X+	c #50793C",
"}X+	c #6DAA49",
"|X+	c #4F7A32",
"1X+	c #45643D",
"2X+	c #405D30",
"3X+	c #375F1A",
"4X+	c #7FCF40",
"5X+	c #81B55B",
"6X+	c #3C5829",
"7X+	c #6EA650",
"8X+	c #658B4C",
"9X+	c #080C06",
"0X+	c #517D38",
"aX+	c #192D0C",
"bX+	c #304520",
"cX+	c #4D7634",
"dX+	c #6EAA4D",
"eX+	c #58963F",
"fX+	c #62A23F",
"gX+	c #3E6E29",
"hX+	c #060C00",
"iX+	c #051405",
"jX+	c #1D2E16",
"kX+	c #2D3D22",
"lX+	c #415F2F",
"mX+	c #558F3D",
"nX+	c #7EC748",
"oX+	c #739D4D",
"pX+	c #182310",
"qX+	c #5E9B39",
"rX+	c #223E11",
"sX+	c #608A4A",
"tX+	c #56813F",
"uX+	c #74AC53",
"vX+	c #314B23",
"wX+	c #69A64A",
"xX+	c #37552F",
"yX+	c #111E0B",
"zX+	c #3C6827",
"AX+	c #6CA84D",
"BX+	c #4B7B2C",
"CX+	c #6F9B5A",
"DX+	c #365725",
"EX+	c #2C5913",
"FX+	c #6AA641",
"GX+	c #528235",
"HX+	c #528033",
"IX+	c #06100C",
"JX+	c #080708",
"KX+	c #6BA648",
"LX+	c #243C15",
"MX+	c #629251",
"NX+	c #2E5123",
"OX+	c #4C8337",
"PX+	c #639E42",
"QX+	c #66AD48",
"RX+	c #1D3913",
"SX+	c #0B1806",
"TX+	c #314D22",
"UX+	c #5D8642",
"VX+	c #446635",
"WX+	c #416232",
"XX+	c #497730",
"YX+	c #426A31",
"ZX+	c #49683E",
"`X+	c #4F6E35",
" Y+	c #709C54",
".Y+	c #5B884B",
"+Y+	c #060B0D",
"@Y+	c #467623",
"#Y+	c #6CB645",
"$Y+	c #62A747",
"%Y+	c #5E9E45",
"&Y+	c #518D32",
"*Y+	c #69A23F",
"=Y+	c #4A7231",
"-Y+	c #6DA04E",
";Y+	c #456629",
">Y+	c #69AF55",
",Y+	c #010E03",
"'Y+	c #72A453",
")Y+	c #214212",
"!Y+	c #58793D",
"~Y+	c #355025",
"{Y+	c #6F9852",
"]Y+	c #1C2A11",
"^Y+	c #699153",
"/Y+	c #4E7C38",
"(Y+	c #446B37",
"_Y+	c #618A53",
":Y+	c #7AAF5E",
"<Y+	c #5E933A",
"[Y+	c #334826",
"}Y+	c #091607",
"|Y+	c #264819",
"1Y+	c #3F6332",
"2Y+	c #4F763C",
"3Y+	c #779F61",
"4Y+	c #304525",
"5Y+	c #0C130A",
"6Y+	c #0D1B0C",
"7Y+	c #5D8847",
"8Y+	c #3E6332",
"9Y+	c #234B17",
"0Y+	c #142416",
"aY+	c #2B3B1E",
"bY+	c #508B36",
"cY+	c #6F9455",
"dY+	c #4B6C38",
"eY+	c #04010B",
"fY+	c #0E1C10",
"gY+	c #6F9E57",
"hY+	c #223314",
"iY+	c #102006",
"jY+	c #395D1C",
"kY+	c #3F5B2D",
"lY+	c #74A259",
"mY+	c #182D13",
"nY+	c #0D060E",
"oY+	c #699848",
"pY+	c #507738",
"qY+	c #172C0D",
"rY+	c #3D4828",
"sY+	c #8BAF62",
"tY+	c #569536",
"uY+	c #60A039",
"vY+	c #5EA048",
"wY+	c #65AF3F",
"xY+	c #5D8E37",
"yY+	c #518733",
"zY+	c #6EAA59",
"AY+	c #7A9E66",
"BY+	c #5B8043",
"CY+	c #446C33",
"DY+	c #3C6522",
"EY+	c #253D12",
"FY+	c #0A0E07",
"GY+	c #3B5631",
"HY+	c #669454",
"IY+	c #3A5A29",
"JY+	c #6E9F55",
"KY+	c #6C9C50",
"LY+	c #011106",
"MY+	c #507031",
"NY+	c #789F54",
"OY+	c #47703B",
"PY+	c #72A75C",
"QY+	c #5D8F42",
"RY+	c #101D0A",
"SY+	c #3E5F27",
"TY+	c #64AC41",
"UY+	c #5C9C3B",
"VY+	c #70AA4A",
"WY+	c #59883C",
"XY+	c #37532C",
"YY+	c #2D5024",
"ZY+	c #659A56",
"`Y+	c #0E1F0C",
" Z+	c #58943B",
".Z+	c #345222",
"+Z+	c #5B903D",
"@Z+	c #75BB4F",
"#Z+	c #45702F",
"$Z+	c #68AC3B",
"%Z+	c #589335",
"&Z+	c #5F9843",
"*Z+	c #6CB346",
"=Z+	c #609641",
"-Z+	c #0D1609",
";Z+	c #344D26",
">Z+	c #588441",
",Z+	c #4F7D38",
"'Z+	c #6CB34A",
")Z+	c #7FB459",
"!Z+	c #405B2A",
"~Z+	c #7EA85E",
"{Z+	c #0B1404",
"]Z+	c #557739",
"^Z+	c #699F4A",
"/Z+	c #0A1C09",
"(Z+	c #213715",
"_Z+	c #233D18",
":Z+	c #75AD5A",
"<Z+	c #27481A",
"[Z+	c #050410",
"}Z+	c #060804",
"|Z+	c #1B2E0E",
"1Z+	c #66A043",
"2Z+	c #5DAA3B",
"3Z+	c #5CA046",
"4Z+	c #5FA043",
"5Z+	c #5F9845",
"6Z+	c #477D34",
"7Z+	c #6CA559",
"8Z+	c #07090A",
"9Z+	c #588644",
"0Z+	c #152C0E",
"aZ+	c #050013",
"bZ+	c #0C0A05",
"cZ+	c #335928",
"dZ+	c #6C9F57",
"eZ+	c #5C8248",
"fZ+	c #689A52",
"gZ+	c #6FB147",
"hZ+	c #1C410A",
"iZ+	c #3B512B",
"jZ+	c #627F4B",
"kZ+	c #638642",
"lZ+	c #547739",
"mZ+	c #00060E",
"nZ+	c #324F23",
"oZ+	c #74A05D",
"pZ+	c #1E2C17",
"qZ+	c #6A8B52",
"rZ+	c #4F7F32",
"sZ+	c #263917",
"tZ+	c #1B2D12",
"uZ+	c #0C0309",
"vZ+	c #1E2D17",
"wZ+	c #234119",
"xZ+	c #1C3315",
"yZ+	c #172512",
"zZ+	c #619D41",
"AZ+	c #79A75F",
"BZ+	c #5C7C4A",
"CZ+	c #254718",
"DZ+	c #6B9B59",
"EZ+	c #69974D",
"FZ+	c #253B19",
"GZ+	c #5C8040",
"HZ+	c #7AA34F",
"IZ+	c #2D401F",
"JZ+	c #557B40",
"KZ+	c #78A45C",
"LZ+	c #405C2F",
"MZ+	c #0B0302",
"NZ+	c #76A559",
"OZ+	c #15280A",
"PZ+	c #08070C",
"QZ+	c #243013",
"RZ+	c #508831",
"SZ+	c #5EA83C",
"TZ+	c #5FA439",
"UZ+	c #203B12",
"VZ+	c #0C0C0F",
"WZ+	c #051110",
"XZ+	c #527D37",
"YZ+	c #30551F",
"ZZ+	c #0C170B",
"`Z+	c #63844D",
" `+	c #4F723E",
".`+	c #659F46",
"+`+	c #588E42",
"@`+	c #364E24",
"#`+	c #80AA57",
"$`+	c #548F3E",
"%`+	c #71AC4E",
"&`+	c #548533",
"*`+	c #71AA63",
"=`+	c #5D8F43",
"-`+	c #0C1608",
";`+	c #55833B",
">`+	c #72AF49",
",`+	c #58943F",
"'`+	c #629B4D",
")`+	c #6AA24A",
"!`+	c #6AB135",
"~`+	c #467823",
"{`+	c #517B33",
"]`+	c #76B44B",
"^`+	c #100C0F",
"/`+	c #3B5B2C",
"(`+	c #508539",
"_`+	c #79BC47",
":`+	c #68AB39",
"<`+	c #529832",
"[`+	c #70B350",
"}`+	c #557C3C",
"|`+	c #56793D",
"1`+	c #4F7234",
"2`+	c #678F42",
"3`+	c #466831",
"4`+	c #79AE57",
"5`+	c #273E18",
"6`+	c #5E8C4A",
"7`+	c #496F34",
"8`+	c #81BE55",
"9`+	c #39621C",
"0`+	c #71B24F",
"a`+	c #0E1908",
"b`+	c #080211",
"c`+	c #244113",
"d`+	c #64A841",
"e`+	c #61A342",
"f`+	c #5B9542",
"g`+	c #5BA946",
"h`+	c #65B74B",
"i`+	c #497A3B",
"j`+	c #051008",
"k`+	c #0A020E",
"l`+	c #63974A",
"m`+	c #1C3014",
"n`+	c #76A45A",
"o`+	c #4B6E35",
"p`+	c #75B155",
"q`+	c #1E3E11",
"r`+	c #223420",
"s`+	c #6C9362",
"t`+	c #20321B",
"u`+	c #273A1E",
"v`+	c #779D5D",
"w`+	c #5E8745",
"x`+	c #4F7A36",
"y`+	c #041701",
"z`+	c #498528",
"A`+	c #45781C",
"B`+	c #417927",
"C`+	c #487F22",
"D`+	c #4C9427",
"E`+	c #6EB548",
"F`+	c #446532",
"G`+	c #3A6326",
"H`+	c #70B54F",
"I`+	c #5F9740",
"J`+	c #111D0C",
"K`+	c #608F43",
"L`+	c #81AE6B",
"M`+	c #6BA64F",
"N`+	c #65B242",
"O`+	c #61A146",
"P`+	c #77A35A",
"Q`+	c #486C39",
"R`+	c #588D3A",
"S`+	c #6FAD48",
"T`+	c #406430",
"U`+	c #679152",
"V`+	c #121B0A",
"W`+	c #729755",
"X`+	c #344D27",
"Y`+	c #0D0305",
"Z`+	c #4A623B",
"``+	c #05030C",
"  @	c #041505",
". @	c #7AA35E",
"+ @	c #62864A",
"@ @	c #0B080B",
"# @	c #080906",
"$ @	c #4F743E",
"% @	c #12230C",
"& @	c #466A30",
"* @	c #629946",
"= @	c #588D3C",
"- @	c #62A546",
"; @	c #68A84A",
"> @	c #2E511B",
", @	c #09100C",
"' @	c #3B5921",
") @	c #426F28",
"! @	c #599040",
"~ @	c #7AAD4D",
"{ @	c #558A41",
"] @	c #0C0601",
"^ @	c #6FA14B",
"/ @	c #587F3A",
"( @	c #253E1C",
"_ @	c #4B6E37",
": @	c #5D8D41",
"< @	c #2C4F19",
"[ @	c #496B2F",
"} @	c #57853E",
"| @	c #74A35C",
"1 @	c #2B4C19",
"2 @	c #71A757",
"3 @	c #599834",
"4 @	c #5C9D36",
"5 @	c #78CA51",
"6 @	c #5B933E",
"7 @	c #476D33",
"8 @	c #6BA947",
"9 @	c #6EB43B",
"0 @	c #619C33",
"a @	c #62A83B",
"b @	c #5FB03F",
"c @	c #4F873B",
"d @	c #060C0B",
"e @	c #2A4321",
"f @	c #6DAB59",
"g @	c #558140",
"h @	c #74AB53",
"i @	c #0F120B",
"j @	c #1B2B0C",
"k @	c #60883E",
"l @	c #628743",
"m @	c #5E8D3C",
"n @	c #122208",
"o @	c #6EB14E",
"p @	c #74A84F",
"q @	c #253319",
"r @	c #2B4021",
"s @	c #355922",
"t @	c #77D045",
"u @	c #66B02E",
"v @	c #5C963B",
"w @	c #72A750",
"x @	c #53783B",
"y @	c #070E06",
"z @	c #09090C",
"A @	c #375A21",
"B @	c #6BA647",
"C @	c #649E4B",
"D @	c #569A3D",
"E @	c #68AC4F",
"F @	c #0B090C",
"G @	c #020A09",
"H @	c #09080F",
"I @	c #619340",
"J @	c #0B0809",
"K @	c #0B190E",
"L @	c #435E32",
"M @	c #73A45B",
"N @	c #25351E",
"O @	c #729961",
"P @	c #091403",
"Q @	c #5DA738",
"R @	c #507F32",
"S @	c #3F6828",
"T @	c #3B5D25",
"U @	c #36571B",
"V @	c #365D1E",
"W @	c #365C24",
"X @	c #1D2F12",
"Y @	c #40622C",
"Z @	c #619846",
"` @	c #2B5217",
" .@	c #364E26",
"..@	c #294022",
"+.@	c #74B15F",
"@.@	c #73B645",
"#.@	c #69B940",
"$.@	c #53813D",
"%.@	c #61954A",
"&.@	c #51843C",
"*.@	c #4D7036",
"=.@	c #7FA65C",
"-.@	c #506E3B",
";.@	c #203117",
">.@	c #6A944D",
",.@	c #2E4A1E",
"'.@	c #54893E",
").@	c #0C1805",
"!.@	c #274221",
"~.@	c #517B41",
"{.@	c #7DAC67",
"].@	c #283C21",
"^.@	c #517738",
"/.@	c #79AB5F",
"(.@	c #486636",
"_.@	c #050712",
":.@	c #050C0E",
"<.@	c #0A0704",
"[.@	c #79AB5B",
"}.@	c #52723B",
"|.@	c #61993F",
"1.@	c #63A838",
"2.@	c #629F3D",
"3.@	c #64A04A",
"4.@	c #3D642D",
"5.@	c #0A0B13",
"6.@	c #0B060E",
"7.@	c #141308",
"8.@	c #263217",
"9.@	c #77C150",
"0.@	c #5B8A43",
"a.@	c #50862F",
"b.@	c #75BA3F",
"c.@	c #467431",
"d.@	c #3E6225",
"e.@	c #08130C",
"f.@	c #659F3F",
"g.@	c #679D40",
"h.@	c #5B8243",
"i.@	c #5C8443",
"j.@	c #49752F",
"k.@	c #78AF5A",
"l.@	c #223B16",
"m.@	c #4A7038",
"n.@	c #6DA855",
"o.@	c #59933F",
"p.@	c #598743",
"q.@	c #71AC5B",
"r.@	c #64B244",
"s.@	c #62AC40",
"t.@	c #79B25C",
"u.@	c #090707",
"v.@	c #487F29",
"w.@	c #71B24C",
"x.@	c #629749",
"y.@	c #598146",
"z.@	c #70A35A",
"A.@	c #70A858",
"B.@	c #67A554",
"C.@	c #537946",
"D.@	c #2F4B1F",
"E.@	c #77A450",
"F.@	c #496F33",
"G.@	c #061106",
"H.@	c #45712C",
"I.@	c #5A833F",
"J.@	c #0C1B06",
"K.@	c #3C502A",
"L.@	c #58A93A",
"M.@	c #6AB937",
"N.@	c #426926",
"O.@	c #7BAF5A",
"P.@	c #395B25",
"Q.@	c #090A09",
"R.@	c #497035",
"S.@	c #6DA853",
"T.@	c #4B713B",
"U.@	c #090A03",
"V.@	c #335028",
"W.@	c #060B08",
"X.@	c #120F0B",
"Y.@	c #607D42",
"Z.@	c #709853",
"`.@	c #385C26",
" +@	c #4C6F35",
".+@	c #67924F",
"++@	c #1E2E13",
"@+@	c #56933F",
"#+@	c #0E2708",
"$+@	c #041503",
"%+@	c #5F8848",
"&+@	c #314D24",
"*+@	c #2B4322",
"=+@	c #6FAB5B",
"-+@	c #0F2B08",
";+@	c #6EBA4E",
">+@	c #598E40",
",+@	c #70AA4F",
"'+@	c #63AB46",
")+@	c #67A048",
"!+@	c #5D9A39",
"~+@	c #2A4719",
"{+@	c #537B35",
"]+@	c #5F8843",
"^+@	c #74AB59",
"/+@	c #3B622D",
"(+@	c #5B8C43",
"_+@	c #7AAF61",
":+@	c #16270E",
"<+@	c #08020E",
"[+@	c #060D0F",
"}+@	c #466A32",
"|+@	c #6AA74F",
"1+@	c #659741",
"2+@	c #5E803F",
"3+@	c #1F2A15",
"4+@	c #72A44E",
"5+@	c #67C03F",
"6+@	c #6ABF43",
"7+@	c #6CB443",
"8+@	c #6CB14B",
"9+@	c #2E5B1B",
"0+@	c #77CD48",
"a+@	c #568A30",
"b+@	c #284418",
"c+@	c #6DA845",
"d+@	c #61A641",
"e+@	c #74A45B",
"f+@	c #759F4C",
"g+@	c #354F20",
"h+@	c #0D0411",
"i+@	c #213E16",
"j+@	c #6CA151",
"k+@	c #5E9E47",
"l+@	c #66AD58",
"m+@	c #2F5F25",
"n+@	c #0B1C03",
"o+@	c #77A459",
"p+@	c #558C43",
"q+@	c #6AA358",
"r+@	c #47732E",
"s+@	c #71B34D",
"t+@	c #47762B",
"u+@	c #6F9D52",
"v+@	c #568E32",
"w+@	c #6CA34D",
"x+@	c #06160A",
"y+@	c #517D37",
"z+@	c #85CE4B",
"A+@	c #6EB045",
"B+@	c #58883D",
"C+@	c #70A54D",
"D+@	c #567C3F",
"E+@	c #051406",
"F+@	c #132009",
"G+@	c #314723",
"H+@	c #213017",
"I+@	c #365627",
"J+@	c #4B6E34",
"K+@	c #79A756",
"L+@	c #2B421C",
"M+@	c #192911",
"N+@	c #5C9C42",
"O+@	c #5C8F44",
"P+@	c #71A84E",
"Q+@	c #3D5929",
"R+@	c #243815",
"S+@	c #80C051",
"T+@	c #365D1D",
"U+@	c #3B672A",
"V+@	c #5B9A42",
"W+@	c #1C3913",
"X+@	c #4B6F32",
"Y+@	c #37512B",
"Z+@	c #6D955A",
"`+@	c #406131",
" @@	c #0E1F0B",
".@@	c #090104",
"+@@	c #0B0406",
"@@@	c #527842",
"#@@	c #7CA766",
"$@@	c #081806",
"%@@	c #0A020F",
"&@@	c #0F0F05",
"*@@	c #558444",
"=@@	c #74A75C",
"-@@	c #466C34",
";@@	c #16210A",
">@@	c #669550",
",@@	c #152813",
"'@@	c #6F9C51",
")@@	c #76A656",
"!@@	c #699E50",
"~@@	c #6BA047",
"{@@	c #75B253",
"]@@	c #06090B",
"^@@	c #14310D",
"/@@	c #122C08",
"(@@	c #060014",
"_@@	c #0F260B",
":@@	c #3C5F2C",
"<@@	c #3A5D26",
"[@@	c #63A03F",
"}@@	c #87B951",
"|@@	c #415721",
"1@@	c #6CAA38",
"2@@	c #7FCA46",
"3@@	c #7BB348",
"4@@	c #38541C",
"5@@	c #203416",
"6@@	c #618749",
"7@@	c #26421A",
"8@@	c #6B9A50",
"9@@	c #69974F",
"0@@	c #3F612A",
"a@@	c #0C1A0A",
"b@@	c #05020D",
"c@@	c #050902",
"d@@	c #060904",
"e@@	c #070811",
"f@@	c #62884C",
"g@@	c #76A060",
"h@@	c #04030D",
"i@@	c #28491E",
"j@@	c #283E15",
"k@@	c #274117",
"l@@	c #0D0409",
"m@@	c #4C812A",
"n@@	c #78C24A",
"o@@	c #4F8732",
"p@@	c #76BD4B",
"q@@	c #579532",
"r@@	c #4B822E",
"s@@	c #427C24",
"t@@	c #7DD946",
"u@@	c #376018",
"v@@	c #0E2305",
"w@@	c #62A839",
"x@@	c #5A963A",
"y@@	c #253B1D",
"z@@	c #253915",
"A@@	c #75AB4D",
"B@@	c #42612B",
"C@@	c #060A0C",
"D@@	c #100505",
"E@@	c #5D983B",
"F@@	c #6FC644",
"G@@	c #75D43F",
"H@@	c #5D9A31",
"I@@	c #7FB25E",
"J@@	c #507433",
"K@@	c #10260C",
"L@@	c #5B8845",
"M@@	c #67A441",
"N@@	c #649846",
"O@@	c #406128",
"P@@	c #6BAE4B",
"Q@@	c #6CA94B",
"R@@	c #426C25",
"S@@	c #43622B",
"T@@	c #6F9D4F",
"U@@	c #5E9D2F",
"V@@	c #6BB63F",
"W@@	c #557A41",
"X@@	c #6A9D45",
"Y@@	c #81B354",
"Z@@	c #46642C",
"`@@	c #061209",
" #@	c #6D9D49",
".#@	c #5D9144",
"+#@	c #76AA4E",
"@#@	c #6D9F49",
"##@	c #284417",
"$#@	c #6BAE3F",
"%#@	c #579038",
"&#@	c #0C0F03",
"*#@	c #243919",
"=#@	c #6FAB5E",
"-#@	c #599D45",
";#@	c #567D42",
">#@	c #709F55",
",#@	c #689B51",
"'#@	c #76AE57",
")#@	c #658E4E",
"!#@	c #3F662C",
"~#@	c #3C582E",
"{#@	c #4F7D3A",
"]#@	c #06090E",
"^#@	c #0B0200",
"/#@	c #76AC57",
"(#@	c #456731",
"_#@	c #3B5925",
":#@	c #709D4D",
"<#@	c #283D19",
"[#@	c #71A054",
"}#@	c #031905",
"|#@	c #567B3E",
"1#@	c #0A0908",
"2#@	c #719E50",
"3#@	c #648946",
"4#@	c #2A3F1E",
"5#@	c #162A06",
"6#@	c #436131",
"7#@	c #455B21",
"8#@	c #37451E",
"9#@	c #416527",
"0#@	c #679A47",
"a#@	c #365B1C",
"b#@	c #334922",
"c#@	c #0F120C",
"d#@	c #162A0E",
"e#@	c #669A4B",
"f#@	c #4A7330",
"g#@	c #263617",
"h#@	c #375124",
"i#@	c #689A3E",
"j#@	c #6EA051",
"k#@	c #456832",
"l#@	c #040B09",
"m#@	c #304523",
"n#@	c #6A934E",
"o#@	c #2B4D1C",
"p#@	c #427A26",
"q#@	c #345125",
"r#@	c #587D3E",
"s#@	c #68A340",
"t#@	c #6CA052",
"u#@	c #67A944",
"v#@	c #7BCB44",
"w#@	c #396129",
"x#@	c #65B045",
"y#@	c #63A53E",
"z#@	c #70A54A",
"A#@	c #3E5D29",
"B#@	c #092009",
"C#@	c #538443",
"D#@	c #5A873C",
"E#@	c #5F9E3A",
"F#@	c #56853E",
"G#@	c #172F0E",
"H#@	c #071A0F",
"I#@	c #376826",
"J#@	c #67AB4A",
"K#@	c #446F36",
"L#@	c #2C5813",
"M#@	c #4F8C25",
"N#@	c #629D3C",
"O#@	c #5D8547",
"P#@	c #517438",
"Q#@	c #688D4C",
"R#@	c #233819",
"S#@	c #467524",
"T#@	c #7DC44C",
"U#@	c #2E4E1B",
"V#@	c #070013",
"W#@	c #090215",
"X#@	c #06060E",
"Y#@	c #628C52",
"Z#@	c #638C4C",
"`#@	c #6E954F",
" $@	c #44612F",
".$@	c #41602F",
"+$@	c #54823B",
"@$@	c #09150B",
"#$@	c #75AB59",
"$$@	c #66974D",
"%$@	c #466D2A",
"&$@	c #0F0808",
"*$@	c #15250C",
"=$@	c #57883B",
"-$@	c #72A051",
";$@	c #4B6C30",
">$@	c #70A851",
",$@	c #6DAD51",
"'$@	c #518431",
")$@	c #7EC749",
"!$@	c #2C4E11",
"~$@	c #52813A",
"{$@	c #12260D",
"]$@	c #699F48",
"^$@	c #75BB4E",
"/$@	c #3E7220",
"($@	c #0C0306",
"_$@	c #060800",
":$@	c #031100",
"<$@	c #365E26",
"[$@	c #6DB14B",
"}$@	c #15220C",
"|$@	c #3D5F29",
"1$@	c #72A859",
"2$@	c #070D09",
"3$@	c #3D5229",
"4$@	c #69904F",
"5$@	c #6EA65A",
"6$@	c #5D9F39",
"7$@	c #6D9F48",
"8$@	c #3E672D",
"9$@	c #72C34D",
"0$@	c #78B256",
"a$@	c #486334",
"b$@	c #628748",
"c$@	c #314C24",
"d$@	c #142C06",
"e$@	c #274215",
"f$@	c #6AA23B",
"g$@	c #72A34F",
"h$@	c #37542A",
"i$@	c #010209",
"j$@	c #172814",
"k$@	c #6F994A",
"l$@	c #526F34",
"m$@	c #31472A",
"n$@	c #729D53",
"o$@	c #476832",
"p$@	c #16270D",
"q$@	c #709957",
"r$@	c #4F722F",
"s$@	c #1E3512",
"t$@	c #080802",
"u$@	c #79AA5C",
"v$@	c #5A7B43",
"w$@	c #061501",
"x$@	c #508334",
"y$@	c #53773F",
"z$@	c #243D18",
"A$@	c #699850",
"B$@	c #639744",
"C$@	c #2F501A",
"D$@	c #6EBB46",
"E$@	c #559832",
"F$@	c #6AB347",
"G$@	c #62B537",
"H$@	c #6A9B45",
"I$@	c #101A09",
"J$@	c #3A5F2A",
"K$@	c #6BA45A",
"L$@	c #5D8940",
"M$@	c #60943A",
"N$@	c #6CA942",
"O$@	c #71A94C",
"P$@	c #4C6D34",
"Q$@	c #76B454",
"R$@	c #447C2D",
"S$@	c #5D894D",
"T$@	c #78B74F",
"U$@	c #548F2E",
"V$@	c #091904",
"W$@	c #587644",
"X$@	c #78A855",
"Y$@	c #7EBD4D",
"Z$@	c #4D792B",
"`$@	c #060610",
" %@	c #2F3F24",
".%@	c #76A058",
"+%@	c #29431E",
"@%@	c #69914E",
"#%@	c #6E9954",
"$%@	c #426D29",
"%%@	c #6DA14C",
"&%@	c #4D7932",
"*%@	c #70A748",
"=%@	c #365A23",
"-%@	c #09070D",
";%@	c #527E3B",
">%@	c #72A852",
",%@	c #29461A",
"'%@	c #628C46",
")%@	c #589142",
"!%@	c #5DA444",
"~%@	c #66A74F",
"{%@	c #48792C",
"]%@	c #71B934",
"^%@	c #588C2C",
"/%@	c #3A5427",
"(%@	c #6E9D4F",
"_%@	c #599339",
":%@	c #5B8839",
"<%@	c #3B5E2F",
"[%@	c #638E51",
"}%@	c #0E1A0B",
"|%@	c #4F6F35",
"1%@	c #618C40",
"2%@	c #679F48",
"3%@	c #63A03C",
"4%@	c #325917",
"5%@	c #090401",
"6%@	c #2D4321",
"7%@	c #5A8D36",
"8%@	c #6CBD4C",
"9%@	c #4E8737",
"0%@	c #6FA65E",
"a%@	c #141F0B",
"b%@	c #588A45",
"c%@	c #6DA158",
"d%@	c #314B25",
"e%@	c #2D5320",
"f%@	c #4C7F2F",
"g%@	c #3D5E22",
"h%@	c #09080E",
"i%@	c #030011",
"j%@	c #74AD4D",
"k%@	c #45682F",
"l%@	c #041603",
"m%@	c #608A4C",
"n%@	c #6FA34F",
"o%@	c #122D06",
"p%@	c #6BA340",
"q%@	c #72AB4D",
"r%@	c #467033",
"s%@	c #243B1C",
"t%@	c #070F07",
"u%@	c #060410",
"v%@	c #385320",
"w%@	c #71A24D",
"x%@	c #6A9A54",
"y%@	c #6D9261",
"z%@	c #202E15",
"A%@	c #223219",
"B%@	c #6FA350",
"C%@	c #639849",
"D%@	c #203218",
"E%@	c #1E300E",
"F%@	c #6DA15A",
"G%@	c #3C5D2C",
"H%@	c #374F28",
"I%@	c #7CB258",
"J%@	c #5C8E37",
"K%@	c #060C02",
"L%@	c #46682F",
"M%@	c #73AD4F",
"N%@	c #668F4A",
"O%@	c #62834A",
"P%@	c #3E6827",
"Q%@	c #5D963D",
"R%@	c #0A1B04",
"S%@	c #45702A",
"T%@	c #66AC40",
"U%@	c #609242",
"V%@	c #081B03",
"W%@	c #5A9C3A",
"X%@	c #4C8534",
"Y%@	c #64AF45",
"Z%@	c #548A35",
"`%@	c #6A8D4D",
" &@	c #69A948",
".&@	c #598C40",
"+&@	c #273E17",
"@&@	c #45702E",
"#&@	c #6EB04A",
"$&@	c #476638",
"%&@	c #76C14B",
"&&@	c #3B681D",
"*&@	c #78BD4D",
"=&@	c #79CA47",
"-&@	c #5DA038",
";&@	c #335D22",
">&@	c #1F2F15",
",&@	c #668A4A",
"'&@	c #6A914E",
")&@	c #446629",
"!&@	c #4D7B31",
"~&@	c #69A440",
"{&@	c #152A08",
"]&@	c #699C4C",
"^&@	c #699751",
"/&@	c #416625",
"(&@	c #6FAB49",
"_&@	c #6AB449",
":&@	c #498132",
"<&@	c #6F9D55",
"[&@	c #648C47",
"}&@	c #395D20",
"|&@	c #598D3F",
"1&@	c #6EAF51",
"2&@	c #55933B",
"3&@	c #629F42",
"4&@	c #5AA43F",
"5&@	c #63AF3E",
"6&@	c #6DA84B",
"7&@	c #48653A",
"8&@	c #6E9C4A",
"9&@	c #6AA741",
"0&@	c #44662C",
"a&@	c #4A7B34",
"b&@	c #679849",
"c&@	c #375922",
"d&@	c #0B0702",
"e&@	c #30471D",
"f&@	c #648C46",
"g&@	c #709958",
"h&@	c #59873A",
"i&@	c #6AB43D",
"j&@	c #284E15",
"k&@	c #6E9B54",
"l&@	c #639348",
"m&@	c #689453",
"n&@	c #6DA057",
"o&@	c #436F2E",
"p&@	c #24391C",
"q&@	c #4B6435",
"r&@	c #7AA862",
"s&@	c #2E4825",
"t&@	c #648B52",
"u&@	c #334F2B",
"v&@	c #6CA64D",
"w&@	c #0E2E06",
"x&@	c #68994D",
"y&@	c #5C8445",
"z&@	c #111A08",
"A&@	c #0C1506",
"B&@	c #54773D",
"C&@	c #5A8A3B",
"D&@	c #335922",
"E&@	c #1C2C18",
"F&@	c #618C48",
"G&@	c #729B58",
"H&@	c #688D50",
"I&@	c #01060B",
"J&@	c #0E0304",
"K&@	c #365022",
"L&@	c #749B48",
"M&@	c #679144",
"N&@	c #6AAC46",
"O&@	c #538235",
"P&@	c #62914B",
"Q&@	c #0D0412",
"R&@	c #6CA54B",
"S&@	c #365825",
"T&@	c #335F20",
"U&@	c #385924",
"V&@	c #67A243",
"W&@	c #77AA56",
"X&@	c #1D3111",
"Y&@	c #66A63C",
"Z&@	c #60B035",
"`&@	c #55973B",
" *@	c #58923F",
".*@	c #719F59",
"+*@	c #405C30",
"@*@	c #60A240",
"#*@	c #609B4A",
"$*@	c #75AB5A",
"%*@	c #1D3C10",
"&*@	c #6CA84F",
"**@	c #3D6B26",
"=*@	c #63BE30",
"-*@	c #64B73E",
";*@	c #61A547",
">*@	c #16270A",
",*@	c #314D1C",
"'*@	c #68A440",
")*@	c #71B646",
"!*@	c #335920",
"~*@	c #050A01",
"{*@	c #71C649",
"]*@	c #427E24",
"^*@	c #406324",
"/*@	c #75A551",
"(*@	c #649D53",
"_*@	c #4F963A",
":*@	c #60A244",
"<*@	c #335A22",
"[*@	c #0D050A",
"}*@	c #7DBB59",
"|*@	c #7AB958",
"1*@	c #243814",
"2*@	c #608537",
"3*@	c #669B41",
"4*@	c #335221",
"5*@	c #6A934A",
"6*@	c #69BC45",
"7*@	c #6DC453",
"8*@	c #406732",
"9*@	c #81A960",
"0*@	c #2B431A",
"a*@	c #152511",
"b*@	c #6DA44E",
"c*@	c #335820",
"d*@	c #446A2C",
"e*@	c #070902",
"f*@	c #090901",
"g*@	c #11190C",
"h*@	c #000B07",
"i*@	c #29431C",
"j*@	c #5A813C",
"k*@	c #77A44D",
"l*@	c #5B803D",
"m*@	c #405D31",
"n*@	c #69904C",
"o*@	c #1E3514",
"p*@	c #557E3E",
"q*@	c #45662F",
"r*@	c #1A2A15",
"s*@	c #5F8E48",
"t*@	c #6D9855",
"u*@	c #669847",
"v*@	c #3A6828",
"w*@	c #203A1B",
"x*@	c #0A0808",
"y*@	c #17220E",
"z*@	c #6D9D54",
"A*@	c #5B923D",
"B*@	c #69A84D",
"C*@	c #72B84F",
"D*@	c #3B7125",
"E*@	c #3F741D",
"F*@	c #558C33",
"G*@	c #6A994A",
"H*@	c #739D57",
"I*@	c #73A84D",
"J*@	c #619346",
"K*@	c #0D1F0D",
"L*@	c #344F26",
"M*@	c #749C5E",
"N*@	c #699356",
"O*@	c #557C40",
"P*@	c #2C4620",
"Q*@	c #1E3312",
"R*@	c #6A9D53",
"S*@	c #517132",
"T*@	c #172509",
"U*@	c #0B1B07",
"V*@	c #4F6E39",
"W*@	c #4D7A3B",
"X*@	c #6DA05A",
"Y*@	c #65974C",
"Z*@	c #355821",
"`*@	c #0E1810",
" =@	c #090C0E",
".=@	c #071106",
"+=@	c #73AA59",
"@=@	c #16290D",
"#=@	c #466A2F",
"$=@	c #7AB058",
"%=@	c #7AB749",
"&=@	c #578F3B",
"*=@	c #26441F",
"==@	c #507F42",
"-=@	c #67A050",
";=@	c #5F8847",
">=@	c #7EB754",
",=@	c #416026",
"'=@	c #557844",
")=@	c #4E753C",
"!=@	c #6FA554",
"~=@	c #122D0A",
"{=@	c #4C6E3D",
"]=@	c #5C8649",
"^=@	c #629E45",
"/=@	c #66B83E",
"(=@	c #6BB249",
"_=@	c #5A8740",
":=@	c #1B2A13",
"<=@	c #31541A",
"[=@	c #81C54C",
"}=@	c #5F9E31",
"|=@	c #092007",
"1=@	c #060714",
"2=@	c #0B0708",
"3=@	c #224415",
"4=@	c #68BC40",
"5=@	c #60BA37",
"6=@	c #386C25",
"7=@	c #3E5F20",
"8=@	c #325928",
"9=@	c #527E43",
"0=@	c #609349",
"a=@	c #63AB3D",
"b=@	c #5E902D",
"c=@	c #336218",
"d=@	c #5BA536",
"e=@	c #6CA849",
"f=@	c #86C053",
"g=@	c #4D7431",
"h=@	c #304E1D",
"i=@	c #30501F",
"j=@	c #69A24E",
"k=@	c #6EAB40",
"l=@	c #6D9D4D",
"m=@	c #496D2F",
"n=@	c #355921",
"o=@	c #71B44B",
"p=@	c #051F04",
"q=@	c #3C5626",
"r=@	c #6F9B4E",
"s=@	c #669343",
"t=@	c #3F6525",
"u=@	c #6AA34B",
"v=@	c #6B9B4F",
"w=@	c #36501E",
"x=@	c #6D9A40",
"y=@	c #679A3F",
"z=@	c #2E481A",
"A=@	c #628C4E",
"B=@	c #3E5B32",
"C=@	c #131E0C",
"D=@	c #6A9550",
"E=@	c #385526",
"F=@	c #090202",
"G=@	c #416A29",
"H=@	c #619254",
"I=@	c #436F29",
"J=@	c #2F4720",
"K=@	c #111F09",
"L=@	c #0B180C",
"M=@	c #3F6F23",
"N=@	c #1D2D18",
"O=@	c #629249",
"P=@	c #609146",
"Q=@	c #4A7C2A",
"R=@	c #346A17",
"S=@	c #081906",
"T=@	c #365F22",
"U=@	c #578D37",
"V=@	c #679550",
"W=@	c #6B9456",
"X=@	c #6B9D52",
"Y=@	c #66AB44",
"Z=@	c #54912B",
"`=@	c #152C0B",
" -@	c #74A75A",
".-@	c #1F3819",
"+-@	c #4F7F33",
"@-@	c #7FC855",
"#-@	c #46832C",
"$-@	c #04080D",
"%-@	c #6CA34B",
"&-@	c #2B4520",
"*-@	c #436A2D",
"=-@	c #66934F",
"--@	c #6E9B50",
";-@	c #3A5A24",
">-@	c #4D7433",
",-@	c #7CA55E",
"'-@	c #537A49",
")-@	c #6AA658",
"!-@	c #6DB145",
"~-@	c #6FB446",
"{-@	c #2D4518",
"]-@	c #0C1604",
"^-@	c #3C5729",
"/-@	c #4F8E38",
"(-@	c #2F5221",
"_-@	c #65A051",
":-@	c #486D37",
"<-@	c #69A142",
"[-@	c #57873E",
"}-@	c #355E21",
"|-@	c #1B300F",
"1-@	c #66894D",
"2-@	c #719859",
"3-@	c #6AAD48",
"4-@	c #7AC24D",
"5-@	c #284515",
"6-@	c #070510",
"7-@	c #0E080A",
"8-@	c #0A0411",
"9-@	c #3A6A22",
"0-@	c #6FC543",
"a-@	c #73C54A",
"b-@	c #4D7638",
"c-@	c #3C7326",
"d-@	c #4D853D",
"e-@	c #5F9348",
"f-@	c #68B341",
"g-@	c #6EA03D",
"h-@	c #518534",
"i-@	c #6CBF4B",
"j-@	c #679351",
"k-@	c #3F6E28",
"l-@	c #6AAF3C",
"m-@	c #213910",
"n-@	c #0C0706",
"o-@	c #43722B",
"p-@	c #6BAB4A",
"q-@	c #6CAC4B",
"r-@	c #5B943E",
"s-@	c #3C6225",
"t-@	c #5C833F",
"u-@	c #64A04E",
"v-@	c #4B7637",
"w-@	c #324E1E",
"x-@	c #426821",
"y-@	c #6A9D4B",
"z-@	c #85B86B",
"A-@	c #5F904C",
"B-@	c #578B3A",
"C-@	c #6C9A53",
"D-@	c #11230D",
"E-@	c #415E32",
"F-@	c #638E47",
"G-@	c #528832",
"H-@	c #6BB245",
"I-@	c #63A540",
"J-@	c #6BA344",
"K-@	c #567C38",
"L-@	c #25381C",
"M-@	c #0E2A04",
"N-@	c #6C9F4E",
"O-@	c #2E4421",
"P-@	c #0C1D0B",
"Q-@	c #4A7631",
"R-@	c #7CB85D",
"S-@	c #4B6B36",
"T-@	c #739D51",
"U-@	c #638840",
"V-@	c #2E471E",
"W-@	c #07120B",
"X-@	c #0B1409",
"Y-@	c #386026",
"Z-@	c #6B944C",
"`-@	c #5C913D",
" ;@	c #61943C",
".;@	c #385C1E",
"+;@	c #040A0C",
"@;@	c #3B621F",
"#;@	c #599B31",
"$;@	c #628F53",
"%;@	c #66954A",
"&;@	c #467728",
"*;@	c #142412",
"=;@	c #67904D",
"-;@	c #729D5C",
";;@	c #41602E",
">;@	c #3D6922",
",;@	c #7BC046",
"';@	c #558639",
");@	c #16270C",
"!;@	c #0C040B",
"~;@	c #112C0B",
"{;@	c #579A44",
"];@	c #6C994A",
"^;@	c #5A9F39",
"/;@	c #5CAF38",
"(;@	c #6DAF43",
"_;@	c #58823B",
":;@	c #315029",
"<;@	c #0A0910",
"[;@	c #0D0708",
"};@	c #5F884A",
"|;@	c #577C47",
"1;@	c #416B28",
"2;@	c #70B44B",
"3;@	c #63994B",
"4;@	c #70A551",
"5;@	c #386125",
"6;@	c #283D18",
"7;@	c #719A52",
"8;@	c #4E6B3B",
"9;@	c #749F62",
"0;@	c #34512A",
"a;@	c #52842F",
"b;@	c #7CCD4A",
"c;@	c #77BC48",
"d;@	c #32501A",
"e;@	c #1F3814",
"f;@	c #6FBE48",
"g;@	c #6EBA45",
"h;@	c #6EA152",
"i;@	c #477535",
"j;@	c #304C1D",
"k;@	c #72B342",
"l;@	c #6BB041",
"m;@	c #598A47",
"n;@	c #3B732A",
"o;@	c #336D18",
"p;@	c #37681E",
"q;@	c #385922",
"r;@	c #51863F",
"s;@	c #5C913A",
"t;@	c #5E9938",
"u;@	c #588738",
"v;@	c #4E8F2B",
"w;@	c #529B33",
"x;@	c #090C03",
"y;@	c #1F3D17",
"z;@	c #2C5C1F",
"A;@	c #5B9544",
"B;@	c #0A1F07",
"C;@	c #0D070A",
"D;@	c #588C37",
"E;@	c #69B944",
"F;@	c #6CB54F",
"G;@	c #4C7333",
"H;@	c #0B1A0F",
"I;@	c #6CA84B",
"J;@	c #518337",
"K;@	c #66994A",
"L;@	c #051A03",
"M;@	c #448331",
"N;@	c #508D37",
"O;@	c #6A9A53",
"P;@	c #060B06",
"Q;@	c #08090D",
"R;@	c #0E1C08",
"S;@	c #658C50",
"T;@	c #6C975B",
"U;@	c #4E7935",
"V;@	c #68A947",
"W;@	c #56983D",
"X;@	c #5FA450",
"Y;@	c #66A44D",
"Z;@	c #5F9842",
"`;@	c #679848",
" >@	c #6B995F",
".>@	c #436E34",
"+>@	c #325021",
"@>@	c #619647",
"#>@	c #3E5E2D",
"$>@	c #263918",
"%>@	c #547A36",
"&>@	c #709C59",
"*>@	c #5C8041",
"=>@	c #2B411A",
"->@	c #081004",
";>@	c #62A542",
">>@	c #76B84B",
",>@	c #5F8842",
"'>@	c #1D3018",
")>@	c #06120B",
"!>@	c #5B9444",
"~>@	c #5D914E",
"{>@	c #618D52",
"]>@	c #608E50",
"^>@	c #638F51",
"/>@	c #609749",
"(>@	c #343D26",
"_>@	c #668E46",
":>@	c #71BD43",
"<>@	c #68B04A",
"[>@	c #416A32",
"}>@	c #0F1D07",
"|>@	c #759F52",
"1>@	c #597E40",
"2>@	c #24381D",
"3>@	c #609842",
"4>@	c #5A7740",
"5>@	c #1A2410",
"6>@	c #629E4D",
"7>@	c #3A6229",
"8>@	c #5E8E4E",
"9>@	c #5D9A3C",
"0>@	c #60A545",
"a>@	c #5B9F42",
"b>@	c #579533",
"c>@	c #6F9C60",
"d>@	c #6C9655",
"e>@	c #6D9851",
"f>@	c #4B6D34",
"g>@	c #2D4624",
"h>@	c #6D985B",
"i>@	c #3F6C28",
"j>@	c #6DA84C",
"k>@	c #46673A",
"l>@	c #71A355",
"m>@	c #1F3318",
"n>@	c #618C4C",
"o>@	c #4E703C",
"p>@	c #77A063",
"q>@	c #2D4E16",
"r>@	c #6AA13A",
"s>@	c #80B24F",
"t>@	c #4D702C",
"u>@	c #518338",
"v>@	c #0B020A",
"w>@	c #396E28",
"x>@	c #53AA2A",
"y>@	c #5BAB36",
"z>@	c #5C9141",
"A>@	c #749E53",
"B>@	c #689057",
"C>@	c #3B6229",
"D>@	c #263920",
"E>@	c #060700",
"F>@	c #74B14A",
"G>@	c #73AF49",
"H>@	c #203512",
"I>@	c #3D651D",
"J>@	c #73B34A",
"K>@	c #4F7B34",
"L>@	c #1D310F",
"M>@	c #6C964F",
"N>@	c #4F6E41",
"O>@	c #081203",
"P>@	c #32591F",
"Q>@	c #6AA74B",
"R>@	c #65A948",
"S>@	c #315722",
"T>@	c #040E00",
"U>@	c #1C2D17",
"V>@	c #446F31",
"W>@	c #73A75F",
"X>@	c #5A8B42",
"Y>@	c #639349",
"Z>@	c #4C7B2B",
"`>@	c #334E23",
" ,@	c #395A24",
".,@	c #6CAB5B",
"+,@	c #4B8337",
"@,@	c #334C23",
"#,@	c #618A4F",
"$,@	c #486934",
"%,@	c #192812",
"&,@	c #385923",
"*,@	c #78B154",
"=,@	c #56883D",
"-,@	c #64A345",
";,@	c #5F9941",
">,@	c #75B946",
",,@	c #73B033",
"',@	c #325A13",
"),@	c #58803A",
"!,@	c #709C4C",
"~,@	c #375323",
"{,@	c #669A49",
"],@	c #2A3F1F",
"^,@	c #597F39",
"/,@	c #6C9750",
"(,@	c #0E1A0D",
"_,@	c #1B3410",
":,@	c #0D1210",
"<,@	c #090712",
"[,@	c #53823D",
"},@	c #346726",
"|,@	c #346824",
"1,@	c #35642A",
"2,@	c #37612D",
"3,@	c #37622B",
"4,@	c #3C6228",
"5,@	c #0E100A",
"6,@	c #3B652B",
"7,@	c #496538",
"8,@	c #020909",
"9,@	c #4C7432",
"0,@	c #68994A",
"a,@	c #679443",
"b,@	c #07100E",
"c,@	c #729F4E",
"d,@	c #3B5527",
"e,@	c #709055",
"f,@	c #2E5C1D",
"g,@	c #5CA23E",
"h,@	c #67A34B",
"i,@	c #64A14B",
"j,@	c #4F8438",
"k,@	c #66954C",
"l,@	c #5A9B39",
"m,@	c #60A03F",
"n,@	c #58913F",
"o,@	c #6BA650",
"p,@	c #3D612A",
"q,@	c #152412",
"r,@	c #709E52",
"s,@	c #0F1A0A",
"t,@	c #5F8741",
"u,@	c #548136",
"v,@	c #345B24",
"w,@	c #77AD54",
"x,@	c #4C6D35",
"y,@	c #76A45C",
"z,@	c #334727",
"A,@	c #15200A",
"B,@	c #446526",
"C,@	c #7DB750",
"D,@	c #71B541",
"E,@	c #396318",
"F,@	c #0E1608",
"G,@	c #7EB263",
"H,@	c #73B745",
"I,@	c #60913C",
"J,@	c #040C09",
"K,@	c #1B2914",
"L,@	c #76BA44",
"M,@	c #4A6F2B",
"N,@	c #070A0D",
"O,@	c #46722A",
"P,@	c #78AE54",
"Q,@	c #1A2A12",
"R,@	c #547B3E",
"S,@	c #4A7B32",
"T,@	c #629742",
"U,@	c #74A25E",
"V,@	c #618B50",
"W,@	c #53843D",
"X,@	c #497C33",
"Y,@	c #669345",
"Z,@	c #1C2D0F",
"`,@	c #11290E",
" '@	c #3E7627",
".'@	c #6AB744",
"+'@	c #6CB34B",
"@'@	c #5A9042",
"#'@	c #192F0D",
"$'@	c #55803C",
"%'@	c #73A35C",
"&'@	c #080F0C",
"*'@	c #426232",
"='@	c #73A755",
"-'@	c #689D3C",
";'@	c #67A145",
">'@	c #729B5D",
",'@	c #729954",
"''@	c #68A254",
")'@	c #537F39",
"!'@	c #76A253",
"~'@	c #6B9948",
"{'@	c #649749",
"]'@	c #6FA646",
"^'@	c #4E7736",
"/'@	c #497325",
"('@	c #80C338",
"_'@	c #84CF46",
":'@	c #588538",
"<'@	c #223B14",
"['@	c #6D9551",
"}'@	c #0A0210",
"|'@	c #0D1805",
"1'@	c #416627",
"2'@	c #3B602B",
"3'@	c #070511",
"4'@	c #040412",
"5'@	c #1F3014",
"6'@	c #739C4E",
"7'@	c #3B5525",
"8'@	c #759D5B",
"9'@	c #233717",
"0'@	c #03050E",
"a'@	c #02050E",
"b'@	c #071408",
"c'@	c #5C7D3F",
"d'@	c #6DA04F",
"e'@	c #557C39",
"f'@	c #273F17",
"g'@	c #617F42",
"h'@	c #4F6935",
"i'@	c #709D55",
"j'@	c #6DB64D",
"k'@	c #6ABF40",
"l'@	c #619643",
"m'@	c #5B953D",
"n'@	c #68A34B",
"o'@	c #629745",
"p'@	c #426B2C",
"q'@	c #5D8743",
"r'@	c #2F4C1D",
"s'@	c #304E1E",
"t'@	c #6F9C56",
"u'@	c #4D7839",
"v'@	c #70AA56",
"w'@	c #68984B",
"x'@	c #669C46",
"y'@	c #365E24",
"z'@	c #5A8341",
"A'@	c #699A47",
"B'@	c #4C6D37",
"C'@	c #7A9F5A",
"D'@	c #354723",
"E'@	c #76A758",
"F'@	c #618F48",
"G'@	c #2D4C17",
"H'@	c #71B339",
"I'@	c #85D249",
"J'@	c #172E09",
"K'@	c #0B1206",
"L'@	c #4E7639",
"M'@	c #5B843F",
"N'@	c #65994E",
"O'@	c #678649",
"P'@	c #4C8128",
"Q'@	c #70B03A",
"R'@	c #1C2E0B",
"S'@	c #142510",
"T'@	c #68954C",
"U'@	c #579237",
"V'@	c #558A3A",
"W'@	c #739F5A",
"X'@	c #26381F",
"Y'@	c #427C2A",
"Z'@	c #47832C",
"`'@	c #38612D",
" )@	c #253F1A",
".)@	c #62BC3C",
"+)@	c #68B648",
"@)@	c #21391B",
"#)@	c #5F944A",
"$)@	c #639846",
"%)@	c #74A05B",
"&)@	c #3F5D2C",
"*)@	c #030E08",
"=)@	c #3D622B",
"-)@	c #6AA94D",
";)@	c #66AC44",
">)@	c #57883A",
",)@	c #101308",
"')@	c #13180B",
"))@	c #699555",
"!)@	c #162A12",
"~)@	c #1B3512",
"{)@	c #4D712F",
"])@	c #6E9C50",
"^)@	c #56873E",
"/)@	c #10230E",
"()@	c #6C924A",
"_)@	c #55833C",
":)@	c #689E4C",
"<)@	c #77B54B",
"[)@	c #213C0F",
"})@	c #5D943A",
"|)@	c #44692D",
"1)@	c #4B6937",
"2)@	c #4A6E37",
"3)@	c #040600",
"4)@	c #486E2E",
"5)@	c #78AB50",
"6)@	c #73B054",
"7)@	c #679854",
"8)@	c #649452",
"9)@	c #325322",
"0)@	c #1A2A13",
"a)@	c #759F5F",
"b)@	c #070C04",
"c)@	c #618849",
"d)@	c #4A6A3B",
"e)@	c #6F9158",
"f)@	c #304626",
"g)@	c #395C27",
"h)@	c #0D010C",
"i)@	c #1D2F16",
"j)@	c #3D5D2B",
"k)@	c #70A458",
"l)@	c #60853B",
"m)@	c #304424",
"n)@	c #7BA75A",
"o)@	c #72A84A",
"p)@	c #3F6526",
"q)@	c #40592E",
"r)@	c #688B4D",
"s)@	c #5A803A",
"t)@	c #79AD56",
"u)@	c #3B6425",
"v)@	c #7CB54A",
"w)@	c #61A141",
"x)@	c #599E3A",
"y)@	c #699F57",
"z)@	c #4D7632",
"A)@	c #74A053",
"B)@	c #5A8246",
"C)@	c #2C4322",
"D)@	c #55793F",
"E)@	c #73A25B",
"F)@	c #496C36",
"G)@	c #739D5A",
"H)@	c #354A27",
"I)@	c #374E24",
"J)@	c #78A658",
"K)@	c #699752",
"L)@	c #589A30",
"M)@	c #83DA4B",
"N)@	c #66AC3B",
"O)@	c #2C4F17",
"P)@	c #0B0F0E",
"Q)@	c #47802C",
"R)@	c #528B31",
"S)@	c #456F29",
"T)@	c #213119",
"U)@	c #6F9252",
"V)@	c #5E8943",
"W)@	c #598A32",
"X)@	c #365D1F",
"Y)@	c #76C346",
"Z)@	c #4C8A2F",
"`)@	c #446035",
" !@	c #5E7F43",
".!@	c #526E2F",
"+!@	c #16230B",
"@!@	c #070F01",
"#!@	c #061407",
"$!@	c #335B24",
"%!@	c #6AAB4A",
"&!@	c #65AA41",
"*!@	c #2C501C",
"=!@	c #354A23",
"-!@	c #659049",
";!@	c #5B8F47",
">!@	c #598235",
",!@	c #4E742E",
"'!@	c #78A85B",
")!@	c #476530",
"!!@	c #0B180A",
"~!@	c #6AAD4B",
"{!@	c #70AE50",
"]!@	c #5C8845",
"^!@	c #1D2C11",
"/!@	c #182211",
"(!@	c #456A31",
"_!@	c #4B6934",
":!@	c #5D8C4A",
"<!@	c #609053",
"[!@	c #395F25",
"}!@	c #538137",
"|!@	c #5E9334",
"1!@	c #1B300B",
"2!@	c #091A09",
"3!@	c #6F9E4B",
"4!@	c #608B46",
"5!@	c #4C7435",
"6!@	c #558E3D",
"7!@	c #425E2B",
"8!@	c #64884E",
"9!@	c #16230F",
"0!@	c #4A7B33",
"a!@	c #678F51",
"b!@	c #538041",
"c!@	c #2B5017",
"d!@	c #101E08",
"e!@	c #72AB5A",
"f!@	c #192A11",
"g!@	c #79A758",
"h!@	c #2F4621",
"i!@	c #040710",
"j!@	c #47682F",
"k!@	c #80B860",
"l!@	c #2B491D",
"m!@	c #487131",
"n!@	c #37591F",
"o!@	c #527E37",
"p!@	c #6A9655",
"q!@	c #75A157",
"r!@	c #446D34",
"s!@	c #071003",
"t!@	c #4E7937",
"u!@	c #558A37",
"v!@	c #6FA650",
"w!@	c #283D1B",
"x!@	c #517634",
"y!@	c #5D7F42",
"z!@	c #699651",
"A!@	c #5B863C",
"B!@	c #578534",
"C!@	c #6DAE4F",
"D!@	c #2C5619",
"E!@	c #578242",
"F!@	c #558346",
"G!@	c #53853A",
"H!@	c #548145",
"I!@	c #305223",
"J!@	c #1F3115",
"K!@	c #516E37",
"L!@	c #6E9850",
"M!@	c #7DA560",
"N!@	c #325728",
"O!@	c #507833",
"P!@	c #598E3E",
"Q!@	c #507B37",
"R!@	c #3D5E2F",
"S!@	c #060F06",
"T!@	c #487F25",
"U!@	c #82D64A",
"V!@	c #7CC748",
"W!@	c #436E22",
"X!@	c #040D08",
"Y!@	c #0C1607",
"Z!@	c #4C6932",
"`!@	c #5C813E",
" ~@	c #516F3B",
".~@	c #75C244",
"+~@	c #4A7828",
"@~@	c #5C7A41",
"#~@	c #648646",
"$~@	c #80B266",
"%~@	c #4D7135",
"&~@	c #769E49",
"*~@	c #4B6634",
"=~@	c #487735",
"-~@	c #71B953",
";~@	c #6BB343",
">~@	c #578B37",
",~@	c #1C350F",
"'~@	c #0B0F03",
")~@	c #42612F",
"!~@	c #79A25F",
"~~@	c #4F7137",
"{~@	c #618943",
"]~@	c #6E9B42",
"^~@	c #659D41",
"/~@	c #528546",
"(~@	c #436230",
"_~@	c #79A258",
":~@	c #0C1C07",
"<~@	c #365E28",
"[~@	c #6CB053",
"}~@	c #72B452",
"|~@	c #689552",
"1~@	c #486A32",
"2~@	c #456331",
"3~@	c #70995C",
"4~@	c #2A4423",
"5~@	c #33522A",
"6~@	c #477231",
"7~@	c #73B153",
"8~@	c #629943",
"9~@	c #406230",
"0~@	c #73AF5B",
"a~@	c #477036",
"b~@	c #1C2D0D",
"c~@	c #3D5E24",
"d~@	c #4D7834",
"e~@	c #75A95C",
"f~@	c #68B53F",
"g~@	c #508930",
"h~@	c #285116",
"i~@	c #39672D",
"j~@	c #7DB059",
"k~@	c #3F712F",
"l~@	c #5E9E48",
"m~@	c #73A75C",
"n~@	c #618A51",
"o~@	c #547948",
"p~@	c #3E692F",
"q~@	c #376D22",
"r~@	c #70A651",
"s~@	c #131F0A",
"t~@	c #05010D",
"u~@	c #030C06",
"v~@	c #477333",
"w~@	c #68A152",
"x~@	c #456932",
"y~@	c #040A00",
"z~@	c #050D0A",
"A~@	c #597944",
"B~@	c #5B7E42",
"C~@	c #4B6E3D",
"D~@	c #34502A",
"E~@	c #7DAE61",
"F~@	c #5E9743",
"G~@	c #528831",
"H~@	c #31591D",
"I~@	c #5D8049",
"J~@	c #739C66",
"K~@	c #72A156",
"L~@	c #4A7A28",
"M~@	c #2E4925",
"N~@	c #17220C",
"O~@	c #4F833C",
"P~@	c #5B8442",
"Q~@	c #719854",
"R~@	c #5A7943",
"S~@	c #567D46",
"T~@	c #74AF4B",
"U~@	c #5E8D41",
"V~@	c #679053",
"W~@	c #26421C",
"X~@	c #75BA55",
"Y~@	c #385F2C",
"Z~@	c #588A47",
"`~@	c #77AC5E",
" {@	c #669D42",
".{@	c #466F28",
"+{@	c #091B04",
"@{@	c #506E36",
"#{@	c #749D51",
"${@	c #4D6A39",
"%{@	c #7CA15C",
"&{@	c #3A5624",
"*{@	c #6AA65D",
"={@	c #527A36",
"-{@	c #75AA4B",
";{@	c #5F9644",
">{@	c #477135",
",{@	c #7CC34D",
"'{@	c #82D04B",
"){@	c #558B34",
"!{@	c #77A455",
"~{@	c #4C7031",
"{{@	c #4F7A3B",
"]{@	c #648B44",
"^{@	c #559337",
"/{@	c #529040",
"({@	c #001402",
"_{@	c #3D5A29",
":{@	c #1A2714",
"<{@	c #28491C",
"[{@	c #6AB646",
"}{@	c #3F6626",
"|{@	c #7FB160",
"1{@	c #739F51",
"2{@	c #173014",
"3{@	c #578446",
"4{@	c #6B9C54",
"5{@	c #79AD5E",
"6{@	c #517C3F",
"7{@	c #0F2508",
"8{@	c #6EB54C",
"9{@	c #73B454",
"0{@	c #6BA542",
"a{@	c #74994E",
"b{@	c #1A2D15",
"c{@	c #5A8340",
"d{@	c #538036",
"e{@	c #0A1007",
"f{@	c #6DA054",
"g{@	c #608C50",
"h{@	c #7EB657",
"i{@	c #598343",
"j{@	c #629E33",
"k{@	c #6ABE3F",
"l{@	c #6BB54A",
"m{@	c #5A9C44",
"n{@	c #041601",
"o{@	c #4A823A",
"p{@	c #040310",
"q{@	c #3A5532",
"r{@	c #131D0F",
"s{@	c #567A3B",
"t{@	c #7BA55A",
"u{@	c #78A254",
"v{@	c #1E3415",
"w{@	c #6FA154",
"x{@	c #39522B",
"y{@	c #050311",
"z{@	c #233618",
"A{@	c #45653A",
"B{@	c #6C9551",
"C{@	c #5F964D",
"D{@	c #6EB25C",
"E{@	c #75A65D",
"F{@	c #679B46",
"G{@	c #487630",
"H{@	c #28391F",
"I{@	c #0A0001",
"J{@	c #1D2A10",
"K{@	c #5D8E44",
"L{@	c #70A950",
"M{@	c #548639",
"N{@	c #82B65B",
"O{@	c #53753A",
"P{@	c #82A964",
"Q{@	c #496437",
"R{@	c #172410",
"S{@	c #63914C",
"T{@	c #497234",
"U{@	c #111C06",
"V{@	c #253519",
"W{@	c #426B2D",
"X{@	c #6BAE43",
"Y{@	c #6AA444",
"Z{@	c #4D7038",
"`{@	c #719950",
" ]@	c #496B31",
".]@	c #76A557",
"+]@	c #3E582D",
"@]@	c #0A1500",
"#]@	c #456127",
"$]@	c #83AC5C",
"%]@	c #456A33",
"&]@	c #5B8736",
"*]@	c #61923C",
"=]@	c #263D16",
"-]@	c #43692E",
";]@	c #77A252",
">]@	c #557E3B",
",]@	c #68AE43",
"']@	c #6FC643",
")]@	c #5DA53F",
"!]@	c #2B4F1C",
"~]@	c #0A1A0E",
"{]@	c #5B8F37",
"]]@	c #4E7435",
"^]@	c #4D8635",
"/]@	c #6B9652",
"(]@	c #233919",
"_]@	c #0F0309",
":]@	c #07090F",
"<]@	c #324F1F",
"[]@	c #79C64D",
"}]@	c #478C27",
"|]@	c #375D1E",
"1]@	c #71B44E",
"2]@	c #63A543",
"3]@	c #1E3010",
"4]@	c #537B36",
"5]@	c #68A04B",
"6]@	c #78AF5E",
"7]@	c #44662F",
"8]@	c #76A455",
"9]@	c #6FB055",
"0]@	c #50813B",
"a]@	c #395D25",
"b]@	c #68AD45",
"c]@	c #62B24A",
"d]@	c #74CE4D",
"e]@	c #447729",
"f]@	c #132311",
"g]@	c #405B30",
"h]@	c #7AA55E",
"i]@	c #214018",
"j]@	c #365C22",
"k]@	c #42682B",
"l]@	c #355B25",
"m]@	c #1A3513",
"n]@	c #1B2C13",
"o]@	c #7DAE60",
"p]@	c #70AD51",
"q]@	c #51823F",
"r]@	c #75A658",
"s]@	c #4C703D",
"t]@	c #27471E",
"u]@	c #2E5421",
"v]@	c #73B45C",
"w]@	c #2D5120",
"x]@	c #34552C",
"y]@	c #4C7036",
"z]@	c #385430",
"A]@	c #0C0803",
"B]@	c #224617",
"C]@	c #0E1404",
"D]@	c #142110",
"E]@	c #56753F",
"F]@	c #668B4B",
"G]@	c #4F7333",
"H]@	c #649641",
"I]@	c #618E3F",
"J]@	c #5D7F41",
"K]@	c #5C833A",
"L]@	c #223D18",
"M]@	c #4C7736",
"N]@	c #679751",
"O]@	c #4C5F3A",
"P]@	c #7BAA5D",
"Q]@	c #537B40",
"R]@	c #567A40",
"S]@	c #172D13",
"T]@	c #1A3415",
"U]@	c #14230A",
"V]@	c #192B0E",
"W]@	c #416131",
"X]@	c #4E773B",
"Y]@	c #3C6D2B",
"Z]@	c #17310E",
"`]@	c #2A3B1B",
" ^@	c #314C1E",
".^@	c #5C8D3D",
"+^@	c #629D41",
"@^@	c #74AF50",
"#^@	c #5F9B41",
"$^@	c #659243",
"%^@	c #040F09",
"&^@	c #3D5626",
"*^@	c #56783B",
"=^@	c #527A43",
"-^@	c #2C4B19",
";^@	c #709B58",
">^@	c #0B0310",
",^@	c #6E9553",
"'^@	c #26321C",
")^@	c #1C340E",
"!^@	c #74A85B",
"~^@	c #4A6B36",
"{^@	c #486737",
"]^@	c #79A657",
"^^@	c #689C4D",
"/^@	c #568436",
"(^@	c #1A2F0C",
"_^@	c #031303",
":^@	c #415A2C",
"<^@	c #79A856",
"[^@	c #4D7A33",
"}^@	c #579042",
"|^@	c #253D1C",
"1^@	c #16310B",
"2^@	c #4C8A2D",
"3^@	c #6EBD40",
"4^@	c #71B850",
"5^@	c #416E28",
"6^@	c #122A08",
"7^@	c #598731",
"8^@	c #598138",
"9^@	c #182D0D",
"0^@	c #3C7E1B",
"a^@	c #82CF50",
"b^@	c #4D6F35",
"c^@	c #100406",
"d^@	c #0E0207",
"e^@	c #447528",
"f^@	c #7CC655",
"g^@	c #375A24",
"h^@	c #49762E",
"i^@	c #76BD45",
"j^@	c #72B344",
"k^@	c #528131",
"l^@	c #2B4020",
"m^@	c #6A9249",
"n^@	c #6B9A44",
"o^@	c #54823C",
"p^@	c #64A23F",
"q^@	c #2B4819",
"r^@	c #141909",
"s^@	c #6CA353",
"t^@	c #64A447",
"u^@	c #366021",
"v^@	c #5B8F43",
"w^@	c #213B11",
"x^@	c #172613",
"y^@	c #1B360E",
"z^@	c #65A04C",
"A^@	c #4E8339",
"B^@	c #78B660",
"C^@	c #4B812B",
"D^@	c #62A047",
"E^@	c #304423",
"F^@	c #588134",
"G^@	c #7DA355",
"H^@	c #557E3C",
"I^@	c #508A33",
"J^@	c #70A74F",
"K^@	c #73AA4F",
"L^@	c #598443",
"M^@	c #568744",
"N^@	c #77AF60",
"O^@	c #75AC5D",
"P^@	c #70A35B",
"Q^@	c #5C9751",
"R^@	c #56983A",
"S^@	c #5BA53F",
"T^@	c #6D9A55",
"U^@	c #74B25A",
"V^@	c #6BAF4F",
"W^@	c #689051",
"X^@	c #53723F",
"Y^@	c #355223",
"Z^@	c #1A220F",
"`^@	c #496E34",
" /@	c #4B792D",
"./@	c #498525",
"+/@	c #598B30",
"@/@	c #17230E",
"#/@	c #2D4019",
"$/@	c #78A14A",
"%/@	c #75A362",
"&/@	c #74AC58",
"*/@	c #77B557",
"=/@	c #192113",
"-/@	c #456D34",
";/@	c #40622B",
">/@	c #05090D",
",/@	c #46682B",
"'/@	c #6E9F4C",
")/@	c #679850",
"!/@	c #6FA14A",
"~/@	c #73A85E",
"{/@	c #4A7A39",
"]/@	c #60A342",
"^/@	c #68C442",
"//@	c #6EA457",
"(/@	c #698C55",
"_/@	c #496331",
":/@	c #568036",
"</@	c #436D2B",
"[/@	c #40712B",
"}/@	c #6FB14B",
"|/@	c #6DAA57",
"1/@	c #588F3F",
"2/@	c #6DA24E",
"3/@	c #58943A",
"4/@	c #589644",
"5/@	c #6FA34C",
"6/@	c #3C532A",
"7/@	c #7CAB5B",
"8/@	c #4E7436",
"9/@	c #539533",
"0/@	c #678A4D",
"a/@	c #577F3A",
"b/@	c #6EA54F",
"c/@	c #1B2E16",
"d/@	c #5B8040",
"e/@	c #73AB5B",
"f/@	c #112110",
"g/@	c #7CAD65",
"h/@	c #49703B",
"i/@	c #6D9D59",
"j/@	c #477734",
"k/@	c #16220E",
"l/@	c #09120B",
"m/@	c #000907",
"n/@	c #294319",
"o/@	c #659742",
"p/@	c #608E41",
"q/@	c #659C50",
"r/@	c #457028",
"s/@	c #6DB54B",
"t/@	c #69B939",
"u/@	c #4A852E",
"v/@	c #739E51",
"w/@	c #679847",
"x/@	c #77C341",
"y/@	c #549127",
"z/@	c #110917",
"A/@	c #080712",
"B/@	c #65B146",
"C/@	c #3F6428",
"D/@	c #0A080F",
"E/@	c #77A860",
"F/@	c #273D1A",
"G/@	c #386B23",
"H/@	c #73D03F",
"I/@	c #335025",
"J/@	c #649B44",
"K/@	c #3E5E30",
"L/@	c #609B38",
"M/@	c #060D03",
"N/@	c #668C46",
"O/@	c #4E7230",
"P/@	c #80CD58",
"Q/@	c #66B248",
"R/@	c #55783B",
"S/@	c #53763C",
"T/@	c #416C2E",
"U/@	c #0D1A0F",
"V/@	c #2E421F",
"W/@	c #53863E",
"X/@	c #75A859",
"Y/@	c #5C9742",
"Z/@	c #72AF4A",
"`/@	c #517037",
" (@	c #547A44",
".(@	c #74AF56",
"+(@	c #62B148",
"@(@	c #5C9F3D",
"#(@	c #68994C",
"$(@	c #41682D",
"%(@	c #5B8D47",
"&(@	c #79C15D",
"*(@	c #7BAE5D",
"=(@	c #67894D",
"-(@	c #659F49",
";(@	c #7FB860",
">(@	c #021205",
",(@	c #0D1607",
"'(@	c #08010C",
")(@	c #1A240D",
"!(@	c #1B2A1B",
"~(@	c #070A04",
"{(@	c #65BE49",
"](@	c #436233",
"^(@	c #72A554",
"/(@	c #629541",
"((@	c #4C7C33",
"_(@	c #6FAE50",
":(@	c #59953B",
"<(@	c #6FA84C",
"[(@	c #6CB246",
"}(@	c #335427",
"|(@	c #425930",
"1(@	c #729B4D",
"2(@	c #66A445",
"3(@	c #6AC141",
"4(@	c #5AA637",
"5(@	c #60BD3F",
"6(@	c #6AA747",
"7(@	c #578B34",
"8(@	c #588B3D",
"9(@	c #101707",
"0(@	c #4A6327",
"a(@	c #2C4E17",
"b(@	c #5A7D3E",
"c(@	c #506C39",
"d(@	c #061A01",
"e(@	c #51703A",
"f(@	c #465E31",
"g(@	c #669739",
"h(@	c #86C353",
"i(@	c #4D6C34",
"j(@	c #0F0107",
"k(@	c #466E32",
"l(@	c #699C4A",
"m(@	c #5F8C44",
"n(@	c #73AA5C",
"o(@	c #446E39",
"p(@	c #70AA54",
"q(@	c #4E873B",
"r(@	c #0E1505",
"s(@	c #0E0E05",
"t(@	c #34661D",
"u(@	c #587E39",
"v(@	c #6C9B4E",
"w(@	c #67A353",
"x(@	c #39582F",
"y(@	c #66AD41",
"z(@	c #62AF46",
"A(@	c #65AB47",
"B(@	c #72A849",
"C(@	c #264514",
"D(@	c #0D070B",
"E(@	c #43662C",
"F(@	c #6AA141",
"G(@	c #65A645",
"H(@	c #5FAE3F",
"I(@	c #5EA448",
"J(@	c #030B0B",
"K(@	c #73A352",
"L(@	c #659C54",
"M(@	c #537C43",
"N(@	c #3D5D26",
"O(@	c #75BF54",
"P(@	c #5FC238",
"Q(@	c #4F892D",
"R(@	c #699F46",
"S(@	c #58853A",
"T(@	c #598F3D",
"U(@	c #406129",
"V(@	c #54823D",
"W(@	c #6D984F",
"X(@	c #354F23",
"Y(@	c #35501E",
"Z(@	c #749F4D",
"`(@	c #2A4318",
" _@	c #3C5C33",
"._@	c #3C5B2B",
"+_@	c #182B0C",
"@_@	c #77AF5F",
"#_@	c #446A2D",
"$_@	c #6BAF45",
"%_@	c #77C955",
"&_@	c #568B39",
"*_@	c #0B070E",
"=_@	c #477A34",
"-_@	c #7AAC58",
";_@	c #4A892F",
">_@	c #6D9A4D",
",_@	c #5D8F47",
"'_@	c #567B45",
")_@	c #6AA04D",
"!_@	c #5F993F",
"~_@	c #72B243",
"{_@	c #4C7530",
"]_@	c #60974A",
"^_@	c #385F26",
"/_@	c #58733C",
"(_@	c #74A250",
"__@	c #66A640",
":_@	c #7AAB5D",
"<_@	c #263618",
"[_@	c #0A060D",
"}_@	c #4E893C",
"|_@	c #4F723F",
"1_@	c #1F3D11",
"2_@	c #64A73B",
"3_@	c #73BC45",
"4_@	c #6EBC4A",
"5_@	c #569F34",
"6_@	c #30621D",
"7_@	c #74B34E",
"8_@	c #3F6628",
"9_@	c #508635",
"0_@	c #1C300F",
"a_@	c #5AA039",
"b_@	c #578B35",
"c_@	c #70B847",
"d_@	c #54983B",
"e_@	c #75A15C",
"f_@	c #4D7635",
"g_@	c #5E8D35",
"h_@	c #71BC4C",
"i_@	c #61A041",
"j_@	c #4C8129",
"k_@	c #83B657",
"l_@	c #0E2004",
"m_@	c #344B22",
"n_@	c #364528",
"o_@	c #6EA05C",
"p_@	c #638F4C",
"q_@	c #3E5A29",
"r_@	c #729D52",
"s_@	c #4A7236",
"t_@	c #52793B",
"u_@	c #77B15D",
"v_@	c #3F6E2C",
"w_@	c #5AAC34",
"x_@	c #78AC55",
"y_@	c #405E2D",
"z_@	c #598B39",
"A_@	c #63C534",
"B_@	c #6FC445",
"C_@	c #4F7D2C",
"D_@	c #1D330F",
"E_@	c #74AB58",
"F_@	c #7BB56A",
"G_@	c #0B1805",
"H_@	c #579240",
"I_@	c #61B03E",
"J_@	c #6AB456",
"K_@	c #5C923B",
"L_@	c #597B39",
"M_@	c #060D0A",
"N_@	c #578E39",
"O_@	c #63B73D",
"P_@	c #418128",
"Q_@	c #476936",
"R_@	c #4C6B43",
"S_@	c #72AF56",
"T_@	c #568440",
"U_@	c #73A55A",
"V_@	c #75A24E",
"W_@	c #406F26",
"X_@	c #76DA3F",
"Y_@	c #539335",
"Z_@	c #07150C",
"`_@	c #1F3511",
" :@	c #588436",
".:@	c #609240",
"+:@	c #080A09",
"@:@	c #0A1209",
"#:@	c #45692F",
"$:@	c #3E5D30",
"%:@	c #548038",
"&:@	c #6B9F4F",
"*:@	c #1C2D14",
"=:@	c #0D2309",
"-:@	c #5D9A32",
";:@	c #70C23F",
">:@	c #578D31",
",:@	c #559238",
"':@	c #508F35",
"):@	c #68AD50",
"!:@	c #22441A",
"~:@	c #517B37",
"{:@	c #3D562B",
"]:@	c #476536",
"^:@	c #7CAA5B",
"/:@	c #314821",
"(:@	c #7BAD5A",
"_:@	c #4B6E3B",
"::@	c #53922E",
"<:@	c #70B647",
"[:@	c #42712E",
"}:@	c #1F3F13",
"|:@	c #325919",
"1:@	c #5E963E",
"2:@	c #7BB25F",
"3:@	c #40612F",
"4:@	c #000901",
"5:@	c #4F723D",
"6:@	c #4B7139",
"7:@	c #00040F",
"8:@	c #23371B",
"9:@	c #6E9D5A",
"0:@	c #55703D",
"a:@	c #264013",
"b:@	c #68A747",
"c:@	c #76CF4B",
"d:@	c #537242",
"e:@	c #51972E",
"f:@	c #68B536",
"g:@	c #73CA37",
"h:@	c #5AA62F",
"i:@	c #6B9E50",
"j:@	c #75B747",
"k:@	c #76C74A",
"l:@	c #335320",
"m:@	c #122A09",
"n:@	c #567D41",
"o:@	c #83AD68",
"p:@	c #0E0310",
"q:@	c #100708",
"r:@	c #20391B",
"s:@	c #5D9B46",
"t:@	c #4C8431",
"u:@	c #74C54F",
"v:@	c #7CDA3E",
"w:@	c #52862D",
"x:@	c #070B09",
"y:@	c #2B352B",
"z:@	c #111214",
"A:@	c #618C4E",
"B:@	c #6D9C51",
"C:@	c #71A14D",
"D:@	c #0C180D",
"E:@	c #4A6F31",
"F:@	c #75B64A",
"G:@	c #548C39",
"H:@	c #699C47",
"I:@	c #2D4420",
"J:@	c #264D16",
"K:@	c #579D39",
"L:@	c #46692F",
"M:@	c #6A9847",
"N:@	c #407B21",
"O:@	c #77D539",
"P:@	c #3B6E1C",
"Q:@	c #72AF43",
"R:@	c #6AA23F",
"S:@	c #335223",
"T:@	c #6AA04E",
"U:@	c #54873A",
"V:@	c #4C7D37",
"W:@	c #162F09",
"X:@	c #74BC50",
"Y:@	c #5C9438",
"Z:@	c #223811",
"`:@	c #649F46",
" <@	c #5A8F41",
".<@	c #558048",
"+<@	c #60A13F",
"@<@	c #6CB943",
"#<@	c #69A448",
"$<@	c #355128",
"%<@	c #1C390F",
"&<@	c #518039",
"*<@	c #72A653",
"=<@	c #385325",
"-<@	c #4D7E34",
";<@	c #7CD444",
"><@	c #3F7722",
",<@	c #132112",
"'<@	c #588D3E",
")<@	c #417029",
"!<@	c #78BA56",
"~<@	c #070106",
"{<@	c #76AF54",
"]<@	c #496939",
"^<@	c #7AAA62",
"/<@	c #537440",
"(<@	c #31461E",
"_<@	c #395A22",
":<@	c #254510",
"<<@	c #6BB340",
"[<@	c #5CA443",
"}<@	c #4B7E36",
"|<@	c #6FB440",
"1<@	c #68B23B",
"2<@	c #467C2B",
"3<@	c #0A150A",
"4<@	c #050610",
"5<@	c #0C0305",
"6<@	c #051A01",
"7<@	c #436433",
"8<@	c #5B9046",
"9<@	c #5C873E",
"0<@	c #5C863F",
"a<@	c #77AC56",
"b<@	c #3B582C",
"c<@	c #1E3810",
"d<@	c #5EA034",
"e<@	c #80D03D",
"f<@	c #72C83F",
"g<@	c #5BB036",
"h<@	c #71B44C",
"i<@	c #6AAF47",
"j<@	c #6DB144",
"k<@	c #416531",
"l<@	c #79AB5D",
"m<@	c #364F24",
"n<@	c #4A743A",
"o<@	c #486A35",
"p<@	c #52783B",
"q<@	c #11050F",
"r<@	c #09060A",
"s<@	c #0A090C",
"t<@	c #060B0F",
"u<@	c #435830",
"v<@	c #5E7D48",
"w<@	c #4A7436",
"x<@	c #53733B",
"y<@	c #294218",
"z<@	c #6A9F46",
"A<@	c #497E29",
"B<@	c #5DA93E",
"C<@	c #62A145",
"D<@	c #6EB151",
"E<@	c #5C9344",
"F<@	c #54833A",
"G<@	c #7BBC58",
"H<@	c #67A139",
"I<@	c #2E4F12",
"J<@	c #77B55A",
"K<@	c #548E38",
"L<@	c #72AA55",
"M<@	c #2D471D",
"N<@	c #6C9C54",
"O<@	c #5EAE34",
"P<@	c #72C243",
"Q<@	c #4B8236",
"R<@	c #66A744",
"S<@	c #78B950",
"T<@	c #2B4C17",
"U<@	c #334E20",
"V<@	c #5B7D4D",
"W<@	c #161C15",
"X<@	c #43622F",
"Y<@	c #79AA64",
"Z<@	c #284116",
"`<@	c #6A9B48",
" [@	c #456931",
".[@	c #080F08",
"+[@	c #355524",
"@[@	c #76BB55",
"#[@	c #719D57",
"$[@	c #375029",
"%[@	c #3B6E23",
"&[@	c #7BCE3E",
"*[@	c #57883D",
"=[@	c #6CAE3E",
"-[@	c #7AC241",
";[@	c #3F641C",
">[@	c #598F37",
",[@	c #77BF4A",
"'[@	c #528833",
")[@	c #5D8943",
"![@	c #4A6634",
"~[@	c #7CAD58",
"{[@	c #2A4716",
"][@	c #121F02",
"^[@	c #17300B",
"/[@	c #6AA84D",
"([@	c #497A32",
"_[@	c #213F15",
":[@	c #131E0F",
"<[@	c #395922",
"[[@	c #6AAF3E",
"}[@	c #73C347",
"|[@	c #3F6728",
"1[@	c #618248",
"2[@	c #6A9B4D",
"3[@	c #1B3914",
"4[@	c #66B53E",
"5[@	c #0D180B",
"6[@	c #0B1903",
"7[@	c #467026",
"8[@	c #7CC454",
"9[@	c #57963A",
"0[@	c #72A861",
"a[@	c #4D7141",
"b[@	c #678F49",
"c[@	c #608B42",
"d[@	c #66994C",
"e[@	c #41692F",
"f[@	c #4B7C2E",
"g[@	c #7BD147",
"h[@	c #2A5116",
"i[@	c #73AD4D",
"j[@	c #5AA031",
"k[@	c #75CA51",
"l[@	c #67AF3D",
"m[@	c #6EBB40",
"n[@	c #0E1D06",
"o[@	c #0A0702",
"p[@	c #527D41",
"q[@	c #496C39",
"r[@	c #74AE59",
"s[@	c #335524",
"t[@	c #689A51",
"u[@	c #486A2E",
"v[@	c #81BC50",
"w[@	c #5D9D42",
"x[@	c #6BAD47",
"y[@	c #638F46",
"z[@	c #415F2C",
"A[@	c #2B4A1A",
"B[@	c #3A6622",
"C[@	c #63B63C",
"D[@	c #5EB42C",
"E[@	c #65A543",
"F[@	c #3B672B",
"G[@	c #74B25D",
"H[@	c #4D6E34",
"I[@	c #769D51",
"J[@	c #426129",
"K[@	c #78A248",
"L[@	c #31451E",
"M[@	c #0A0905",
"N[@	c #4C6638",
"O[@	c #6F9C4C",
"P[@	c #5B953F",
"Q[@	c #6CA649",
"R[@	c #3E7326",
"S[@	c #509336",
"T[@	c #6BB83D",
"U[@	c #72B244",
"V[@	c #446A30",
"W[@	c #2B4912",
"X[@	c #3F5E26",
"Y[@	c #568C46",
"Z[@	c #68B04B",
"`[@	c #579642",
" }@	c #6FB756",
".}@	c #578037",
"+}@	c #67913C",
"@}@	c #1A330F",
"#}@	c #5F8C42",
"$}@	c #090512",
"%}@	c #6BAF55",
"&}@	c #77BD5A",
"*}@	c #66AB3C",
"=}@	c #2D5813",
"-}@	c #67B037",
";}@	c #69B44A",
">}@	c #53843C",
",}@	c #50743A",
"'}@	c #162B08",
")}@	c #72B038",
"!}@	c #54802E",
"~}@	c #294A17",
"{}@	c #76AD4E",
"]}@	c #62974A",
"^}@	c #456B32",
"/}@	c #5A8746",
"(}@	c #76BB59",
"_}@	c #759D58",
":}@	c #496630",
"<}@	c #0C0808",
"[}@	c #090E04",
"}}@	c #577641",
"|}@	c #496536",
"1}@	c #608547",
"2}@	c #4A7036",
"3}@	c #568042",
"4}@	c #71985E",
"5}@	c #6FAB39",
"6}@	c #88D63E",
"7}@	c #48802D",
"8}@	c #1A3215",
"9}@	c #0F0312",
"0}@	c #72B44B",
"a}@	c #355B20",
"b}@	c #618947",
"c}@	c #5C8B3D",
"d}@	c #7FAE54",
"e}@	c #3E5829",
"f}@	c #0C0104",
"g}@	c #82C662",
"h}@	c #549235",
"i}@	c #1C3A0E",
"j}@	c #456735",
"k}@	c #7DB35E",
"l}@	c #56753E",
"m}@	c #69A244",
"n}@	c #64AF36",
"o}@	c #56972D",
"p}@	c #77AC46",
"q}@	c #53783A",
"r}@	c #4A613B",
"s}@	c #74DA41",
"t}@	c #408322",
"u}@	c #102807",
"v}@	c #508428",
"w}@	c #89D345",
"x}@	c #5F9730",
"y}@	c #0B2403",
"z}@	c #2F4727",
"A}@	c #5E8A4C",
"B}@	c #73A458",
"C}@	c #75BB51",
"D}@	c #3E6927",
"E}@	c #000B02",
"F}@	c #396A27",
"G}@	c #62BE3C",
"H}@	c #5E9F3F",
"I}@	c #1C2C0F",
"J}@	c #517739",
"K}@	c #5F9744",
"L}@	c #578441",
"M}@	c #70AF42",
"N}@	c #426B24",
"O}@	c #66A548",
"P}@	c #315220",
"Q}@	c #528647",
"R}@	c #406238",
"S}@	c #78A35F",
"T}@	c #72AA4F",
"U}@	c #598B3F",
"V}@	c #44663A",
"W}@	c #55A131",
"X}@	c #6AB448",
"Y}@	c #669B48",
"Z}@	c #65A342",
"`}@	c #63B241",
" |@	c #6CAE49",
".|@	c #497431",
"+|@	c #4C7536",
"@|@	c #577E44",
"#|@	c #508538",
"$|@	c #5B7E40",
"%|@	c #75A34B",
"&|@	c #4E7332",
"*|@	c #3B5B25",
"=|@	c #1E3211",
"-|@	c #2C4315",
";|@	c #41631D",
">|@	c #4D762F",
",|@	c #76A15A",
"'|@	c #6A8F50",
")|@	c #5A9249",
"!|@	c #6CA743",
"~|@	c #52863E",
"{|@	c #63B142",
"]|@	c #76CB3B",
"^|@	c #69B036",
"/|@	c #437129",
"(|@	c #5E9148",
"_|@	c #68AC3D",
":|@	c #639E3F",
"<|@	c #6DB452",
"[|@	c #549E36",
"}|@	c #599340",
"||@	c #508B3B",
"1|@	c #71A553",
"2|@	c #7FBC51",
"3|@	c #446932",
"4|@	c #6BA547",
"5|@	c #569337",
"6|@	c #50843E",
"7|@	c #79A453",
"8|@	c #324D23",
"9|@	c #406A2C",
"0|@	c #7BCE4D",
"a|@	c #4B7430",
"b|@	c #74A552",
"c|@	c #2C451C",
"d|@	c #447829",
"e|@	c #81CA48",
"f|@	c #3C6319",
"g|@	c #67AC40",
"h|@	c #4A6E3C",
"i|@	c #82B167",
"j|@	c #6A9345",
"k|@	c #0A0701",
"l|@	c #294419",
"m|@	c #72B14B",
"n|@	c #304827",
"o|@	c #486238",
"p|@	c #6AA04A",
"q|@	c #529629",
"r|@	c #64CB2C",
"s|@	c #62B548",
"t|@	c #5D973E",
"u|@	c #648B4D",
"v|@	c #84CE50",
"w|@	c #436928",
"x|@	c #07080E",
"y|@	c #7BC548",
"z|@	c #74BD53",
"A|@	c #38502F",
"B|@	c #071702",
"C|@	c #75B052",
"D|@	c #66C045",
"E|@	c #78D743",
"F|@	c #69AE3F",
"G|@	c #4F802D",
"H|@	c #659550",
"I|@	c #719E5D",
"J|@	c #73CA42",
"K|@	c #559436",
"L|@	c #7DDB4A",
"M|@	c #62A739",
"N|@	c #1D3209",
"O|@	c #3B572D",
"P|@	c #759A51",
"Q|@	c #75944E",
"R|@	c #467231",
"S|@	c #82CF4B",
"T|@	c #5D964C",
"U|@	c #1C2F13",
"V|@	c #709657",
"W|@	c #50873D",
"X|@	c #456E32",
"Y|@	c #090211",
"Z|@	c #071402",
"`|@	c #375B2E",
" 1@	c #679349",
".1@	c #4B6C34",
"+1@	c #577F3F",
"@1@	c #537E3A",
"#1@	c #4A6C3E",
"$1@	c #4B6F40",
"%1@	c #75A153",
"&1@	c #688F54",
"*1@	c #57833F",
"=1@	c #5D963F",
"-1@	c #61A943",
";1@	c #62A444",
">1@	c #5A9F38",
",1@	c #63AE3F",
"'1@	c #5B8A34",
")1@	c #6EA742",
"!1@	c #65A84F",
"~1@	c #345524",
"{1@	c #508436",
"]1@	c #568541",
"^1@	c #75A45A",
"/1@	c #85C854",
"(1@	c #7CA75D",
"_1@	c #304327",
":1@	c #79A749",
"<1@	c #8BD145",
"[1@	c #60A832",
"}1@	c #4C7F37",
"|1@	c #6D9558",
"11@	c #638E4B",
"21@	c #619550",
"31@	c #70A43A",
"41@	c #66A340",
"51@	c #5DA13A",
"61@	c #629C40",
"71@	c #569C3B",
"81@	c #61B14A",
"91@	c #529F3A",
"01@	c #71A44E",
"a1@	c #5C993E",
"b1@	c #2F4920",
"c1@	c #293D1D",
"d1@	c #435F2B",
"e1@	c #82BD4D",
"f1@	c #589B32",
"g1@	c #70BD44",
"h1@	c #557640",
"i1@	c #58773D",
"j1@	c #569336",
"k1@	c #7BBA52",
"l1@	c #457130",
"m1@	c #72AA4E",
"n1@	c #2B5319",
"o1@	c #76C847",
"p1@	c #77B350",
"q1@	c #1D2F11",
"r1@	c #17290A",
"s1@	c #609C3B",
"t1@	c #80D455",
"u1@	c #4F8A36",
"v1@	c #66914C",
"w1@	c #6D9A56",
"x1@	c #3C5832",
"y1@	c #688847",
"z1@	c #41642B",
"A1@	c #72A754",
"B1@	c #466734",
"C1@	c #0B060F",
"D1@	c #264619",
"E1@	c #66A34B",
"F1@	c #599039",
"G1@	c #78C350",
"H1@	c #568636",
"I1@	c #508836",
"J1@	c #7ED13B",
"K1@	c #7BCA4C",
"L1@	c #5A853E",
"M1@	c #1A2F0E",
"N1@	c #345020",
"O1@	c #5C8344",
"P1@	c #73B65D",
"Q1@	c #73C14D",
"R1@	c #4F802E",
"S1@	c #0A1803",
"T1@	c #06070C",
"U1@	c #0C0208",
"V1@	c #70AD56",
"W1@	c #85C059",
"X1@	c #5D8942",
"Y1@	c #254A18",
"Z1@	c #315D1E",
"`1@	c #436D32",
" 2@	c #61A13B",
".2@	c #82CD4E",
"+2@	c #192912",
"@2@	c #51823A",
"#2@	c #74B644",
"$2@	c #1B390B",
"%2@	c #5B9C3B",
"&2@	c #75C844",
"*2@	c #66A240",
"=2@	c #203A11",
"-2@	c #222D13",
";2@	c #4C6B38",
">2@	c #72A05C",
",2@	c #567A3F",
"'2@	c #538332",
")2@	c #82BC5A",
"!2@	c #1C3210",
"~2@	c #516D39",
"{2@	c #71B358",
"]2@	c #75AC51",
"^2@	c #6AAD4F",
"/2@	c #49693C",
"(2@	c #334C20",
"_2@	c #091D05",
":2@	c #06140C",
"<2@	c #3B5B28",
"[2@	c #405A34",
"}2@	c #6EA04C",
"|2@	c #548A3A",
"12@	c #559536",
"22@	c #283F15",
"32@	c #5E903F",
"42@	c #58973B",
"52@	c #65913E",
"62@	c #4C7E2B",
"72@	c #7AD141",
"82@	c #5B9E38",
"92@	c #4C862E",
"02@	c #334B29",
"a2@	c #4E6F45",
"b2@	c #4E7D35",
"c2@	c #253814",
"d2@	c #2F5716",
"e2@	c #3E6D2C",
"f2@	c #364F2A",
"g2@	c #5EA341",
"h2@	c #42712C",
"i2@	c #487C2C",
"j2@	c #7CB852",
"k2@	c #436527",
"l2@	c #467138",
"m2@	c #65924D",
"n2@	c #274018",
"o2@	c #487C34",
"p2@	c #61AD43",
"q2@	c #539034",
"r2@	c #69924D",
"s2@	c #5E9744",
"t2@	c #527045",
"u2@	c #2C401E",
"v2@	c #01050F",
"w2@	c #3E5D2D",
"x2@	c #4F7B3B",
"y2@	c #7AC152",
"z2@	c #5AA738",
"A2@	c #0D2706",
"B2@	c #0E040C",
"C2@	c #385C2E",
"D2@	c #447728",
"E2@	c #67A644",
"F2@	c #385F24",
"G2@	c #28401A",
"H2@	c #64A245",
"I2@	c #5B9B3B",
"J2@	c #4C7331",
"K2@	c #598640",
"L2@	c #69AE45",
"M2@	c #76A153",
"N2@	c #50763B",
"O2@	c #2B441A",
"P2@	c #324A1D",
"Q2@	c #1C2E0F",
"R2@	c #597E38",
"S2@	c #6C9548",
"T2@	c #43682D",
"U2@	c #48662D",
"V2@	c #0D0709",
"W2@	c #7AB25A",
"X2@	c #324A21",
"Y2@	c #456B29",
"Z2@	c #8ACE53",
"`2@	c #5BAB3B",
" 3@	c #437231",
".3@	c #3D6427",
"+3@	c #273D19",
"@3@	c #648F4E",
"#3@	c #68A544",
"$3@	c #3B552C",
"%3@	c #1C3512",
"&3@	c #629B47",
"*3@	c #598C41",
"=3@	c #16260A",
"-3@	c #769E5C",
";3@	c #50763D",
">3@	c #588239",
",3@	c #2C3F22",
"'3@	c #61A741",
")3@	c #5A8D4A",
"!3@	c #2A4616",
"~3@	c #4F7035",
"{3@	c #070114",
"]3@	c #649B41",
"^3@	c #70BA3E",
"/3@	c #6AA143",
"(3@	c #243B15",
"_3@	c #6EAD4F",
":3@	c #72AA4C",
"<3@	c #172B13",
"[3@	c #2B411F",
"}3@	c #698B47",
"|3@	c #6A9148",
"13@	c #4B7135",
"23@	c #67974B",
"33@	c #70A154",
"43@	c #456232",
"53@	c #6A9751",
"63@	c #53833C",
"73@	c #67A142",
"83@	c #2A4619",
"93@	c #46632C",
"03@	c #7BB74D",
"a3@	c #6DAD40",
"b3@	c #28421A",
"c3@	c #0E0001",
"d3@	c #619B4F",
"e3@	c #3D5F31",
"f3@	c #3E562B",
"g3@	c #0E200C",
"h3@	c #344827",
"i3@	c #426233",
"j3@	c #659B3B",
"k3@	c #669743",
"l3@	c #3F652E",
"m3@	c #649C51",
"n3@	c #46762F",
"o3@	c #68BD36",
"p3@	c #71D52E",
"q3@	c #76C845",
"r3@	c #2B4714",
"s3@	c #0B0608",
"t3@	c #7BBC5A",
"u3@	c #71B741",
"v3@	c #558532",
"w3@	c #72A062",
"x3@	c #628B42",
"y3@	c #61A443",
"z3@	c #549544",
"A3@	c #3D522A",
"B3@	c #2A3E1C",
"C3@	c #0B020B",
"D3@	c #70A25B",
"E3@	c #0D040E",
"F3@	c #01050D",
"G3@	c #5DA545",
"H3@	c #6CAC44",
"I3@	c #5C883E",
"J3@	c #70A953",
"K3@	c #335321",
"L3@	c #486436",
"M3@	c #73B257",
"N3@	c #579041",
"O3@	c #63944E",
"P3@	c #374D27",
"Q3@	c #46682D",
"R3@	c #72A646",
"S3@	c #76AD4D",
"T3@	c #132406",
"U3@	c #739E4E",
"V3@	c #496D2C",
"W3@	c #79AD49",
"X3@	c #486531",
"Y3@	c #69984D",
"Z3@	c #43642F",
"`3@	c #11190E",
" 4@	c #578140",
".4@	c #6DA742",
"+4@	c #608B4B",
"@4@	c #1D3813",
"#4@	c #4A6837",
"$4@	c #709E4E",
"%4@	c #61824E",
"&4@	c #0D180C",
"*4@	c #456E31",
"=4@	c #71B847",
"-4@	c #699F41",
";4@	c #264515",
">4@	c #6BA745",
",4@	c #507740",
"'4@	c #73AE4F",
")4@	c #567738",
"!4@	c #264216",
"~4@	c #38581F",
"{4@	c #7FA84D",
"]4@	c #3B5024",
"^4@	c #68AF3F",
"/4@	c #5C9E3E",
"(4@	c #263D19",
"_4@	c #4F7E3B",
":4@	c #639A49",
"<4@	c #050F00",
"[4@	c #192110",
"}4@	c #5B8540",
"|4@	c #6F9650",
"14@	c #6A9A44",
"24@	c #71B845",
"34@	c #4B802D",
"44@	c #66A54D",
"54@	c #476E39",
"64@	c #477434",
"74@	c #204812",
"84@	c #2B481B",
"94@	c #00070A",
"04@	c #4B7431",
"a4@	c #689A43",
"b4@	c #4C7A36",
"c4@	c #0D0106",
"d4@	c #68A03F",
"e4@	c #6A9646",
"f4@	c #0A160C",
"g4@	c #62A441",
"h4@	c #6EA94B",
"i4@	c #5CB734",
"j4@	c #51822B",
"k4@	c #0E2306",
"l4@	c #123305",
"m4@	c #070610",
"n4@	c #2F4324",
"o4@	c #628C47",
"p4@	c #3C6229",
"q4@	c #30511C",
"r4@	c #61964B",
"s4@	c #568743",
"t4@	c #567B3B",
"u4@	c #1E361B",
"v4@	c #5A834D",
"w4@	c #3C6326",
"x4@	c #6BA244",
"y4@	c #27451B",
"z4@	c #79A960",
"A4@	c #2A3C20",
"B4@	c #18390E",
"C4@	c #486F2E",
"D4@	c #162D0C",
"E4@	c #1A3212",
"F4@	c #31441C",
"G4@	c #5D8D4D",
"H4@	c #589B3A",
"I4@	c #548333",
"J4@	c #6F9450",
"K4@	c #030A0F",
"L4@	c #629043",
"M4@	c #6DA24B",
"N4@	c #355720",
"O4@	c #416C2F",
"P4@	c #78AE5E",
"Q4@	c #0B1B02",
"R4@	c #4B6830",
"S4@	c #4D7539",
"T4@	c #7AB155",
"U4@	c #42612D",
"V4@	c #76A950",
"W4@	c #2B4D1E",
"X4@	c #0C240B",
"Y4@	c #133007",
"Z4@	c #3C562C",
"`4@	c #598647",
" 5@	c #85B752",
".5@	c #5D9449",
"+5@	c #3F6130",
"@5@	c #80C856",
"#5@	c #70A949",
"$5@	c #050511",
"%5@	c #04060E",
"&5@	c #57893B",
"*5@	c #355620",
"=5@	c #547A3E",
"-5@	c #639E48",
";5@	c #416230",
">5@	c #355322",
",5@	c #69AB49",
"'5@	c #658D4B",
")5@	c #597241",
"!5@	c #75AF4E",
"~5@	c #416125",
"{5@	c #0D0F07",
"]5@	c #649A43",
"^5@	c #5FA840",
"/5@	c #619D47",
"(5@	c #659044",
"_5@	c #557D39",
":5@	c #5D8B3A",
"<5@	c #70A44C",
"[5@	c #517638",
"}5@	c #76A651",
"|5@	c #4F6D37",
"15@	c #1B2D13",
"25@	c #273C19",
"35@	c #5F8440",
"45@	c #6E9E45",
"55@	c #45762B",
"65@	c #74C545",
"75@	c #66A643",
"85@	c #437033",
"95@	c #304B1D",
"05@	c #335A26",
"a5@	c #73AE50",
"b5@	c #75C447",
"c5@	c #5AAB2E",
"d5@	c #6EBA3F",
"e5@	c #243F10",
"f5@	c #71C239",
"g5@	c #5D983E",
"h5@	c #6A8F55",
"i5@	c #4D6B3E",
"j5@	c #4A803B",
"k5@	c #6FC048",
"l5@	c #60943D",
"m5@	c #0D030A",
"n5@	c #130407",
"o5@	c #72A655",
"p5@	c #599237",
"q5@	c #529733",
"r5@	c #53A52E",
"s5@	c #6ABA41",
"t5@	c #406829",
"u5@	c #72A75D",
"v5@	c #1D2C18",
"w5@	c #6AA14C",
"x5@	c #6AA24D",
"y5@	c #416431",
"z5@	c #0E1A0F",
"A5@	c #02060D",
"B5@	c #2D451A",
"C5@	c #638842",
"D5@	c #6AA244",
"E5@	c #3D5F2E",
"F5@	c #5E8149",
"G5@	c #669B47",
"H5@	c #4C7535",
"I5@	c #0E030C",
"J5@	c #345B1A",
"K5@	c #77BD4A",
"L5@	c #5C9241",
"M5@	c #213518",
"N5@	c #4C6C40",
"O5@	c #67A552",
"P5@	c #457339",
"Q5@	c #6FB94A",
"R5@	c #528138",
"S5@	c #6DA743",
"T5@	c #344C26",
"U5@	c #577D4C",
"V5@	c #72A451",
"W5@	c #4D783B",
"X5@	c #7CCB51",
"Y5@	c #63A235",
"Z5@	c #68954B",
"`5@	c #6D9650",
" 6@	c #344D25",
".6@	c #17250D",
"+6@	c #456933",
"@6@	c #517C38",
"#6@	c #395924",
"$6@	c #52783E",
"%6@	c #70A056",
"&6@	c #253D1A",
"*6@	c #4F7D3D",
"=6@	c #78AD60",
"-6@	c #3D6031",
";6@	c #527A37",
">6@	c #66A74E",
",6@	c #6CA357",
"'6@	c #60A53E",
")6@	c #659F43",
"!6@	c #66894C",
"~6@	c #486B35",
"{6@	c #496730",
"]6@	c #34571D",
"^6@	c #4E7C33",
"/6@	c #6CA94A",
"(6@	c #254512",
"_6@	c #090804",
":6@	c #629143",
"<6@	c #85C753",
"[6@	c #58893E",
"}6@	c #639246",
"|6@	c #5F8945",
"16@	c #5D9045",
"26@	c #6A9C4A",
"36@	c #2B461D",
"46@	c #577042",
"56@	c #445F35",
"66@	c #213714",
"76@	c #639946",
"86@	c #67A647",
"96@	c #609040",
"06@	c #73A258",
"a6@	c #5E8947",
"b6@	c #66974A",
"c6@	c #2D4B20",
"d6@	c #040B0F",
"e6@	c #59853E",
"f6@	c #629549",
"g6@	c #5B8C3F",
"h6@	c #365729",
"i6@	c #608A4E",
"j6@	c #669C3D",
"k6@	c #609C3E",
"l6@	c #76C047",
"m6@	c #395F22",
"n6@	c #2A4717",
"o6@	c #2A5414",
"p6@	c #5AA32D",
"q6@	c #1A3D06",
"r6@	c #05020C",
"s6@	c #1F3910",
"t6@	c #7BC749",
"u6@	c #49693B",
"v6@	c #86BE62",
"w6@	c #3D582C",
"x6@	c #5C953B",
"y6@	c #466E27",
"z6@	c #5B8342",
"A6@	c #56943A",
"B6@	c #5EB13E",
"C6@	c #59AF30",
"D6@	c #6BB33D",
"E6@	c #273924",
"F6@	c #181E17",
"G6@	c #629E44",
"H6@	c #284C19",
"I6@	c #38542A",
"J6@	c #020412",
"K6@	c #6FA44C",
"L6@	c #4F6D31",
"M6@	c #3F622F",
"N6@	c #6A9C47",
"O6@	c #44632C",
"P6@	c #6A914A",
"Q6@	c #1A2D0E",
"R6@	c #2C5615",
"S6@	c #4A7432",
"T6@	c #17310B",
"U6@	c #629D3F",
"V6@	c #638D54",
"W6@	c #4B733C",
"X6@	c #6B9453",
"Y6@	c #4A673B",
"Z6@	c #060412",
"`6@	c #729A4E",
" 7@	c #264115",
".7@	c #77B94B",
"+7@	c #69964E",
"@7@	c #68984F",
"#7@	c #537B47",
"$7@	c #39582A",
"%7@	c #53723B",
"&7@	c #86BB56",
"*7@	c #558536",
"=7@	c #51783F",
"-7@	c #77AD53",
";7@	c #1F2D14",
">7@	c #5E8A41",
",7@	c #597B41",
"'7@	c #75A452",
")7@	c #4D7233",
"!7@	c #5F8C46",
"~7@	c #618E48",
"{7@	c #527A3B",
"]7@	c #639347",
"^7@	c #75AF61",
"/7@	c #548342",
"(7@	c #77B360",
"_7@	c #324C26",
":7@	c #284618",
"<7@	c #13260C",
"[7@	c #6C9E49",
"}7@	c #6BAD51",
"|7@	c #557A35",
"17@	c #76BC47",
"27@	c #6DAF45",
"37@	c #2A471A",
"47@	c #5C8B40",
"57@	c #639C49",
"67@	c #69AA3B",
"77@	c #2C4617",
"87@	c #132307",
"97@	c #568241",
"07@	c #5E8548",
"a7@	c #5F953F",
"b7@	c #5F9D40",
"c7@	c #70A353",
"d7@	c #2B4420",
"e7@	c #4C7C39",
"f7@	c #6B9E4C",
"g7@	c #223915",
"h7@	c #517A3F",
"i7@	c #6CA653",
"j7@	c #527D3F",
"k7@	c #608246",
"l7@	c #79A456",
"m7@	c #628545",
"n7@	c #0F2900",
"o7@	c #112B03",
"p7@	c #6CA951",
"q7@	c #153409",
"r7@	c #0C1811",
"s7@	c #55843B",
"t7@	c #497135",
"u7@	c #749F58",
"v7@	c #589436",
"w7@	c #5D953D",
"x7@	c #5A8347",
"y7@	c #4C6F33",
"z7@	c #709F4D",
"A7@	c #0B050A",
"B7@	c #69AD52",
"C7@	c #64CE33",
"D7@	c #65B33F",
"E7@	c #48792A",
"F7@	c #78AF61",
"G7@	c #2A4320",
"H7@	c #456935",
"I7@	c #5C844C",
"J7@	c #071102",
"K7@	c #02050C",
"L7@	c #64954E",
"M7@	c #75AB5F",
"N7@	c #345022",
"O7@	c #709F53",
"P7@	c #719E60",
"Q7@	c #629F45",
"R7@	c #1A3012",
"S7@	c #66AC46",
"T7@	c #7AB159",
"U7@	c #597747",
"V7@	c #6AA243",
"W7@	c #789B56",
"X7@	c #3D5529",
"Y7@	c #58883C",
"Z7@	c #0C2904",
"`7@	c #4C6E39",
" 8@	c #619152",
".8@	c #6C945B",
"+8@	c #314824",
"@8@	c #537C3A",
"#8@	c #5E8540",
"$8@	c #2D421F",
"%8@	c #6C904B",
"&8@	c #658D47",
"*8@	c #5F8B42",
"=8@	c #669246",
"-8@	c #020912",
";8@	c #588545",
">8@	c #7AAC5A",
",8@	c #3E572F",
"'8@	c #6DA250",
")8@	c #1F3A12",
"!8@	c #66AB4C",
"~8@	c #6FA249",
"{8@	c #2B4C16",
"]8@	c #619644",
"^8@	c #8AD54E",
"/8@	c #3B631F",
"(8@	c #0C1301",
"_8@	c #49703A",
":8@	c #628953",
"<8@	c #092101",
"[8@	c #5F9E44",
"}8@	c #548437",
"|8@	c #70A64B",
"18@	c #0E140B",
"28@	c #2C4820",
"38@	c #5E9147",
"48@	c #69A150",
"58@	c #75A355",
"68@	c #405A2C",
"78@	c #73A150",
"88@	c #5E8741",
"98@	c #5C874B",
"08@	c #689F57",
"a8@	c #436A34",
"b8@	c #2E531C",
"c8@	c #69A54B",
"d8@	c #3B5F2A",
"e8@	c #304222",
"f8@	c #69A155",
"g8@	c #0E230F",
"h8@	c #7BA264",
"i8@	c #4C6B3E",
"j8@	c #5B8C50",
"k8@	c #366727",
"l8@	c #83C760",
"m8@	c #619143",
"n8@	c #81AD4D",
"o8@	c #526F35",
"p8@	c #070F0B",
"q8@	c #162C12",
"r8@	c #4F9129",
"s8@	c #6DDC2B",
"t8@	c #69C242",
"u8@	c #152413",
"v8@	c #060311",
"w8@	c #588048",
"x8@	c #507441",
"y8@	c #2F4C24",
"z8@	c #42652F",
"A8@	c #598445",
"B8@	c #091308",
"C8@	c #558436",
"D8@	c #4E7234",
"E8@	c #3C5B2C",
"F8@	c #70AA51",
"G8@	c #374F2A",
"H8@	c #72A65E",
"I8@	c #73B85B",
"J8@	c #416F33",
"K8@	c #5B7A49",
"L8@	c #75985E",
"M8@	c #5C8C46",
"N8@	c #6BAA5A",
"O8@	c #010C04",
"P8@	c #517339",
"Q8@	c #5C8545",
"R8@	c #345C1F",
"S8@	c #457830",
"T8@	c #6F9555",
"U8@	c #3E5E2C",
"V8@	c #56793F",
"W8@	c #77A25A",
"X8@	c #486738",
"Y8@	c #5D8A46",
"Z8@	c #76A65E",
"`8@	c #569C41",
" 9@	c #609A48",
".9@	c #0A0802",
"+9@	c #618F40",
"@9@	c #527B3E",
"#9@	c #70A750",
"$9@	c #2A4A19",
"%9@	c #7AC84F",
"&9@	c #050809",
"*9@	c #020A05",
"=9@	c #274014",
"-9@	c #6CA740",
";9@	c #6CBE46",
">9@	c #5E9A3E",
",9@	c #3B5D2D",
"'9@	c #5B8D4D",
")9@	c #46652D",
"!9@	c #0A1302",
"~9@	c #5F923E",
"{9@	c #619B3F",
"]9@	c #71AE53",
"^9@	c #2E4E20",
"/9@	c #487C36",
"(9@	c #699E54",
"_9@	c #588A3B",
":9@	c #415C2E",
"<9@	c #72A151",
"[9@	c #70A14B",
"}9@	c #110002",
"|9@	c #67AC4B",
"19@	c #4F7C3A",
"29@	c #5A8F4A",
"39@	c #6DB843",
"49@	c #76D033",
"59@	c #78A354",
"69@	c #719A54",
"79@	c #314927",
"89@	c #6E965A",
"99@	c #689741",
"09@	c #5B8D3E",
"a9@	c #6BAB45",
"b9@	c #3B5524",
"c9@	c #0E160B",
"d9@	c #131F0E",
"e9@	c #010A0F",
"f9@	c #55773D",
"g9@	c #66B546",
"h9@	c #50A921",
"i9@	c #74C742",
"j9@	c #69A74F",
"k9@	c #69A34F",
"l9@	c #2D4C1C",
"m9@	c #5E8E41",
"n9@	c #26391C",
"o9@	c #74A15D",
"p9@	c #407626",
"q9@	c #608842",
"r9@	c #0B030A",
"s9@	c #3A5C29",
"t9@	c #2F4D23",
"u9@	c #070413",
"v9@	c #273C1F",
"w9@	c #507A3E",
"x9@	c #60AB45",
"y9@	c #539D3E",
"z9@	c #51913E",
"A9@	c #110909",
"B9@	c #0A070B",
"C9@	c #559730",
"D9@	c #7DDB2E",
"E9@	c #6BA144",
"F9@	c #5F8A48",
"G9@	c #0E1E08",
"H9@	c #3E6030",
"I9@	c #70A54E",
"J9@	c #588740",
"K9@	c #70A94A",
"L9@	c #60B63D",
"M9@	c #56A636",
"N9@	c #1B360F",
"O9@	c #0B1E08",
"P9@	c #284318",
"Q9@	c #568441",
"R9@	c #6E9F4E",
"S9@	c #3E652A",
"T9@	c #5E8C43",
"U9@	c #65AC50",
"V9@	c #568341",
"W9@	c #619941",
"X9@	c #69AA47",
"Y9@	c #234314",
"Z9@	c #0A0B0A",
"`9@	c #000A0A",
" 0@	c #172F0B",
".0@	c #70AB4A",
"+0@	c #33541F",
"@0@	c #5E7E40",
"#0@	c #638A4C",
"$0@	c #78A64E",
"%0@	c #3C5B26",
"&0@	c #619640",
"*0@	c #72AB49",
"=0@	c #507E34",
"-0@	c #669E4C",
";0@	c #020D09",
">0@	c #4E8529",
",0@	c #7EDE40",
"'0@	c #5EA733",
")0@	c #050D0F",
"!0@	c #476B3A",
"~0@	c #5F9446",
"{0@	c #5A933B",
"]0@	c #6DB046",
"^0@	c #689A50",
"/0@	c #2C5115",
"(0@	c #1A340D",
"_0@	c #0D1B0D",
":0@	c #2E4A21",
"<0@	c #65934C",
"[0@	c #0D1D0B",
"}0@	c #3D6127",
"|0@	c #579436",
"10@	c #5D943B",
"20@	c #61A539",
"30@	c #6FC245",
"40@	c #0F240A",
"50@	c #3D6933",
"60@	c #091A05",
"70@	c #364D29",
"80@	c #6FA159",
"90@	c #496A38",
"00@	c #5B7F4A",
"a0@	c #0C1E07",
"b0@	c #468723",
"c0@	c #5BA932",
"d0@	c #517C35",
"e0@	c #0A120D",
"f0@	c #516F35",
"g0@	c #7CAD5A",
"h0@	c #517F40",
"i0@	c #122F0B",
"j0@	c #0D1306",
"k0@	c #6CA854",
"l0@	c #35601D",
"m0@	c #161C0E",
"n0@	c #6B8951",
"o0@	c #73AE46",
"p0@	c #5C9546",
"q0@	c #5E814C",
"r0@	c #3E522B",
"s0@	c #3B6626",
"t0@	c #5A883F",
"u0@	c #72AC55",
"v0@	c #3F6927",
"w0@	c #508D2F",
"x0@	c #7CDB48",
"y0@	c #417420",
"z0@	c #2C4822",
"A0@	c #71A254",
"B0@	c #69A656",
"C0@	c #61A346",
"D0@	c #294E16",
"E0@	c #6DA851",
"F0@	c #40642E",
"G0@	c #608A4D",
"H0@	c #6DAD42",
"I0@	c #6CAE47",
"J0@	c #68A741",
"K0@	c #2A4519",
"L0@	c #57903A",
"M0@	c #6AA648",
"N0@	c #609847",
"O0@	c #253914",
"P0@	c #6DA24A",
"Q0@	c #588A42",
"R0@	c #2E531A",
"S0@	c #7AE62D",
"T0@	c #63BA2C",
"U0@	c #081C04",
"V0@	c #0B0606",
"W0@	c #75B75C",
"X0@	c #5E7F45",
"Y0@	c #7AA858",
"Z0@	c #4D6E31",
"`0@	c #1B370F",
" a@	c #497536",
".a@	c #355221",
"+a@	c #4B7134",
"@a@	c #2E4420",
"#a@	c #1F3C14",
"$a@	c #79B056",
"%a@	c #77A948",
"&a@	c #4D792F",
"*a@	c #355B28",
"=a@	c #516E3E",
"-a@	c #526D3C",
";a@	c #48673B",
">a@	c #5D8251",
",a@	c #486836",
"'a@	c #5B854A",
")a@	c #689D4D",
"!a@	c #020C00",
"~a@	c #50842D",
"{a@	c #7EC55C",
"]a@	c #2A4E1B",
"^a@	c #345220",
"/a@	c #79A655",
"(a@	c #001500",
"_a@	c #3D5B28",
":a@	c #759E57",
"<a@	c #0C0204",
"[a@	c #070311",
"}a@	c #080901",
"|a@	c #354C26",
"1a@	c #668A42",
"2a@	c #749E5B",
"3a@	c #3E5C23",
"4a@	c #0F180A",
"5a@	c #18320B",
"6a@	c #35522A",
"7a@	c #4D6838",
"8a@	c #395825",
"9a@	c #82B954",
"0a@	c #60953D",
"aa@	c #142210",
"ba@	c #63894D",
"ca@	c #5D8C3E",
"da@	c #112209",
"ea@	c #5AA335",
"fa@	c #76E135",
"ga@	c #6DB041",
"ha@	c #325026",
"ia@	c #6CA354",
"ja@	c #6FAF55",
"ka@	c #5A8738",
"la@	c #68AB3F",
"ma@	c #64BA3C",
"na@	c #68A644",
"oa@	c #34551E",
"pa@	c #73B245",
"qa@	c #66A245",
"ra@	c #1C2F16",
"sa@	c #66A14B",
"ta@	c #122E0C",
"ua@	c #5E993F",
"va@	c #74B056",
"wa@	c #000C01",
"xa@	c #5E8E3D",
"ya@	c #79B15D",
"za@	c #4A7238",
"Aa@	c #06130F",
"Ba@	c #000010",
"Ca@	c #6EAC4B",
"Da@	c #5E983C",
"Ea@	c #59BB2E",
"Fa@	c #5BB932",
"Ga@	c #0F170B",
"Ha@	c #15230B",
"Ia@	c #0B1E09",
"Ja@	c #36591F",
"Ka@	c #73AA4B",
"La@	c #69A745",
"Ma@	c #588E3E",
"Na@	c #6AA848",
"Oa@	c #5A8B3F",
"Pa@	c #334D21",
"Qa@	c #324226",
"Ra@	c #749D5A",
"Sa@	c #569147",
"Ta@	c #40582E",
"Ua@	c #1E370E",
"Va@	c #395D24",
"Wa@	c #5A9334",
"Xa@	c #6FA850",
"Ya@	c #619148",
"Za@	c #3F5C33",
"`a@	c #40602D",
" b@	c #080310",
".b@	c #203611",
"+b@	c #334F27",
"@b@	c #0D170B",
"#b@	c #426A26",
"$b@	c #699949",
"%b@	c #6C9356",
"&b@	c #0D0605",
"*b@	c #324A25",
"=b@	c #628646",
"-b@	c #79A164",
";b@	c #4C6E35",
">b@	c #75B448",
",b@	c #1A330B",
"'b@	c #669746",
")b@	c #4A6831",
"!b@	c #2E441C",
"~b@	c #4A8B2F",
"{b@	c #32541D",
"]b@	c #5FAF36",
"^b@	c #487E2F",
"/b@	c #70A864",
"(b@	c #324A2A",
"_b@	c #6BA849",
":b@	c #233E14",
"<b@	c #120D13",
"[b@	c #4B7F2F",
"}b@	c #65C241",
"|b@	c #75CA48",
"1b@	c #73A748",
"2b@	c #254312",
"3b@	c #5E9146",
"4b@	c #5E953C",
"5b@	c #50713A",
"6b@	c #4A6535",
"7b@	c #588F3C",
"8b@	c #70A752",
"9b@	c #51743F",
"0b@	c #2B3E1F",
"ab@	c #325D27",
"bb@	c #5EAF4A",
"cb@	c #48722A",
"db@	c #6AA73C",
"eb@	c #1F3A0E",
"fb@	c #0A0413",
"gb@	c #598A40",
"hb@	c #42712F",
"ib@	c #517A3E",
"jb@	c #6AAC48",
"kb@	c #5F9946",
"lb@	c #3A562A",
"mb@	c #587140",
"nb@	c #475B32",
"ob@	c #669449",
"pb@	c #517833",
"qb@	c #334D24",
"rb@	c #72A25B",
"sb@	c #71A152",
"tb@	c #55813A",
"ub@	c #69A34C",
"vb@	c #43652B",
"wb@	c #5B9139",
"xb@	c #0F1D0D",
"yb@	c #0B1708",
"zb@	c #41582F",
"Ab@	c #1F3F15",
"Bb@	c #5A9E43",
"Cb@	c #2C481D",
"Db@	c #6DA748",
"Eb@	c #72B24B",
"Fb@	c #3C6227",
"Gb@	c #4A6439",
"Hb@	c #406130",
"Ib@	c #70A24D",
"Jb@	c #3B5825",
"Kb@	c #020E00",
"Lb@	c #3A5B2E",
"Mb@	c #3C5C31",
"Nb@	c #050E04",
"Ob@	c #2E4220",
"Pb@	c #7AAC60",
"Qb@	c #527938",
"Rb@	c #6B9E51",
"Sb@	c #699353",
"Tb@	c #4B6F34",
"Ub@	c #6F9F4B",
"Vb@	c #253222",
"Wb@	c #516C39",
"Xb@	c #678849",
"Yb@	c #67B931",
"Zb@	c #68D834",
"`b@	c #67C945",
" c@	c #5A983C",
".c@	c #62894F",
"+c@	c #5A9940",
"@c@	c #427E2D",
"#c@	c #73A757",
"$c@	c #3F572D",
"%c@	c #7EA55F",
"&c@	c #3D5A2F",
"*c@	c #547D3F",
"=c@	c #416136",
"-c@	c #6DBD44",
";c@	c #61B344",
">c@	c #63983C",
",c@	c #6C984F",
"'c@	c #29401C",
")c@	c #3F6030",
"!c@	c #4C7533",
"~c@	c #74A64E",
"{c@	c #42662D",
"]c@	c #6A9B4C",
"^c@	c #52773B",
"/c@	c #679044",
"(c@	c #578E3F",
"_c@	c #70C153",
":c@	c #487732",
"<c@	c #2E4A1D",
"[c@	c #5E8748",
"}c@	c #679D58",
"|c@	c #447E36",
"1c@	c #599E30",
"2c@	c #76D03B",
"3c@	c #23400E",
"4c@	c #0E010A",
"5c@	c #0C030B",
"6c@	c #3E5A33",
"7c@	c #5A9440",
"8c@	c #57873B",
"9c@	c #0B1B06",
"0c@	c #4E8440",
"ac@	c #68B447",
"bc@	c #5A9339",
"cc@	c #69A04D",
"dc@	c #71AD56",
"ec@	c #4E8332",
"fc@	c #456B30",
"gc@	c #4B6B3A",
"hc@	c #6DA458",
"ic@	c #516B38",
"jc@	c #698B48",
"kc@	c #7AA356",
"lc@	c #466B2D",
"mc@	c #65984E",
"nc@	c #638B4A",
"oc@	c #476D38",
"pc@	c #669850",
"qc@	c #597F41",
"rc@	c #7CA956",
"sc@	c #101113",
"tc@	c #141B13",
"uc@	c #4C6C39",
"vc@	c #587047",
"wc@	c #334924",
"xc@	c #6CA655",
"yc@	c #122B09",
"zc@	c #72A35E",
"Ac@	c #142811",
"Bc@	c #0D140C",
"Cc@	c #77B351",
"Dc@	c #4F7A28",
"Ec@	c #6B9C49",
"Fc@	c #56873F",
"Gc@	c #46712E",
"Hc@	c #72B051",
"Ic@	c #5A8444",
"Jc@	c #527F41",
"Kc@	c #659554",
"Lc@	c #75A85D",
"Mc@	c #395128",
"Nc@	c #24361C",
"Oc@	c #305226",
"Pc@	c #50823A",
"Qc@	c #76AA5A",
"Rc@	c #537C3F",
"Sc@	c #7CD43E",
"Tc@	c #7BC73D",
"Uc@	c #486E2F",
"Vc@	c #465F32",
"Wc@	c #487036",
"Xc@	c #55763E",
"Yc@	c #4D753F",
"Zc@	c #7CA755",
"`c@	c #5B7640",
" d@	c #0A100A",
".d@	c #61B528",
"+d@	c #58B726",
"@d@	c #447F34",
"#d@	c #3D692A",
"$d@	c #678949",
"%d@	c #6C9C57",
"&d@	c #57893D",
"*d@	c #456430",
"=d@	c #78BA50",
"-d@	c #74BB47",
";d@	c #6FA055",
">d@	c #729D60",
",d@	c #3D6D24",
"'d@	c #68B03F",
")d@	c #3E6426",
"!d@	c #15290B",
"~d@	c #5F8146",
"{d@	c #63923F",
"]d@	c #58823C",
"^d@	c #0A1B11",
"/d@	c #6AB248",
"(d@	c #4E8A3A",
"_d@	c #79B64B",
":d@	c #6AA843",
"<d@	c #477C2E",
"[d@	c #44642E",
"}d@	c #61B033",
"|d@	c #6DC839",
"1d@	c #112705",
"2d@	c #0C020C",
"3d@	c #1D3712",
"4d@	c #466531",
"5d@	c #7BA35A",
"6d@	c #29371A",
"7d@	c #639245",
"8d@	c #142C0E",
"9d@	c #4C7D33",
"0d@	c #5EA83F",
"ad@	c #7BCD4B",
"bd@	c #6EB147",
"cd@	c #4E7C36",
"dd@	c #587F46",
"ed@	c #60884B",
"fd@	c #4D6E3C",
"gd@	c #6B9B5B",
"hd@	c #2A4623",
"id@	c #87BB5D",
"jd@	c #558939",
"kd@	c #6C9B57",
"ld@	c #4B6D3C",
"md@	c #7EA35E",
"nd@	c #51703E",
"od@	c #314B1F",
"pd@	c #425C32",
"qd@	c #49623A",
"rd@	c #011001",
"sd@	c #517741",
"td@	c #4B6639",
"ud@	c #546E39",
"vd@	c #426237",
"wd@	c #608851",
"xd@	c #3F5E35",
"yd@	c #172312",
"zd@	c #58764A",
"Ad@	c #12210E",
"Bd@	c #284718",
"Cd@	c #4E713C",
"Dd@	c #7BA158",
"Ed@	c #67913F",
"Fd@	c #3C5927",
"Gd@	c #436F2A",
"Hd@	c #5B8642",
"Id@	c #66A54C",
"Jd@	c #7CBA56",
"Kd@	c #25371B",
"Ld@	c #739A55",
"Md@	c #719454",
"Nd@	c #81A462",
"Od@	c #80AB64",
"Pd@	c #5D9E36",
"Qd@	c #63B050",
"Rd@	c #75C249",
"Sd@	c #4B8526",
"Td@	c #68A935",
"Ud@	c #73BD42",
"Vd@	c #3C6329",
"Wd@	c #52753E",
"Xd@	c #173208",
"Yd@	c #5FA531",
"Zd@	c #67A247",
"`d@	c #466338",
" e@	c #48693A",
".e@	c #466535",
"+e@	c #519923",
"@e@	c #5FB131",
"#e@	c #477030",
"$e@	c #5A984E",
"%e@	c #598C4E",
"&e@	c #1C320E",
"*e@	c #6CA651",
"=e@	c #80C255",
"-e@	c #538D34",
";e@	c #0D1308",
">e@	c #3E602D",
",e@	c #508734",
"'e@	c #66B342",
")e@	c #224215",
"!e@	c #3E612F",
"~e@	c #4A7736",
"{e@	c #7AB254",
"]e@	c #0A0304",
"^e@	c #213214",
"/e@	c #527A34",
"(e@	c #85C757",
"_e@	c #548134",
":e@	c #153109",
"<e@	c #7CAF5D",
"[e@	c #2D4725",
"}e@	c #7DC060",
"|e@	c #4F8538",
"1e@	c #529033",
"2e@	c #6CB63A",
"3e@	c #46882E",
"4e@	c #5AA230",
"5e@	c #43722E",
"6e@	c #567D3E",
"7e@	c #5E9F39",
"8e@	c #6CB54B",
"9e@	c #11230A",
"0e@	c #425F33",
"ae@	c #7BA25A",
"be@	c #344A25",
"ce@	c #7BCD4E",
"de@	c #5F9643",
"ee@	c #2C541D",
"fe@	c #54963B",
"ge@	c #0E1207",
"he@	c #0E1808",
"ie@	c #0F150B",
"je@	c #689B54",
"ke@	c #2E5423",
"le@	c #071A02",
"me@	c #6CA44F",
"ne@	c #608E51",
"oe@	c #527839",
"pe@	c #769F53",
"qe@	c #4F693A",
"re@	c #233511",
"se@	c #7FB757",
"te@	c #4F7B36",
"ue@	c #0A1F08",
"ve@	c #6C9A5A",
"we@	c #39552B",
"xe@	c #061A06",
"ye@	c #011103",
"ze@	c #5D8753",
"Ae@	c #405E39",
"Be@	c #416436",
"Ce@	c #223812",
"De@	c #80C053",
"Ee@	c #1F3111",
"Fe@	c #45622C",
"Ge@	c #769E56",
"He@	c #6B934F",
"Ie@	c #537439",
"Je@	c #3C5F2B",
"Ke@	c #71B150",
"Le@	c #243719",
"Me@	c #688F4E",
"Ne@	c #467638",
"Oe@	c #5F9C48",
"Pe@	c #38591D",
"Qe@	c #699348",
"Re@	c #6DA142",
"Se@	c #6AB939",
"Te@	c #5F8348",
"Ue@	c #3A5529",
"Ve@	c #173305",
"We@	c #74BD30",
"Xe@	c #487423",
"Ye@	c #76AD48",
"Ze@	c #3E7A20",
"`e@	c #64A63F",
" f@	c #67963D",
".f@	c #70AA36",
"+f@	c #478F24",
"@f@	c #44812F",
"#f@	c #75B752",
"$f@	c #1A2C12",
"%f@	c #090E09",
"&f@	c #2D4C1B",
"*f@	c #7BBD5F",
"=f@	c #4C702D",
"-f@	c #87C74F",
";f@	c #29431B",
">f@	c #070B0D",
",f@	c #0B1B0A",
"'f@	c #77BA4A",
")f@	c #77CE40",
"!f@	c #456437",
"~f@	c #6FB056",
"{f@	c #578040",
"]f@	c #456A2C",
"^f@	c #476C27",
"/f@	c #557D3C",
"(f@	c #69AB42",
"_f@	c #34521D",
":f@	c #090F04",
"<f@	c #375D24",
"[f@	c #091503",
"}f@	c #172414",
"|f@	c #1C2A15",
"1f@	c #659F47",
"2f@	c #3C552D",
"3f@	c #0E0D06",
"4f@	c #334C2A",
"5f@	c #479C26",
"6f@	c #5AA538",
"7f@	c #63964A",
"8f@	c #62934A",
"9f@	c #5B9F41",
"0f@	c #639647",
"af@	c #42602E",
"bf@	c #090102",
"cf@	c #0E1307",
"df@	c #6E9955",
"ef@	c #314924",
"ff@	c #6D975A",
"gf@	c #4B703D",
"hf@	c #65904D",
"if@	c #4F7341",
"jf@	c #5E8753",
"kf@	c #446726",
"lf@	c #75B647",
"mf@	c #45712F",
"nf@	c #72A55B",
"of@	c #5F9E3D",
"pf@	c #102808",
"qf@	c #324E28",
"rf@	c #20380D",
"sf@	c #7ECA4A",
"tf@	c #549434",
"uf@	c #08050F",
"vf@	c #253716",
"wf@	c #55793E",
"xf@	c #73AD57",
"yf@	c #6FB14E",
"zf@	c #6EA354",
"Af@	c #243E15",
"Bf@	c #628F40",
"Cf@	c #223614",
"Df@	c #28451F",
"Ef@	c #3A572F",
"Ff@	c #5C7B45",
"Gf@	c #639844",
"Hf@	c #486637",
"If@	c #062001",
"Jf@	c #60A336",
"Kf@	c #6AA740",
"Lf@	c #4A762F",
"Mf@	c #416239",
"Nf@	c #1B2813",
"Of@	c #1B2612",
"Pf@	c #3A6520",
"Qf@	c #5F8C3F",
"Rf@	c #314A17",
"Sf@	c #679F3A",
"Tf@	c #70B846",
"Uf@	c #4C6F38",
"Vf@	c #4C7E2F",
"Wf@	c #528048",
"Xf@	c #51803E",
"Yf@	c #3A5527",
"Zf@	c #426333",
"`f@	c #77C64C",
" g@	c #85B959",
".g@	c #466523",
"+g@	c #0C020E",
"@g@	c #2F5619",
"#g@	c #68A944",
"$g@	c #5E9039",
"%g@	c #283D15",
"&g@	c #54733A",
"*g@	c #355C25",
"=g@	c #57833C",
"-g@	c #5A7F46",
";g@	c #101C0C",
">g@	c #7AB059",
",g@	c #4D7134",
"'g@	c #4E7D33",
")g@	c #5A9539",
"!g@	c #467538",
"~g@	c #4C8530",
"{g@	c #6A9F55",
"]g@	c #79AA60",
"^g@	c #749F5C",
"/g@	c #62854F",
"(g@	c #51743C",
"_g@	c #3D6028",
":g@	c #4B6F39",
"<g@	c #68A043",
"[g@	c #508835",
"}g@	c #6FC24A",
"|g@	c #43712D",
"1g@	c #16240F",
"2g@	c #1E2B13",
"3g@	c #3E612E",
"4g@	c #46692D",
"5g@	c #2E4023",
"6g@	c #78AB58",
"7g@	c #7CA55F",
"8g@	c #4B6A3A",
"9g@	c #678850",
"0g@	c #0D0804",
"ag@	c #75AD45",
"bg@	c #619C45",
"cg@	c #59753B",
"dg@	c #060F00",
"eg@	c #111F05",
"fg@	c #374E25",
"gg@	c #283F1E",
"hg@	c #1A320F",
"ig@	c #72B55B",
"jg@	c #70B94C",
"kg@	c #2D4E1B",
"lg@	c #6AB441",
"mg@	c #6AB541",
"ng@	c #396322",
"og@	c #77AB67",
"pg@	c #5E9A41",
"qg@	c #6B9F45",
"rg@	c #213A14",
"sg@	c #30491D",
"tg@	c #4B7333",
"ug@	c #3A5D30",
"vg@	c #314D29",
"wg@	c #223717",
"xg@	c #162415",
"yg@	c #73AC6B",
"zg@	c #4A7840",
"Ag@	c #7AAD52",
"Bg@	c #7BA95A",
"Cg@	c #65A044",
"Dg@	c #63A452",
"Eg@	c #436D36",
"Fg@	c #669250",
"Gg@	c #3C6520",
"Hg@	c #87CE45",
"Ig@	c #55932E",
"Jg@	c #3A6122",
"Kg@	c #4E7744",
"Lg@	c #568248",
"Mg@	c #659051",
"Ng@	c #73A05A",
"Og@	c #72A357",
"Pg@	c #568E3C",
"Qg@	c #457C31",
"Rg@	c #467839",
"Sg@	c #3F6A33",
"Tg@	c #4F7F38",
"Ug@	c #010E05",
"Vg@	c #112506",
"Wg@	c #42632D",
"Xg@	c #74A05A",
"Yg@	c #4A772F",
"Zg@	c #79B062",
"`g@	c #6C9348",
" h@	c #5C9239",
".h@	c #162B0A",
"+h@	c #4A7233",
"@h@	c #7AC551",
"#h@	c #3E6226",
"$h@	c #213414",
"%h@	c #5E7E3C",
"&h@	c #548340",
"*h@	c #102409",
"=h@	c #5C7F42",
"-h@	c #709D51",
";h@	c #669748",
">h@	c #18280C",
",h@	c #364E2A",
"'h@	c #466534",
")h@	c #4B7E2C",
"!h@	c #75B943",
"~h@	c #579336",
"{h@	c #4F7A41",
"]h@	c #4A7138",
"^h@	c #78A752",
"/h@	c #375225",
"(h@	c #6E9C55",
"_h@	c #4F863A",
":h@	c #5F9A46",
"<h@	c #42722E",
"[h@	c #4D872D",
"}h@	c #6AA553",
"|h@	c #648A4F",
"1h@	c #659740",
"2h@	c #76C349",
"3h@	c #497235",
"4h@	c #668B4F",
"5h@	c #466630",
"6h@	c #73A859",
"7h@	c #263A1C",
"8h@	c #30451C",
"9h@	c #7DA354",
"0h@	c #3F5B2E",
"ah@	c #4F753E",
"bh@	c #51723A",
"ch@	c #39532B",
"dh@	c #293E1F",
"eh@	c #7AB160",
"fh@	c #233C14",
"gh@	c #61A44B",
"hh@	c #548C3A",
"ih@	c #4D733D",
"jh@	c #020C03",
"kh@	c #070908",
"lh@	c #06080D",
"mh@	c #04070F",
"nh@	c #6CAE40",
"oh@	c #73B34D",
"ph@	c #538B33",
"qh@	c #68A24F",
"rh@	c #405F2B",
"sh@	c #86BB60",
"th@	c #4E7A3E",
"uh@	c #588146",
"vh@	c #6F9453",
"wh@	c #769F58",
"xh@	c #71A455",
"yh@	c #528935",
"zh@	c #406433",
"Ah@	c #73AB56",
"Bh@	c #5D8649",
"Ch@	c #5B9248",
"Dh@	c #679E3E",
"Eh@	c #061700",
"Fh@	c #4D7E26",
"Gh@	c #7ED34E",
"Hh@	c #7ACA44",
"Ih@	c #6EBC3B",
"Jh@	c #579A2E",
"Kh@	c #518C2E",
"Lh@	c #4A8A27",
"Mh@	c #448826",
"Nh@	c #497F32",
"Oh@	c #396726",
"Ph@	c #4E7541",
"Qh@	c #578D3B",
"Rh@	c #75B14D",
"Sh@	c #49832C",
"Th@	c #3E6B2F",
"Uh@	c #36552A",
"Vh@	c #243C1F",
"Wh@	c #172B15",
"Xh@	c #578B41",
"Yh@	c #56883C",
"Zh@	c #233F13",
"`h@	c #6EAC4D",
" i@	c #587C38",
".i@	c #7A9A4C",
"+i@	c #050214",
"@i@	c #4A6F2F",
"#i@	c #73B057",
"$i@	c #76C849",
"%i@	c #4D8430",
"&i@	c #649143",
"*i@	c #79A95B",
"=i@	c #5B8140",
"-i@	c #67934A",
";i@	c #79A651",
">i@	c #6F9D54",
",i@	c #5B8849",
"'i@	c #577942",
")i@	c #709F4A",
"!i@	c #619036",
"~i@	c #0C2304",
"{i@	c #1F3414",
"]i@	c #639346",
"^i@	c #0C1405",
"/i@	c #334B24",
"(i@	c #6AA146",
"_i@	c #6AA44F",
":i@	c #50753F",
"<i@	c #3B6226",
"[i@	c #264D19",
"}i@	c #345227",
"|i@	c #488024",
"1i@	c #4F972F",
"2i@	c #659D4F",
"3i@	c #5F8F3F",
"4i@	c #6B9749",
"5i@	c #283517",
"6i@	c #7DA155",
"7i@	c #5E8D40",
"8i@	c #3F5A2C",
"9i@	c #70A257",
"0i@	c #598C42",
"ai@	c #51783C",
"bi@	c #5D804A",
"ci@	c #4C7136",
"di@	c #27421B",
"ei@	c #628141",
"fi@	c #5F8444",
"gi@	c #4D7E35",
"hi@	c #527C3F",
"ii@	c #76A869",
"ji@	c #08090C",
"ki@	c #4E7F30",
"li@	c #67AB42",
"mi@	c #61873D",
"ni@	c #4F8432",
"oi@	c #66A14F",
"pi@	c #678C50",
"qi@	c #4A6639",
"ri@	c #1F2F14",
"si@	c #264717",
"ti@	c #365B21",
"ui@	c #4F733B",
"vi@	c #578D2C",
"wi@	c #60B338",
"xi@	c #59AA3D",
"yi@	c #4A8A2B",
"zi@	c #649056",
"Ai@	c #63974B",
"Bi@	c #2C5717",
"Ci@	c #558E33",
"Di@	c #68AD42",
"Ei@	c #70B850",
"Fi@	c #6FB74F",
"Gi@	c #60AE39",
"Hi@	c #65B936",
"Ii@	c #7EC854",
"Ji@	c #79A85F",
"Ki@	c #34462A",
"Li@	c #4E7E30",
"Mi@	c #74B052",
"Ni@	c #5A844A",
"Oi@	c #75AA5B",
"Pi@	c #7DA24D",
"Qi@	c #384F24",
"Ri@	c #719C56",
"Si@	c #37662A",
"Ti@	c #34551D",
"Ui@	c #81BD51",
"Vi@	c #689346",
"Wi@	c #2E3F16",
"Xi@	c #090E11",
"Yi@	c #375724",
"Zi@	c #6FBA46",
"`i@	c #7DD54E",
" j@	c #386022",
".j@	c #1E3513",
"+j@	c #0C2008",
"@j@	c #678D50",
"#j@	c #395228",
"$j@	c #1C2C14",
"%j@	c #3E5F2C",
"&j@	c #6EA74F",
"*j@	c #233C18",
"=j@	c #548B35",
"-j@	c #74B350",
";j@	c #50882E",
">j@	c #0F1B0B",
",j@	c #23381B",
"'j@	c #699E53",
")j@	c #4D723B",
"!j@	c #5C9846",
"~j@	c #66AE41",
"{j@	c #0A0610",
"]j@	c #476335",
"^j@	c #719E53",
"/j@	c #445F33",
"(j@	c #5C7E45",
"_j@	c #416134",
":j@	c #5F9B48",
"<j@	c #5F8142",
"[j@	c #2E3D1D",
"}j@	c #6D9654",
"|j@	c #588640",
"1j@	c #02090A",
"2j@	c #203913",
"3j@	c #66A347",
"4j@	c #66934D",
"5j@	c #263E1A",
"6j@	c #3C522D",
"7j@	c #7CA558",
"8j@	c #395326",
"9j@	c #28391C",
"0j@	c #56A535",
"aj@	c #68AF44",
"bj@	c #3A6721",
"cj@	c #274B19",
"dj@	c #1B3114",
"ej@	c #1F490C",
"fj@	c #1B4A04",
"gj@	c #224B0F",
"hj@	c #6A9954",
"ij@	c #264319",
"jj@	c #618D3D",
"kj@	c #467129",
"lj@	c #628B4A",
"mj@	c #396429",
"nj@	c #6BAC50",
"oj@	c #79AF4E",
"pj@	c #587C34",
"qj@	c #080803",
"rj@	c #0B030D",
"sj@	c #518E39",
"tj@	c #6BA451",
"uj@	c #539F32",
"vj@	c #467B2B",
"wj@	c #6DA258",
"xj@	c #2F4A26",
"yj@	c #38542E",
"zj@	c #283E22",
"Aj@	c #0A0809",
"Bj@	c #13190D",
"Cj@	c #719E55",
"Dj@	c #648C4A",
"Ej@	c #476C32",
"Fj@	c #0F0204",
"Gj@	c #547C3D",
"Hj@	c #31531F",
"Ij@	c #2D511A",
"Jj@	c #5C8049",
"Kj@	c #6C914E",
"Lj@	c #477B2C",
"Mj@	c #427525",
"Nj@	c #6BA259",
"Oj@	c #5C884D",
"Pj@	c #69AF45",
"Qj@	c #659C49",
"Rj@	c #45652F",
"Sj@	c #74A65B",
"Tj@	c #587E43",
"Uj@	c #648945",
"Vj@	c #6AA44C",
"Wj@	c #6E8E51",
"Xj@	c #608446",
"Yj@	c #5D8B40",
"Zj@	c #578E3A",
"`j@	c #63993F",
" k@	c #344D24",
".k@	c #0C070C",
"+k@	c #131F0B",
"@k@	c #608846",
"#k@	c #719F52",
"$k@	c #1D3510",
"%k@	c #5F924B",
"&k@	c #4F7B3F",
"*k@	c #649946",
"=k@	c #4C7C32",
"-k@	c #466030",
";k@	c #7BA75C",
">k@	c #42782B",
",k@	c #6A9851",
"'k@	c #749659",
")k@	c #5A7D41",
"!k@	c #5F8D47",
"~k@	c #537B41",
"{k@	c #79A367",
"]k@	c #689547",
"^k@	c #416D2B",
"/k@	c #3A5E30",
"(k@	c #39532A",
"_k@	c #67954C",
":k@	c #335521",
"<k@	c #2E4024",
"[k@	c #2E4225",
"}k@	c #396422",
"|k@	c #6EA94C",
"1k@	c #4D7A31",
"2k@	c #5B9E33",
"3k@	c #5F9A3D",
"4k@	c #618D48",
"5k@	c #070D03",
"6k@	c #79CA4C",
"7k@	c #74C247",
"8k@	c #467933",
"9k@	c #6E9950",
"0k@	c #0D1408",
"ak@	c #3C622B",
"bk@	c #749B5C",
"ck@	c #678950",
"dk@	c #5B8146",
"ek@	c #5D8646",
"fk@	c #3C6625",
"gk@	c #73A861",
"hk@	c #53813C",
"ik@	c #699A51",
"jk@	c #496F30",
"kk@	c #5FA136",
"lk@	c #4D8233",
"mk@	c #5D8C43",
"nk@	c #679151",
"ok@	c #4C6A34",
"pk@	c #4B782A",
"qk@	c #39561E",
"rk@	c #59A137",
"sk@	c #73B147",
"tk@	c #71B246",
"uk@	c #44702B",
"vk@	c #274816",
"wk@	c #589B3E",
"xk@	c #040C06",
"yk@	c #70A256",
"zk@	c #8BC858",
"Ak@	c #496D2B",
"Bk@	c #030B09",
"Ck@	c #669254",
"Dk@	c #4E7439",
"Ek@	c #497637",
"Fk@	c #233615",
"Gk@	c #2B491E",
"Hk@	c #416F2C",
"Ik@	c #447333",
"Jk@	c #355B23",
"Kk@	c #2F4322",
"Lk@	c #385027",
"Mk@	c #507C33",
"Nk@	c #76A15E",
"Ok@	c #6A9A57",
"Pk@	c #030D03",
"Qk@	c #59814B",
"Rk@	c #5A7C46",
"Sk@	c #5F8F45",
"Tk@	c #78A15E",
"Uk@	c #192612",
"Vk@	c #3C6B21",
"Wk@	c #577A38",
"Xk@	c #79A259",
"Yk@	c #699C55",
"Zk@	c #63944A",
"`k@	c #5A9E37",
" l@	c #79C741",
".l@	c #88CB4E",
"+l@	c #477727",
"@l@	c #080611",
"#l@	c #22450F",
"$l@	c #5B9D36",
"%l@	c #84C953",
"&l@	c #5A8540",
"*l@	c #3D6F2C",
"=l@	c #6BBB4C",
"-l@	c #293D1A",
";l@	c #3D6425",
">l@	c #427123",
",l@	c #517F38",
"'l@	c #27461D",
")l@	c #3B6129",
"!l@	c #597F46",
"~l@	c #5B7E46",
"{l@	c #63844B",
"]l@	c #5F8E53",
"^l@	c #608744",
"/l@	c #619646",
"(l@	c #5B8741",
"_l@	c #5A8C48",
":l@	c #0A060B",
"<l@	c #01070A",
"[l@	c #78A057",
"}l@	c #548B38",
"|l@	c #3D7428",
"1l@	c #5C9435",
"2l@	c #71AE3D",
"3l@	c #639B4C",
"4l@	c #49772E",
"5l@	c #142D0B",
"6l@	c #3E5C2F",
"7l@	c #719F55",
"8l@	c #345A1D",
"9l@	c #68944C",
"0l@	c #5D893F",
"al@	c #4A9728",
"bl@	c #1E4114",
"cl@	c #030B06",
"dl@	c #223C14",
"el@	c #425D2C",
"fl@	c #2F4925",
"gl@	c #6F9B50",
"hl@	c #587E3F",
"il@	c #6C9857",
"jl@	c #6C9F53",
"kl@	c #6D974E",
"ll@	c #6B9B61",
"ml@	c #43752D",
"nl@	c #45762A",
"ol@	c #65914A",
"pl@	c #6E9251",
"ql@	c #648649",
"rl@	c #547A37",
"sl@	c #75CD3F",
"tl@	c #315E16",
"ul@	c #09130B",
"vl@	c #18260F",
"wl@	c #0B1304",
"xl@	c #092306",
"yl@	c #608B49",
"zl@	c #587C43",
"Al@	c #527C34",
"Bl@	c #63A837",
"Cl@	c #5A8B38",
"Dl@	c #2C421A",
"El@	c #274B1B",
"Fl@	c #5E9843",
"Gl@	c #43712F",
"Hl@	c #66B642",
"Il@	c #63AA35",
"Jl@	c #365519",
"Kl@	c #527432",
"Ll@	c #6A9C51",
"Ml@	c #60A43D",
"Nl@	c #73B64E",
"Ol@	c #689F51",
"Pl@	c #233D1B",
"Ql@	c #253819",
"Rl@	c #547A3D",
"Sl@	c #739D56",
"Tl@	c #668B46",
"Ul@	c #5A833C",
"Vl@	c #638B4D",
"Wl@	c #729C57",
"Xl@	c #4C6931",
"Yl@	c #0C2006",
"Zl@	c #57972F",
"`l@	c #659C4B",
" m@	c #405E2F",
".m@	c #233C1E",
"+m@	c #183216",
"@m@	c #425E26",
"#m@	c #7CCD4D",
"$m@	c #78B852",
"%m@	c #76C53C",
"&m@	c #5DBD36",
"*m@	c #5EAD42",
"=m@	c #467F3A",
"-m@	c #6C915A",
";m@	c #263A18",
">m@	c #659D40",
",m@	c #71C744",
"'m@	c #193C0A",
")m@	c #0C010E",
"!m@	c #0B0607",
"~m@	c #070A10",
"{m@	c #0D0D14",
"]m@	c #4A692D",
"^m@	c #679948",
"/m@	c #5F8A49",
"(m@	c #51723D",
"_m@	c #719456",
":m@	c #335A2A",
"<m@	c #3E6926",
"[m@	c #3A6420",
"}m@	c #33591E",
"|m@	c #162B0B",
"1m@	c #305516",
"2m@	c #79CB3F",
"3m@	c #558B32",
"4m@	c #0D160B",
"5m@	c #6C944E",
"6m@	c #658E4D",
"7m@	c #6C9956",
"8m@	c #45722E",
"9m@	c #162911",
"0m@	c #699851",
"am@	c #06090A",
"bm@	c #638B50",
"cm@	c #6DB442",
"dm@	c #447724",
"em@	c #254613",
"fm@	c #7ABF52",
"gm@	c #70AB51",
"hm@	c #567F44",
"im@	c #040A03",
"jm@	c #6EAE42",
"km@	c #7DC143",
"lm@	c #519125",
"mm@	c #66A549",
"nm@	c #688D54",
"om@	c #38502B",
"pm@	c #030A05",
"qm@	c #6C9855",
"rm@	c #6C9552",
"sm@	c #678E50",
"tm@	c #2F4722",
"um@	c #0D1608",
"vm@	c #385326",
"wm@	c #75A05B",
"xm@	c #3C5B30",
"ym@	c #5BA441",
"zm@	c #4C7334",
"Am@	c #69A54A",
"Bm@	c #6C9D51",
"Cm@	c #496334",
"Dm@	c #0B1D05",
"Em@	c #283F17",
"Fm@	c #539A35",
"Gm@	c #63B13A",
"Hm@	c #496F3C",
"Im@	c #04080A",
"Jm@	c #284114",
"Km@	c #86BA58",
"Lm@	c #64A847",
"Mm@	c #72C842",
"Nm@	c #31571E",
"Om@	c #2E5F14",
"Pm@	c #76CB4C",
"Qm@	c #65A74C",
"Rm@	c #79B95D",
"Sm@	c #649148",
"Tm@	c #527A3E",
"Um@	c #63903F",
"Vm@	c #1D2F0D",
"Wm@	c #334A23",
"Xm@	c #73AD50",
"Ym@	c #70BE44",
"Zm@	c #07070C",
"`m@	c #090805",
" n@	c #101F10",
".n@	c #608E4A",
"+n@	c #639851",
"@n@	c #64933F",
"#n@	c #6AB93C",
"$n@	c #67AC33",
"%n@	c #2D5214",
"&n@	c #010310",
"*n@	c #122F05",
"=n@	c #6EB83C",
"-n@	c #63A73C",
";n@	c #051D01",
">n@	c #52693A",
",n@	c #7AA05C",
"'n@	c #4A6C33",
")n@	c #396227",
"!n@	c #6A8F52",
"~n@	c #679552",
"{n@	c #2C461E",
"]n@	c #070A0B",
"^n@	c #080709",
"/n@	c #26361B",
"(n@	c #6D9259",
"_n@	c #3F692B",
":n@	c #5B8F3B",
"<n@	c #68A43B",
"[n@	c #72B837",
"}n@	c #6DAE43",
"|n@	c #051003",
"1n@	c #080905",
"2n@	c #538029",
"3n@	c #71B641",
"4n@	c #73AF50",
"5n@	c #385728",
"6n@	c #527041",
"7n@	c #6B944E",
"8n@	c #0B1505",
"9n@	c #3E5D34",
"0n@	c #6F9F59",
"an@	c #355123",
"bn@	c #6A9D4D",
"cn@	c #6DA74F",
"dn@	c #456438",
"en@	c #70A652",
"fn@	c #6EA248",
"gn@	c #68B242",
"hn@	c #4C7931",
"in@	c #7BB851",
"jn@	c #6AB13A",
"kn@	c #5FA339",
"ln@	c #6BB73C",
"mn@	c #6BAB41",
"nn@	c #3B5E29",
"on@	c #112706",
"pn@	c #4B7731",
"qn@	c #6AA04F",
"rn@	c #68AD46",
"sn@	c #5FB33F",
"tn@	c #48732E",
"un@	c #334F1F",
"vn@	c #18280D",
"wn@	c #5D8047",
"xn@	c #40602C",
"yn@	c #618839",
"zn@	c #658D44",
"An@	c #4D7631",
"Bn@	c #749B54",
"Cn@	c #517938",
"Dn@	c #0E2007",
"En@	c #06090F",
"Fn@	c #506D3D",
"Gn@	c #4B7B3C",
"Hn@	c #619A3E",
"In@	c #71B24E",
"Jn@	c #60953C",
"Kn@	c #63C336",
"Ln@	c #73B243",
"Mn@	c #45642C",
"Nn@	c #051605",
"On@	c #63A33C",
"Pn@	c #6B974A",
"Qn@	c #394F25",
"Rn@	c #1C2710",
"Sn@	c #2C3F20",
"Tn@	c #314322",
"Un@	c #61823E",
"Vn@	c #78B348",
"Wn@	c #5B9127",
"Xn@	c #1D3809",
"Yn@	c #01040E",
"Zn@	c #00010F",
"`n@	c #1E3011",
" o@	c #638C47",
".o@	c #659746",
"+o@	c #5C884B",
"@o@	c #679C47",
"#o@	c #4E7535",
"$o@	c #5E8F42",
"%o@	c #64A743",
"&o@	c #5B853A",
"*o@	c #57932A",
"=o@	c #305714",
"-o@	c #436C34",
";o@	c #427726",
">o@	c #488927",
",o@	c #5F8E3B",
"'o@	c #304E1C",
")o@	c #446B28",
"!o@	c #73B04F",
"~o@	c #3E6928",
"{o@	c #62964C",
"]o@	c #6E9751",
"^o@	c #2C491D",
"/o@	c #53723D",
"(o@	c #192B0D",
"_o@	c #6A9A4A",
":o@	c #3A5725",
"<o@	c #659155",
"[o@	c #030510",
"}o@	c #090410",
"|o@	c #70AA4B",
"1o@	c #69924E",
"2o@	c #4F7F31",
"3o@	c #517935",
"4o@	c #588737",
"5o@	c #3F652A",
"6o@	c #4B8530",
"7o@	c #3C6923",
"8o@	c #71B94D",
"9o@	c #73AB53",
"0o@	c #7AD046",
"ao@	c #08020A",
"bo@	c #0D0203",
"co@	c #040212",
"do@	c #3F6524",
"eo@	c #71A948",
"fo@	c #5A883A",
"go@	c #7BA05B",
"ho@	c #617B3F",
"io@	c #2C421B",
"jo@	c #517337",
"ko@	c #6DA34D",
"lo@	c #79CB53",
"mo@	c #59A62E",
"no@	c #274D10",
"oo@	c #0B0D10",
"po@	c #0D0104",
"qo@	c #5B8E39",
"ro@	c #568936",
"so@	c #437E29",
"to@	c #76B755",
"uo@	c #74C250",
"vo@	c #538D29",
"wo@	c #365A1C",
"xo@	c #3C5C2D",
"yo@	c #5A8145",
"zo@	c #3A6424",
"Ao@	c #67A348",
"Bo@	c #4E7D3A",
"Co@	c #426E2A",
"Do@	c #6E9E4A",
"Eo@	c #6EAB49",
"Fo@	c #30551E",
"Go@	c #0A120E",
"Ho@	c #05070C",
"Io@	c #3C5B29",
"Jo@	c #5D8247",
"Ko@	c #376C1E",
"Lo@	c #69B344",
"Mo@	c #6C9251",
"No@	c #54793C",
"Oo@	c #4D7339",
"Po@	c #487136",
"Qo@	c #4E852C",
"Ro@	c #264A14",
"So@	c #6BAA50",
"To@	c #27451D",
"Uo@	c #346B19",
"Vo@	c #6FC938",
"Wo@	c #64A446",
"Xo@	c #0D0505",
"Yo@	c #1B360C",
"Zo@	c #588D29",
"`o@	c #80CD4A",
" p@	c #6BB043",
".p@	c #558334",
"+p@	c #2F471E",
"@p@	c #0E060D",
"#p@	c #50922E",
"$p@	c #76CE40",
"%p@	c #7DC842",
"&p@	c #5B9226",
"*p@	c #25420B",
"=p@	c #5D8640",
"-p@	c #051307",
";p@	c #28381F",
">p@	c #7EA85C",
",p@	c #4E8138",
"'p@	c #67964C",
")p@	c #63A140",
"!p@	c #60A737",
"~p@	c #385A26",
"{p@	c #385A28",
"]p@	c #66924D",
"^p@	c #0A090B",
"/p@	c #0F0707",
"(p@	c #547043",
"_p@	c #557849",
":p@	c #629551",
"<p@	c #0B0602",
"[p@	c #05090E",
"}p@	c #6D9554",
"|p@	c #4A6B33",
"1p@	c #5F8A3F",
"2p@	c #7DAB53",
"3p@	c #486A3B",
"4p@	c #52923E",
"5p@	c #5C8A3F",
"6p@	c #71AB57",
"7p@	c #2A4420",
"8p@	c #2E5C17",
"9p@	c #5CAE34",
"0p@	c #1C330A",
"ap@	c #507C27",
"bp@	c #70B537",
"cp@	c #86CF46",
"dp@	c #5F9E2C",
"ep@	c #254B14",
"fp@	c #589727",
"gp@	c #84CF3C",
"hp@	c #86C742",
"ip@	c #5C8C29",
"jp@	c #243F11",
"kp@	c #0C0A06",
"lp@	c #131E0B",
"mp@	c #668950",
"np@	c #6EA757",
"op@	c #456F36",
"pp@	c #608A4F",
"qp@	c #1F2E18",
"rp@	c #7AA552",
"sp@	c #406227",
"tp@	c #3D6726",
"up@	c #18300F",
"vp@	c #2A4F18",
"wp@	c #6FCD40",
"xp@	c #529634",
"yp@	c #5B8C45",
"zp@	c #0A040B",
"Ap@	c #2D431E",
"Bp@	c #749C54",
"Cp@	c #75A661",
"Dp@	c #415C2A",
"Ep@	c #79A558",
"Fp@	c #78A758",
"Gp@	c #40642C",
"Hp@	c #345926",
"Ip@	c #3A6629",
"Jp@	c #68A44C",
"Kp@	c #539137",
"Lp@	c #1A300E",
"Mp@	c #0B0A0C",
"Np@	c #193209",
"Op@	c #4C7E22",
"Pp@	c #74BB3C",
"Qp@	c #85CD48",
"Rp@	c #69AB31",
"Sp@	c #315715",
"Tp@	c #081303",
"Up@	c #2A4A11",
"Vp@	c #619A28",
"Wp@	c #82CC39",
"Xp@	c #7EC447",
"Yp@	c #538527",
"Zp@	c #08180F",
"`p@	c #648655",
" q@	c #7DA167",
".q@	c #4A6538",
"+q@	c #739D5C",
"@q@	c #12230E",
"#q@	c #45652E",
"$q@	c #7CB264",
"%q@	c #3F5F30",
"&q@	c #62B039",
"*q@	c #6A9A5A",
"=q@	c #0D0A0F",
"-q@	c #2D521E",
";q@	c #06130A",
">q@	c #60894B",
",q@	c #4D6940",
"'q@	c #729F5F",
")q@	c #2A5216",
"!q@	c #162C0D",
"~q@	c #122011",
"{q@	c #668B4C",
"]q@	c #72B84C",
"^q@	c #71A552",
"/q@	c #2E4417",
"(q@	c #3D5B2D",
"_q@	c #689254",
":q@	c #4F6F41",
"<q@	c #5B814E",
"[q@	c #5E8D49",
"}q@	c #79A468",
"|q@	c #6C9051",
"1q@	c #42622B",
"2q@	c #142E0A",
"3q@	c #45791A",
"4q@	c #71B633",
"5q@	c #87D245",
"6q@	c #73BA3D",
"7q@	c #38621B",
"8q@	c #2F5611",
"9q@	c #64A628",
"0q@	c #84D13D",
"aq@	c #78BD41",
"bq@	c #46731D",
"cq@	c #1A2B05",
"dq@	c #82BC5E",
"eq@	c #4D703A",
"fq@	c #1F2F1A",
"gq@	c #587F42",
"hq@	c #41642D",
"iq@	c #65A14B",
"jq@	c #0C130F",
"kq@	c #7FBE4E",
"lq@	c #365916",
"mq@	c #6A944E",
"nq@	c #436A33",
"oq@	c #080700",
"pq@	c #050A0C",
"qq@	c #5B7D47",
"rq@	c #496F32",
"sq@	c #4C7233",
"tq@	c #75A059",
"uq@	c #22331A",
"vq@	c #19240F",
"wq@	c #628E45",
"xq@	c #587C44",
"yq@	c #699D4B",
"zq@	c #70BC4C",
"Aq@	c #395323",
"Bq@	c #7FC44B",
"Cq@	c #55A22C",
"Dq@	c #567636",
"Eq@	c #6B9043",
"Fq@	c #38571E",
"Gq@	c #7BBC4C",
"Hq@	c #5C913E",
"Iq@	c #719858",
"Jq@	c #5B8148",
"Kq@	c #162515",
"Lq@	c #456337",
"Mq@	c #679353",
"Nq@	c #090310",
"Oq@	c #040012",
"Pq@	c #192613",
"Qq@	c #85BD61",
"Rq@	c #132C0B",
"Sq@	c #3F7220",
"Tq@	c #6EB83E",
"Uq@	c #85DB47",
"Vq@	c #77C23A",
"Wq@	c #40691D",
"Xq@	c #172507",
"Yq@	c #0D1F03",
"Zq@	c #355F16",
"`q@	c #74BC3B",
" r@	c #87D143",
".r@	c #71AB33",
"+r@	c #3F641D",
"@r@	c #679049",
"#r@	c #5E8A45",
"$r@	c #070212",
"%r@	c #506938",
"&r@	c #527138",
"*r@	c #538545",
"=r@	c #446837",
"-r@	c #436C2B",
";r@	c #7DC53C",
">r@	c #68A641",
",r@	c #374D25",
"'r@	c #749855",
")r@	c #36562C",
"!r@	c #080314",
"~r@	c #375726",
"{r@	c #518332",
"]r@	c #77A757",
"^r@	c #365326",
"/r@	c #518E36",
"(r@	c #578341",
"_r@	c #6BAB4C",
":r@	c #42682F",
"<r@	c #0A1403",
"[r@	c #54932F",
"}r@	c #63AC37",
"|r@	c #53773E",
"1r@	c #202E19",
"2r@	c #6F9850",
"3r@	c #7FC546",
"4r@	c #558A31",
"5r@	c #6A924F",
"6r@	c #3A5A2B",
"7r@	c #090412",
"8r@	c #658C52",
"9r@	c #18340E",
"0r@	c #3B6D22",
"ar@	c #64B63B",
"br@	c #7FD847",
"cr@	c #76C243",
"dr@	c #437326",
"er@	c #172F09",
"fr@	c #142907",
"gr@	c #3E661D",
"hr@	c #82C041",
"ir@	c #8CCA4A",
"jr@	c #639435",
"kr@	c #37601E",
"lr@	c #6AA651",
"mr@	c #416735",
"nr@	c #354B23",
"or@	c #6B9853",
"pr@	c #73A55B",
"qr@	c #506F3A",
"rr@	c #5D914A",
"sr@	c #02060E",
"tr@	c #1E2E1A",
"ur@	c #041104",
"vr@	c #0B0508",
"wr@	c #0C070F",
"xr@	c #538635",
"yr@	c #70A450",
"zr@	c #55733D",
"Ar@	c #26391D",
"Br@	c #101B08",
"Cr@	c #011002",
"Dr@	c #588B40",
"Er@	c #10160C",
"Fr@	c #232F1A",
"Gr@	c #2F5E16",
"Hr@	c #70B143",
"Ir@	c #364F2D",
"Jr@	c #3D4F2D",
"Kr@	c #203513",
"Lr@	c #09170B",
"Mr@	c #0D080E",
"Nr@	c #688E54",
"Or@	c #4C673A",
"Pr@	c #507244",
"Qr@	c #01080D",
"Rr@	c #233712",
"Sr@	c #6EA148",
"Tr@	c #477D30",
"Ur@	c #7DD854",
"Vr@	c #74CB40",
"Wr@	c #457E24",
"Xr@	c #183509",
"Yr@	c #010712",
"Zr@	c #1D300D",
"`r@	c #496C23",
" s@	c #82BE41",
".s@	c #82C446",
"+s@	c #76BB47",
"@s@	c #446F30",
"#s@	c #090E03",
"$s@	c #659D56",
"%s@	c #406033",
"&s@	c #527435",
"*s@	c #131C05",
"=s@	c #080516",
"-s@	c #0C0712",
";s@	c #34512B",
">s@	c #243C1A",
",s@	c #3D7420",
"'s@	c #64A941",
")s@	c #547D3D",
"!s@	c #658D4D",
"~s@	c #1B2511",
"{s@	c #040A0F",
"]s@	c #354F24",
"^s@	c #6D964F",
"/s@	c #031501",
"(s@	c #527A40",
"_s@	c #5E7D44",
":s@	c #547442",
"<s@	c #4E753F",
"[s@	c #52723F",
"}s@	c #67A84E",
"|s@	c #364F22",
"1s@	c #65864B",
"2s@	c #060013",
"3s@	c #7BB951",
"4s@	c #3D6924",
"5s@	c #528141",
"6s@	c #030D0E",
"7s@	c #44612C",
"8s@	c #69954E",
"9s@	c #2B4325",
"0s@	c #557737",
"as@	c #81CD4F",
"bs@	c #7AD645",
"cs@	c #78CC4F",
"ds@	c #498631",
"es@	c #1E4010",
"fs@	c #0E030F",
"gs@	c #203310",
"hs@	c #446625",
"is@	c #527C30",
"js@	c #78A35D",
"ks@	c #466C2F",
"ls@	c #051310",
"ms@	c #729853",
"ns@	c #3E5B29",
"os@	c #7DAB57",
"ps@	c #486931",
"qs@	c #0B0E03",
"rs@	c #72BC4C",
"ss@	c #2F4E1C",
"ts@	c #162312",
"us@	c #2E4126",
"vs@	c #6AA846",
"ws@	c #112509",
"xs@	c #2B3D1E",
"ys@	c #84B36A",
"zs@	c #5D9046",
"As@	c #77AD5D",
"Bs@	c #354D28",
"Cs@	c #549A38",
"Ds@	c #6B9952",
"Es@	c #5C8E48",
"Fs@	c #3B5429",
"Gs@	c #436133",
"Hs@	c #426636",
"Is@	c #416332",
"Js@	c #4E743C",
"Ks@	c #6BA652",
"Ls@	c #5A9439",
"Ms@	c #41612C",
"Ns@	c #689C3D",
"Os@	c #6FAC48",
"Ps@	c #1E281B",
"Qs@	c #5D9E2E",
"Rs@	c #6DB832",
"Ss@	c #102203",
"Ts@	c #2C4C1C",
"Us@	c #75AE59",
"Vs@	c #0B0816",
"Ws@	c #76A252",
"Xs@	c #698F56",
"Ys@	c #597942",
"Zs@	c #41642A",
"`s@	c #4C7E35",
" t@	c #3B7020",
".t@	c #244311",
"+t@	c #03070D",
"@t@	c #5E8E3B",
"#t@	c #82AA61",
"$t@	c #547E44",
"%t@	c #365828",
"&t@	c #486633",
"*t@	c #739C59",
"=t@	c #568141",
"-t@	c #80BC55",
";t@	c #436827",
">t@	c #00030D",
",t@	c #2B4C1D",
"'t@	c #74C950",
")t@	c #60A641",
"!t@	c #6F9857",
"~t@	c #183012",
"{t@	c #54913C",
"]t@	c #64A045",
"^t@	c #070E02",
"/t@	c #699C48",
"(t@	c #7B9F66",
"_t@	c #23311B",
":t@	c #08010D",
"<t@	c #3E6033",
"[t@	c #598C48",
"}t@	c #0D2106",
"|t@	c #529D35",
"1t@	c #55873F",
"2t@	c #54723C",
"3t@	c #6CA645",
"4t@	c #597342",
"5t@	c #508727",
"6t@	c #7CCE42",
"7t@	c #365B22",
"8t@	c #608B4E",
"9t@	c #0C0205",
"0t@	c #315620",
"at@	c #74A751",
"bt@	c #6D9254",
"ct@	c #61874A",
"dt@	c #273D1D",
"et@	c #365323",
"ft@	c #79A365",
"gt@	c #081207",
"ht@	c #111B0D",
"it@	c #68A250",
"jt@	c #77A261",
"kt@	c #536F40",
"lt@	c #496F36",
"mt@	c #609B41",
"nt@	c #66AD3A",
"ot@	c #81C552",
"pt@	c #527936",
"qt@	c #1C2711",
"rt@	c #426831",
"st@	c #407228",
"tt@	c #447A31",
"ut@	c #7CBF52",
"vt@	c #1F3B15",
"wt@	c #5E8845",
"xt@	c #4F7A31",
"yt@	c #6A9748",
"zt@	c #1A2A0F",
"At@	c #597B46",
"Bt@	c #3C5F31",
"Ct@	c #577C3F",
"Dt@	c #0A140A",
"Et@	c #030E05",
"Ft@	c #24401B",
"Gt@	c #66A24E",
"Ht@	c #3B5F29",
"It@	c #79A954",
"Jt@	c #1E350F",
"Kt@	c #070E05",
"Lt@	c #5A833D",
"Mt@	c #638A49",
"Nt@	c #0A1902",
"Ot@	c #6D9E3E",
"Pt@	c #649835",
"Qt@	c #325C1A",
"Rt@	c #68B43D",
"St@	c #629740",
"Tt@	c #091705",
"Ut@	c #548634",
"Vt@	c #7AC258",
"Wt@	c #60A73C",
"Xt@	c #69A447",
"Yt@	c #4B703A",
"Zt@	c #719C5C",
"`t@	c #4F743B",
" u@	c #334629",
".u@	c #314825",
"+u@	c #517140",
"@u@	c #749F5A",
"#u@	c #538535",
"$u@	c #62953E",
"%u@	c #4F6338",
"&u@	c #577E41",
"*u@	c #5DA73A",
"=u@	c #275113",
"-u@	c #659D49",
";u@	c #294F1A",
">u@	c #608C4D",
",u@	c #74AC5D",
"'u@	c #638D42",
")u@	c #476433",
"!u@	c #70AB53",
"~u@	c #16260C",
"{u@	c #58773A",
"]u@	c #79A157",
"^u@	c #4B7235",
"/u@	c #496D39",
"(u@	c #5A7D48",
"_u@	c #587A40",
":u@	c #699B52",
"<u@	c #5B834C",
"[u@	c #649F3C",
"}u@	c #395B23",
"|u@	c #0A0312",
"1u@	c #273D1F",
"2u@	c #719758",
"3u@	c #2C431E",
"4u@	c #6A924C",
"5u@	c #3A5D25",
"6u@	c #6DA648",
"7u@	c #2B3F1F",
"8u@	c #275013",
"9u@	c #65A641",
"0u@	c #789F59",
"au@	c #40592C",
"bu@	c #37522B",
"cu@	c #609738",
"du@	c #5D933D",
"eu@	c #528340",
"fu@	c #6FA54D",
"gu@	c #4F773A",
"hu@	c #364F2B",
"iu@	c #1A2A11",
"ju@	c #4A702F",
"ku@	c #559631",
"lu@	c #77B45C",
"mu@	c #60854A",
"nu@	c #446031",
"ou@	c #6EB94F",
"pu@	c #6BAB49",
"qu@	c #527A3F",
"ru@	c #608B48",
"su@	c #649256",
"tu@	c #5B9643",
"uu@	c #315F1C",
"vu@	c #385927",
"wu@	c #73A159",
"xu@	c #609546",
"yu@	c #4B682B",
"zu@	c #8DB956",
"Au@	c #2E431B",
"Bu@	c #597E44",
"Cu@	c #577C45",
"Du@	c #091005",
"Eu@	c #0E1A0E",
"Fu@	c #4D7239",
"Gu@	c #3E5B31",
"Hu@	c #425C34",
"Iu@	c #46663A",
"Ju@	c #34532A",
"Ku@	c #688B49",
"Lu@	c #070A03",
"Mu@	c #5C8851",
"Nu@	c #568142",
"Ou@	c #3C6828",
"Pu@	c #689A56",
"Qu@	c #5E7F49",
"Ru@	c #769A57",
"Su@	c #56883A",
"Tu@	c #487B29",
"Uu@	c #41582B",
"Vu@	c #7BB055",
"Wu@	c #6CB656",
"Xu@	c #44632E",
"Yu@	c #5D7F46",
"Zu@	c #7BA551",
"`u@	c #5D9437",
" v@	c #4D7241",
".v@	c #324B2C",
"+v@	c #1E2E12",
"@v@	c #0C0105",
"#v@	c #0B010C",
"$v@	c #679F50",
"%v@	c #5A8B3C",
"&v@	c #446036",
"*v@	c #70AE44",
"=v@	c #446232",
"-v@	c #376722",
";v@	c #639143",
">v@	c #466D2C",
",v@	c #6E9C56",
"'v@	c #33481E",
")v@	c #354E21",
"!v@	c #7FAA5B",
"~v@	c #0C0411",
"{v@	c #0C0210",
"]v@	c #1F2C13",
"^v@	c #749454",
"/v@	c #506C3A",
"(v@	c #2B391F",
"_v@	c #7C9F5F",
":v@	c #1B2A10",
"<v@	c #6CBE49",
"[v@	c #445D2E",
"}v@	c #71B057",
"|v@	c #71AA4C",
"1v@	c #5D8B3D",
"2v@	c #496737",
"3v@	c #2C3F1D",
"4v@	c #476538",
"5v@	c #5B8349",
"6v@	c #5D9A46",
"7v@	c #73B059",
"8v@	c #6F954C",
"9v@	c #4B6135",
"0v@	c #497634",
"av@	c #81C84D",
"bv@	c #5D9135",
"cv@	c #455E31",
"dv@	c #749B4F",
"ev@	c #365020",
"fv@	c #13280E",
"gv@	c #375524",
"hv@	c #709754",
"iv@	c #07000F",
"jv@	c #2D431F",
"kv@	c #719C53",
"lv@	c #2C4222",
"mv@	c #64814F",
"nv@	c #70AE4C",
"ov@	c #71B74B",
"pv@	c #619E3D",
"qv@	c #608943",
"rv@	c #4B6733",
"sv@	c #021109",
"tv@	c #0F010B",
"uv@	c #10010A",
"vv@	c #152B11",
"wv@	c #3A4E2A",
"xv@	c #597348",
"yv@	c #578D41",
"zv@	c #61B038",
"Av@	c #68A750",
"Bv@	c #6FA259",
"Cv@	c #475F3A",
"Dv@	c #445A31",
"Ev@	c #74B449",
"Fv@	c #579B36",
"Gv@	c #4E8831",
"Hv@	c #498226",
"Iv@	c #538539",
"Jv@	c #41622E",
"Kv@	c #243518",
"Lv@	c #59804A",
"Mv@	c #7AA75C",
"Nv@	c #39661C",
"Ov@	c #366317",
"Pv@	c #386616",
"Qv@	c #5A9333",
"Rv@	c #6DA846",
"Sv@	c #486835",
"Tv@	c #3F5B30",
"Uv@	c #507541",
"Vv@	c #81D34A",
"Wv@	c #6ABF32",
"Xv@	c #509831",
"Yv@	c #567C41",
"Zv@	c #192F0E",
"`v@	c #021408",
" w@	c #01080C",
".w@	c #020610",
"+w@	c #0D020B",
"@w@	c #0E2807",
"#w@	c #5B7648",
"$w@	c #6A8E4E",
"%w@	c #548C40",
"&w@	c #4F9F2E",
"*w@	c #70CF49",
"=w@	c #73CD41",
"-w@	c #68B53D",
";w@	c #589B3F",
">w@	c #518237",
",w@	c #476837",
"'w@	c #3D542F",
")w@	c #3E552B",
"!w@	c #2E4F21",
"~w@	c #2A4A1E",
"{w@	c #264418",
"]w@	c #3E522A",
"^w@	c #3E5632",
"/w@	c #477334",
"(w@	c #67AC3A",
"_w@	c #7FD841",
":w@	c #7DDA3D",
"<w@	c #81DB3C",
"[w@	c #6FC433",
"}w@	c #559930",
"|w@	c #5A7C45",
"1w@	c #46633B",
"2w@	c #2D4C25",
"3w@	c #183007",
"4w@	c #0D020C",
"5w@	c #142C07",
"6w@	c #224315",
"7w@	c #254612",
"8w@	c #2D5522",
"9w@	c #507141",
"0w@	c #5F8049",
"aw@	c #629A52",
"bw@	c #5B9744",
"cw@	c #54953D",
"dw@	c #549134",
"ew@	c #529236",
"fw@	c #579138",
"gw@	c #5F913E",
"hw@	c #609543",
"iw@	c #6B9149",
"jw@	c #679456",
"kw@	c #588845",
"lw@	c #496D3D",
"mw@	c #2F5713",
"nw@	c #254C0E",
"ow@	c #26480D",
"pw@	c #1B3B08",
"qw@	c #0B2307",
"rw@	c #011701",
"sw@	c #021802",
"tw@	c #031C03",
"uw@	c #092404",
"vw@	c #102907",
"ww@	c #0F2908",
"xw@	c #0F2607",
"yw@	c #0C2205",
"zw@	c #081E03",
"Aw@	c #041B03",
"Bw@	c #021203",
"   .  +  @  #  #  #  #  #  #  #  #  #  #  #  #  #  #  #  #  #  #  #  #  #  #  #  #  #  #  #  #  #  $  $  $  $  $  $  $  $  #  #  #  #  $  $  $  $  #  #  #  #  #  #  #  #  #  #  #  #  $  $  $  $  $  #  #  #  #  #  #  #  #  #  #  #  #  #  #  #  #  #  #  #  #  #  #  #  %  &  *  =  -  ;  >  &  ,  '  )  !  ~  {  ]  ^  /  (  _  :  <  [  }  |  1  2  3  4  !  5  6  7  8  9  0  a  1  b  c  d  @  e  f  g  h  i  j  k  l  m  n  o  p  q  r  s  t  u  v  w  x  ^  y  z  A  B  C  D  D  w  E  x  F  G  F  H  $  $  $  #  #  #  #  #  #  #  #  #  #  #  #  #  #  #  #  #  #  #  #  #  #  #  #  #  #  #  #  #  #  #  #  #  #  #  #  #  $  $  $  $  #  #  #  #  #  #  #  #  #  #  #  #  #  #  #  #  #  #  #  #  #  #  #  #  #  #  #  #  #  #  #  #  #  #  #  #  #  #  #  #  #  #  #  #  #  #  #  ",
".  I  J  K  L  L  L  L  L  L  L  L  L  L  L  L  L  L  L  L  L  L  L  L  L  L  L  L  L  L  L  L  L  L  L  L  L  L  L  L  L  L  L  L  L  L  L  L  L  L  L  L  L  L  L  L  L  L  L  L  L  L  L  L  L  L  L  L  L  L  L  L  L  L  L  L  L  L  L  L  L  L  L  L  L  L  L  L  L  L  M  L  N  O  P  Q  R  S  T  U  V  W  X  Y  Z  `   . .. +. @. @. #. $. %. &. *. =. -. ;. >. ,. '. ). !. ~. {. {. ]. ^. ^. /. (. _. :. <. [. <. #. }. |. 1. 2. 3. 4. 5. 6. 7. @. 8. 9. 0. R  a. b. c. d. e. >. f. R  Q  Q  g. Z  L  L  L  L  L  L  L  L  K  K  K  K  L  L  L  L  L  L  L  L  L  L  L  L  L  L  L  L  L  L  L  L  L  L  L  L  L  L  L  L  L  J  J  J  J  L  L  L  L  L  L  L  L  L  L  L  L  L  L  L  L  L  L  L  L  L  L  L  L  L  L  L  L  L  L  L  L  L  L  L  L  L  L  L  L  L  L  L  L  L  K  K  ",
"+  J  K  L  h. h. h. h. h. h. h. h. h. h. h. h. h. h. h. h. h. h. h. h. h. h. h. h. h. h. h. h. h. h. h. h. h. h. h. h. h. h. h. h. h. h. h. h. h. h. h. h. h. h. h. h. h. h. h. h. h. h. h. h. h. h. h. h. h. h. h. h. h. h. h. h. h. h. h. h. h. h. h. h. h. h. h. h. h. i. j. h. k. l. m. n. j. l. k. o. 3. j. p. q. r. s. t. u. v. l. w. x. y. z. A. B. C. D. E. F. G. H. I. J. K. L. M. N. O. P. N. Q. R. S. T. U. V. W. X. Y. _. Z. Z. (. ). `.  + W. .+ ++ @+ #+ $+ %+ &+ *+ =+ -+ ;+ >+ ,+ '+ )+ !+ ~+ {+ {+ {+ h. h. h. h. ]+ ]+ ]+ ]+ h. h. h. h. h. h. h. h. h. h. h. h. h. h. h. h. h. h. h. h. h. h. h. h. h. h. h. h. h. h. h. h. h. h. h. h. h. h. h. h. h. h. h. h. h. h. h. h. h. h. h. h. h. h. h. h. h. h. h. h. h. h. h. h. h. h. h. h. h. h. h. h. h. h. h. h. h. h. ]+ ]+ ",
"@  K  L  L  h. h. h. h. h. h. h. h. h. h. h. h. h. h. h. h. h. h. h. h. h. h. h. h. h. h. h. h. h. ]+ ]+ ]+ ]+ ]+ ]+ ]+ ]+ h. h. h. h. ]+ ]+ ]+ ]+ h. h. h. h. h. h. h. h. h. h. h. h. ]+ ]+ ]+ ]+ ]+ h. h. h. h. h. h. h. h. h. h. h. h. h. h. h. h. h. h. h. h. h. h. h. i. ^+ /+ (+ _+ :+ <+ ^+ [+ }+ |+ 1+ 2+ 3+ 4+ 2+ ,+ 5+ 6+ 7+ 8+ 9+ 0+ a+ b+ c+ d+ e+ f+ g+ h+ i+ j+ k+ l+ m+ n+ o+ p+ q+ r+ s+ t+ u+ v+ w+ x+ y+ z+ A+ B+ C+ D+ E+ F+ G+ H+ I+ (. J+ K+ L+ M+ N+ O+ P+ Q+ R+ S+ T+ U+ V+ i. _+ _+ W+ h. h. h. h. h. h. h. ]+ ]+ ]+ ]+ h. h. h. h. h. h. h. h. h. h. h. h. h. h. h. h. h. h. h. h. h. h. h. h. h. h. h. h. h. L  L  L  L  h. h. h. h. h. h. h. h. h. h. h. h. h. h. h. h. h. h. h. h. h. h. h. h. h. h. h. h. h. h. h. h. h. h. h. h. h. h. h. h. h. h. h. h. h. ]+ ]+ ",
"#  L  h. h. ]+ ]+ ]+ ]+ ]+ ]+ ]+ ]+ ]+ ]+ ]+ ]+ ]+ ]+ ]+ ]+ ]+ ]+ ]+ ]+ ]+ ]+ ]+ ]+ ]+ ]+ ]+ ]+ ]+ ]+ ]+ ]+ ]+ ]+ ]+ ]+ ]+ ]+ ]+ ]+ ]+ ]+ ]+ ]+ ]+ ]+ ]+ ]+ ]+ ]+ ]+ ]+ ]+ ]+ ]+ ]+ ]+ ]+ ]+ ]+ ]+ ]+ ]+ ]+ ]+ ]+ ]+ ]+ ]+ ]+ ]+ ]+ ]+ ]+ ]+ ]+ ]+ ]+ ]+ ]+ ]+ ]+ ]+ ]+ ]+ X+ Y+ Z+ `+ _+ m.  @ .@ W+ +@ @@ #@ $@ %@ &@ *@ =@ -@ ;@ >@ ,@ '@ )@ !@ ~@ {@ ]@ ^@ /@ (@ _@ :@ <@ [@ }@ |@ 1@ 2@ 3@ 4@ 4@ 5@ 6@ 7@ 8@ 9@ 0@ a@ b@ c@ d@ e@ f@ g@ h@ i@ j@ k@ l@ m@ n@ o@ p@ #+ q@ r@ s@ j. t@ u@ 3. v@ p@ w@ x@ y@ h. h. h. L  L  L  L  L  L  L  L  ]+ ]+ ]+ ]+ h. L  L  h. ]+ ]+ ]+ ]+ h. L  L  L  L  L  L  L  L  L  L  L  h. ]+ ]+ ]+ ]+ ]+ ]+ ]+ ]+ ]+ ]+ ]+ ]+ ]+ ]+ ]+ ]+ ]+ ]+ ]+ ]+ ]+ ]+ ]+ ]+ ]+ ]+ ]+ ]+ ]+ ]+ ]+ ]+ ]+ ]+ ]+ ]+ ]+ ]+ ]+ ]+ ]+ ]+ ]+ ]+ ]+ ]+ ]+ ]+ ]+ ]+ ]+ ]+ ]+ ]+ ]+ ",
"#  L  h. h. ]+ ]+ ]+ ]+ ]+ ]+ ]+ ]+ ]+ ]+ ]+ ]+ ]+ ]+ ]+ ]+ ]+ ]+ ]+ ]+ ]+ ]+ ]+ ]+ ]+ ]+ ]+ ]+ ]+ ]+ ]+ ]+ ]+ ]+ ]+ ]+ ]+ ]+ ]+ ]+ ]+ ]+ ]+ ]+ ]+ ]+ ]+ ]+ ]+ ]+ ]+ ]+ ]+ ]+ ]+ ]+ ]+ ]+ ]+ ]+ ]+ ]+ ]+ ]+ ]+ ]+ ]+ ]+ ]+ ]+ ]+ ]+ ]+ ]+ ]+ ]+ ]+ ]+ ]+ ]+ ]+ ]+ ]+ ]+ ]+ ]+ z@ {+ ++ A@ T+ B@ T+ #+ C@ _. D@ E@ F@ G@ H@ |+ I@ J@ K@ L@ M@ N@ O@ P@ Q@ R@ S@ T@ U@ V@ W@ X@ Y@ Z@ `@  # .# +# @# ## $# %# &# *# =# -# ;# ># ,# '# )# !# ~# {# ]# ^# /# (# _# :# /. p@ <# [# }# |# 1# 2# 3# 4# 5# 6# 7# 8# ]+ ]+ ]+ ]+ L  L  L  L  L  L  L  L  ]+ ]+ ]+ ]+ L  L  L  L  h. ]+ ]+ ]+ h. L  L  L  L  L  L  L  L  L  L  L  h. ]+ ]+ ]+ ]+ ]+ ]+ ]+ ]+ ]+ ]+ ]+ ]+ ]+ ]+ ]+ ]+ ]+ ]+ ]+ ]+ ]+ ]+ ]+ ]+ ]+ ]+ ]+ ]+ ]+ ]+ ]+ ]+ ]+ ]+ ]+ ]+ ]+ ]+ ]+ ]+ ]+ ]+ ]+ ]+ ]+ ]+ ]+ ]+ ]+ ]+ ]+ ]+ ]+ ]+ ]+ ",
"#  L  h. h. ]+ ]+ ]+ ]+ ]+ ]+ ]+ ]+ ]+ ]+ ]+ ]+ ]+ ]+ ]+ ]+ ]+ ]+ ]+ ]+ ]+ ]+ ]+ ]+ ]+ ]+ ]+ ]+ ]+ ]+ ]+ ]+ ]+ ]+ ]+ ]+ ]+ ]+ ]+ ]+ ]+ ]+ ]+ ]+ ]+ ]+ ]+ ]+ ]+ ]+ ]+ ]+ ]+ ]+ ]+ ]+ ]+ ]+ ]+ ]+ ]+ ]+ ]+ ]+ ]+ ]+ ]+ ]+ ]+ ]+ ]+ ]+ ]+ ]+ ]+ ]+ ]+ ]+ ]+ ]+ ]+ ]+ ]+ ]+ ]+ 9# 0# h. a# b# L  c# (. d# e# f# g# h# i# j# k# l# m# y@ n# o# p# q# r# s# t# u# v# w# x# y# z# A# B# C# D# E# E# F# G# F# H# I# J# K# L# M# N# O# P# Q# R# S# T# U# V# W# c# X# Y# Z# `#  $ .$ +$ @$ #$ $$ %$ &$ *$ =$ ]. -$ O  ;$ h. h. h. L  L  L  L  L  L  L  L  ]+ ]+ ]+ ]+ L  L  L  L  h. ]+ ]+ ]+ h. L  L  L  L  L  L  L  L  L  L  L  h. ]+ ]+ ]+ ]+ ]+ ]+ ]+ ]+ ]+ ]+ ]+ ]+ ]+ ]+ ]+ ]+ ]+ ]+ ]+ ]+ ]+ ]+ ]+ ]+ ]+ ]+ ]+ ]+ ]+ ]+ ]+ ]+ ]+ ]+ ]+ ]+ ]+ ]+ ]+ ]+ ]+ ]+ ]+ ]+ ]+ ]+ ]+ ]+ ]+ ]+ ]+ ]+ ]+ ]+ ]+ ",
"#  L  h. h. ]+ ]+ ]+ ]+ ]+ ]+ ]+ ]+ ]+ ]+ ]+ ]+ ]+ ]+ ]+ ]+ ]+ ]+ ]+ ]+ ]+ ]+ ]+ ]+ ]+ ]+ ]+ ]+ ]+ ]+ ]+ ]+ ]+ ]+ ]+ ]+ ]+ ]+ ]+ ]+ ]+ ]+ ]+ ]+ ]+ ]+ ]+ ]+ ]+ ]+ ]+ ]+ ]+ ]+ ]+ ]+ ]+ ]+ ]+ ]+ ]+ ]+ ]+ ]+ ]+ ]+ ]+ ]+ ]+ ]+ ]+ ]+ #+ #+ #+ X+ ]+ ]+ ]+ #+ >$ /+ ]+ 9# ,$ T+ '$ I  )$ !$ ~$ {$ ]$ ]. ^$ /$ ($ _$ :$ <$ [$ }$ |$ Y  1$ 2$ 3$ 4$ 5$ 6$ 7$ 8$ 9$ 0$ a$ b$ c$ d$ e$ f$ g$ h$ i$ j$ 0$ 0$ k$ l$ m$ n$ o$ W+ p$ q$ r$ s$ t$ u$ v$ w$ x$ y$ z$ A$ B$ C$ D$ .$ E$ F$ G$ H$ ^# I$ J$ K$ L$ M$ N$ O$ P$ Q$ R$ J  L  S$ L  L  S$ L  L  S$ ,$ T$ ]+ ]+ U  S$ S$ L  9# #+ U$ X+ h. L  L  L  L  L  L  L  L  L  L  L  h. ]+ ]+ ]+ ]+ ]+ ]+ ]+ ]+ ]+ ]+ ]+ ]+ ]+ ]+ ]+ ]+ ]+ ]+ ]+ ]+ ]+ ]+ ]+ ]+ ]+ ]+ ]+ ]+ ]+ ]+ ]+ ]+ ]+ ]+ ]+ ]+ ]+ ]+ ]+ ]+ ]+ ]+ ]+ ]+ ]+ ]+ ]+ ]+ ]+ ]+ ]+ ]+ ]+ ]+ ]+ ",
"#  L  h. h. ]+ ]+ ]+ ]+ ]+ ]+ ]+ ]+ ]+ ]+ ]+ ]+ ]+ ]+ ]+ ]+ ]+ ]+ ]+ ]+ ]+ ]+ ]+ ]+ ]+ ]+ ]+ ]+ ]+ ]+ ]+ ]+ ]+ ]+ ]+ ]+ ]+ ]+ ]+ ]+ ]+ ]+ ]+ ]+ ]+ ]+ ]+ ]+ ]+ ]+ ]+ ]+ ]+ ]+ ]+ ]+ ]+ ]+ ]+ ]+ ]+ ]+ ]+ ]+ ]+ ]+ ]+ ]+ ]+ ,$ T$ C@ V$ W$ &. X$ Y$ Z$ o. `$  % M+ B@ u@ .% +% @% #% $% %% &% *% =% -% ;% >% ,% '% )% !% ~% Q$ W  {% ]% ^% /% (% _% :% <% [% }% |% 1% 2% 3% 4% 5% 6% 7% 8% 9% 0% a% b% c% d% e% f% g% h% i% j% k% l% m% n% o% p% q% r% s% t% u% v% w% x% y% z% A% B% C% D% E% F% G% H% I% J% K% L% M% N% -% O% r@ S$ P% Q% R% S% T% U% U+ h. V% $@ S% W% X% Y% Z% `% U$ ]+ ]+ ]+ ]+ ]+ ]+ ]+ ]+ ]+ ]+ ]+ ]+ ]+ ]+ ]+ ]+ ]+ ]+ ]+ ]+ ]+ ]+ ]+ ]+ ]+ ]+ ]+ ]+ ]+ ]+ ]+ ]+ ]+ ]+ ]+ ]+ ]+ ]+ ]+ ]+ ]+ ]+ ]+ ]+ ]+ ]+ ]+ ]+ ]+ ]+ ]+ ]+ ]+ ]+ ]+ ]+ ]+ ]+ ]+ ]+ ]+ ]+ ]+ ]+ ]+ ]+ ]+ ",
"#  L  h. h. ]+ ]+ ]+ ]+ ]+ ]+ ]+ ]+ ]+ ]+ ]+ ]+ ]+ ]+ ]+ ]+ ]+ ]+ ]+ ]+ ]+ ]+ ]+ ]+ ]+ ]+ ]+ ]+ ]+ ]+ ]+ ]+ ]+ ]+ ]+ ]+ ]+ ]+ ]+ ]+ ]+ ]+ ]+ ]+ ]+ ]+ ]+ ]+ ]+ ]+ ]+ ]+ ]+ ]+ ]+ ]+ ]+ ]+ ]+ ]+ ]+ ]+ ]+ ]+ ]+ ]+ ]+ ]+ ]+ u@  & .& +& @& #& $& 3. :+ %& && *& =& -& ;& >& ,& '& )& !& ~& {& ]& ^& -& /& (& _& :& <& [& }& |& 1& 2& 3& 4& 5& 6& 7& 8& 9& 0& a& 0$ b& c& d& e& f& g& h& i& j& k& l& m& n& o& p& q& r& s& t& u& v& w& x& y& z& A& B& C& D& E& F& G& H& I& J& K& L& M& N& O& P& (& Q& R& S& T& U& V& W& X& Y& Z& `& J+ :.  * .* +* @* @& <# ^+ #* $* %* &* && ** =* -* C@ ]+ ]+ ]+ ]+ ]+ ]+ ]+ ]+ ]+ ]+ ]+ ]+ ]+ ]+ ]+ ]+ ]+ ]+ ]+ ]+ ]+ ]+ ]+ ]+ ]+ ]+ ]+ ]+ ]+ ]+ ]+ ]+ ]+ ]+ ]+ ]+ ]+ ]+ ]+ ]+ ]+ ]+ ]+ ]+ ]+ ]+ ]+ ]+ ]+ ]+ ]+ ]+ ]+ ]+ ]+ ]+ ]+ ]+ ]+ ]+ ]+ ]+ ]+ ]+ ]+ ]+ ]+ ",
"#  L  h. h. ]+ ]+ ]+ ]+ ]+ ]+ ]+ ]+ ]+ ]+ ]+ ]+ ]+ ]+ ]+ ]+ ]+ ]+ ]+ ]+ ]+ ]+ ]+ ]+ ]+ ]+ ]+ ]+ ]+ ]+ ]+ ]+ ]+ ]+ ]+ ]+ ]+ ]+ ]+ ]+ ]+ ]+ ]+ ]+ ]+ ]+ ]+ ]+ ]+ ]+ ]+ ]+ ]+ ]+ ]+ ]+ ]+ ]+ ]+ ]+ ]+ ]+ ]+ ]+ ]+ ]+ ]+ ]+ ]+ ;* 5+  & >* ,* '* @* )* !* ~* {* ]* ^* /* (* _* :* <* [* }* |* 1* 2* 3* -% 4* 5* 6* 7* 8* 9* 0* a* b* c* d* e* f* g* h* i* j* k* l* m* U& n* o* p* q* r* s* t* u* v* w* x* y* z* A* B* C* D* E* F* G* H* I* J* K* L* M* N* O* P* Q* R* S* T* U* V* W* X* Y* Z* `*  = .= += @= #= $= %= &= *= == -= ;= >= ,= '= )= %& != ~= {= ]= ^= #& /= (= '* _= v. 6+ T+ ]+ ]+ ]+ ]+ ]+ ]+ ]+ ]+ ]+ ]+ ]+ ]+ ]+ ]+ ]+ ]+ ]+ ]+ ]+ ]+ ]+ ]+ ]+ ]+ ]+ ]+ ]+ ]+ ]+ ]+ ]+ ]+ ]+ ]+ ]+ ]+ ]+ ]+ ]+ ]+ ]+ ]+ ]+ ]+ ]+ ]+ ]+ ]+ ]+ ]+ ]+ ]+ ]+ ]+ ]+ ]+ ]+ ]+ ]+ ]+ ]+ ]+ ]+ ]+ ]+ ]+ ]+ ",
"#  L  h. h. ]+ ]+ ]+ ]+ ]+ ]+ ]+ ]+ ]+ ]+ ]+ ]+ ]+ ]+ ]+ ]+ ]+ ]+ ]+ ]+ ]+ ]+ ]+ ]+ ]+ ]+ ]+ ]+ ]+ ]+ ]+ ]+ ]+ ]+ ]+ ]+ ]+ ]+ ]+ ]+ ]+ ]+ ]+ ]+ ]+ ]+ ]+ ]+ ]+ ]+ ]+ ]+ ]+ ]+ ]+ ]+ ]+ ]+ ]+ ]+ ]+ ]+ ]+ ]+ ]+ ]+ ]+ ]+ ]+ T+ @* := <= [= A@ }= |= E. 1= 2= 3= 4= 5= 6= 7= 8= 9= 0= a= b= c= d= e= f= g= h= i= j= k= l= m= n= o= p= q= r= s= t= u= v= w= x= y= z= A= B= C= D= E= F= G= H= I= J= K= L= M= N= O= P= Q= R= S= T= M& U= V= W= X= Y= Z= `=  - .- +- @- #- $- %- &- *- =- -- ;- >- ,- '- )- !- ~- {- ]- ^- /- (- _- :- <- [- }- |- B. '$ 1- 2- 3- 4+ v. _= 4- 5- 6- C@ 7- S% ]+ ]+ ]+ ]+ ]+ ]+ ]+ ]+ ]+ ]+ ]+ ]+ ]+ ]+ ]+ ]+ ]+ ]+ ]+ ]+ ]+ ]+ ]+ ]+ ]+ ]+ ]+ ]+ ]+ ]+ ]+ ]+ ]+ ]+ ]+ ]+ ]+ ]+ ]+ ]+ ]+ ]+ ]+ ]+ ]+ ]+ ]+ ]+ ]+ ]+ ]+ ]+ ]+ ]+ ]+ ]+ ]+ ]+ ]+ ]+ ]+ ]+ ]+ ]+ ]+ ]+ ]+ ",
"#  L  h. h. ]+ ]+ ]+ ]+ ]+ ]+ ]+ ]+ ]+ ]+ ]+ ]+ ]+ ]+ ]+ ]+ ]+ ]+ ]+ ]+ ]+ ]+ ]+ ]+ ]+ ]+ ]+ ]+ ]+ ]+ ]+ ]+ ]+ ]+ ]+ ]+ ]+ ]+ ]+ ]+ ]+ ]+ ]+ ]+ ]+ ]+ ]+ ]+ ]+ ]+ ]+ ]+ ]+ ]+ ]+ ]+ ]+ ]+ ]+ ]+ ]+ ]+ ]+ ]+ ]+ {+ {+ ]+ h. 3.  & 8- 9- 0- 3# a- b- c- d- e- f- g- h- i- j- k- l- m- n- o- p- q- r- s- t- u- v- w- x- B= y- z- A- B- C- D- E- F- G- H- I- J- K- L- M- N- O- P- Q- R- S- T- U- V- W- X- Y- Z- `-  ; .; +; @; 0$ #; $; %; &; *; =; -; ;; >; ,; '; ); !; ~; {; ]; ^; /; (; _; :; <; [; }; |; 1; 2; )% '- 3; c+ 4; $$ 5; 6; 7; 8; 9; 0; :# a; /. {* b; c; d; i. e; f; -* 3. ]+ ]+ ]+ ]+ ]+ ]+ ]+ h. h. h. h. h. ]+ ]+ ]+ ]+ ]+ ]+ ]+ ]+ ]+ ]+ ]+ ]+ ]+ ]+ ]+ ]+ ]+ ]+ ]+ ]+ ]+ ]+ ]+ ]+ ]+ ]+ ]+ ]+ ]+ ]+ ]+ ]+ ]+ ]+ ]+ ]+ ]+ ]+ ]+ ]+ ]+ ]+ ]+ ]+ ]+ ]+ ]+ ]+ ]+ ]+ ]+ ]+ ]+ ]+ ]+ ",
"#  L  h. h. ]+ ]+ ]+ ]+ ]+ ]+ ]+ ]+ ]+ ]+ ]+ ]+ ]+ ]+ ]+ ]+ ]+ ]+ ]+ ]+ ]+ ]+ ]+ ]+ ]+ ]+ ]+ ]+ ]+ ]+ ]+ ]+ ]+ ]+ ]+ ]+ ]+ ]+ ]+ ]+ ]+ ]+ ]+ ]+ ]+ ]+ ]+ ]+ ]+ ]+ ]+ ]+ ]+ ]+ ]+ ]+ ]+ ]+ ]+ ]+ ]+ ]+ ]+ ]+ ]+ ]+ L  g; L  .$ O+ h; Q& i; j; k; l; m; n; o; p; q; r; s; t; 0$ u; v; w; x; y; l= 5% z; A; B; C; D; E; F; G; H; I; J; K; L; M; N; O; P; Q; R; S; T; U; V; W; X; Y; Z; `;  > .> +> @> #> $> %> &> *> => -> ;> 0$ >> ,> '> )> !> ~> {> ]> ^> /> (> _> :> <> [> }> |> 1> 2> 3> 4> 5> 6> 7> 8> 9> 0> a> E$ b> D. c> d> e> f> g> h> i> j> k> l> m> n> o> p> q> r> 3- s> t> u@ ]+ ]+ ]+ ]+ ]+ ]+ ]+ h. L  L  L  h. ]+ ]+ ]+ ]+ ]+ ]+ ]+ ]+ ]+ ]+ ]+ ]+ ]+ ]+ ]+ ]+ ]+ ]+ ]+ ]+ ]+ ]+ ]+ ]+ ]+ ]+ ]+ ]+ ]+ ]+ ]+ ]+ ]+ ]+ ]+ ]+ ]+ ]+ ]+ ]+ ]+ ]+ ]+ ]+ ]+ ]+ ]+ ]+ ]+ ]+ ]+ ]+ ]+ ]+ ]+ ",
"#  L  h. h. ]+ ]+ ]+ ]+ ]+ ]+ ]+ ]+ ]+ ]+ ]+ ]+ ]+ ]+ ]+ ]+ ]+ ]+ ]+ ]+ ]+ ]+ ]+ ]+ ]+ ]+ ]+ ]+ ]+ ]+ ]+ ]+ ]+ ]+ ]+ ]+ ]+ ]+ ]+ ]+ ]+ ]+ ]+ ]+ ]+ ]+ ]+ ]+ ]+ ]+ ]+ ]+ ]+ ]+ ]+ ]+ ]+ ]+ ]+ ]+ ]+ ]+ ]+ ]+ ]+ ]+ h. ]+ h. u> v> w> x> y> z> A> B> C> D> E> F> G> H> I> J> K> L> M> N> O> P> Q> R> S> T> U> V> W> X> Y> Z> `>  , Q& ., K+ +, @, @$ #, $, %, &, *, =, -, ;, >, ,, ', ), !, ~, {, ], ], {, ^, /, (, _, :, <, 0$ [, }, |, 1, 2, 3, 4, 5, 6, 7, 8, 9, ,- 0$ 0, a, b, c, d, e, f, g, h, i, j, k, l, m, n, o, p, q, r, s, t, u, v, $. w, x, y, z, A, B, C, D, E, F, G, H, Z+ ]+ ]+ ]+ ]+ ]+ ]+ ]+ h. L  L  L  h. ]+ ]+ ]+ ]+ ]+ ]+ ]+ ]+ ]+ ]+ ]+ ]+ ]+ ]+ ]+ ]+ ]+ ]+ ]+ ]+ ]+ ]+ ]+ ]+ ]+ ]+ ]+ ]+ ]+ ]+ ]+ ]+ ]+ ]+ ]+ ]+ ]+ ]+ ]+ ]+ ]+ ]+ ]+ ]+ ]+ ]+ ]+ ]+ ]+ ]+ ]+ ]+ ]+ ]+ ]+ ",
"#  L  h. h. ]+ ]+ ]+ ]+ ]+ ]+ ]+ ]+ ]+ ]+ ]+ ]+ ]+ ]+ ]+ ]+ ]+ ]+ ]+ ]+ ]+ ]+ ]+ ]+ ]+ ]+ ]+ ]+ ]+ ]+ ]+ ]+ ]+ ]+ ]+ ]+ ]+ ]+ ]+ ]+ ]+ ]+ ]+ ]+ ]+ ]+ ]+ ]+ ]+ ]+ ]+ ]+ ]+ ]+ ]+ ]+ ]+ ]+ X+ ]+ ]+ 9# ]+ ]+ ]+ ]+ L  J  I, J, J, K, L, M, N, O, P, Q, R, S, T, U, V, W, X, Y, Z, `,  ' .' +' @' #' $' %' &' *' =' -' (& ^. ;' 3# >' ,' K+ '' )' !' ~' {' ]' ^' /' (' _' :' <' [' }' |' Q& 1' |= (. l- 2' (% 3' 4' 5' 6' 7' 8' 9' 0' a' b' c' d' e' f' g' h' i' }. j' k' I  '. Z. 0$ l' m' n' o' p' q' [% r' s' t' u' v' w' x' y' z' A' B' C' D' E' F' G' H' I' J' K' L' M' N' O' `+ P' ]+ 9# ]+ ]+ ]+ ]+ ]+ h. L  L  L  y@ ]+ ]+ ]+ ]+ ]+ ]+ ]+ ]+ ]+ ]+ ]+ ]+ ]+ ]+ ]+ ]+ ]+ ]+ ]+ ]+ ]+ ]+ ]+ ]+ ]+ ]+ ]+ ]+ ]+ ]+ ]+ ]+ ]+ ]+ ]+ ]+ ]+ ]+ ]+ ]+ ]+ ]+ ]+ ]+ ]+ ]+ ]+ ]+ ]+ ]+ ]+ ]+ ]+ ]+ ]+ ",
"#  L  h. h. ]+ ]+ ]+ ]+ ]+ ]+ ]+ ]+ ]+ ]+ ]+ ]+ ]+ ]+ ]+ ]+ ]+ ]+ ]+ ]+ ]+ ]+ ]+ ]+ ]+ ]+ ]+ ]+ ]+ ]+ ]+ ]+ ]+ ]+ ]+ ]+ ]+ ]+ ]+ ]+ ]+ ]+ ]+ ]+ ]+ ]+ ]+ ]+ ]+ ]+ ]+ ]+ ]+ U$ X+ ,$ Q' R' T% U+ Y$ S' T' y@ T$ C@ o$ U' V' W' X' Y' Z' `'  ) 8. .) +) @) #) $) %) &) *) =) -) ;) >) ,) ') )) !) ~) {) ]) ;' ^) Q$ /) ., O' () _) :) <) [) 3# (% }) |) 1) 2) 3) 4) 5) 6) 7) 8) 9) 0) a) b) c) -& d) e) f) g) h) i) j) k) l) m) n) o) p) q) r) s) t) u) v) w) x) 1. () () B. y) (.  + y) z) A) B) C) D) E) F) G) H) I) J) K) L) Z> M) N) O) P) Q) R) S) T) O  F. U) V) W) X) Y) Z) `) e;  ! r> .! +! R% h. A@ T+ o. @! #! $! %! ]+ ]+ X+ ]+ ]+ ]+ ]+ ]+ ]+ ]+ ]+ ]+ ]+ ]+ ]+ ]+ ]+ ]+ ]+ ]+ ]+ ]+ ]+ ]+ ]+ ]+ ]+ ]+ ]+ ]+ ]+ ]+ ]+ ]+ ]+ ]+ ]+ ]+ ]+ ]+ ]+ ]+ ]+ ]+ ]+ ]+ ]+ ]+ ]+ ]+ ]+ ]+ ]+ ]+ ",
"#  L  h. h. ]+ ]+ ]+ ]+ ]+ ]+ ]+ ]+ ]+ ]+ ]+ ]+ ]+ ]+ ]+ ]+ ]+ ]+ ]+ ]+ ]+ ]+ ]+ ]+ ]+ ]+ ]+ ]+ ]+ ]+ ]+ ]+ ]+ ]+ ]+ ]+ ]+ ]+ ]+ ]+ ]+ ]+ ]+ ]+ ]+ ]+ ]+ ]+ ]+ ]+ ]+ ]+ ]+ 6- 6- X+ &! $! ;+ P' *! %+ =! #+ ]. -! ;! >! ,! '! )! !! ~! {! ]. ]! ^! /! (! _! :! <! [! }! |! 1! 2! 3! 4! 5! 6! 7! 8! 9! 0! a! a! a! b! c! c! d! e! f! g! h! i! j! k! l! m! n! o! p! q! r! s! t! u! v! w! x! Z. y! z! A! B! z) C! D! E! F! G! 0$ H! I! J! K! L! M! N! O! P! Q! R! S! T! U! V! W! W! ;% X! Y! Z! `!  ~ .~ +~ @~ #~ $~ %~ &~ *~ =~ -~ ;~ >~ ,~ '~ )~ !~ ~~ 9. z$ {~ ]~ ^~ /~ (~ _~ :~ <~ [~ }~ E$ |~ 1~ *. 3. y@ :+ T+ 0# 2~ && ]+ 3~ M+ 7- ]+ ]+ ]+ ]+ ]+ ]+ ]+ ]+ ]+ ]+ ]+ ]+ ]+ ]+ ]+ ]+ ]+ ]+ ]+ ]+ ]+ ]+ ]+ ]+ ]+ ]+ ]+ ]+ ]+ ]+ ]+ ]+ ]+ ]+ ]+ ]+ ]+ ]+ ]+ ]+ ]+ ]+ ]+ ]+ ]+ ]+ ]+ ]+ ]+ ]+ ]+ ",
"#  L  h. h. ]+ ]+ ]+ ]+ ]+ ]+ ]+ ]+ ]+ ]+ ]+ ]+ ]+ ]+ ]+ ]+ ]+ ]+ ]+ ]+ ]+ ]+ ]+ ]+ ]+ ]+ ]+ ]+ ]+ ]+ ]+ ]+ ]+ ]+ ]+ ]+ ]+ ]+ ]+ ]+ ]+ ]+ ]+ ]+ ]+ ]+ ]+ ]+ ]+ ]+ ]+ ]+ ]+ 4~ 5~ $* 4~ 6~ 7~ 8~ 9~ 0~ a~ b~ c~ d~ e~ f~ g~ h~ i~ j~ k~ l~ m~ n~ o~ p~ H$ q~ r~ s~ t~ u~ v~ w~ x~ y~ z~ A~ B~ C~ D~ E~ F~ G~ H~ H~ I~ J~ J~ J~ H~ K~ L~ M~ N~ O~ P~ Q~ R~ S~ T~ 6! U~ V~ W~ X~ Y~ Z~ `~  { .{ +{ @{ #{ ${ %{ &{ *{ ={ -{ ;{ 7, >{ ,{ D& '{ ){ !{ ~{ L$ {{ ]{ ^{ /{ ({ _{ :{ <{ [{ }{ |{ 1{ 2{ 3{ 4{ 5{ 6{ 7{ 8{ r+ 9{ 0{ a{ b{ c{ d{ e{ f{ g{ h{ i{ E. j{ h~ k{ l{ m{ n{ o{ p{ q{ r{ s{ t{ u{ v{ m. i. w{ w{ :+ x{ @* T$ <# Q+ y{ z{ A{ X+ ]+ ]+ ]+ ]+ ]+ ]+ ]+ ]+ ]+ ]+ ]+ ]+ ]+ ]+ ]+ ]+ ]+ ]+ ]+ ]+ ]+ ]+ ]+ ]+ ]+ ]+ ]+ ]+ ]+ ]+ ]+ ]+ ]+ ]+ ]+ ]+ ]+ ]+ ]+ ]+ ]+ ]+ ]+ ]+ ]+ ]+ ]+ ]+ ]+ ]+ ",
"#  L  h. h. ]+ ]+ ]+ ]+ ]+ ]+ ]+ ]+ ]+ ]+ ]+ ]+ ]+ ]+ ]+ ]+ ]+ ]+ ]+ ]+ ]+ ]+ ]+ ]+ ]+ ]+ ]+ ]+ ]+ ]+ ]+ ]+ ]+ ]+ ]+ ]+ ]+ ]+ ]+ ]+ ]+ ]+ ]+ ]+ ]+ ]+ ]+ ]+ ]+ ]+ ]+ ]+ ]+ && '* B{ C{ 6- r@ D{ E{ 7~ F{ G{ H{ I{ J{ K{ O+ L{ M{ N{ O{ P{ Q{ (& R{ S{ T{ U{ V{ 7, W{ && X{ Y{ Z{ `{  ] .] +] @] #] $] %] #] #] #] &] *] *] *] =] -] ;] >] ,] '] )] !] ~] {] ]] ^] /] (] _] 7, :] <] [] }] |] 1] 2] 3] 4] 5] 6] 7] 8] 9] 0] O' a] b] c] d] e] f] g] h] i] j] k] l] m] n] o] p] q] r] s] t] s] s] u] v] w] x] y] z] A] B] C] D] E] F] G] H] I] J] '- K] L] M] N] O] P] Q] k- R] S] y! T] U] V] W] p@ X] Y] t@ Z]  & I, `]  ^ .^ +^ &* S% ]+ ]+ ]+ ]+ ]+ ]+ ]+ ]+ ]+ ]+ ]+ ]+ ]+ ]+ ]+ ]+ ]+ ]+ ]+ ]+ ]+ ]+ ]+ ]+ ]+ ]+ ]+ ]+ ]+ ]+ ]+ ]+ ]+ ]+ ]+ ]+ ]+ ]+ ]+ ]+ ]+ ]+ ]+ ]+ ]+ ]+ ]+ ]+ ]+ ]+ ]+ ",
"#  L  h. h. ]+ ]+ ]+ ]+ ]+ ]+ ]+ ]+ ]+ ]+ ]+ ]+ ]+ ]+ ]+ ]+ ]+ ]+ ]+ ]+ ]+ ]+ ]+ ]+ ]+ ]+ ]+ ]+ ]+ ]+ ]+ ]+ ]+ ]+ ]+ ]+ ]+ ]+ ]+ ]+ ]+ ]+ ]+ ]+ ]+ ]+ ]+ ]+ ]+ ]+ ]+ ]+ ]+ @^ #^ 4- '* f; $^ c# %^ &^ *^ @= =^ -^ ;^ >^ K  ,^ <! '^ )^ !^ ~^ {^ ). R{ 0$ ]^ ^^ /^ (^ _^ :^ .. <^ B. [^ _) _) }^ D@ :. )$ |^ |^ |^ ^. ]. |^ |^ 1^ 2^ 3^ f) -& 4^ 5^ 6^ 7^ 8^ 9^ 0^ a^ b^ c^ d^ e^ f^ g^ ). h^ i^ j^ k^ l^ a) m^ n^ o^ p^ q^ r^ s^ t^ u^ v^ w^ x^ y^ z^ A^ B^ C^ D^ E^ 7, 2' `# ,~ Y. O' 3^ F^ G^ z$ M; w) H^ n. ). I^ J^ K^ L^ M^ N^ O^ P^ Q^ l- I^ R^ S^ T^ l{ U^ V^ W^ i. X^ Y^ ^. Z^ [! `^  / ./ +/ }^ Z  @/ &* #/ $/ %/ &/ */ f; 9# ]+ ]+ ]+ ]+ ]+ ]+ ]+ ]+ ]+ ]+ ]+ ]+ ]+ ]+ ]+ ]+ ]+ ]+ ]+ ]+ ]+ ]+ ]+ ]+ ]+ ]+ ]+ ]+ ]+ ]+ ]+ ]+ ]+ ]+ ]+ ]+ ]+ ]+ ]+ ]+ ]+ ]+ ]+ ]+ ]+ ]+ ]+ ]+ ]+ ]+ ]+ ",
"#  L  h. h. ]+ ]+ ]+ ]+ ]+ ]+ ]+ ]+ ]+ ]+ ]+ ]+ ]+ ]+ ]+ ]+ ]+ ]+ ]+ ]+ ]+ ]+ ]+ ]+ ]+ ]+ ]+ ]+ ]+ ]+ ]+ ]+ ]+ ]+ ]+ ]+ ]+ ]+ ]+ ]+ ]+ ]+ ]+ ]+ ]+ ]+ ]+ ]+ ]+ ]+ ]+ ]+ ]+ =/ -/ R+ ;/ >/ ,/ '/ )/ !/ ~/ {^ ,- S$ Z] {/ ]/ j' ^/ // (/ _/ :/ p$ H^ </ [/ }/ |/ 1/ 2/ 3/ 4/ 5/ 6/ 7/ 8/ 9/ 0/ Q  D{ a/ b/ b# b# b# b# c/ d/ v> e/ f/ g/ () Z. J@ h/ i/ j/ k/ l/ m/ n/ o/ p/ q/ r/ s/ t/ u/ v/ w/ x/ y/ z/ A/ B/ C/ D/ E/ F/ 0/ @/ G/ H/ I/ J/ K/ L/ M/ N/ O/ P/ Q/ 5- b. X% R/ S/ 1' T/ c/ 1= U/ G. V/ [/ Z  9- '+ W/ X/ w% Y/ Z/ () `/  ( .( o$ 7+ +( @( #( $( %( &( *( b# =( -( ;( W/ 3; >( ,( '( )( !( ~( %. {( ]( 2~ #/ ^( |~ ^( 2~ ]+ ]+ ]+ ]+ ]+ ]+ ]+ ]+ ]+ ]+ ]+ ]+ ]+ ]+ ]+ ]+ ]+ ]+ ]+ ]+ ]+ ]+ ]+ ]+ ]+ ]+ ]+ ]+ ]+ ]+ ]+ ]+ ]+ ]+ ]+ ]+ ]+ ]+ ]+ ]+ ]+ ]+ ]+ ]+ ]+ ]+ ]+ ]+ ]+ ]+ ]+ ",
"#  L  h. h. ]+ ]+ ]+ ]+ ]+ ]+ ]+ ]+ ]+ ]+ ]+ ]+ ]+ ]+ ]+ ]+ ]+ ]+ ]+ ]+ ]+ ]+ ]+ ]+ ]+ ]+ ]+ ]+ ]+ ]+ ]+ ]+ ]+ ]+ ]+ ]+ ]+ ]+ ]+ ]+ ]+ ]+ ]+ ]+ ]+ ]+ ]+ ]+ ]+ ]+ ]+ ]+ ]+ /( Q% (( (% _( :( <( [( }( +% m. $@ b/ h' |( 1( 2( 3( 0$ 4( 5( 6( 7( 8( 9( K  0( a( b( c( d( e( f( _.  $ g( 4~ h( i( *. j( *! 7~ m. m. m. t@ P  k( j' :. l( m( n( o( p( q( r( s( $/ t( u( v( w( x( y( z( A( B( C( D( E( F( G( H( I( J( K( L( M( N( A) O( P( Q( R( S( T( U( V( W( X( Y( Z( x. `(  _ @& ._ R+ ;+ +_ @_ V. U% ,+ #! T$ w@ #_ z$ ]% $_ %_ C= &_ *_ =_ -_ ;_ >_ ,_ '_ )_ !_ ~_ {_ ]_ ^_ /_ a~ 5~ (_ 9- |^ __ :_ <_ [_ }_ l( |_ >$ 1_ 2_ 3_ 4_ _= ]+ ]+ ]+ ]+ ]+ ]+ ]+ ]+ ]+ ]+ ]+ ]+ ]+ ]+ ]+ ]+ ]+ ]+ ]+ ]+ ]+ ]+ ]+ ]+ ]+ ]+ ]+ ]+ ]+ ]+ ]+ ]+ ]+ ]+ ]+ ]+ ]+ ]+ ]+ ]+ ]+ ]+ ]+ ]+ ]+ ]+ ]+ ]+ ]+ ]+ ]+ ",
"#  L  h. h. ]+ ]+ ]+ ]+ ]+ ]+ ]+ ]+ ]+ ]+ ]+ ]+ ]+ ]+ ]+ ]+ ]+ ]+ ]+ ]+ ]+ ]+ ]+ ]+ ]+ ]+ ]+ ]+ ]+ ]+ ]+ ]+ ]+ ]+ ]+ ]+ ]+ ]+ ]+ ]+ ]+ ]+ ]+ ]+ ]+ ]+ ]+ ]+ ]+ ]+ ]+ ]+ ]+ 5_ i. 6_ 7_ 8_ 9_ 0_ a_ b_ c_ U$ != X. d_ 2' e_ )- f_ g_ h_ i_ j_ k_ l_ }^ ,. (. m_ n_ o_ p_ q_ r_ s_ t_ P' u_ f; v_ w_ x_ j( 7~ 7~ s. s. t@ y_ ^) z_ A_ B_ C_ D_ E_ F_ G_ H_ I_ J_ K_ L_ M_ N_ O_ P_ Q_ R_ S_ T_ U_ V_ W_ X_ Y_ Z_ `_  : .: +: @: #: $: %: &: *: =: -: ;: >: ,: ': ): !: ~: 0$ {: b. ]: _+ v@ p@ p@ #/ @! v@ /+ ^: V+ z$ /: (: _: :: <: [: }: 0$ 0/ 1- |: 1: 2: 3: 4: 5: 6: 7: 8: 0$ ;. 9( R{ +, !. W/ Y$ 9: 0: a: b: c: d: e:  & f: 6+ T+ ]+ ]+ ]+ ]+ ]+ ]+ ]+ ]+ ]+ ]+ ]+ ]+ ]+ ]+ ]+ ]+ ]+ ]+ ]+ ]+ ]+ ]+ ]+ ]+ ]+ ]+ ]+ ]+ ]+ ]+ ]+ ]+ ]+ ]+ ]+ ]+ ]+ ]+ ]+ ]+ ]+ ]+ ]+ ]+ ]+ ]+ ]+ ]+ ]+ ]+ ]+ ",
"#  L  h. h. ]+ ]+ ]+ ]+ ]+ ]+ ]+ ]+ ]+ ]+ ]+ ]+ ]+ ]+ ]+ ]+ ]+ ]+ ]+ ]+ ]+ ]+ ]+ ]+ ]+ ]+ ]+ ]+ ]+ ]+ ]+ ]+ ]+ ]+ ]+ ]+ ]+ ]+ ]+ ]+ ]+ ]+ ]+ ]+ X+ g: w@ T$ h: i: /+ j: a/ [) /. k: l: m: n: o: c) p: K] q: N( _) r: s: t: u: v: w: x: y: z: A: B: C: K  3# ~, D: E: F: G: H: I: J: K: := Y$ L: 3- M: N: X~ O: Q% P: Q: R: S: T: U: V: W: X: Y: Z: `:  < .< +< @< #< $< %< &< *< =< -~ -< ;< >< ,< '< )< !< p+ ~< {< ]< ^< /< (< _< :< << [< }< |< 1< Q: 2< 3< 4< 5< 6< 7< 8< /. 9< S  >. 0< P' _+ _+ a< b< c< d< A) e< f< g< h< i< j< k< ^) l< m< n< o< p< q< r< s< t< u< v< w< c# Z= '. M; x< T/ y< () z< A< B< C< r: %. '+ D< 3. X~ o. E< V+ T+ @& X+ u@ z{ 9# ]+ ]+ ]+ ]+ ]+ ]+ ]+ ]+ ]+ ]+ ]+ ]+ ]+ ]+ ]+ ]+ ]+ ]+ ]+ ]+ ]+ ]+ ]+ ]+ ]+ ]+ ]+ ]+ ]+ ]+ ]+ ]+ ]+ ]+ ]+ ]+ ]+ ]+ ]+ ]+ ]+ ]+ ",
"#  L  h. h. ]+ ]+ ]+ ]+ ]+ ]+ ]+ ]+ ]+ ]+ ]+ ]+ ]+ ]+ ]+ ]+ ]+ ]+ ]+ ]+ ]+ ]+ ]+ ]+ ]+ ]+ ]+ ]+ ]+ ]+ ]+ ]+ ]+ ]+ ]+ ]+ ]+ ]+ ]+ ]+ ]+ ]+ ]+ ]+ #+ F< G< H< I< J< K< L< M< N< O< P< Q< C= R< ;^ I  J  S+ S< '- T< U< V< W< X< Y< Z< `<  [ .[ +[ @[ #[ o$ K] $[ %[ &[ *[ =[ -[ ;[ >[ ,[ `! W% X% 9# '[ H< )[ ![ ~[ {[ ][ ^[ /[ ([ _[ :[ <[ [[ <^ }[ |[ 1[ 2[ 3[ 4[ 5[ 6[ 7[ 8[ 9[ 0[ a[ b[ c[ ;& d[ e[ f[ g[ h[ i[ j[ k[ l[ 7! m[ n[ o[ p[ q[ r[ s[ m# (^ 0$ t[ u[ v[ w[ x[ y[ z[ 6_ 0$ A[ O: ^+ B[ U$ C[  & k. '+ 8+ D[ E[ F[ G[ H[ I[ J[ /) K[ L[ M[ N[ O[ P[ Q[ R[ S[ m@ T[ U[ V[ W[ 0$ 4# e. X[ }~ O' 3; 0$ Y[ Z[ `[  } .} +} @} &@ #/ #} $} R] %} ^( (+ f: #& ]+ ]+ ]+ ]+ ]+ ]+ ]+ ]+ ]+ ]+ ]+ ]+ ]+ ]+ ]+ ]+ ]+ ]+ ]+ ]+ ]+ ]+ ]+ ]+ ]+ ]+ ]+ ]+ ]+ ]+ ]+ ]+ ]+ ]+ ]+ ]+ ]+ ]+ ]+ ]+ ]+ ]+ ",
"#  L  h. h. ]+ ]+ ]+ ]+ ]+ ]+ ]+ ]+ ]+ ]+ ]+ ]+ ]+ ]+ ]+ ]+ ]+ ]+ ]+ ]+ ]+ ]+ ]+ ]+ ]+ ]+ ]+ ]+ ]+ ]+ ]+ ]+ ]+ ]+ ]+ ]+ ]+ ]+ ]+ ]+ ]+ ]+ ]+ ]+ #+ &} *} S+ =} -} ;} >} ,} '} )} !} ~} {} /. ;' t_ ]} ^} j[ J= /} (} _} :} <} [} }} |} 1} 2} 3} 4} 5} f{ >' 6} 7} 8} 9} 0} a}  , b} c} d} ++ r> ^( j: @@ e} f} g} h} i} j} k} -% l} m} n} o} p} q} r} s} t} u} v} w} x} y} z} A} B} C} D} E} F} G} H} I} J} K} L} M} N} O} P} Q} R} S} T} U} V} W} X} Y} Z} `}  | .| 0$ +| @| #| $| %| &| *| =| -| =| x{ ;| >| @& ,| '| )| !| ~| {| ]| ^| /| (| _| :| <| [| }| || 1| 2| 3| 4| 5| 6| 7| 8| 9| R< .$ 0| ,- f) a| b| c| d| e| f| g| M  ]: 9# h| i| j| M+ k| l| 2~ ]+ ]+ ]+ ]+ ]+ ]+ ]+ ]+ ]+ ]+ ]+ ]+ ]+ ]+ ]+ ]+ ]+ ]+ ]+ ]+ ]+ ]+ ]+ ]+ ]+ ]+ ]+ ]+ ]+ ]+ ]+ ]+ ]+ ]+ ]+ ]+ ]+ ]+ ]+ ]+ ]+ ]+ ]+ ",
"#  L  h. h. ]+ ]+ ]+ ]+ ]+ ]+ ]+ ]+ ]+ ]+ ]+ ]+ ]+ ]+ ]+ ]+ ]+ ]+ ]+ ]+ ]+ ]+ ]+ ]+ ]+ ]+ ]+ ]+ ]+ ]+ ]+ ]+ ]+ ]+ ]+ ]+ ]+ ]+ ]+ ]+ ]+ ]+ ]+ ]+ U$ m| 4+ W+ n| o| p| q| r| s| t| u| v| w| ^} ,^ h) x| y| z| A| B| C| D| E| F| G| H| I| J| K| L| M| N| O| P| Q| R| S| T| U| V| W| X| Y| Z| P% <# u_  ^ `| j|  1 .1 +1 @1 2# #1 $1 D$ %1 &1 *1 =1 -1 ;1 >1 ,1 '1 )1 !1 ~1 ({ {1 ]1 ^1 /1 (1 _1 :1 <1 [1 }1 |1 11 21 31 41 51 61 71 81 91 01 a1 b1 c1 d1 e1 f1 |{ g1 Q& j' 3' h1 i1 j1 k1 l1 m1 n1 -* o1 {= p1 $} x{ u_ q1 r1 s1 t1 u1 v1 8, X] w1 x1 y1 z1 A1 B1 C1 D1 E1 F1 G1 H1 I1 J1 K1 L1 M1 N1 ,~ y_ Z. O1 P1 Q1 R1 S1 T1 U1 V1 W1 ,^ X1 Y1 Z1 `1 d} z{ @* ]+ ]+ ]+ ]+ ]+ ]+ ]+ ]+ ]+ ]+ ]+ ]+ ]+ ]+ ]+ ]+ ]+ ]+ ]+ ]+ ]+ ]+ ]+ ]+ ]+ ]+ ]+ ]+ ]+ ]+ ]+ ]+ ]+ ]+ ]+ ]+ ]+ ]+ ]+ ]+ ]+ ]+ ]+ ",
"#  L  h. h. ]+ ]+ ]+ ]+ ]+ ]+ ]+ ]+ ]+ ]+ ]+ ]+ ]+ ]+ ]+ ]+ ]+ ]+ ]+ ]+ ]+ ]+ ]+ ]+ ]+ ]+ ]+ ]+ ]+ ]+ ]+ ]+ ]+ ]+ ]+ ]+ ]+ ]+ ]+ ]+ ]+ {+ {+ ]+ ]+  2 .2 +2 @2 #2 $2 }] %2 &2 *2 =2 -2 ;2 <^ o$ >2 ,2 '2 )2 !2 ~2 {2 ]2 ^2 /2 (2 _2 :2 <2 [2 }2 6$ |2 12 22 32 m- <% 42 52 62 72 82 {! 92 V+ &* =& 8/ 2# Y: 02 a2 b2 c2 d2 -% e2 2/ f2 A) g2 h2 i2 j2 k2 l2 m2 n2 o2 p2 q2 r2 s2 t2 u2 v2 w2 x2 y2 z2 A2 B2 C2 D2 E2 F2 G2 H2 I2 J2 K2 L2 M2 N2 O2 P2 Q2 R2 S2 Q| f$ ^/ J  T2 U2 A| V2 W2 A) }~ <# X2 Y2 Z2 ;/ &! 2~ v@ `2  3 .3 +3 @3 }+ #3 $3 %3 &3 *3 =3 -3 ;3 >3 ,3 0$ '3 )3 !3 ~3 {3 H} ]3 ^3 /3 }^ 0$ (3 _3 :3 <3 0$ [3 }3 |3 13 23 Z. 33 43 53 .@ 63 P' 9# ]+ ]+ ]+ ]+ ]+ ]+ ]+ ]+ ]+ ]+ ]+ ]+ ]+ ]+ ]+ ]+ ]+ ]+ ]+ ]+ ]+ ]+ ]+ ]+ ]+ ]+ ]+ ]+ ]+ ]+ ]+ ]+ ]+ ]+ ]+ ]+ ]+ ]+ ]+ ]+ ]+ ]+ ",
"$  L  h. ]+ ]+ ]+ ]+ ]+ ]+ ]+ ]+ ]+ ]+ ]+ ]+ ]+ ]+ ]+ ]+ ]+ ]+ ]+ ]+ ]+ ]+ ]+ ]+ ]+ ]+ ]+ ]+ ]+ ]+ ]+ ]+ ]+ ]+ ]+ ]+ ]+ ]+ ]+ ]+ ]+ ]+ {+ L  h. T+ $! 73 83 93 03 a3 b3 c3 d3 e3 f3 g3 h3 i3 j3 k3 l3 m3 n3 o3 p3 q3 r3 s3 c# t3 u3 v3 w3 ~< x3 y3 z3 A3 B3 C3 C3 D3 E3 F3 G3 H3 I3 J3 K3 L3 M3 N3 O3 P3 Q3 R3 $( S3 T3 U3 V3 W3 Q& j{ `* }^ X3 Y3 Z3 `3  4 .4 +4 @4 #4 $4 %4 &4 *4 =4 -4 ;4 >4 ,4 '4 )4 !4 ~4 {4 ]4 ^4 /4 (4 +# _4 :4 <4 [4 }4 |4 14 24 2_ e2 @3 34 @2 1@ 44 54 64 74 84 }) 94 04 a4 b4 c4 S  .$ d4 x{ /& e4 f4 g4 `2 D@ h4 i4 j4 k4 l4 m4 n4 o4 p4 q4 ^) r4 s4 t4 u4 v4 [( w4 x4 y4 z4 A4 B4 C4 D4 E4 q4 F4 G4 H4 I4 J4 K4 L4 M4 N4 O4 o@ P4 ]+ ]+ ]+ ]+ ]+ ]+ ]+ ]+ ]+ ]+ ]+ ]+ ]+ ]+ ]+ ]+ ]+ ]+ ]+ ]+ ]+ ]+ ]+ ]+ ]+ ]+ ]+ ]+ ]+ ]+ ]+ ]+ ]+ ]+ ]+ ]+ ]+ ]+ ]+ ]+ ]+ ]+ ]+ ",
"$  L  h. ]+ ]+ ]+ ]+ ]+ ]+ ]+ ]+ ]+ ]+ ]+ ]+ ]+ ]+ ]+ ]+ ]+ ]+ ]+ ]+ ]+ ]+ ]+ ]+ ]+ ]+ ]+ ]+ ]+ ]+ ]+ ]+ ]+ ]+ ]+ ]+ ]+ ]+ ]+ ]+ ]+ ]+ h. {+ L  i. X^ Q4 R4 S4 T4 U4 V4 W4 X4 Q& Y4 Z4 `4  5 .5 y^ +5 @5 #5 $5 %5 &5 *5 =5 a~ A) -5 ;5 >5 ,5 '5 )5 !5 ~5 {5 J] /| n- ]5 ^5 /5 (5 _5 :5 <5 0- 7+ [5 }5 |5 15 25 35 45 55 65 75 85 95 m* `| 05 a5 b5 c5 d5 e5 f5 g5 h5 i5 j5 k5 e_ '- +% +% 0( l5 m5 n5 o5 .} o$ 0$ o$ m* p5 m[ q5 r5 s5 t5 u5 v5 w5 x5 Z= :+ d. 0$ y5 z5 A5 01 B5 C5 D5 E5 F5 G5 H5 I5 D@ J5 j( &* K5 j| 2# L5 M5 N5 /. O5 P5 Q5 R5 S5 T5 U5 V5 W5 X5 3; Y5 Z5 `5  6 .6 +6 @6 #6 $6 %6 &6 *6 =6 -6 ;6 >6 ,6 '6 )6 !6 ~6 {6 ]6 ^6 /6 (6 _6 q@ %+ X+ ]+ ]+ ]+ ]+ ]+ ]+ ]+ ]+ ]+ ]+ ]+ ]+ ]+ ]+ ]+ ]+ ]+ ]+ ]+ ]+ ]+ ]+ ]+ ]+ ]+ ]+ ]+ ]+ ]+ ]+ ]+ ]+ ]+ ]+ ]+ ]+ ]+ ]+ ]+ ]+ ]+ ]+ ",
"$  L  h. ]+ ]+ ]+ ]+ ]+ ]+ ]+ ]+ ]+ ]+ ]+ ]+ ]+ ]+ ]+ ]+ ]+ ]+ ]+ ]+ ]+ ]+ ]+ ]+ ]+ ]+ ]+ ]+ ]+ ]+ ]+ ]+ ]+ ]+ ]+ ]+ ]+ ]+ ]+ ]+ ]+ ]+ L  L  P  U! p& :6 <6 [6 }6 |6 16 26 36 46 )% 56 !< m, 66 76 86 96 06 a6 b6 c6 x< d6 e6 f. 0$ f6 g6 z+ h6 i6 j6 k6 l6 m6 R< n6 o6 p6 q6 r6 s6 t6 u6 ;_ -! v6 o< w6 0$ 0$ x6 y6 z6 A6 B6 C6 D6 E6 F6 G6 {( -& H6 I6 J6 K6 L6 L{ M6 I  c# Y. N3 N6 O6 P6 Q6 R6 S6 T6 U6 ^) R$ V6 W6 () ^) /. -% N% X6 Y6 Z6 n% &+ R{ `6 /)  7 .7 +7 @7 #7 $7 %7 &7 Q& *7 =7 -7 ;7 >7 t_ ._ #+ e; ,7 '7 )7 !7 }+ -% ~7 {7 ]7 ^7 /7 (7 _7 :7 25 3' <7 A@ [7 }7 |7 17 27 37 47 57 67 77 87 97 07 a7 0$ b7 c7 d7 e7 d/ ~: f7 g7 h7 i7 j7 m# X~ ]+ ]+ ]+ ]+ ]+ ]+ ]+ ]+ ]+ ]+ ]+ ]+ ]+ ]+ ]+ ]+ ]+ ]+ ]+ ]+ ]+ ]+ ]+ ]+ ]+ ]+ ]+ ]+ ]+ ]+ ]+ ]+ ]+ ]+ ]+ ]+ ]+ ]+ ]+ ]+ ]+ ]+ ]+ ",
"$  L  h. ]+ ]+ ]+ ]+ ]+ ]+ ]+ ]+ ]+ ]+ ]+ ]+ ]+ ]+ ]+ ]+ ]+ ]+ ]+ ]+ ]+ ]+ ]+ ]+ ]+ ]+ ]+ ]+ ]+ 9# #+ Z2 S% X+ k7 T$ @* l7 l7 c< /+ m. m7 N( n7 b& o7 U& p7 q7 Q$ 0$ r7 s7 t7 u7 8, G= v7 w7 x7 y7 z7 A7 B7 C7 *7 D7 w. U% ;+ D' Z2 E7 F7 G7 H7 I7 J7 K7 L7 M7 N7 O7 n- P7 Q7 R7 J+ S7 W+ T7 U7 V7 W7 0$ X7 R< R< J+ Y7 Z7 `7  8 .8 +8 @8 #8 Q$ ,+ I  $8 %8 &8 *8 =8 h~ -8 z$ ;8 >8 N( ]. ,8 '8 i1 #6 )8 !8 0$ ~8 {8 }[ D' c) ]8 $[ ^8 /8 (8 _8 :8 <8 [8 /. }8 |8 18 28 38 48 58 68 2' 6# ,. }~ 78 88 98 08 y) X/ I^ a8 b8 q< c8 D$ q4 d8 e8 f8 g8 h8 i8 j8 k8 l8 ,. 3( .= c/ v{ m8 n8 o8 p8 q8 r8 s8 t8 u8 v8 w8 x8 y8 z8 A8 B8 C8 -$ D8 E8 F8 G8 ,_ H8 ,- ;+ I8 G< J8 Z+ .! ,$ '* K8 9# ]+ ]+ ]+ ]+ ]+ ]+ ]+ ]+ ]+ ]+ ]+ ]+ ]+ ]+ ]+ ]+ ]+ ]+ ]+ ]+ ]+ ]+ ]+ ]+ ]+ ]+ ]+ ]+ ]+ ]+ ]+ ]+ ]+ ]+ ",
"$  L  h. ]+ ]+ ]+ ]+ ]+ ]+ ]+ ]+ ]+ ]+ ]+ ]+ ]+ ]+ ]+ ]+ ]+ ]+ ]+ ]+ ]+ ]+ ]+ ]+ ]+ ]+ ]+ ]+ ]+ C@ *. L8 I@ 9# '* ^( c< ;* Y  M8 u@ =| N8 O8 P8 Q8 R8 S8 T8 U8 V8 j( W8 X8 Y8 Z8 ^) `8  9 .9 +9 @9 #9 $9 %9 &9 G. 4# m- *9 =9 ;8 ,^ 1^ -9 ;9 >9 ,9 '9 )9 !9 ~9 {9 ]9 =! k[ ^9 /9 (9 _9 R{ :9 <9 [9 }9 |9 19 Q& 3' U+ 29 39 49 59 69 79 89 99 09 ;' %& f) a9 b9 c9 d9 =@ ]} L^ e9 f9 c/ 0$ g9 h9 i9 j9 k9 B+ (& l9 m9 :. k' x. n9 o9 p9 q9 r9 J+ @. d/ 3; s9 t9 u9 v9 w9 x9 y9 }[ z9 @3 +% c8 A9 B9 C9 D9 E9 F9 G9 /. H9 I9 J9 /) ]. K9 L9 M9 N9 O9 P9 Q9 R9 S9 K[ T9 '+ /| S< U9 X. V9 W9 X9 Y9 Z9 `9  0 .0 +0 @0 D@ #0 $0 %0 &0 l< Z= *0 =0 -0 ;0 >0 ,0 '0 Y+ 1~ )0 !0 e} t. ,$ ~0 {0 <# ]+ ]+ ]+ ]+ ]+ ]+ ]+ ]+ ]+ ]+ ]+ ]+ ]+ ]+ ]+ ]+ ]+ ]+ ]+ ]+ ]+ ]+ ]+ ]+ ]+ ]+ ]+ ]+ ]+ ]+ ]+ ]+ ]+ ]+ ",
"$  L  h. ]+ ]+ ]+ ]+ ]+ ]+ ]+ ]+ ]+ ]+ ]+ ]+ ]+ ]+ ]+ ]+ ]+ ]+ ]+ ]+ ]+ ]+ ]+ ]+ ]+ ]+ ]+ ]+ ]+ u@ #& A{ `1 y{ ]0  @ |+ P' P' ^0 /0 8. (0 _0 :0 <0 O, [0 }0 |0 10 4$ 20 30 40 50 z$ k' 60 70 80 V8 90 k- l9 $. h; [/ 00 a0 b0 c0 L< d0 }^ e0 f0 g0 h0 i0 j0 k0 l0 m0 n0 o0 p0 q0 r0 s0 )% t0 u0 v0 w0 x0 y0 z0 A0 n6 B0 (^ I  C0 D0 E0 F0 G0 H0 I0 -% >' n- J0 K0 L0 _0 M0 N0 O0 P0 ;$ <! Q0 R0 S0 <! T0 U0 V0 P$ ;^ W0  = c) X0 Y0 Z0 `0  a a. .a +a @a #a $a %a &a *a =a B0 -a J+ ;a >a ,a 'a )a E+ !a ~a {a 7) k- ]a ^a /a (a /: _a :a <a [a }a |a 1a 2a 0$ c/ 3a {: N  4a 9. 1( ). 5a 0< ).  [ 6a 7a <% |% 8, >' 8a 9a 0a -% 3# aa ba ca da ea fa ga ha ia /& ja 6/ ka la +& ]0 ma 4~ ]+ ]+ ]+ ]+ ]+ ]+ ]+ ]+ ]+ ]+ ]+ ]+ ]+ ]+ ]+ ]+ ]+ ]+ ]+ ]+ ]+ ]+ ]+ ]+ ]+ ]+ ]+ ]+ ]+ ]+ ]+ ]+ ]+ ]+ ",
"$  L  h. ]+ ]+ ]+ ]+ ]+ ]+ ]+ ]+ ]+ ]+ ]+ ]+ ]+ ]+ ]+ ]+ ]+ ]+ ]+ ]+ ]+ ]+ ]+ ]+ ]+ ]+ ]+ ]+ ]+ u@ 9# X+ .& na #* =* 6+ oa I, pa N3 qa ra sa ta 2, ua va wa xa ya za 0< Aa Ba Ca ,. Da Ea Fa  ) '. '. Ga l9 U  l< P) Ha Ia 8, '. b. Z= Ja Ka La Ma Na Oa Pa Qa Ra Sa Ta Ua Va n% Wa Xa Ya w9 Za `a  b m' .b d~ +b @b #b r: U  -% $b %b &b >1 *b =b -b }~ W6 ;b ~1 >b ,b 'b d6 D{ ;^ c# )b !b ~b y_ I  {b ]b ^b a4 b. X^ a4 D^ /b (b _b :b 5^ ;_ ^} <b [b }b |b 1b 2b Y| 3b Y] 4b 5b 6b 7b 8b 9b 0b ab bb cb db eb fb Q& gb hb ib jb kb lb mb nb ob pb qb rb i) sb tb ub 4^ .= Z^ vb 0. wb ,' e. J@ xb n9 0$ 0$ /. c/ yb zb Ab Bb -% Cb Db Eb Fb 0$ Gb Hb Ib Jb Kb Lb Mb T% Z2 && #& Nb 4~ ]+ ]+ ]+ ]+ ]+ ]+ ]+ ]+ ]+ ]+ ]+ ]+ ]+ ]+ ]+ ]+ ]+ ]+ ]+ ]+ ]+ ]+ ]+ ]+ ]+ ]+ ]+ ]+ ]+ ]+ ]+ ]+ ]+ ]+ ",
"$  L  h. ]+ ]+ ]+ ]+ ]+ ]+ ]+ ]+ ]+ ]+ ]+ ]+ ]+ ]+ ]+ ]+ ]+ ]+ ]+ ]+ ]+ ]+ ]+ ]+ ]+ ]+ ]+ ]+ ]+ 9# u_ 4~ h( /& .@ ;* Ob Pb Y$ ]8 Qb Rb Sb Tb Ub Vb Wb ,- Xb Yb Zb `b J+ l9 F. T) k-  c t( .c +c @c #c $c %c &c *c B0 D' .= +, (& g= =c -c ;c >c ,c 'c )c !c ~c {c ]c ^c /c (c _c :c <c [c }c |c C} 1c 2c 3c 4c 5c 6c 7c 8c h) :^ ^} s& 9c 0c ac bc cc dc Q& 2' ec fc gc hc Y| ic {: /. jc kc lc mc r@ nc oc pc (a Ga 3# z) qc rc sc tc |^ Y] o$ uc vc wc xc yc zc N6 @3 ^. Ac Bc Cc Dc Ec Fc Gc Hc Ic Jc Kc Lc Mc Nc C! Oc Pc Qc Rc Sc Tc Uc |( Vc Wc Xc Yc Zc `c S( ,-  + D{  d q: .d 0/ j( +d K{ n- e4 @d #d $d %d &d *d a5 I  =d -d ;d >d ,d 'd )d !d ~d {d ]d ^d /d (d _d :d <d h( i: ]+ ]+ ]+ ]+ ]+ ]+ ]+ ]+ ]+ ]+ ]+ ]+ ]+ ]+ ]+ ]+ ]+ ]+ ]+ ]+ ]+ ]+ ]+ ]+ ]+ ]+ ]+ ]+ ]+ ]+ ]+ ]+ ]+ ]+ ",
"$  L  h. ]+ ]+ ]+ ]+ ]+ ]+ ]+ ]+ ]+ ]+ ]+ ]+ ]+ ]+ ]+ ]+ ]+ ]+ ]+ ]+ ]+ ]+ ]+ ]+ ]+ ]+ ]+ ]+ ]+ ]+ K8 9# $& [d }d |d 1d 2d 3d g9 1: 4d X9 5d 6d 7d 8d 9d {8 >4 0d ad )c .= 3- () bd cd dd ed fd gd hd b_ 3; 2' (. z$ J  x. N  id jd kd ld md nd od f) pd qd rd sd td ud vd wd 0$ xd yd zd 0$ Ad |, Bd P, Cd Dd Ed Fd Gd 8_ Hd 0( Id Jd Kd Ld Md Nd D% Od Pd ;. 0$ Qd Rd Sd Td h) !. -& Ud Vd 9| d0 Q: Wd Xd Yd Q$ l- `. Zd `d  e .e +e @e l- #e $e %e p_ &e *e o> d6 o$ =e -e ;e >e ,e 'e )e !e ~e {e V! 3^ ]e ^e /e )$ (e _e :e <e [e }e |e 1e a0 #8 2e 3e 4e 5e 6e 7e 8e ;8 9e 0e M; -. M0 2' Z= ae be ce de ee fe ge o$ he Q$ ie je ke le -% me ne oe pe qe re se te 3/ ue '[ ve P' u@ ]+ ]+ ]+ ]+ ]+ ]+ ]+ ]+ ]+ ]+ ]+ ]+ ]+ ]+ ]+ ]+ ]+ ]+ ]+ ]+ ]+ ]+ ]+ ]+ ]+ ]+ ]+ ]+ ]+ ]+ ]+ ]+ ]+ ]+ ",
"$  L  h. ]+ ]+ ]+ ]+ ]+ ]+ ]+ ]+ ]+ ]+ ]+ ]+ ]+ ]+ ]+ ]+ ]+ ]+ ]+ ]+ ]+ ]+ ]+ ]+ ]+ ]+ ]+ ]+ ]+ T+ #! we xe a| ye ze 2d Ae Be Ce De Ee Fe Ge He Ie Je Ke 2( Le Me Ne Oe Pe Qe Re Se Te Ue Ve We Xe Ye Z. Z. 0( M; M   ) Ze `e  f .f +f @f #f $f %f &f *f =f -f ;f >f ,f 'f )f !f ~f {f ]f ^f /f (f _f <! :f <f [f 2| W, }f |f 1f 2f >^ r: 3f 4f 5f 6f 7f 8f 9f 6. 0f af bf cf df k- F^ ef ff gf hf ]} c# if jf kf x) lf mf nf of pf '$ 3# qf rf sf tf uf vf +% wf 0$ xf yf zf Af Bf Cf Df Ef B/ Ff Gf F7 Hf If Jf Kf y_ Lf Mf Nf Of Pf Qf Rf Sf Tf %& Uf Vf Wf Xf Yf Zf `f  g .g +g @g n~ ^} ^) #g $g %g &g *g =g ]> -g ;g 0$ m* >g ,g 'g N3 c{ )g !g ~g {g 32 ]g ^g /g (g _g :g %} _+ u@ ]+ ]+ ]+ ]+ ]+ ]+ ]+ ]+ ]+ ]+ ]+ ]+ ]+ ]+ ]+ ]+ ]+ ]+ ]+ ]+ ]+ ]+ ]+ ]+ ]+ ]+ ]+ ]+ ]+ ]+ ]+ ]+ ]+ ]+ ",
"$  L  h. ]+ ]+ ]+ ]+ ]+ ]+ ]+ ]+ ]+ ]+ ]+ ]+ ]+ ]+ ]+ ]+ ]+ ]+ ]+ ]+ ]+ ]+ ]+ ]+ ]+ ]+ ]+ ]+ ]+ /+ c< 5+ U% 0+ <g [g }g |g 1g 2g 3g 4g l( 5g 6g 7g 8g %- 9g 3' 0g I, J+ ag bg cg dg eg fg ., gg hg ig /. +% '- ]8 `. jg kg lg mg ng og pg lf qg rg sg tg ug vg 74 wg Z^ xg yg Z* zg K9 Ag Bg Cg Dg Eg Fg 3# 3~ Gg Hg Ig 23 Jg Kg Lg o$ H, :) Mg Ng Og Pg Qg Rg }~ Sg Tg Ug Vg Wg 2f Xg Yg Zg Q& |$ ;+ -% `g  h .h B. +h @h #h $h f) J  l' %h &h *h =h -h 0( ). k- ;h >h ,h 'h )h !h ~h {h 3# ]h ^h /h (h _h :h <h [h }h |h *h 3' 1h 2h 3h 4h 5h 6h 7h 8h f) 9h 0h ah bh ch dh eh fh ]. N3 W6 Z= ag gh hh 1' ih -% jh kh lh mh nh oh ph 20 qh rh sh th uh 20 Q& vh wh o_ <! o$ +, 3. '+ 9# ]+ ]+ ]+ ]+ ]+ ]+ ]+ ]+ ]+ ]+ ]+ ]+ ]+ ]+ ]+ ]+ ]+ ]+ ]+ ]+ ]+ ]+ ]+ ]+ ]+ ]+ ]+ ]+ ]+ ]+ ]+ ]+ ]+ ]+ ",
"$  L  h. ]+ ]+ ]+ ]+ ]+ ]+ ]+ ]+ ]+ ]+ ]+ ]+ ]+ ]+ ]+ ]+ ]+ ]+ ]+ ]+ ]+ ]+ ]+ ]+ ]+ ]+ ]+ ]+ ]+ C@ Z] d# /+ .& xh yh zh Ah Bh Ch Dh Eh Fh J+ Gh Hh Ih Jh Kh Lh K] m9 *e Mh Nh Oh n8 R^ Ph f) x* Qh Rh _) 2' ,- Sh Th Uh Vh Wh Xh Yh Zh `h  i .i +i @i #i $i %i /+ &i () *i H~ =i -i ;i >i ,i 'i )i !i S& ~i l- -% {i ]i ^i /i (i _i :i 2# <i Y^ [i }i uc |i 1i 2i g/ J+ 3i 4i 5i 6i 7i 8i 9i y_ 0i T$ tb A0 ai bi ci ,h di ei fi K] O0 gi hi ii ji ki ^f Pe I^ li mi ni )| oi pi qi o$ {: 8a ri si ti ui vi wi xi +% yi zi Ai Bi d6 3' Ci Di Ei Fi Gi yd Hi Ii Ji Ki Li Mi Ni Oi Pi Qi f) G^ 0( Ri Si Ti Q& 2~ @@ Ui Vi $, Wi Xi Yi Zi T  `i  j .j +j 32 Q& .( @j #j $j %j wd &j *j m. m. ]+ X+ ,$ #& ]+ =| k7 ]+ ]+ ]+ ]+ ]+ ]+ ]+ ]+ ]+ ]+ ]+ ]+ ]+ ]+ ]+ ]+ ]+ ]+ ]+ ]+ ]+ ]+ ]+ ]+ ]+ ]+ ]+ ",
"#  L  h. h. ]+ ]+ ]+ ]+ ]+ ]+ ]+ ]+ ]+ ]+ ]+ ]+ ]+ ]+ ]+ ]+ ]+ ]+ ]+ ]+ ]+ ]+ ]+ ]+ ]+ ]+ ]+ ]+ C@ =j -j `+ F< r( ;j >j ,j 'j )j !j ~j {j ]j -( Q& ^j /j (j ^( _j :j <j [j }j x) #^ l7 }[ |j 1j 2j 4b zg 5a 3j 4j 5j 6j 7j 8j 9j *7 &f 0j aj bj cj dj ej a+ 3; W+ 5g 8. m* fj gj hj ij jj kj lj mj nj oj pj ~+ ,^ 0$ qj rj sj tj uj vj wj Da xj yj zj Aj Bj Cj  8 h~ Dj Ej Fj Gj 8b S5 Hj Ij M6 6+ ,$ b0 Jj Kj Lj Mj Nj Oj Pj 0$ o$ Qj Rj =c Sj Tj Uj ;_ 0< Vj Wj Xj Yj Zj r[ `j A) [) Y.  k .k +k @k #k $k %k g1 &k *k =k :] -k ;k >k ,k <! 'k )k !k ~k {k ]k ^k /k (k _k :k <k [k }k |k B) /. 1k 2k 3k 4k 32 5k 6k 7k 8k 9k 0k ak bk := ;^ ck dk g) b0 ek fk gk hk ik jk kk lk A0 o$ ^( _^ mk nk c< ]+ ok &/ ]+ ]+ ]+ ]+ ]+ ]+ ]+ ]+ ]+ ]+ ]+ ]+ ]+ ]+ ]+ ]+ ]+ ]+ ]+ ]+ ]+ ]+ ]+ ]+ ]+ ]+ ]+ ",
"#  L  h. h. ]+ ]+ ]+ ]+ ]+ ]+ ]+ ]+ ]+ ]+ ]+ ]+ ]+ ]+ ]+ ]+ ]+ ]+ ]+ ]+ ]+ ]+ ]+ ]+ ]+ ]+ ]+ ]+ m. pk Z+ qk rk sk Of tk uk Q& vk wk xk yk zk Ak [^ /| Bk Ck <5 Dk Ek Fk l} v{ Gk U+ Hk Ik Jk Kk Lk 8+ Mk ^~ Nk Ok Pk Qk Rk Sk Tk Uk Vk Wk Xk Yk Zk `k  l .l +l @l >' #l [^ `/ $l %l &l *l =l t/ -l ;l >l ,l Y| )* h; 0$ 'l )l vh !l ~l {l 9, x| M; ]l ^l /l (l _l (k ]. 3+ :l /@ <l [l }l |l .. E< <+ 7+ @! 1l 2l 3l 4l 5l 6l (& xd )d :h 7l 8l 9l B. y< z) 0l *^ al bl cl dl ^. Fe el +% fl gl hl b+ Lk il jl kl ll ml nl ol pl ql rl sl tl ul vl >, wl xl yl zl Al Bl Cl Dl k2 El Fl Gl Hl Il /| Jl Kl Ll R: 5_ Ml Nl Ol %! Pl Ql Rl Sl b/ Tl ;^ Dj Ul Vl Wl Xl Yl Zl `l  m .m +m @m Q$ #m $m %+ g: R' O+ %m #* ]+ ]+ ]+ ]+ ]+ ]+ ]+ ]+ ]+ ]+ ]+ ]+ ]+ ]+ ]+ ]+ ]+ ]+ ]+ ]+ ]+ ]+ ]+ ]+ ]+ ]+ ",
"#  L  h. h. ]+ ]+ ]+ ]+ ]+ ]+ ]+ ]+ ]+ ]+ ]+ ]+ ]+ ]+ ]+ ]+ ]+ ]+ ]+ ]+ ]+ ]+ ]+ ]+ ]+ ]+ ]+ ]+  ^ e: qk L  B) &m *m =m -m ;m >m ,m 'm )m !m ~m {m ;8 ]m ^m 5d /m (m _m :m <m [m J+ }m |m 1m 2m 3m Tl 4m $l 5m 6m 7m 8m 9m 0m am bm cm dm em fm gm hm im jm km lm mm  + m- P! nm om pm qm rm sm tm um vm wm xm ym zm ic Am Bm Cm Dm Em )~ Fm (& ;. k( Gm Hm Im Jm Km Lm Mm Nm Om Pm Qm Rm c^ z9 Ol '+ L: Sm Tm Um Vm Wm Xm Ym Zm `m  n .n +n @n #n $n %n &n *n =n -n ;n >n V0 ,n y< 'n b_ )n !n ~n {n ]n ^n /n 'b 2# n; (n _n :n <n [n }n |n 1n 2n 3n 4n 5n 6n 7n 8n 9n 0n an bn Qg cn dn en fn f) gn hn in jn kn ln mn nn on o$ pn qn rn g| 9, O' sn tn un vn wn xn yn zn An Bn Cn Dn En Fn la Gn Hn In A{ o1 Jn ]+ ]+ ]+ ]+ ]+ ]+ ]+ ]+ ]+ ]+ ]+ ]+ ]+ ]+ ]+ ]+ ]+ ]+ ]+ ]+ ]+ ]+ ]+ ]+ ]+ ]+ ",
"#  L  h. h. ]+ ]+ ]+ ]+ ]+ ]+ ]+ ]+ ]+ ]+ ]+ ]+ ]+ ]+ ]+ ]+ ]+ ]+ ]+ ]+ ]+ ]+ ]+ ]+ ]+ ]+ ]+ ]+ <# Kn 0# f[ Ln Mn Nn On Pn Qn Rn Sn o$ Tn Un Vn Wn 9| Xn Yn Zn `n  o .o +o ;$ g) @o #o $o %o &o *o =o -o ;o >o ,o 'o )o A! !o ~o {o ]o ^o /o (o +3 _o f) o: :o <o [o P| >' (. }o |o 1o 2o 3o 4o 5o 6o 7o 8o Nd 9o e2 y@ 8/ 0o ao bo co do eo 0$ Y5 fo go ho io '> jo ko lo mo no oo po qo ro so to uo vo wo xo yo zo Ao Bo Co Do o5 Eo Fo Go Ho Io Jo N6 Ko Lo Mo g8 No p& 3; Oo xb Po Qo Ro So To Uo Vo Wo Xo Yo 3^ Zo `o  p .p +p @p #p $p R< %p &p *p =p -p ;p >p ,# ,p 'p )p !p ~p {p ]p ^p /p (p _p :p <p [p }p )c d6 |p 1p V9 2p 3p 4p N7 5p 6p 7p 8p 9p I+ 0p ap bp f3 cp dp ep fp gp N6 hp j( ip jp .! P' ]+ ]+ ]+ ]+ ]+ ]+ ]+ ]+ ]+ ]+ ]+ ]+ ]+ ]+ ]+ ]+ ]+ ]+ ]+ ]+ ]+ ]+ ]+ ]+ ]+ ]+ ",
"$  L  h. ]+ ]+ ]+ ]+ ]+ ]+ ]+ ]+ ]+ ]+ ]+ ]+ ]+ ]+ ]+ ]+ ]+ ]+ ]+ ]+ ]+ ]+ ]+ ]+ ]+ ]+ h. ]+ ]+ ,$ a. m* kp lp mp H| np op pp qp rp (& c# sp tp up vp wp xp yp (_ ++ %! b0 zp Ap Bp Cp Dp Ep Fp Gp Hp Ip Jp Kp Lp Mp R: Np Op Pp Qp Rp Sp _) 2^ 3a /6 Y] Tp Up ^9 Vp M+ Wp Xp Yp Zp `p  q p} .q 0( }^ 0! +q @q ~8 +, #q $q -& %q &q *q =q -q ;q C} v+ >q ,q 'q )q !q ~q {q ]q ^q f# /q (q _q &* :q <q [q }q |q 1q 2q 3q 4q 5q 6q 7q 8q 9q 0q aq bq cq dq eq fq l[ gq hq iq jq /6 @g B. kq lq mq nq ,- b+ oq pq Q  qq rq sq tq uq vq wq xq w) Q: /6 3; 3d 2# yq zq Aq Bq Cq Dq Eq Fq Gq Hq Iq Jq Kq Lq Mq Nq 6_ Oq Pq Qq Rq Sq Tq ~* Q$ Uq Vq Wq Xq Yq Zq `q  r J^ .r +r @r #r #a $r %r &r *r =r -r ;r ,| t> >r h. ]+ ]+ ]+ ]+ ]+ ]+ ]+ ]+ ]+ ]+ ]+ ]+ ]+ ]+ ]+ ]+ ]+ ]+ ]+ ]+ ]+ ]+ ]+ ]+ ]+ ]+ ",
"$  L  h. ]+ ]+ ]+ ]+ ]+ ]+ ]+ ]+ ]+ ]+ ]+ ]+ ]+ ]+ ]+ ]+ ]+ ]+ ]+ ]+ ]+ ]+ ]+ ]+ ]+ ]+ h. h. h. f. 9o ,r 'r )r !r <! ~r {r ]r ^r /r (r 0$ _r :r <r [r }r |r 1r 2r 3r P| 4r Yc _i 5r 6r 7r 8r 9r 0r ar br cr dr er fr gr hr ir jr kr c# we '' X^ lr mr nr b/ or pr qr lf rr sr Fi tr ur vr wr xr k. yr zr Ar Br !] M0 k- l( Cr Dr Er Fr Gr Hr Ir Jr Kr Lr Mr Nr Or Pr Qr Rr Sr Tr Ur Vr Wr ;+ Xr o1 Yr v. Zr `r  s .s +s @s #s $s %s &s *s =s -s ;s >s ,s 's )s oa !s ~s {s ]s Z= l- 46 ^s /s _] Z( (s [) ., 3- Pb _s ~: :s <s [s }s |s 1s D$ a< 2s 3s _j 8. J+ 0$ 4s 5s 6s 7s 8s 9s 0s as bs cs ds es fs '$ gs df hs is !~ js }~ ks X+ N3 ls ms ns os ps qs E, rs ss v- ts Q* us vs g' ws xs ys zs 2^ Y% c< *. %m ]+ ]+ ]+ ]+ ]+ ]+ ]+ ]+ ]+ ]+ ]+ ]+ ]+ ]+ ]+ ]+ ]+ ]+ ]+ ]+ ]+ ]+ ]+ ]+ ]+ ]+ ",
"$  L  h. ]+ ]+ ]+ ]+ ]+ ]+ ]+ ]+ ]+ ]+ ]+ ]+ ]+ ]+ ]+ ]+ ]+ ]+ ]+ ]+ ]+ ]+ ]+ ]+ ]+ ]+ h. L  K  0$ A& As Bs Cs Ds Es Fs Gs Hs H0 Is Js Ks c# Ls Ms Ns Os Q& Ps Qs Rs Ss Ts  h Us Z. Vs Ws Xs Ys Zs `s  t .t +t @t #t $t %t &t *t =t -t ;t >t D. ,t 't &- 0$ )t !t ~t {t ]t ^t /t (t |= V+ 2^ 0! _t :t <t [t }t |t 1t 2t 3t 4t 5t 6t 7t 8t 9t 0t at bt ct dt et ft gt ht it jt kt lt mt 9f nt =| +@ c< `] >$ ot pt qt rt st u( tt ut vt wt xt yt zt At Bt Ct Dt Et Ft Gt Ht )f It Jt Kt Lt Mt H8 Nt 0_ Ot Q| Pt Qt Rt 7! St Tt Ut Vt Wt Xt Yt Zt `t  u k- 8, :2 .u +u @u #u $u %u &u *u =u -u ;u >u ,u 'u )u !u ~u .d {u ]u ^u /u T+ (u _u f) :u <u [u }u |u 1u 2u 3u 4u 5u &1 6u 7u 8u 9u 0u au bu cu v{ du eu 6- ]+ ]+ ]+ ]+ ]+ ]+ ]+ ]+ ]+ ]+ ]+ ]+ ]+ ]+ ]+ ]+ ]+ ]+ ]+ ]+ ]+ ]+ ]+ ]+ ]+ ]+ ",
"$  L  h. ]+ ]+ ]+ ]+ ]+ ]+ ]+ ]+ ]+ ]+ ]+ ]+ ]+ ]+ ]+ ]+ ]+ ]+ ]+ ]+ ]+ ]+ ]+ ]+ ]+ ]+ m. 1' Q& fu gu hu iu ju ku lu mu nu ou pu qu ru su tu 3' uu 1% vu wu D^ P| xu yu zu Au c# f) Bu Cu Du Do Eu Fu E% Gu Hu Iu Ju Ku Lu Mu Nu Ou Pu Qu Ru Su Tu Uu Vu Wu Xu Yu Zu *} `u  v .v w% Sq +v @v #v $v %v &v *v =v -v ;v >v ,v 'v )v !v ~v {v ]v ^v /v (v _v :v <v [v }v |v 1v 2v 3v 4v 5v 6v ++ 7v 8v =| 9v o1 Q+ 0v av bv cv dv ev fv gv hv iv jv kv lv mv nv ov pv qv rv sv tv uv vv wv xv yv zv ;v Av Bv Cv Dv M0 D^ Ev Fv Gv ;* Hv Iv Jv Kv Lv Mv Nv A) Ov Pv Qv Rv Sv Tv Uv Vv Wv Xv Yv Zv `v  w .w +w @w #w $w D^ c# %w &w *w =w -w +$ 6l ;w >w C| p> ,w 'w )w !w ~w {w S! ]w ^w /w (w _w :w <w [w }w R% 1~ *| ]+ 9# ]+ X+ Z2 ,$ X+ X+ ]+ ]+ ]+ ]+ ]+ ]+ ]+ ]+ ]+ ]+ ]+ ]+ ]+ ]+ ]+ ]+ ]+ ]+ ",
"$  L  h. ]+ ]+ ]+ ]+ ]+ ]+ ]+ ]+ ]+ ]+ ]+ ]+ ]+ ]+ ]+ ]+ ]+ ]+ ]+ ]+ ]+ O: |w _^ X+ J8 1w 2w 3w 4w 5w 6w 7w 8w 9w 0w aw bw -8 cw dw ew fw gw C| f) Zh hw iw jw kw lw mw nw ow pw qw f) rw <a ,p )p sw E% tw uw vw ww xw yw zw Aw Bw Cw Dw Ew Fw Gw Hw Iw Jw Kw Lw o$ 3; Mw ~^ Nw Ow Pw Qw Rw Sw uc Tw Uw Vw Ww Xw Yw Zw `w  x .x +x @x #x $x %x &x *x =x -x ;x >x ,x 'x )x !x ~x {x ]x ]! m. {= #^ =| 9# A@ @/ ^x /x (x _x :x <x [x }x |x l_ 1x 2x 3x 4x c$ 5x 6x 7x 8x 9x 0x ax bx cx dx ex fx gx hx ix jx kx lx m* mx nx ox px )$ I* qx rx sx /s tx +* ux vx wx xx yx zx Ax Bx Cx Dx Ex Fx Gx Hx Ix Jx U5 [n c# Kx Lx Mx Nx Ox Px Qx Rx Sx Tx [2 Q& Ux Dc Vx Wx Xx Yx 8, Zx _/ `x  y .y +y @y #y $y %y &y *y =y -y 2/ ;y P% >y ,y |~ .@ ]+ ]+ ]+ ]+ ]+ ]+ ]+ ]+ ]+ ]+ ]+ ]+ ]+ ]+ ]+ ]+ ]+ ]+ ",
"$  L  h. ]+ ]+ ]+ ]+ ]+ ]+ ]+ ]+ ]+ ]+ ]+ ]+ ]+ ]+ ]+ ]+ ]+ ]+ ]+ ]+ ]+ u_ >$ |q 'y _r )y !y ~y {y ]y ^y /y (y _y :y _i <y [y x| r# }y |y 1y 2y 3y f) 4y 5y 6y 7y G% 8y m. 9y 0y ay by +d cy dy ey z; fy gy hy iy jy ky ]f ly my ny oy py qy ry sy ty uy vy wy xy O7 W. Z= yy zy Ay By Cy Dy Ey Fy Gy Hy @q Iy Jy Ky Ly My Ny Oy Py Qy Ry Sy Ty Uy Vy Wy Xy Yy n6 Zy `y  z .z +z 0$ }[ Y$ @& 9# @z #z 1+ $z %z M( X] d[ &z *z =z s& 3^ -z ;z >z ,z 'z )z !z ~z {z ]z ^z /z (z _z :z <z [z }z |z 1z 2z 3z 4z 5z pj xu 6z 7z 0e '+ Y  -% F0 8z 9z 0z az bz cz dz ez G. fz gz [n hz iz |r jz kz lz mz nz oz pz n8 qz rz sz tz uz ). [o vz wz xz yz Q& !c zz Az Bz Cz .| J+ Dz Ez D6 Fz Gz Hz Iz Jz Kz Lz Mz Nz k- Oz ;| X+ Pz ue Qz <d K8 {= ]+ ]+ ]+ ]+ ]+ ]+ ]+ ]+ ]+ ]+ ]+ ]+ ]+ ]+ ]+ ]+ ]+ ]+ ",
"$  L  h. ]+ ]+ ]+ ]+ ]+ ]+ ]+ ]+ ]+ ]+ ]+ ]+ ]+ ]+ ]+ ]+ ]+ ]+ ]+ ]+ ]+ Rz ++ b; Sz E{ Tz Uz Vz Wz $8 Xz Yz Zz )j `z  A .A +A @A #A $A %A &A *A =A -A 0| ;A >A ,A 'A Jz (= )A !A ~A {A Ap ]A ^A /A (A _A :A ia <A [A }A |A 1A 2A 3A 4A 5A 6A 7A 8A R6 J+ 9A ]: [# 0A xj e2 aA bA cA dA eA fA gA hA iA jA kA lA mA nA oA pA qA rA sA tA uA vA wA xA yA zA Y> U} AA ~5 BA CA xh DA S$ EA 2d FA GA %} @* o1 .& L^ HA .+ Z] E{ IA JA KA LA MA NA OA PA QA RA SA 0( TA UA VA wv WA XA YA ZA `A  B .B +B @B vm #B $B %B &B *B =B !* -B ;B %c >B ,B 6^ 'B )B !B ~B {B ]B ^B /B (B _B :B <B [B }B |B 1B 2B 3B 4B 5B 6B 7B 8B 9B 0B X^ x( aB bB cB dB 0$ eB fB gB hB iB jB Y| kB lB mB nB oB pB o) qB rB sB tB uB vB wB P| O0 6# xB ue P+ w@ u_ /= ]+ ]+ ]+ ]+ ]+ ]+ ]+ ]+ ]+ ]+ ]+ ]+ ]+ ]+ ]+ ]+ ]+ ]+ ",
"$  L  h. ]+ ]+ ]+ ]+ ]+ ]+ ]+ ]+ ]+ ]+ ]+ ]+ ]+ ]+ ]+ ]+ ]+ ]+ ]+ ]+ ]+ -y >r 4. px yB zB AB BB CB DB EB FB GB HB IB JB KB LB MB NB 1^ t* OB PB QB RB SB n6 z; TB UB VB WB XB YB ZB `B  C yu .C +C @C #C E. $C %C &C *C =C -C ;C >C ,C 'C )C !C ~C {C 1( u_ @^ p. qq N( a5 3' 9b ]C ^C /C (C _C :C <C [C }C |C 1C 2C l@ 3C 4C 5C 6C `3 7C .( 8C ls fg 9C 0C aC bC cC dC fg eC fC ]+ T% gC hC o~ .@ iC =* o@ _+ y@ x{ jC 1~ kC lC mC nC oC pC qC rC sC tC uC vC wC xC yC zC AC BC CC DC EC FC GC HC IC JC KC %_ zd LC MC H8 0$ NC OC :) PC QC RC SC TC UC VC WC XC YC ZC `C  D 1n 0l .D +D >. @D #D |} $D %D &D *D =D -D n6 Z. ;D >D ,D 'D z{ )D !D <_ ~D {D ]D J+ ^D /D (D _D :D <D [D 5u }D |D 1D 2D 3D 4D 5D 6D w) y@ $m 7D %! ]+ ,$ ,$ ]+ ]+ ]+ ]+ ]+ ]+ ]+ ]+ ]+ ]+ ]+ ]+ ]+ ]+ ]+ ]+ ]+ ]+ ",
"#  L  h. h. ]+ ]+ ]+ ]+ ]+ ]+ ]+ ]+ ]+ ]+ ]+ ]+ ]+ ]+ ]+ ]+ ]+ ]+ ]+ ]+ l7 8D i. 9D 0D aD bD cD dD eD fD gD hD iD jD kD lD mD nD oD pD z) qD c% rD sD tD uD @. vD wD xD yD a0 32 zD AD ya BD CD bn DD ED FD GD HD ID JD KD LD MD ND OD PD QD RD SD TD {: .% Z$ .= -$ Q& }B UD VD WD XD YD ZD `D  E .E +E @E b6 #E $E <! %E &E *E =E -E ;E >E ,E 'E C3 |w c# )E !E ~E {E 6. ]E ^E *! `1 /E (E _E 3/ ym T  :E <E [E }E |E 1E W. 2E 3E 4E pB 5E +! W  6E 7E 8E %b 9E 6] 0$ c+ 0E aE bE dx cE dE eE fE gE hE iE jE kE lE mE nE oE pE _) l< 4# ]} qE rE sE tE uE vE wE xE yE zE AE BE ./ CE J( DE EE FE GE HE IE JE KE LE 3; J+ ME NE OE PE QE RE SE TE UE VE L% Q& WE XE YE ZE `E  F as .F ^# +F @F #F $F %F &F *F =F #g -F :+ ;F +e .& ^( >F ]+ ]+ ]+ ]+ ]+ ]+ ]+ ]+ ]+ ]+ ]+ ]+ ]+ ]+ ]+ ]+ ]+ ]+ ",
"#  L  h. h. ]+ ]+ ]+ ]+ ]+ ]+ ]+ ]+ ]+ ]+ ]+ ]+ ]+ ]+ ]+ ]+ ]+ ]+ ]+ ]+ &@ ,F 'F )F !F ~F {F ]F ^F /F (F _F :F <F [F }F |F 1F 2F 3F 4F <E t_ 5F 6F hm 7F 8F 9F 0F aF bF cF dF eF fF gF hF iF jF kF lF mF nF oF g= pF qF rF sF tF uF vF wF xF yF zF AF 7+ |( 3# -% L> BF _l CF DF D; EF FF GF HF IF JF KF LF MF NF OF PF QF P@ ^. c! RF SF TF UF VF :^ WF 1E 2= XF YF ZF 0$ n6 .@ Y$ l. S+ U  #_ `F  G y( 9+ qk C@ ,F -& 7, 2# .G +G @G #G $G %G N  QE &G *G =G -G X7 g. a0 ;G >G cw ,G 'G )G !G ~G {G ]G ^G /G (G _G :G <G [G }G |G 1G 2G Da 3G ,G jw 4G 5G 6G 7G 8G 9G 0G aG bG cG ,/ dG eG fG gG a} hG (w iG jG kG lG mG nG oG pG qG rG sG tG uG vG wG c0 xG yG zG AG BG CG DG EG FG GG HG IG JG KG LG MG NG OG Fg PG QG M+ ^0 P' T$ $& ]+ ]+ ]+ ]+ ]+ ]+ ]+ ]+ ]+ ]+ ]+ ]+ ]+ ]+ ]+ ]+ ]+ ]+ ",
"#  L  h. h. ]+ ]+ ]+ ]+ ]+ ]+ ]+ ]+ ]+ ]+ ]+ ]+ ]+ ]+ ]+ ]+ ]+ ]+ ]+ ]+ W+ RG SG TG UG VG WG XG YG ZG `G  H .H +H @H #H }x $H %H &H *H =H L< 0( -H ;H >H fr ,H 'H j5 )H !H ~H {H ]H ^H /H (H _H :H <H [H }H |H xj b< 1H W] 2H 3H 4H $- 5H !' 6H (. {: U  .= 0( 7H 8H 9H 0H aH bH cH ZA dH eH fH :> gH )a hH iH jH kH lH mH nH d_ oH V9 pH qH rH eB sH %& c. tH uH vH wH J; xH yH S{ 8v A{  g zH AH BH CH DH &. EH FH GH HH IH JH KH LH MH HA 7- 0. NH OH PH QH ]8 RH 6. 34 SH TH UH VH WH XH YH ZH `H  I .I +I @I #I $I %I &I *I =I -I ^0 ;I ,^ xj >I 4^ h> ,H ,I 'I )I AC !I ~I {I Q& ]I ^I /I (I _I k5 :I <I [I 6< }I |I 1I 2I 3I j: 4I 5I 6I 7I 8I 9I 0I ;% aI bI cI dI eI fI gI hI iI 41 jI kI lI mI nI oI pI qI Mg k- /( +e 7- >$ <# ]+ ]+ ]+ ]+ ]+ ]+ ]+ ]+ ]+ ]+ ]+ ]+ ]+ ]+ ]+ ]+ ]+ ]+ ",
"#  L  h. h. ]+ ]+ ]+ ]+ ]+ ]+ ]+ ]+ ]+ ]+ ]+ ]+ ]+ ]+ ]+ ]+ 9# ]+ ]+ ]+ rI sI tI uI vI wI xI yI zI AI BI CI DI EI FI GI HI II JI KI LI 3d d# h. c# MI NI OI PI dx QI RI SI TI UI VI WI XI YI ZI `I  J .J +J zc @J #J $J %J &J *J =J -J ;J >J ,J Q: X[ h) fo 'J _i )J !J ~J {J ]J ^J /J (J _J <5 :J <J O, u; U+ [J }J |J 1J B0 3/ 2J u> wu 3J 4J 5J 6J 3. ih aA 7J 8J 9J 0J aJ bJ 7+ x% cJ dJ Km eJ fJ gJ hJ iJ jJ kJ lJ mJ nJ oJ pJ 4m c. 9# h' qJ rJ .p ,p >- N6 K[ I^ )$ sJ tJ uJ vJ wJ xJ f) yJ zJ AJ BJ CJ DJ EJ FJ GJ HJ IJ JJ KJ LJ MJ 0$ S  NJ OJ D@ PJ QJ RJ SJ TJ UJ VJ WJ Zj XJ YJ Q& ZJ `J >_ j[  K .K +K @K #K $K %K 32 &K *K =K -K ;K >K V9 00 Z( ,K 'K )K !K ~K {K ]K J[ ^K /K (K _K :K <K [K }K |K >c 1K 2K }$ 9v -B >$ <# ]+ ]+ ]+ ]+ ]+ ]+ ]+ ]+ ]+ ]+ ]+ ]+ ]+ ]+ ]+ ]+ ]+ ]+ ",
"#  L  h. h. ]+ ]+ ]+ ]+ ]+ ]+ ]+ ]+ ]+ ]+ ]+ ]+ =* C@ 'y $& 3K 4K 5K 9# 20 6K 7K 8K 9K 0K aK bK a: cK dK eK fK Y| gK PB hK iK jK kK z) N  W  |= lK mK Jg nK oK pK Q& qK rK sK 9> tK uK vK wK xK yK zK AK BK kb CK DK EK FK GK HK 0$ IK 4# '. J  V/ 0$ JK KK L9 LK MK NK OK PK QK RK SK TK UK >_ VK WK 0$ XK P0 YK ZK `K  L -$ ]. .L +L @L `q #L $L %L &L 92 *L =L -L ;L >L ,L 'L C8 a0 )L !L ~L 0$ f) {L ]L ^L +% 8. /L (L _L :L <L [L }L W. |L 1L 2L 3L 4L 5L 6L 7L 8L 9L 0L aL bL cL +% f} (& dL eL fL gL hL iL jL kL Wm lL mL nL oL pL qL rL e2 >. |. sL ;8 tL T( uL eD ;v vL G_ wL xL yL zL AL BL CL oA DL EL FL GL HL 4h IL 0$ JL KL LL ML NL OL v{ K  00 L{ PL QL RL SL TL UL F. VL WL XL YL ZL `L  M aI .M +M @M Dq D' ,$ n8 #M w{ ]+ ]+ ]+ ]+ ]+ ]+ ]+ ]+ ]+ ]+ ]+ ]+ ]+ ]+ ]+ ]+ ]+ ]+ ",
"#  L  h. h. ]+ ]+ ]+ ]+ ]+ ]+ ]+ ]+ ]+ ]+ ]+ ]+ %! x{ k7 $m '[ $M t. C@ )| %M &M *M =M qL -M 7E ;M >M ,M 'M )M l. !M ~M {M ]M ^M /M g5 (M RG _M :M <M [M }M |M Z= 1M 2M 3M 4M 5M 6M 7M 8M 9M 0M aM bM cM dM eM fM gM hM iM M* ^} LI 2f h) Pe k- Ye jM kM lM ]5 mM nM oM pM qM rM sM tM uM vM wM xM yM zM m. 4+ N( AM BM CM DM EM FM GM HM IM JM KM ew LM MM Z2 0$ NM OM PM QM 80 ue ]g RM SM TM }~ UM D@ u8 VM WM Ga XM YM ZM `M 'M  N <i 6. .N +N @N #N #: $N %N CC &N *N =N -N ;N Q& M( X~ 3; >N ,N 'N )N !N ~N {N ]N (@ ^N /N (N _N :N <N Bp [N }N }~ n. +} 8, |N 1N 2N 3N ~6 8[ 3' 4N 5N 6N 'o 7N 8N 9N 0N aN bN cN dN eN fN gN Bb hN iN pG jN kN J] Z= n9 lN mN nN oN pN qN rN (& sN Cf tN uN vN wN xN yN zN AN BN CN DN }[ EN FN g; ]+ ]+ ]+ ]+ ]+ ]+ ]+ ]+ ]+ ]+ ]+ ]+ ]+ ]+ ]+ ]+ ]+ ]+ ",
"#  L  h. h. ]+ ]+ ]+ ]+ ]+ ]+ ]+ ]+ ]+ ]+ ]+ ]+ ++ j: +e @z GN r1 HN IN JN KN LN MN @e NN ON PN QN RN SN TN UN D! VN zq WN XN YN ZN `N  O F. .O +O @O #O $O o$ %O &O Xd *O =O -O ;O >O RJ ,O 'O )O !O ~O {O ]O |^ c/ ^O aA S< j7 f} D@ 3# 0$ qf /O (O _O :O <O [O }O |O 1O 2O 3O ge v{ 4O 5O 6O 7O 8O 9O a~ N6 0O aO bO cO dO eO fO gO $E ~8 ]_ hO iO jO /6 E< n6 kO lO mO nO h) ]. oO pO qO }^ I  '- Q$ rO sO tO 0$ }+ uO vO wO xO yO zO AO BO CO DO o$ B. (& /. EO FO GO HO IO JO EM KO HA O' z4 LO MO NO OO (& PO QO 69 [2 RO SO qj TO y( Rm UO VO WO +% XO g/ }[ L{ _) ~. %c B0 N( YO ZO `O  P .P +P @P #P $P 0$ %P fw &P *P /[ =P }^ 2m -P ;P >P ,P 'P )P !P ~P {P ]P ^P O. /P (P _P :P (n <P [P }P |P 1P 2P h% 3P 4P 5P 6P )+ 7P K8 ]+ ]+ ]+ ]+ ]+ ]+ ]+ ]+ ]+ ]+ ]+ ]+ ]+ ]+ ]+ ]+ ]+ ]+ ",
"#  L  h. h. ]+ ]+ ]+ ]+ ]+ ]+ ]+ ]+ ]+ ]+ ]+ ]+ o1 M+ Q' 8P 7- 9P #c |- 0P aP bP cP Y~ dP eP fP S( gP hP iP jP -f kP lP mP nP jb Zx oP pP qP rP sP tP uP F. vP wP xP yP zP AP Y  i' /. BP CP DP {8 9z EP FP M9 GP e2 yO [) P  V6 ;8 -% O  HP IP JP bl ,k KP LP MP NP OP zg PP QP +z RP m| SP TP >H UP 6o VP WP XP YP ZP Ap `P pq ^. Z.  Q /| .Q +Q @Q #Q b/ xh #_ $Q %Q &Q *Q &* a[ =Q -Q ;Q v{ X] w% |^ _j >Q ,Q 'Q l. +. /7 )Q r# Q: !Q ~Q {Q ]Q ^Q Z= }[ ). 4/ {8 Z. 0| /Q (Q _Q :Q <Q [Q }Q |Q 1Q 2Q 3Q p1 b# (& 4Q 5Q 6Q 1M 7Q 8Q 9Q s^ 0$ // 0Q aQ <s $Q () 8, M; E. 3# L< R< bQ cQ dQ eQ fQ s% gQ hQ iQ Mk r@ jQ kQ lQ mQ nQ oQ =_ -% bw pQ qQ HG rQ sQ tQ uQ vQ wQ xQ yQ zQ AQ BQ CQ DQ EQ FQ 0$ GQ #| HQ IQ JQ KQ LQ MQ m- r@ #m ]+ ]+ ]+ ]+ ]+ ]+ ]+ ]+ ]+ ]+ ]+ ]+ ]+ ]+ ]+ ]+ ]+ ]+ ",
"#  L  h. h. ]+ ]+ ]+ ]+ ]+ ]+ ]+ ]+ ]+ ]+ ]+ ]+ /+ @& #* B[ t@ u_ Y9 NQ OQ PQ QQ RQ SQ TQ #r &i @3 gs Em UQ Rf VQ WQ XQ YQ ZQ `Q  R .R +R @R #R $R %R 6_ ^) P> &R *R @[ =R -R a5 1^ u> ;R >R ,R 'R )R !R ~R {R ]R ^R /R (& K+ ;_ ^) (R _R :R <R [R f) }R |R f: 1R 2R 3R ny 4R 5R 6R c/ 7R P) 8R 9R 0R /o aR bR cR dR 8[ Z. }^ qq 9( y) t_ -8 xj xo eR fR ]. `% %& gR hR @! L: N6 iR jR kR x| 9, +% Q$ f) Q& lR mR nR '- oR j. pR /+ 9v c. 0$ GH k2 ]D [) ;^ Z= 1( D' (. Y] qR n~ o$ rR sR tR uR vR wR xR -% 7/ $m yR zR AR ny pj BR CR DR i' ER Ga FR GR HR IR JR (& M+ h~ 0$ KR LR MR NR OR &p &i n6 PR QR RR -% K: SR G< TR d8 UR VR 7O 0< 1. WR XR YR ZR `R  S .S +S hB @S #S $S %S &S *S =S 23 +% t_ -S ;S >S ,S 'S )S !S ~S {S .= X+ ]+ ]+ ]+ h. ]+ ]+ ]+ ]+ ]+ ]+ ]+ ]+ ]+ ]+ ]+ ]+ ]+ ]+ ",
"#  L  h. h. ]+ ]+ ]+ ]+ ]+ ]+ ]+ ]+ ]+ ]+ ]+ ]+ ]S G, ^S ]: 4~ X! /S (S _S :S 3u <S [S }S |S 1S  N a4 Oe 2S 3S 4S 5S 6S 3; +! 7S 8S }A 9S 0S aS bS cS -% dS eS fS g{ gS hS iS M= Jt y_ 9, Zl jS kS b/ [E ., lS mS sD nS oS pS gf qS rS sS tS uS vS wS A, xS r< yS zS AS BS FO CS DS ES P% FS GS HS IS JS KS LS n- 0$ l- D' -$ O' I  '. ^} 2# +! $c MS NS OS PS QS 7v W+ 0# RS ;^ SS TS US VS WS XS YS ZS r* `S  T .T sb <i i| +T @T #+ vS #T $T -u %T &T Y. )$ O) 2^ y) _. a5 (. M; V9 X7 0[ *T =T -T ;T >T -% G] ,T 'T kn )T !T ~T {T (. ]T ^T /T (T <! _T :T <T [T }T |T 1T 2T 3T 6j 4T r: 5T 6T /+ 7T Vq 8T D, K3 9T 0T aT bT cT dT eT fT w% gT hT iT 50 jT /^ T) e; R{ 32 kT lT mT nT oT pT Q$ qT rT 8} sT tT uT vT wT xT yT zT AT BT h. ]+ ]+ h. ]+ ]+ ]+ ]+ ]+ ]+ ]+ ]+ ]+ ]+ ]+ ]+ ]+ ]+ ",
"#  L  h. h. ]+ ]+ ]+ ]+ ]+ ]+ ]+ ]+ ]+ ]+ ]+ ]+ X~ Id CT ,' Q$ DT ET FT GT Q& Jr HT IT JT KT LT MT sN o$ D$ NT OT PT QT RT f) 4~ ST ]f TT UT VT WT N3 XT YT ZT `T  U .U +U @U #U $U %U P) -; &U *U 2# I, 5K +z l- =U _Q -U *6 ;U .4 >U kQ 0$ ,U 'U ^2 )U !U ~U {U V  ]U ^U /U (U _U O6 :U <U [U }U |U 1U (& tH b# 1. w) #c 3; 2' R< ;I $G -$ '. X7 2U 3U 4U 5U 6U |d h: 7U 8U 9U 0U aU bU cU dU eU fU gU hU 5R iU jU pS 2^ 6+ b; g( kU lU mU nU oU O' pU B0 #c qU v{ |^ +% |^ }[ xj  = [/ S{  ) rU sU tU uU vU wU xU yU zU AU BU 6% `2 CU DU EU FU GU HU (& vA IU JU RO KU LU MU {~ |= Y] 5T != c# NU OU PU B. 'g QU RU SU TU UU VU WU XU YU ZU `U }h  V .V -q 0} ,K +V o$ +h @V #V $V %V d) 0$ &V *V =V -V ;V >V ,V 'V )V !V ti ~V {V o$ K  h. ]+ h. ]+ ]+ ]+ ]+ ]+ ]+ ]+ ]+ ]+ ]+ ]+ ]+ ]+ ]+ ",
"#  L  h. h. ]+ ]+ ]+ ]+ ]+ ]+ ]+ ]+ ]+ ]+ ]+ ]+ `+ ;+ y@ D$ ]V ^V /V (V _V :V <V [V %& 6f }V ai |V 1V 2V 3V (& 4V 5V 6V 7V 8V F. 9V 0V aV bV cV r: dV eV fV gV hV iV jV _B D@ kV lV mV nV 0( oV pV qV K: R' ^( rV h| Jd sV tV uV vV wV xV yV zV AV BV CV DV EV n| :+ p> FV GV HV IV JV KV LV MV NV B. M; |_ OV PV ~8 [^ '- R$ L{ 3' QV n6 $M RV SV TV UV !u VV WV XV YV zr 32 L  ia ZV {} tL `V  W hp YO z< .W +W @W F^ O) E^ #W <d $W %W &W *W =W -W By ;W ^) -& yO 3^ +% k- 3; 4# Q: M  S< 32 :^ 9, >W ,W sB 'W )W !W ~W {W k' ^( ]W ^W Z6 j& gs jN vM /W 2_ `V (W _W :W <W [W m- }W B@ ]0 y< q5 |W 1W 2W r1 3W 4W 5W 6W c! 7W 8W 9W 0W aW vu bW cW M' dW eW fW gW 0$ hW iW jW kW lW 0$ >^ mW nW oW pW qW rW M; sW tW (k uW vW wW xW yW Q& L  h. h. ]+ ]+ ]+ ]+ ]+ ]+ ]+ ]+ ]+ ]+ ]+ ]+ ]+ ]+ ",
"$  L  h. h. ]+ ]+ ]+ ]+ ]+ ]+ ]+ ]+ ]+ ]+ ]+ 9# :g `] zW Fw AW BW CW DW EW FW GW !I HW N3 IW JW KW LW MW NW OW 0$ PW QW RW SW TW UW VW WW XW 0g !R YW ZW `W  X .X $9 O) PC ,F |^ io +X @X #X qV $X %X }^ `% &X q@ &* [+ Pe K: Zi k- #c *X =X -X ;X 0$ R+ >X ,X X! |E 'X *j )X !X ~X {X ]X ;J f) <^ qq .Q ^X 8. (% Z^ x.  . V9 Q$ |( /X (X _X :X <X [X }X |X >( :. 1X ;a 2X 3X 4X &g 5X 6X 7X 8X |. M  S< 9X 0X aX bX cX dX eX H& fX K  #n gX gg K} Z< hX iX jX kX lX (& R< R$ V9 z$ ;$ mX nX 2' 1( oX z$ Z= Ef pX qX rX sX o$ X$ B@ }[ tX uX vX b_ O9 wX xX yX h' o$ ;^ ,^ a/ k( u> ,n zX w_ w% AX BX CX E{ DX EX FX o$ 9v &! GX HX IX JX KX LX MX NX J+ OX PX QX +4 RX SX TX UX VX ]. &p WX XX YX ZX `X  Y 0$ .Y 0_ +Y @Y #Y $Y %Y &Y *Y D^ +e t. h. ,$ w@ Ob U$ ]+ ]+ ]+ ]+ ]+ ]+ ]+ ]+ ]+ ]+ ",
"$  L  h. ]+ ]+ ]+ ]+ ]+ ]+ ]+ ]+ ]+ ]+ ]+ ]+ ]+ RC la K  =Y sN -Y 4: ;Y >Y ,Y 'Y )Y !Y ~Y }^ bz WX {Y ]Y ^Y /Y K> 2( (Y _Y :Y <Y [Y }Y |Y =L Q& 1Y 2Y 3Y g) 4Y 5Y :) 6Y 7Y 8Y d4 X! 9Y 0Y aY r: bY cY ^! *! S% dY X+ _= +@ eY 6. h; #W i* Zl 2; fY gY hY qd iY jY .@ X7 kY y3 lY mY nY *j Wp 3' I  32 00 ;_ i' .g i' Lh ., $E oY pY qY JO rY sY tY a_ <% uY vY wY xY yY zY AY BY CY DY EY FY GY HY j{ o. IY mw JY KY LY MY NY OY PY k- K  QY RY SY TY UY VY WY XY YY ZY [t O0 Y| @3 xj .. _) 0< `.  + ~8 ^/ |^ `Y  Z .Z +Z @Z #Z 0. $Z Kj %Z &Z *Z =Z -Z ;Z >Z N( K  K  h. ]+ ]+ ]+ :E x{ ^+ ,Z 'Z )Z Q& <) !Z u- ~Z Bi {Z ]Z ^Z /Z O6 (Z _Z :Z <Z [Z }Z -$ |Z 1Z 2Z 3Z 4Z 5Z 6Z 0$ 7Z 8Z 9Z 0Z aZ bZ cZ 0$ /> =M dZ eZ fZ gZ hZ iZ jZ kZ lZ mZ nZ oZ o@ pZ 3~ Id ]+ ]+ ]+ ]+ ]+ ]+ ]+ ]+ ]+ ]+ ",
"$  L  h. ]+ ]+ ]+ ]+ ]+ ]+ ]+ ]+ ]+ ]+ ]+ ]+ ]+ qZ J5 ~* 2u rZ /p Q& sZ nd tZ uZ vZ wZ xZ f. #c yZ zZ AZ BZ CZ DZ EZ FZ Z. GZ HZ IZ JZ KZ c# LZ /g z4 ;O A@ MZ !+ NZ OZ i0 P| PZ QZ RZ !1 h' }[ rO SZ TZ 0$ UZ 3~  ^ Z2 ]+ .& R+ k. VZ WZ ,- XZ ~' ,{ YZ ZZ `Z  ` @! .` +` @` #` $` %` jp (. Z= /. b_ c)  + `* b_ &` UL *` =` -` ;` >` ,` '` )` !` ~` {` ]` ^` /` (` _` :` <` [` }` |` 1` 2` 3` 9, 7D 3( g/ 4` 5` 6` 7` 8` 9` 0` a` |= Ul b` c` *n d` e` f` g` h` |J i` j` U2 k` l` P| m` a/ ;/ /| >' ~8 yr s^ 3d Q& n` o` p` q` r` s` t` u` v` w` x` y` /. u> h. h. h. ]+ ]+ ]+ ]+ := 92 z` A` B` C` D` (. Zy <Q E` F` Jd G` H` I` J` -_ y. {8 K` L` M` +% N` O` P` Q` R` S` T` U` ]K V` W` X` Y` Z` Jd ``   .. .+ .@ .# .$ .G: Q& % .& .* .= .NJ - .V$ ok {= u@ ]+ ]+ ]+ ]+ ]+ ]+ ]+ ]+ ]+ ]+ ",
"$  L  h. ]+ ]+ ]+ ]+ ]+ ]+ ]+ ]+ ]+ ]+ ]+ ]+ ]+ w_ _) CX N| ; .> ., .' .) .! .~ .{ .{] ] ..+ D` S< 3; ^ ./ .( .(N _ .: .< .0$ [ .} .| .1 .2 .3 .4 .y` g) 5 .6 .33 7 .8 .9 ..8 0 .a .b .c .'- 7U `V d .e .f .(_ w_ #* g .g: l| U% ;* W% rl }L h .f) i .j .k .l .]5 m .n .o .1< 0$ ,^ ]S /& ^} 2f Z= [^ <^ o$ p .q .r .s .t .u .v .w .x .9k fw -g y .z .A .B .C .MQ D .0$ E .F .G .H .h) -' I .kn )$ j| c0 J .{: K .L .M .N .O .P .Q .-& U4 R .S .T .U .V .W .X .Y .Nx Z .` . .....+..@..#..r: ,. Zi K{ _j h~ Ia ;( O% f) $..dL %..&..*..=..-..;..`[ 32 >..W/ ,F ]+ ]+ ]+ ]+ ]+ ]+ ]+ U$ .+ ,..'..JJ W  xj |w )..!..~..{..]..^../..(..S/ 4- >r {* IY _..:..<..[..}..|..1..f) 2..3..4..5..6..7..8..(& 9..0..a..b..c..d..e..f..g..h..Fu :H i..j..k..-& ^: /& <= Jn 9< X+ ]+ ]+ ]+ ]+ ]+ ]+ ]+ ]+ ]+ ",
"$  L  h. ]+ ]+ ]+ ]+ ]+ ]+ ]+ ]+ ]+ ]+ ]+ ]+ ]+ ]: l..m..n..T5 o..p..q..r..s..t..u..v..w..Z= y. 3d x..(& Ze y..z..A..B..C..WQ (. D..E..F..G..H..I..F. x{ J..K..|_ l( L..M..cl N..$C O..P..() D^ J+ Q..R..S..00 T..U..vo V..`+ }+ ]S /E x_ r> Jn W..X..Bb &g Y..Z..`..m:  +.). 4# Y  #. s~ V6 2' L{ (& .+.++.@+.#+.$+.%+.&+.0$ sl +- *+.=+.pG gO -+.E4 ;+.>+.,+.EJ -J ZK '+.)+.8: O' 4^ !+.~+.w..o$ 4# {+.yK ]+.J+ ^+./+.-: (+._+.:+.P| <+.[+.}+.Z= |+.1+.2+.KX 3+.4+.5+.J+ 04 E+ 6+.7+.8+.9+.+J z) m- h' #W 0+.xj K: qR x) o$ a+.b+.c+.d+.e+.,- e2 f+.g+.~* 3. h. h. h. ]+ ]+ ]+ ]+  ^  $ h+.&3 i+.*j _+ X/ 6l j+.k+.l+.m+.n+.o+.m* f} W+ p+.q+.=( r+.s+.t+.u+.v+.w+.Q& x+.y+.&N _7 z+.A+.l} f) B+.C+.D+.E+.F+.G+.H+.S[ s# I+.9W J+.K+.L+.M+.N+.h% c< &&  W o1 O+.X+ ]+ ]+ ]+ ]+ ]+ ]+ ]+ ]+ ]+ ",
"#  L  h. h. ]+ ]+ ]+ ]+ ]+ ]+ ]+ ]+ h. ]+ ]+ h. ]8 P+.Q+.R+.S+.T+.U+.V+.W+.X+.Y+.Z+.`+. @..@.|^ A{ J@ 7+ +@.xV @@.Ya #@.$@.%@.&@.N6 Vc *@.=@.-@.0$ k( Q$ =B ;@.>@.)c ,@.'@.)@.!@.~@.{@.XM ]@.L< ;I ^@./@.(@.3^ _@.:@.uo <@.V$ C@ T$ Id wo [@.}@.t. V+ R^ |@.1@.2@.Ej a5 QI @3 ^/ 05 v> QI $! P| 3@.Vc 4@.5@.6@.:6 7@.8@.{. V6 9@.&P 0@.a@.b@.c@.d@.e@.f@.dl g@.h@.N@ i@.j@.k@.U` l@.s^ zp m@.n@.}^ /. 9b o@.p@.q@.r@.s@.t@.u@.v@.w@.A{ x@.y@.'O z@.A@.B@.~ .C@.D@.E@.F@.U9 G@.H@.I@.J@.K@.L@.'V M@.N@.-% h .j'  =  + M6 :) >^ 0$ O@.P@.Q@.R@.4# S@.T@.U@.$& .@ ]+ ]+ ]+ ]+ ]+ ]+ ]+ ;+ $& V@.W@.X@.0$ '. :) |^ Y@.Z@.`@.8& do  #.z) .#.+#.&p 33 K+ () @#.##.$#.%#.+% &#.&G *#.=#.-#.;#.$[ J+ |^  W >#.,#.tN '#.)#.!#.~#.{#.]#.^#./#.(#._#.:#.<#.[#.Q$ 'n }#.9# %z #+ ]+ ]+ ]+ ]+ ]+ ]+ ]+ ]+ ]+ ",
"#  L  h. h. ]+ ]+ ]+ ]+ ]+ ]+ ]+ ]+ h. ]+ ]+ f} N: |#.1#.2#.3#.4#.G~ 5#.%C 7Z 6#.Vu 7#.8#.9#.0#.Ri Q& a#.l9 Yt b#.c#.d#.e#.f#.g#.h#.i#.j#.k#.N: O' l#.m#.n#.o#.p#.q#.zp r#.s#.ou m0 t#.y_ @. 'F QI u#.v#.fQ w#.NJ z{ q> _E O+.7U jp h( h( *y x#.T+ y#.5$ z#.A#.B#.., z$ K  m- b/ ).  + '- C#.D#.E#.F#.G#.H#.n> I#.J#.54 K#.d. 3y L#.M#.e5 N#.x- O#.P#.Q#.R#.S#.T#.U#.a] V#.(2 W#.X#.Y#.Z#.`#. $.}~ |^ .$.+$.@$.#$.$$.f) .) %$.&$.M; *$.=$.-$.;$.>$.,$.'$.)$.!$.~$.{$.]$.^$./$.($._$.:$.]V 9h <$.[$.}$.|$.1$.w) '' '$ I^ ^} (% xj o> 2$.3$.4$.5$.6$.e/ `1 S+ *! ]+ ]+ ]+ ]+ ]+ ]+ ]+ VZ 7$.8$.9$.tv U% ;' 9( 0$.a$.b$.c$.d$.e$.f$. $ g$.h$.i$.j$.(F k$.B. l$.m$.n$.o$._c p$.q$.r$.j0 s$.Q$ a5 J  E. t$.u$.v$.mz w$.x$.y$.'G z$.A$.B$.C$.D$.E$.F$.Jf 'E 6^ G$.2~ u> ]+ ]+ ]+ ]+ ]+ ]+ ]+ ]+ ]+ ]+ ",
"#  L  h. h. ]+ ]+ ]+ ]+ ]+ ]+ ]+ ]+ h. h. L  Q& H$.I$.J$.K$.-& L$.M$.N$.O$.P$.Q$.R$.S$.n% T$.U$.V$.W$.X$.j{ -% Y$.Z$.#= `$. %.-& .%.+%.@%.-% #%.$%.%%.&%.*%.=%.-%... 0$ ;%.>%.,%.'%.r. :) QI )%.'[ !%.~%.{%.aw ]%.|( I8 O4  ^ $& i: <# #& ^%.Hk Ri /%.(%._%.p .Ga  = Y. Z  K+ :%.gQ 0$ < ._y <%.[%.}%.|%.1%.2%.3%.4%.5%.6%.3^ 7%.8%.9%.gX 0%.a%.b%.c%.d%.e%.f%.g%.h%.i%.j%.k%.l%.m%.n%.6o o%.p%.z) o$ q%.r%.s%.t%.u%.v%.0$ w%.x%.y%.04 z%.A%.B%.C%.4T )| D%.E%.F%.G%.<) U9 H%.I%.J%.K%.L%.M%.N%.O%.P%.Q%.R%.S%.F. O0 F^ !. ~. 1. [/ >. W# T%.U%.V%.W%.m` X%.'y ]+ ]+ ]+ ]+ ]+ ]+ ]+ n8 Y%.Z%.`%. &..&.'. +&.@g @&.+a #&.$&.%&.-% ]_ __ &&.*&.=&.-&.;&.Es #/ >&.,&.G! ^} '&.-c )&.!&.xO Q& Y. P$ x( ~&.{&.]&.2V ^&./&.(&.oH ~g _&.:&.<&.O, [&.}&.|&.1&.^. M  [+ 2&.X+ ]+ ]+ ]+ ]+ ]+ ]+ ]+ ]+ ]+ ",
"#  L  h. h. ]+ ]+ ]+ 9# .! P' -* u@ M+ ^+ V6 3&. 6 4&.5&.6&.7&.8&.9&.0&._$.a&.<^ b&.c&.d&.;2 e&.f&.g&.h&.I, i&.j&.k&.l&.m&.&` n&.o&.p&.q&.e4 r&.s&.t&.u&.v&.w&.x&.y&.z&.A&.B&.C&.0< Pe Ga >^ 0( bi cc D&.E&.F&.H& QS [W :=  & UZ na i| *. G&.H&.I&.J&.g7 F. D{ J  k( D' i' K&.K[ L&.M&.N&.O&.P&..W Q&.R&.S&.T&.yH 0( U&.V&.>_ z) (o W&.X&.t$.Y&.Z&.`&. *.Z#..*.+*.VJ {E @*.#*.$*.%*.&*.**.=*.-*.|^ w% ;*.>*.,*.'*.)*.!*.~*.P$ {*.]*.Z] ^*.h#.|^ L< /*.(*.mJ _*.:*.gL X7 ;. <*.[*.m^ }*.|*.Qg Mw ;{ 1*.2*.3*.4*.!( 5*.-% ~. 6*.2' 3# F9 ,- ^| B6 7*.8*.9*.0*.a*.B@  @ U$ f; +& >$ U$ b*.c*.d*.%# >w e*.x< ^_ Pe ). F9 #% f*.g*.Ai h*.:o i*.j*.k*.l*.m*.n*.o*.p*.Sb q*.r*.Fe s*.t*.)z u*.v*.Fa 34 w*.*2 x*.y*.z*.A*.B*.wf C*.D*.E*. %.F*.G*.H*..6 I*.J*.K*.d6 o. $! X+ ]+ ]+ ]+ ]+ ]+ ]+ ]+ ]+ ]+ ",
"#  L  h. h. ]+ ]+ ]+ 9#  & 3~ &* ]+ 2~ L*.J+ M*.N*.O*.P*.Q*.R*.S*.T*.U*.V*.W*.LI <! X*.Y*.Z*.`*. =..=.+=.0$ @=.#=.x' $=.%=.J+ _t &=.*=.==.-` -=.;=.>=.,=.'=.)=.!=.~=.#1 e7 {=.]=.). 0e Z  .. ^=./=.(=._=.:=.<=.[=.>6 /_ jp }=.|=.*! d< 1^ 1=.2=.3=.4=.Q& O' K[ [^ 5. W+ =} F. 5=./%.6=.7=.8=.9=.b& 0=.a=.b=.c=.d=.e=.1O pV f=.4$  +.g=.h=.p: /E i=.Ja j=.k=.l=.Tt :. m=.n=.o=.p=.q=.r=.s=.t=.cV D' u=.v=.w=.x=.y=.z=.A=.B=.C=.F< D=.o. E=.3; PA aw F=.G=.H=.I=.J=.=_ w. K=.L=.M=.0$ 0$ N=.O=.E& P=.oH Q=.R=.S=.T=.U=.3w B. b/ .= z$ R< m9 3' 0$ V=.W=.X=.Y=.f} #& Z=.`=. -.WB 7/ J+ .-.+-.@-.#-.$-.%-.&-.K[ h' >^ *-.=-.--.;-.>-.,-.'-.)-.)..!-.~-.{-.]-.^-./-.dz (-._-.|= .{ :-.}b <-.[-.J+ }-.|-.1-.2-.OZ 3-.4-.5-.v> 1< 6-.Fu |% 7-.8-.9-.0-.F~ a-.b-.,- %+ Rz ]+ ]+ ]+ ]+ ]+ ]+ ]+ ]+ ]+ ]+ ",
"#  L  h. h. ]+ ]+ ]+ ]+ ]+ Z2 u@ 4- c-.t> i* d-.e-.f-.g-.h-.i-.j-.k-.K*.l-.m-.n-.0$ o-.p-.q-.r-.s-.t-.u-.v-.w-.E#.NP x-.y-.a[ z4 z-.A-.B-.C-.D-.E-.F-.G-.H-.I-.J-.K-.&2 L-.M-.tu a5 N-.)%.df O-.P-.Q-.R-.S-.T-.U-.m' V-.W-.X-./( Y-.a5 JK Z-.`-. ;.J+ ^} I  ^} w% ,^ ._ x| .;.+;.@;.$8 #;.$;.%;.&;.*;.=;.-;.c` ;;.>;.v) @K ,;.';.Q& );.!;.~;.w% {;.++.];.^;./;.(;._;.:;.<;.[;.};.Y: +2 |;.1;.:= l- /| 0$ 2;.>} 3;.4;.5;.6;.7;.8;.9- u~ 9;.@0 0;.a;.b;.c;.Y: A% {4 w) C. d;.e;.f;.`. ^) g;.h;.i;.j;.k;.l;.m;.n;.o;.p;.F&.q;.]9 U  '+ L{ R< {. I  ^) r;.s;.t;.u;.S< )[ v;.#_ 6Y w;.x;.y;.z;.A;.B;.C;.D;.E;.F;.-% u; -8 +W G;.^n H;.Sj I;.J;.K;.M&.J+ $= L;.M;.N;.c2 O;.cT &0 0$ P;.Q;.R;.*k t..S;.T;.U;.V;.W;.X;.Y;.Z;.`;. >..>.W] +>.@>.#>.DG $>.ei %>.&>.*>.W/ $* #+ ]+ ]+ ]+ ]+ ]+ ]+ ]+ ]+ ]+ ",
"#  L  h. h. ]+ ]+ ]+ ]+ +& ]+ .! .! zX }^ =>.->.;>.>>.}n fS ,>.'>.)>.!>.~>. v {>.]>.^>./>.(>._>.:>.Qg <>.[>.}>.|>.1>.2>.T)  k J#.3>.4>.5>.6>.7>._. 8>.9>.0>.a>.1H b>.c>.d>.e>.f>.;^ L< J+ g>.h>.i>.j>.k>.l>.m>.n>.o>.M6 2/ G9 s( a5 p>.q>.r>.s>.Q$ /6 K[ () R< ;^ l< t>.u>.v>.SM w>.~..x>.y>.z>.A>.B>.C>.D>.E>.F>.G>.:. H>.I>.T*.cW J>.K>.L>.M>.N>.O>.P>.Q>.P) 1G |^ c< 6l h; .. R^ R>.S>.T>.U>.V>.W>.X>.YR dL Y>.Z>.`>. ,..,.Pe w) }6 +,.Os @,.#,.$,.%,.&,.*,.Zm G^ $Q lQ D) ;. =,.-,.F$ ;,.>,.,,.f1 ',.),.!,.~,.{,.fD T| ],.^,.`# -. O' _. 2' Y% |= /,.(,._,.:,.<,.*! Yr h: D@ [,.},.;P |,.1,.2,.~k 3,.4,.5,.6,./| Wp C/ 7,.8,.9,.0,.a,.iw b,.m3 -& c,.d,.e,.f,.g,.h,.i,.}^ j,.k,.Sc l,.m,.n,.o,.p,.q,.r,.s,.t,.u,.v,.w,.@n x,.y,.{< z,.A,.B,.C,.D,.E,.s, ^} %! X+ ]+ ]+ ]+ ]+ ]+ ]+ ]+ ]+ ]+ ",
"#  L  h. h. ]+ ]+ ]+ ]+ Jn %} :m x{ &* HA F,.G,.H,.I,.J,.K,.L,.IB M,.N,.O,.ij P,.Q,.R,.S,.T,.U,.V,.W,.{E X,.Y,.Z,.`,.Q$  '.m...'.+'.@'.#'.{9 '+ $'.%'.&'.*'.='.-'.;'.>'.,'.''.w% +. ^) )'.!'.~'.{'.]'.^'./'.('.!6 _'.:'.<'.c< <) ['.}'.|'.1'.P| Q: h; '. _. (% 0$ 2'.*f 3'.4'.5'.=9 6'.7'.8'.9'.0'.a'.Sp b'.c'.G= d'.e'.tL f'.g'.|= a#.7#.h'.i'.j'.M' k'.K] l'.m'.n'.o'.p'.q'.N  s. r'.s'.t'.u'.v'.w'.^'.x'.y'.z'.A'.B'.C'.D'.1| E'.F'.G'.j9 H'.I'.J'.K'.L'.tT M'.Da N'.O'.P'.]. Q'.R'.S'.T'.U'.V'.[} W'.X'.Y'.Z'.`'.0(  )..).+).W,.|= x) E. W6 q} S$ Z. @).#).$).%).7+ @^ (6 zM &).*).=).-).;).>).,).QT ').)).`;.N( F9 -% pS !).~).{).]).^)./).()._).f) #p :).<).[).}).L, |).I  9j 1).2).3).H>.4).5).6).7).8).9).0).a).b).c).d).e).f).g).h).i).j).k).l).m).n).o).X+ ]+ ]+ ]+ ]+ ]+ ]+ ]+ ]+ ]+ ",
"#  L  h. h. ]+ ]+ ]+ ]+ o. _= p).j| +} q).r).s).t).u).b=.v).w).x).y).z).A).B).C).D).E).F).-% R< NC G).H).I).J).K)..r (& L).M).N).O).P).Q).R).S).T).U).V).W).X).Y).Z).`). !.E. RG .!.pf +!.@!.#!.$!.%!.&!.*!.=!.Z= _^ Gk -!.;!.>!.,!.'!.:A 0$ (. yr '. k7 D` o$ WT )!.!!.~!.G. VZ  @ {!.]!.^!. g F. %o /!.(!._!.:!.<!.[!.}!.|!.1!.t% 2!.p{ WE 3!.9+ 32 4!.5!.6!.7!.8!.9!.0!.*..a!.b!.c!.d!.e!.f!.g!.x5 h!.i!.j!.k!.l!.m!.n!.o!.p!.tw q!.r!.s!.t!.u!.v!.w!.x!.H& <) 63 y!.z!.p5 5^ A!.B!.C!. # D!.E!.F!.G!.H!.I!.J!.K!.L!.0$ M!.N!.O!.P!.-% 5. 00 () 0( R< 0$ +y [).Q!.R!.S!.T!.A@ HA R< fi U!.V!.W!.X!.Y!.Z!.`!. ~..~.>^ b# +~.@~.#~.$~.%~.&~.*~.=~.-~.;~.>~.,~.'~.)~.!~.~~.x> Q& {~.]~.^~./~.(~.c# -8 2f J+ _~.:~.<~.[~.}~.#$ |~.O%.+* ^m 1~.2~.3~.4~.5~.6~.7~.&& 8~.{+ {+ {+ ]+ ]+ ]+ ]+ ]+ ]+ ",
"#  L  h. h. ]+ ]+ ]+ ]+ zm 9~.0~.a~.f) b~.c~.d~.e~.f~.g~.h~.i~.(& /. X} j~.k~.l~.m~.n~.o~.[2 p~.q~.J+ ak r~.s~.t~._. yS Kj u~.v~.w~.x~.y~.z~.A~.B~.C~.D~.E~.F~.G~.H~.I~.J~.W1 f} l. &~ K~.L~.M~.N~.O~.P~.Q~.R~.a*.S~._d .! T~.U~.V~.W~.Z= (. ). 4$ ^. X~.0$ Y~.SF Z~.`~. {..{.Q: J..5+ +{.@{.C@ #{.${.sD +[ %{.&{.*{.={.-{.>0 ;{. = ^} _B >{.,{.'{.+% ){.!{.~{.{{.]{.^{./{.({.^} Q& _{.Lz :{.<{.xf [{.}{.|{.1{.2{.3{.4{.5{.D~ 6{.7{.^F Kz 8{.9{.0{.a{.b{.c{.d{.^) G< e{.f{.g{.h{.i{.j{.k{.l{.m{.n{.o{.p{.q{.r{.s{.t{.u{.|z O9 UH v{.w{.x{.p@ Q% y) 3' a5 [^ [^ y{.z{.A{.l[ B{.b/ 4# mk C{.D{.E{.F{.G{.2o H{.rx I{.J{.n6 E$ K{.L{.M{.N{.O{.P{.*o =~ Q{.R{.(r S{.T{.U{.V{.W{.X{.Y{.'- Z{.`{. ]..].+].,- @].#].dU $].%].&].*].=].k# B. A) -].;].>].*o ,].'].C4 )].,~ i. ]+ ]+ {+ ]+ ]+ ]+ ]+ ]+ ]+ ",
"#  L  h. h. ]+ ]+ ]+ ]+ B@ M^ G< !].s% ~].{].]].^]./].(]._].:].<].[].~8 3; }].-b q*.|].1].2].3].4].5].6].7].8].9].-% 0].a].b].6( xg c].d].LS e].f].g].h].i].j].k].l].m].2G O7 A) n].zK o].p].q].r].s].t].u].v].QI 0f ]+ .G w].RU x]./. 3# h~ 1G y].3; +% z].A].B].cS ^+.*k C].D]._= E].F].G].H].I].J].K].L].M].N].O].P].Q].R].E& S].T].U].V].*A W].X].J#.Y].Z].`]. ^..^.+^.@^.Jo #^.$^.%^.sR &^.*^.=^.-^.;^.>^.,^.'^.)^.!^.~^.4q {^.]^.^^./^.(^._^.gu HF :^.<^.[^.}^.|^.1^.2^.3^.4^.5^.6^.{/ O7 7^.8^.R@ 9^.0^.B0 a^.b^.c^.d^.e^.bz f^.g^.h^.XM 3; 9, 3' y) i^.Y5 j^.k^.l^.3_ m^.4. n^.o^.p^.q^.r^.s^.t^.u^.v^.w^.x^.Qi  + y^.z^.A^.B^.C^.D^.E^.F^.G^.H^.5*.I^.dB J^.0D K^.L^.M^.+d y^.N^.O^.P^.(> w4 Q^.R^.k,.S^.T^.U^.V^.#c W^.X^.D$.Y^.Z^.{{.`^.gi  /../.+/.@/.K  L  ]+ {+ ]+ ]+ ]+ ]+ ]+ ]+ ",
"#  L  h. h. ]+ ]+ ]+ ]+ #/.$/.1p Y| %/.&/.*/.=/.-/.;/.>/.,/.'/.)/.!/.ID ~/.{/.Q& ]/.^/.//.(/._/.:/.</.[/.}/.WQ [^ |/.1/.2/.3/.RN 4/.5/.6/.7/.-8 8/.9/.0/.cn a/.b/.c/.V9 W. O' d/.e/.A#.f/.g/.h/.i/.Q& j/.k/.l/.m/.7~ n/.o/.`t 8..-& )%.m* t_ E. (& 0$ GE p/.q/.r/.s/.t/.u/.v/.w/.qU G$.'' /B x/.y/.z/.A/.m).B/.C/.9^.5$ jZ D/.E/.F/.G/.|~.s, H/.I/.J/.K/.L/.M/.N/.9m O/.P/.Q/.R/.S/.Ht T/.U/.V/.'' yr W/.H; X/.Y/.Z/.`/. (..(.+(.@(.#(.$(.%(.&(.*(.pX =(.-(.;(.>(.,(.'(.)(.!(.~(.{(.](.^(.9v /(.U..+% 7e ((._(.:(.<(./. [(.}(.|(.1(.t* 2(.3(.Ki 4(.]. () I  O  5(.0( 6(.7(.8(.-% %@ 2f 9(._w $E 0$ 0(.a(.b(.c(.d(.e(.f(.g(.C3 Y  h(.i(.R9 j(.k(.=Y l(.X[ m(.n(.|V o(.p(.q(.r(.s(.t(.`* *- u(.v(.w(.x(.y(.z(.Jk A(.~( /. -8 B(.C(.D(.E(.F(.G(.H(.F{.I(.J(.K(.L(.M(./. d. I8 8~.X+ 9# X+ 9# ]+ ]+ ",
"#  L  h. h. ]+ ]+ ]+ ]+ ;$ N(.O(.#c P(.Q(.R(.S(.T(.U(.V(. u W(.X(.Y(.Z(.`(.3t  _.._.0$ +_.L% @_.#_.$_.%_.&_.*_.}^ Q> =_.-_.##.;_.>_.,_.'_.)_.!_.~_.{_.2} :4 ]_.@% ^_.{: ;. /_.(_.__.}| @3 :_.<_.[_.}_.|_.1_.2_.3_.0$ g_ 4_.5_.0$ -$ +2 K] 6_.x| Z= 7_.8_.9_.0_.a_.b_.c_.m& k{ d_.1A O' zX e_.f_.d'.g_.h_.i_.j_.rD k_.l_.<).m_.n_.o_.p_.q_.r_.+% s_.t_.S9 u_.v_.w_.0$ x_.y_.z_.A_.62 B_.C_.D_.E_.a~.D' {L F_.G_.H_.I_.J_.K_.L_.M_.N_.O_.Kc P_.Q_.R_.S_.T_.U_.V_.W_. 8 X_.Y_.Z_.`_.c[  :..:.J8 ^( <m +:.@:.#:.g} P$ P| ^) ]/ G^ $:.%:.}(.b[ &:.*:.=:.-:.;:.d_ ,^ P$ 2f 2# >:.,:.':.-% ):.!:.~:.{:.]:.=~.^:./:.Y  (:._:.::.<:.j. X+ h#.m* [:.}:.bw |:.1:.2:.3:.4:.5:.6:.7:.:_ 8:.9:.0:.0$ a:.b:.c:.d:..D e:.f:.i* 0$ g:.h:.i:.j:.k:.;u l:.$].m:.n:.o:.p:.0$ q:.r:.s:.f) L4 #& <'.7- v@ && @* 9# ]+ ",
"#  L  h. h. ]+ ]+ ]+ 9# r> 33 L4 t:.u:.v:.w:.x:.y:.z:.A:.B:.=P C:.D:.E:.F:.G:.H:.I:.J:.K:.,- L:.sU M:.N:.;>.O:.P:.Q:.R:.S:.x5 T:.U:.2# V:.W:.X:.Y:.Z:.`:. <.Q4 z$ c. rk w. .<.;v +<.0$ /| @<.#<.$<.%<.&<.*<.^A 3> =<.-<.;<.O, 2f [^ (. t_ _) 0$ ><.,<.'<.)<.x. !<.~<.{<.]<.s& ^<.`a /<.(<.o$ _<.:<.<<.[<.}<.|<.1<.2<.3<.4<.5<.6<.7<.8<.9<.0<.a<.HP b<.Q& c<.d<.e<.(E T~.f<.g<.[i h<.i<.j<.k<.l<.)%.7~ m<.n<.o_.o<.p<.q<.r<.s<.t<.u<.v<.(] w<.x<.y<.z<.|X A<.B<.v* C<.w_.D<.E<.Xc ><.*@ S{ ip ,k F<.G<.H<.I<.-% N6 ^) E{ D, J<.K<.L<.M<.N<.O<.P<.Q<.R<.W1 3d l- I  R< c# 9[ zR S<.Z* T<.U<.V<.W<.X<.Y<.Z<.`<.}6  [..[..- +[.@[.[/ a4 0( 4T `H Hc #[.$[.%[.&[.*[.=[.-[.;[.>[.Mx ,[.'[.!( )[.![.~[.{[.][.^[.Q$ HX /[.([.-&.fy _[.:[.<[.[[.}[.5+ }^ |[.1[.$:.2[.3[.4[.5[.mk T+ 6[.Z2 Ob ,$ ]+ ]+ ]+ ",
"#  L  h. h. ]+ ]+ ]+ -* 7[.8[.LI 9[.0[.a[.b[.c[.d[.e[.f[.g[.h[.o$ }N i[.j[.k[.l[.m[.n[.o[.Q{ p[.0$ q[.r[.s[.t[.u[.v[.w[.e+ x[.y[.}x z[.A[.B[.C[.D[.E[.F[.G[.0< i. b. 2^ 1O VD H[.I[.J[.K[.L[.w% +* M[.t^ N[.O[.P[.Q[.R[.S[.ro -$ ., /) n~ o$ T[.U[.V[.W[.X[.=!  = Y[.Cd Z[.`[. }..}.+}.3# @}.#}.$}.%}.&}.*}.,U ;u =}.-}.:u ;}.x; >}.,}.'}.)}.!}.~}.{}.i%.]}.^}./}.(}._}.:}.<}.[}.}}.|}.1}.2}.D$ := k( Q$ 3}.4}.5}.6}.7}.8}.9}.0}.a}.KU b}.c}.d}.e}.X-.r^ f}.g}.h}.i}.j}.F( V&.k}.l}.m}.n}.D$ o}.'( p}.k_.q}.I^ -$ Fw }^ r}.s}.=[ t}. ! u}.v}.w}.x}.y}.<[ J+ I  2f z}.Y. 00 A}.|V B}.C}.D}.E}.F}.G}.~_ H}.I}./e J}.'_ K}.L}.M}.#Z (% e2 (. [[ T4 N}.O}.P}.C6 Q}.R| /y R}.MS rO AD S}.T}.U}.V}.W}.X}.0$ h% Y}.Z}.`}. |.Hy .D .|.+|.@|.0$ 0( #|.$|.%|.&|.*|.=|.-|.;|.^L 8. .@ )0 #+ C[ @* s( U$ ]+ ",
"#  L  h. h. ]+ ]+ ]+ 9# q/ gQ >|.,|.'|.)|.!|.~|.{|.]|.^|./|.(|._|.:|.n9 *i <|.[|.}|.||.1|.*[ 2|.3|.4|.f) 5|.6|.)s UE 7|.8|.c+ 9|.0|.a|.b|.c|.,/ ^. `# d|.>6 3d e|./. f|.g|.8t h|.i|.j|.k|.l|.m|.n|.o|.|p q# p|.q|.r|.s|.m].k' _. I  X7 ]. Sk t|.u|.x+.v|.w|.x|.|+ M; y|.z|.A|.B|.w0 C|.5}.D|.E|.F|.G|.H|.I|.J|.K|.L|.68 3# -8 Ff HE M|.N|.O|.P|.Q|.R|.S|.0u T|.U|.V|.W|.X|.Y|.Z|.`|. 1..1.+1.@1.`_.#1.Ud $1.=b %1.0$ v{ Q..&1.*1.=1.-1.;1.>1.Y+ ,1.3. 7[.]+ 5g Jd UZ '1.)1.!1.~1.{1.]1.^1./1.0( (1._1.4B :1.0$ o: J+ a} <1.[1.}1.T) |1.#_ 11.21.31.41.51.61.0$ Q$ )$ '- b# <) uh 71.g3 81.|( )$ #q Oo m9 91.01.K|.a1.b1.c1.d1.D] 0( /| F9 $1 e1.Q& A) f1.$D g1.h1.i1.j1.08 ,~ k1.l1.m1.n1.DT ]m o1.@F mV p1.r&.q1.dN r1.s1.t1.0$ -% u1.v1.w1.x1.y1.z1.A1.}8 B1.C1.D1.0, <i zM Id E1.3~ ih U$ ]+ ",
"#  L  h. h. ]+ ]+ ]+ 9# dY EA F1.G1.H1.I1.<' J1.K1.L1.M1.N1.O1.P1.Q1.R1.S1.o$ T1.U1.* .V1.W1.X1.Y1.Z1.P$ `1. 2..2.+2.@2.0$ [^ #2.$2.%2.&2.*2.2. =2.1- '. O7 J  .d -2.;2.>2.,2.'2.)2.!2.jb }k nC O7 ~2.{2.0$ ]2.^2./2.n6 Z( Z( [/ ,^ Dj (2._2.:2.<2.[2.}2.|2.12.8T D^ o$ %J 22.32.^=.42.52.62.72.82.92.02.a2.b2.c2.k- 6. >. 0( Z= H'.RF d2.e2.f2.g2.h2.i2.j2.k2.l2.m2.)1.n2.Cp o2.p2.q2.r2.U/.s2.t2.u2.v2.w2.x2.y2.-% -% z2.A2.B2.C2.#W D2.E2.U% xe -@ u_ +& <'.x@ 4^ F2.G2.'2 H2.0$ U'.I2.J2.%Z B) K2.L2.gv M2.N2.Ca O2.B^ P2.Q2.R2.S2.R: U<.T2.U2.V2.W2.X2.h7 Y| Pe X[ |_ i| (& Y2.Z2.}X (& M+ ]S yh `2. 3..3.+3.n4 @3.#3.$3.%3.&3.Z( n~ *3.O7 E. wf h .=3.-3.;3.t .>3.ig ,3.'3.)3.!3.~3.)| W0 {3.]3.^3./3.(3._3.bT Z].Q& -8 ny _& :3.<3.[3.}3.|3.13.23.33.43.53.63.Au *j ;k i| 73.C[ h( U$ ]+ ",
"#  L  h. h. ]+ ]+ ]+ ]+ S+ c# 5<.83.93.03.0$ a3.b3.B, c3.d3.e3.f3.g3.h3.i3.j3.k3._. n@ l3.m3.n3.o3.p3.Z= q3.r3.s3.t3.g% R{ '. o$ 2# Yr @! ;' yr }. l9 R$ ;{ #c [) u3.1>.v3.w3.x3.y3.z3.Z= A3.B3.C3.<) UM D3.E3.F3.0( .= Y5 [/ p: rk R| G3.H3.I3.J3.Xh f&.K3.L3.b6 M3.Q% P$ N3.O3.<I P3.Q3.R3.1- S3.yn T3.U3.u. V3.Zi O7 a0 W3.X3.Y3.Z3.`3. 4..4.+4.T(.{. _~.@4.#4.$4.%4.&4.*4.=4.-4.;4.>4.gm ,4.'4.)4.!4.~4.{4.]4.^4.XM /4.(4._4.):.3^ 2G v@ '[ 6+ Ob Ob ~* u~ :4.<4.[4.L^.}4.(& P+ V6 |4.14..D ^7 Q/ 24.34.44.54.64.74.;R 'R 84.94.04.a4.b4.c4.d4.l& e4.f4.g4.rR Pt S' 3# *! 20 Pe h4.i4.j4.v> k4.l4.m4.n4.o4.f( p4.q4.r4.s4.vc t4.G^ P$ Z^ R$ 9( 5(.t@ u4.7!.v4.w4.x4.y4.[+ `Y z4.A4.B4.C4.B. D4.E4.F4.Z6 )k >W 0$ G4.W^.Dv H4.I4.J4.K4.L4.M4.j; N4.|*.O4.P4.Q4.R4.S4.c# ^: 9# W% C[ i: X+ ]+ ",
"#  L  h. h. ]+ ]+ ]+ 9# _+ T4.U4.V4.W4.X4.Y4.Z4.`4. 5..5.G- +5.@5.#5.$5.%5.&5.*5.=5.<m -5.;5.>5.,5.'5.0$ )5.JW !5.~5.1'.0( -$ T/ {5.]5.-[.+2 n6 l- (. (a 1. Q& ^5./5.(5._5.:5.<5.[5.}5.|5.15.25.35.45.JL 55.65.-].6,.<E <i C3 ;. o$ 75.85.95.0$ 05.a5.0C Fw b5.c5.d5.VZ e5.f5.m' g5.cd h5.X] i5.j5.k5.&7 Q& .d 4# Z  l5.'L m5.n5.o5.p5.qt q5.r5.D$ X[ 6. *y 32 R3.s5.t5.+1.u5.PX 14.v5.w5.~|.x5.=$ y5.z5.<+.A5.B5.C5.D5.E5.F5.G5.[/ ;* y@ |d 1p H5.9# 5+ I5.J5.ro w>.K5.L5.M5.N5.I  O5.P5.o$ U4 !..b .Q5.4^ Y2.`3.R5.S5.T5.#* U5.V5.W5.X5.Y5.Z5.`5. 6.n> .6.+6.@6.<8 ]: ;^ ,. V-.#c 4T #6.$6.%6.r0 &6.9&.*6.=6.eM -6.;6.>6.,6.Q5 '6.)6.0$ <! m9 ]. T` c# !6.~6.{6.]6.`e ^6.5; /6.(6._6.:6.<6.6,.[6.}6.-3.N] |6.h~ 16.26.36.46.56.66.76.86.&b 96.I^.06.a6.ra b6.c6.Z7 d6..&.]W O+ ^0 %} u@ ]+ ]+ ",
"#  L  A@ ++ >$ ]+ 9# u@ 0( e6.f6.vx g6.h6.i6.j6.k6.l6.m6.n6.o6.p6.q6.r6.s6.t6.u6.v6.8< w6.x6.y6.z6.A6.B6.C6.D6.E6.F6.G6.H6.a:.I6.Yh J6.K6.L6.mh Ja M6.m* 0$ N6.O6.P6.Q6.R6.ei S6.T6.U6.V6.@= Q^ <] W6.X6.Y6.-b -% R{ Y5 _r {: -% Z6.`6. 7.rl .7.+7.@7.0( .= #7.$7.%7.2} (& >^ Ga &7.5'._. *7.=7.U) -7.3' R< o$ S^ v0 ;7.vv >7.,7.'7.)7.!7.~7.{7.]7.._ 6. 6# ^7./7.(7._7.:7.<7.[7.}7.|7.17.27.37.]= C#.47.57.67.77.87.97.07.a7.v{ a0 @. b7.c7.U$ d# |~ ,$ S+ 'n d7.0f e7.f7.g7.h7.rL i7.+} 5T 4$ j7.k7.l7.Y~.0$ m7.n7.m. `% o7.(y p7.q7.P[ r7.s7.t7.u7.v7.H. yV w7.TZ h' X/ x7.wf D{ 3; ~U y7.z7.A7.B7.C7.D7.E7.F7.bu G7.H7.I7.J7.K7.H1 y( c# L7.M7.N7.O7.P7.Q7.R7.S7.T7.U7.V7.W7.X7.Y7.Z7.`7. 8.6_..8.A,.+8.@8.0$ #8.$8.%8.&8.*8.=8.-8.;8.>8.,8.'8.*O )8.!8.~8.{8.-m ]8.^8.Jd `] A{ C@ 3~ 9# ]+ ",
"%  rk /8.(8.pU j: vP _8.x| :8.<8.[8.}8.|8.18.28.38.48.58.68.78.88.98.08.a8.b8.)+.uy 0$ c8.d8.e8.f8.o$ g8.h8.i8.j8.k8.1B l8.m8.rQ n8.o8.p8.q8.r8.s8.t8.u8.v8.w8.x8.y8.z8.A8.B8.C8.W@ M% -I D8.E8.F8.G8.H8.g- _. I8. @ h; R< 3; J8.K8.L8.M8.n6 N8.O8.P8.A+ .+.Q8.R8.S8.T8.U8.0$ -B 1~ Y$ V8.W8.X8.a; (<.0$ ou 4, Y8.Z8.:( ;..`8. 9..9.Va +9.@9.l3 #9.#c -y F9 $9.zy e[.d^ %9.x1 |_.&9.*9.=9.Q= P}.3; 5g -9.;9.>9.,9.'9.nY )9.O4.!9.G'.~9.{9.|$ 7R ]9.$} 1+ +@ @* c4 M+ k- h1 79 ^9./9.(9.H6 _9.X7 3^ :9.<9.[9.}9.S  &| #_ |9.19.29.m> 39.49.59.69.79.89.99.09.[+ /7.a9.)| 3^ S{ C{.g+.Kn -% d;.b9.c9.d9.e9.f9.fT g9.h9.i9.j9.k9.5/.l9.m9.n9.o9.p9.q9.r9.s9.t9.u9.b8.v9.w9.x9.y9.M@.+/ 9o z9.A9.B9.0$ C9.D9.E9.F9.I+ 6# G9.H9.I9.J9.t[.K9.L9.M9.N9.O9..].P9.'h Q9.R9.S9.T9.U9.V9.^| x@ &@ Z] 9# ]+ ",
";  U  /8.(8.pU j: pE .Q W9.X9.Y9.<9.M< Z9.`9. 0..0.]D +0.@0.#0.$0.%0.&0.*0.=0.-0.;0.>0.,0.'0.)0.!0.-% ~0.zQ x+.{0.]0.^0.z9.=c /0.(0._0.:0.<0.[0.~*.qP }0.|0.10.20.30.zU 40.50.60.70.-& Yt -& 8|.80.90.00.]+.[/ 5# d< +z +z o$ a0.b0.c0.K+ d0.>].e0.f0.g0.^m S< 3d h0.i0.f- j0.K+ 3d k0.l0.m0.r< R< t$.:6 n0.o0.p0.+5 q0.r0.n{ s0.t0.u0.v0.0( w0.x0./Q X~.05 XQ se y0.z0.A0.7} B0.C0.D0.E0.F0.jz 3# ym G0.H0.H/.I0.J0.K0.L0.M0.N0.O0.#_.P0.Q0.C#.]+ R0.s. s~ 9C ;r 7~ P| S0.T0.U0.V0.3U W0.X0.Y0.Z0.1- `0. a..a.Qj ';.K&.+a.8} @a.z) #a.$a.%a.&a.*a.=a.-a.;a.>a.3I ,a.'a.H. 1( )%.S$ Tp (<.)a.!a.~a.{a.]a.*j X] )$ ^a./a.(a._a.:a.<a.[a.}a.|a.1a.2a.zA B) 3a.4a.;^.5a.6a.7a.8a.9a.wr R< 0a.aa.ba.+2 ca.da.ea.fa.ga.fi ha.ia.]# ja.ka.la.ma.na.oa.pa.qa.ra.sa.ta.i9 ua.va.wa.xa.ya.C@ N(.,F X+ ]+ ",
"%  S$ L: u=.d< #& zX w% za.Aa.Ba.Ca.Da.Ea.Fa.Ga.Ha.C] 3; Ia.Ja.Ka.La.Ma.Na.Oa.Pa.Qa.Ra.Sa.Ta.Ua.Va.+= Wa.Xa.Ya.Za.`a. b.%^ .b.+b.@b.j} #b.9w J+ f5.$b.io sV %b.2} &b.*b.B$.=b.-b.}a ;b.OC #& f) >b.,b.'b.a!.</ ). I^  Q 0( )b.!b.~b.7+ F. {b.]b.^b./b.LE R$ @& (b.c# 6q _b.:b./. >E <b.[b.}b. , Lw |b.1b.2b.3b.4b.5b.6b.^d Mx 7b.8b.9b.B].0b.S%.ab.bb.A) Q: cb.db.eb.fb.gb.0$ hb.ib.jb.te kb.lb.0l y{.0( mb.nb.ob.pb.qb.rb.sb.tb.ub.vb.wb.xb.ux N  F-.yb.zb.rp Ab.Bb.@, Cb.Db.Eb.Fb.]~.^!.Fl Gb.Hb.V=.Ib.Jb.Kb.Lb.H#.0$ Mb.Nb.Ob.R| //.Pb.Qb.Rb.Sb.Tb.Ub.Vb.Wb.Xb.Yb.Zb.M&.f) :) X. `b.&. O'  c..c.+c.-% #_ 5# /) @c.#c.$c.%c.&c.U= *c.=c.-c.AR ;c.:8 y_ >c.,c._}.'c.)c.!c.]. ~c.N7 {c.]c.^c./c.wg d! (c._c.:c.]h <c.[c.}c.|c.TN 1c.2c.3c.4c.5c.6c.7c.8c.9c.0c.ac.bc.cc.dc.ec.-% u> fc.gc.,$ ]+ ",
"%  S$ 3. W+ ;$ @* t@ d_ hc.42.ic.jc.kc.lc.mc.03.nc.oc.pc.f/ {;.qc.YC B3 rc.sc.tc.uc.vc.wc.xc.yc.0$ zc.Ac.Bc.Cc.Dc.Ec.Fc.Gc.Hc.Ic.Jc.Kc.3).Lc.4# Mc.Nc.Oc.Pc.Qc.Rc.Sc.Tc.Uc.$, E[.Z2.Vc.'- +V Wc.[|.Xc.IN l< Yc.;_ z$ E. FR &6.Zc.`c.]. B!  d..d.+d.@d.#d.Pb $d.%d.&d.*d.=d.ny -d.;d.>d.,d.'d.)d.!d.~d.{d.]d.^d.QJ t; 79 j#.%< /d.L= (d._d.:d.<d.[d.}d.0v K] [^ |d.1d.Nx 2# pd 2d.3d.,x 4d.5d.S1.6d.7d.>W 8d.9d.0d.ad.bd.cd.dd.ed.Q& mc Rg fd.gd.l9 k- hd.id.[c.Be ~U jd.kd.ld.md.nd.od.pd.qd.rd.!D sd.7|.td.Kd ud.vd.wd.0$ xd.yd.zd.Ad.Bd.Cd.Dd.Ed.Fd.Gd.Hd.Id.Jd.R~.Kd.Ld.:9.Q| _g XO 8/ Ga $. Md.Nd.Od.D` W1 g1 Pd.Qd.n6 Rd.Sd.Td.Ud.Vd.Wd.Xd.Yd.Zd.m- `d. e..e.+e.@e.#e.Da.$e.%e.&e.*e.=e.-e.sR 0$ #[ ;e.>e.,e.'e.)e.nz !e.~e.{e.]e.^e.r( /e.(e._e.0+ :e.<e.[e.}e.|e.1e.2e.3e.u; ue u@ ]+ ]+ ",
"#  L  ;+ #_ .d *! ;_ 4e.5e.6e.7e.8e.9e.0e.ae.,w be.ce.de.ia 0$ uy rq ee.fe.ge.he.ie.je.ke.le.me.0$ ne.oe.pe.(g 5- 0$ qe.re.se.te.ue.ve.we.0$ P| xe.ye.ze.Ae.]Y Be.Ce.De.Ee.Fe.Ge.He.Ie.Je.}~ Ke.Le.)q Q& '. a0 9( 4# Q& Me.Ne.s@.,- Oe.(*.Pe.Qe.Re.w>.0$ Se.Te.Ue.Ve.We.3V Xe.Ye..p @Z Ze.`e. f..f.+f.@f.#f.$f.%f.h` &f.*f.>J T` =f.{{.-f.;f.3{.>f.,f.'f.-% K+ K+ )f.!f.^. ~f.{f.]f.^f./f.(f._f.:f.<f.[f.LG }f.|f.1f.2f.3f.4f.W{.5f.8, 6f.7f.8f.:) 9f.0f.af.bf.cf.(-.R'.df.a_ ef.Z= /d ff.gf.hf.if.jf.kf.lf.mf.nf.s# K7 3y of.pf.qf.rf.sf.tf.uf.L7.vf.wf.xf.yf.zf.g).Af.Cf Bf.h~ '. T9 [) () R$ 6J Cf.Df.x7.h' Ef.Ff.Gf.Hf.If.Jf.Kf.T+.Lf.Mf.-m Nf.Of.Pf.Dj :{.Qf.Rf.Sf.Tf.Uf.Vf.Wf.O8 -R Xf.Yf.:a H. *e Zf.(N `f. g..g.+g.@g.#g.Mb.$g.M: ll %g.&g.@J *g.N% =g.-g.;g.>g.,g.'g.)g.!g.&! ~g.9# ]+ ",
"{g.gQ j( 3. '+ U$ 8, ]g.^g./g.h0 (g._g.:g.<g.[g.}g.|g.1g.2g.]Y 3g.4g.5g.[n x& 5p 6g.7g.LK 8g.9g.0g.ag.bg.cg.Z. W$ dg.eg.fg.Ue.gg.hg.ig.jg.]. kg.19.lg.mg.ng.og.pg. 4 y!.qg.rg.sg.tg.ug.vg.wg.xg.yg.z$ o$ c# 2# S< j7 t1.zg.Ag.3# h#..=.Bg.m: b8 ae 2# Cg.Dg.Eg.Fg.Gg.q4 =L Hg.Ig.Jg.Kg.Lg.P< gr Mg.Ng.~t Og.0$ Pg.Qg.Z4.Rg.;8 Sg.Tg.Ug.Vg.ke.Wg.Xg.Yg.Zg.3[ `g.d_ J  !. ,-  h..h.+h.@h.$_ #h._*.$h.%h.N} |% &h.*h.=h.-h.;h.>h.,h.xK r& 'h.~|.)h.!h.~h.b] {h.o$ ]h.^h./h.(h.p/ _h.=@ O) }^ {: :h.,H <h.[h.}h.|h.1h.2h.3h.4h.5h.6h.7h.pd.8h.9h.0h.ah.a. bh.ch.dh.eh.fh.L7.u3.Wq .H L{ Lh 3^ |^ D. /. gh.hh.ih.jh.kh.lh.+/ h:.mh.nh.oh.ph.qh.rh.w$ sh.th.&).a0 uh.vh.wh.xh.yh.zh.Ah.Y~ r: y_ Bh.Ch.1b.Dh.Eh.Fh.Gh.Hh.c+ 9` Ih.Jh.e% Kh.Lh.Mh.Nh.Oh.Ph.Qh.Rh.Sh.Th.Uh.Vh.Wh.Xh. 4.Yh.R< +z 0# 9# ]+ ",
"Zh.`h. i.9- u_ +& 0( 0l .i.=R +i.@i.#i.$i.%i.&i.*i.=i.-i.;i.>i.,i.'i.)i.-% +2 n- w6 !i.N0.A7 +% ~i.u6.{i.]i.;8 k. k%.^i./i.(i.h, _i.:i.<i.Bb [i.}i.D4.|i.1i.2i.n* 3i.4i.5i.6i.7i.IF 8i.9i.op 0i.0p -% 2f h) F. B0 w% ai.bi.ci.(& Y{ di.^Q ei.cQ 4[ F. fi.gi.hi.T1 ii.]8 ++.ji.ki.li.Zj mi.ZW ni.oi.pi.0( O% qi.j@.ri.si.M( ti.ui.vi.wi.xi.yi.zi.Ai.Bi.Ci.Di.(& 4# J  Ei.R< Fi.Gi.Hi.Ii.Ji.i9 !O Ki.6}.[4 Li.Mi.Ni.Oi.Pi.Qi.Ri.Si.Ti.Ui.Vi.Wi.Xi.6<.Yi.`5.@* yR Zi.`i. j..j.+j.@j.#j.$j.T2 .,.B. B/ qa %j.&j.*j.=j.-j.;j.>j.,j.'j.)j.!j.~j.{j.]j.^j.C= 2% /j.(j._j.:j.<j.z= [j.}j./E rk b_ a5 ^} ^_.|j.1j.2j.3j.4j.5j.6j.7j.e;.8j.9j.0j.aj.>P bj.cj.dj.ej.34 |^ fj.gj.hj.ij.Uk jj.kj.Ib.8, lj.mj.nj.oj.-% pj.qj.z#.`2.a5 :. 0$ b~ rj.d9 sj.tj.uj.vj.wj.xj.yj.zj.Aj.Bj.Cj.Dj.Ej.Fj.Z. 5# n8 &@ ]+ ",
"Gj.Hj./8.u=.Ij.%@ c# Jj.Kj.Lj.Mj.Nj.Oj.Pj.Qj.Rj.D} 'h.Sj.Tj.Uj.Vj.Wj.Xj.Yj.Zj.A) `j. k.E3..k.0$ +k.@k.#k.$k.-( %k.&k.Zc.*k.=k.-k.;k.X&.*j QI >k.,k.'k.)k.!k.%H ~k.{k.]k.^k./k.J[ (k.W}._k.X_.i+ :k.4a _. D@ ~. [^ Y7 <k.[n 0$ .) [k.}k.|k.1k.2k.-% Y~.3k.o_.!/ /q :8 4k.5k.6k.KS 7k.n} 8k.XF 9k.G#.0k.ak.Y{.bk.ck.dk.-% ek.fk.gk.hk.ik.jk.kk.lk.mk.nk.ok.pk.qk.Ga ,. 3# rk.sk.tk.uk.vk.Fe.wk.xk.yk.zk.Ak.Bk.Ck.Dk.Ek.Fk.Gk.Hk.Ik.)U Jk.(f Kk.Lk.Mk.Nk.Au '- Ok. j.;d Pk.oa.Qk.Rk.h=.Sk.Tk.Uk.Vk.Wk.m* 2# Xk.Yk.Zk.`k. l..l.+l.@l.U9 #l.$l.%l.&l.*l.=l.-l.;l.pD >l.,l.'l.)l.!l.~l.{l.y_ _. *j ,- <) f) ]l.^l./l.(l._l.:l.RY <l.[l.}l.|l.1l.2l.3l.D& 4l.5l.^: ym 6l.7l.@a 8l.YW 9l.0l.al.L< bl.cl.dl.8#.}+.el.fl.gl.hl.0$ il.jl.kl.ll.ml.L,.S}.nl.ol.pl.ql.rl.sl.tl.ul.vl.wl.xl.yl.C#.,^ S+ 9# ]+ ",
"zl.Hj.j( S+ m. ic (% Al.Bl.Cl.0$ Dl.El.Fl.NC ^. Z= N .Gl.Hl.Il.Jl.Kl.8'.Ll.|h Ml.Nl.Ol.i] ~Z Pl.Ql.Rl.Sl.al.g/ J+ Z) Tl.Ul.Vl.Wl.n5 +#.^) =2.Xl.Yl.Zl.`l. m..m.+m.@m.#m.}+..!.$m.0| J+ i<.%m.&m.*m.Da 0< QI sL Q& =m.-m.bW ;m.>m.,m.'m.)m.Q{ 0$ bz !m.~m..F Lj {m.2' ]m.Zg ^m./m.Sx Fb (m.$o _m.Wd :m.<m.[m.( .}m.|m.p[ 1m.2m.3m.4m.Z] 5m.6m.7m.8m.I~ 9m.Kh.9j z) V9 w) 0m.am.V+.bm.cm.dm.em.fm.gm.;I hm.im.}w jm.km.lm.mm.nm.om.pm.qm.;..rm.sm.tm.um.4+ |^ vm.wm.xm.ym.zm.#, Am.k- v$ hW >h.Bm.Cm.Dm.Em.mh.bz Fm.2~.Gm.Hm.Im.'O |^ +% Jm.Km.Lm.Mm.Nm.Om.-8./7 Pm.J].Qm.Rm.yj iS Sm.1_ a4 i' @3 Bi Da Tm.Um.Vm.xj aY t@ #. 8, Wm.u@.Xm.Ym.pQ Zm.`m. n..n.G&.J@ +n.@n.#n.$n.%n.&n.*n.Z= O  0| =n.-n.dZ ;n.>n.,n.'n.)n.!n.; .:: ~n.{n.]n.^n./n.(n._n.:n.w% z) 0$ <n.[n.0( kR }n.|n.1n.!. *! ]+ ]+ ",
"2n.$^ Z$ #/ &@ 3n.4n.5n.6n.:a >f.7n.8n.9n.f( bz O, 0$ 0$ Z= g= 0n._@ an.bn.cn.dn.en.fn.gn.hn.Z> in.jn.G2.S~.;/ kn.ln.mn.nn.on.pn.qn.rn.sn.tn.un.vn.wn.xn.yn.zn.An.Bn.*b Cn.Dn.P' y. #/ CR En.]%.Fn.B0 Kn Ga P| a] Gn.Hn.In.Jn.ml Kn.Ln.Mn.Nn./_ On.Pn.*,./j.Qn.Rn.Sn.Tn.-K a|.Un.Vn.`P Wn.Xn.Yn.'y +% DS %e Zn.0$ 2P `n.B'. o.Z` .o.|;.+o.@o.#o.$o.w^ %o.6+.&o..W [) O' *o.=o.-o.;o.>o.,o._5 [^.Q& )$ M& s8.'o..%.)o.!o.~o.{o.]o.^o./o.(o._o.:o.<o.4y ,~ R< ~- u- [o.}o.|o.1o.2o..! L  1G Q& %).3o.4o.5o.6o.7o.8o.A1 9o.0o.ao.bo.co.do.eo.fo.go.!] ho.io.jo.^! ko.lo.bT {=.mo.no.oo.po.B. 4# r@ (^  @ ^. bf.qo.H- !* o1 '' Z= n$.ro.so.to.uo.vo.wo.xo.Zh (1.3|.yo.zo.Ao.c].Bo.Co.Do.Eo.Fo.|= Go.Ho.Io.Jo.a_.Ko.Lo.Mo.#0.q' No.Oo.s3.Po.Qo.0( ^) y_ 1( Ro.So.K9 To.Uo.Vo.Wo.Xo.Yo.Zo.2&.;$ 9# ]+ ",
"w  $^ V+ p@ {+ T/ `o. p..p.+p.@p.#p.<r $p.%p.&p.*p.=p.-p.;p.m9 Q& Q& >p.,p.'p.%a 29.fp )p.!p.~p.{p.]p.^p./p.(p._p.:p.<p.[p.5p o$ Yn.m .}p.|p.1p.2p.3p.4p.f_.5p.6p.7p.8p.9p.j[ =9 5^ 8c 0p.ap.o$ @. f9 bp.G^ 0( cp.dp.ep.fp.gp.hp./. :b ip.y_ jp.kp.lp.mp._t np.op.pp.qp.rp.sp.tp.up.vp.wp.xp.yp.zp.;8 +2 s~ Sg 6_ Ap.1i Bp.;$ qR O% Cp.Dp.Ep.Fp.Gp.Hp.Ip.Jp.Kp.Lp.., Mp.Np.fR Op.L* }Z PU Pp.Qp.0$ 0$ O- ,! G= L7.sx U& Rp.Sp.Tp.0$ H' Up.Vp.,8.Wp.Xp.#1 ,^ Yp.Zp.q'.0$ X7 O) 26.r@ ;/ {+ V-.b/ f) `p. q..q.+q.@q.#q.$q.%q.&q.*q.=q.-q.;q.>q.,q.0l Q| 'q.)q.Q$ xj !q.bk ~q.{q.]q.^q./q.Yr Pe <^ @. y. +, AT (q._q.:) w. /d :q.<q.@%.[q.}q.|q.1q.['.2q.3q.4q.5q.6q.7q.>J Z/ 8q.9q.0q.aq.bq.cq.8r dq.eq.fq.gq.hq.MG b2 iq.jq.kq.lq.-% ,- 32 mq.nq.D$.oq.pq.AU qq.rq.7% sq.tq.uq.vq.wq.$c k. u@ ]+ ",
"xq.yq.S+ [+ Hk 20 zq.Aq.Bq.Yv #` J}.Cq.Dq.Eq.Fq.Gq.5Q Hq.35.Iq.Dl.Jq.K#.W6 0$ vX Kq.k{ $) Lq.5l.Mq.Nq.Oq.t4.Pq.Qq.)..Rq.Sq.Tq.M; l9 Ia Uq.Vq.Wq.Xq.Yq.Zq.`q.8#. r..r.24 +r.@r.#r.Q& $r.%r.^m  + ,. Ia 8. 7, &r.*r.=r.-r.(} ;r.0$ R{ X~ >r.=9 ,r.'r.)r.!r.o$ ~r.{r.gd.]r.^r./r.(r._r.:r.$*.0l <r.[r.}+ ^| d< /$.ie.}r.|r.j( 1r.d< 2r.3r.4r.5r.6r.7r.l} 8r.9r.0r.ar.br.cr.dr.er.fr.9h nr :3 s; gr.dj hr.P< ir.jr.kr.P&.O>.lr.mr.nr.<! or.pr.qr.z1 f=.rr.r@ }~ 0O 19.sr.tr.ur.xy 0$ :) u> vr.y_ |+ }Q wr.rH xr.yr.zr.Ar.Br.Cr.Dr.Er. Y )J 93 Fr.nK Gr.Hr.[) n~ R$ )f.7+ Ir.N7 Jr.Kr.Lr.Mr.V= 3^ Z( ;^ }[ -a z) Nr.Or.Pr.Qr.,n.Rr.Sr.Tr.Ur.Vr.i` Wr._0 &].Xr.Yr.Zr.-% n9 +} `r. s..s.+s.@s.#s.$s.Cg.%s.6N &s.17.*s.=s.-s.;s.3; -% >s..7.m1.,s.'s.)s.!s.~s..M {s.]s.^s./s.(s._s.:s.<s.5o a| ++ #+ ]+ ",
"[s.V/ b< u@ w{ *j }s.|s.kc.1s.@` 2s.3s.4s.5s.6s.7s.8s.9s.0s.as.bs.cs.ds.es.D$.fs.gs.-% @2.hs.is.js.ks.ls.ms.ns.(% d6 +@.os.ps.v=.O% Hn qs.b. rs.z5 #:.ss.ts.mf.us.vs.ws.t; =|.xs.ys.wb.F{.Z. ~8 =9 8. c/ 3; zs.As.Bs.Cs.Ds.Es.Fs.(& v{ l9 X[ A) Gs.Hs.Is.Js.Ks.Ls.Ms.Ns.Os.Ps.^. Qs.Rs.Ss.0$ Ts.Us.Vs.7. 2. Ws.Xs.Ys.1. p+.qh C. 9# Zs.`s. t..t.W1 +t.@t.M%.#t.Up.$t.%t.&t.*t.OZ '- =t.-t.[h.;t.,s >t.,t.'t.)t.!t.~t.H0.{t.]t.^t./t.(t.7< _t.G~ :t.Ok.<t.[t.}t.|t.1t.2t.3t.(j.<F S9 4t.0$ J<.5t.z*.6t.7t.8t.9t.0t.at.= .bt.ct.h[.Tf %8 dt.et.sN ft.gt.Q& <^ K+ ~8 c# ht.Hd Y!.it.p~ jt.kt.a#.|_ t_ D@ ~. B. lt.mt.nt.ot.pt.qt.rt.2'.6S st.tt.ut.vt.wt.xt.I^ k- O' yt.3s._[ zt.xm (<.0$ .n At.Bt.Ct.Dt.OX }; Et.32 G< Ft.Gt.F- Ht.It.Jt.Kt.Lt.Mt.Nt.Ot.Pt.Qt.Rt.St.Tt.Ut.|a Vt.Wt.Xt.Yt.k( 7~ ]+ ",
"Zt.zM S' *. `t. u..u.+u.@u.5+ #u.$u.ee.2# /.  o Q/ %u.aV &u.*u.=u.-u.j(.;u.>u.,u.'u.)u.!u.~u.{u.]u.^u./u.k8 (u.R{ [+ ,^ _u.:u.yi 0$ zg [h q} <u.[u.}u.|u.1u.Vj.2u.3u.4u.5u.6u.7u.8u.&(.9u.(& +2 D@ W6 n0 0u.au.bu.cu.DS du.eu.fu.gu.hu.iu.K+ ju.ku.lu.C= mu.nu.ou.UU pu.qu.o: v .ru.<~.su.Q5.tu.uu.j[ ^. vu.wu.xu.yu.yh ^} Q| O' zu.Nh Au.Bu.Cu.cz Du.Eu.Fu.YO Gu.Hu.Iu.Ju.Ku.Lu.8U w% J+ x| e! F^ P| IY <! J+ Mu.}~ Nu.Ou.Pu.Qu.Ru.Su.[0.Tu.6#.Uu.Vu.Wu.Xu.Yu.Zu.`u.Ly  v..v.+v.{=.@v.#v.}k UW $v.%v.&v.u;.]_ .% *v.=v.Q/ -v.2< ;v.>v.3W ,v.'v.;~.jc.)v.J+ 5_ !v.5@ ~v.{v.I$ (> (& ]v.^v./v.(. E. Z. Z. Z. Q& xv (v._v.:v.<v.[v.}v.|v.1v.2v.3v.4v.5v.6v.7v.;I J  A) 8v.9v.0v..o.QI 3# Z= L7 av.bv.cv.dv.ev.lZ a*.fv.gv.~9 .v.I$ hv.iv.jv.kv.lv.mv.e_.nv.0$ 20 ov.pv.qv.rv.0g.sv.tv.uv.b/ X+ ]+ ",
"vv.el j( i. d. wv.xv.yv.zv.7$ Av.{D Bv.Cv.Dv.Oc O) J+ -8 NX Ev.(X Fv.Gv.Hv.!).Iv.Jv.Kv.jZ Lv.Mv.Xa Nv.Ov.Pv.Q& #1 Qv.Rv.Sv.Tv.Uv.Ia.}$ F-.() 7l Vv.Wv.Xv.Yv.a,.Zv.`v. w.e` VJ .w.+w.@w.#w.3^ m9 3' %c G).$w.%w.&w.3^ `2 f. *w.=w.-w.;w.>w.,w.'w.)w.!w.x+.b8 ~w.6{.{w.]w.Q& ^w./w.D9.=e Qo.(w._w.:w.A) @7 <w.[w.En {. (M Y| 3; 77 }w.|w.1w.2w.3w.4w.5w.6w.SP 8+  7 7w.bT 8w.-% 9w.mq.0w.u1 aw.bw.cw.lK dw.ew.fw.gw.S[.hw.iw.jw. b kw.lw.)$ mw.p .nw.ow.o8 (~.pw.<) y#.Os qw.rw.sw.w[.tw.uw.vw.ww.xw.-d.,^ yw.J5 zw.Aw.Bw.Cw.Dw.8R Ew.Fw.I..Gw.Hw.Iw.Jw.Kw.Lw.Mw.Nw.Ow.O] Pw.]! 0/ Pe Qw.Rw.yK 0$ 6,.Z= _. ;' -% Sw.Tw.-4 Uw.Vw.Gr Ww.Xw.Yw.Zw.`w. x.7/..x.+x.9o @3 K] @x.#x.b[ ~*  2 $x.}^ %x.&x.*x.zL Hw =x.-x.;x.>x.[P ,x.'x.-K )x.!x.~x.{x.yh ,~ 1' ]x.^x./x.(x._x.:x.<x.[x.}x.|x.1x.nq K8 ]+ ",
"2x.J@ W+ 1+ 9# 3x.4x.5x.pt.6x.7x.6B 8x.9x.0x.,2.ax.7$ ._.N6 /. ^) C! 'd bx.cx.dx.ex.Pb )g.fx.Nd gx.hm @t.{..}#.hx.ix.<q.jx.kx.lx.mx.yw.}[ m* E- nx.ox.px.qx.rx.e>.-% 4a D$ a0 sx.tx.|F Wp ,- () 9o X7 K{ ux.Um.vx.wx.xx.32 -& -% B' yx.zx.Ax.Bx.Cx.)b Dx.Ex.Fx.P| Gx.Hx.Ix._% n4 Jx.Kx.Lx.Mx.F;.J+ Nx.Ox.sv Px.|% P$ 2( 1( 0( Qx.]n.Rx.W@.Sx.;O Tx.Ux.Vx.Wx.V9 U! Xx.Yx.Au Zx.`x. y..y.eR +y.@y.dz #y.$y.%y.&y.*y.=y.k7.-y.=^ ;y.>y.,y.Jn :+ y@ n~ 'y.)y.!y.~y.{y.3; O' 5K rr ]y.^y./y.(y.G:.nd._y.@&.g: 3r y_ =>.:y.<y.[y.}y.|y.1y.2y._j 3y.:-.wv.4y.5y.6y.7y.|<.-n Q& 1= ^) 8y.Zm `> 9y.0y.ay.1- ^) n6 -& }^ by.cy.dy.-% tb =! U9 ;j ey.fy.gy.hy.iy.jy.ky._) ^X Zi ly.my.ny.af oy.py.qy.D[ ry.sy.ty.uy.vy.(r f) wy.xy.yy.B~ zy.M8 f) Q& Ay.By.Cy.Dy.Ey.Fy.$l Gy.Hy.#` wb.Iy.Jy.Rw Ky.C. ++ ]+ ",
"Ly.|_ 6# a. _. My.Ny.Oy.Py.Qy.Ry.Sy.Ty.Uy.Vy.Wy.Xy.Yy.Zy.`y.yR )$ k- }^  z..z.Gr.wH Q& +z./+.Y>.6< @z.#z.W6 &! $z.%z.&z.*z.=z.-z.;z.K  ~8 >z.,z.'z.)z.!z.~z.{z.]z.L7.3/ ^z./z.(z._z.:z.f) ^. w% <) a!.h= <z.[z.}z.|z.1z.2z.3z./. `  O6 A{ !y 4z.5z.6z.7z.Zv 8z.9z.#% 0z.[}.qB az.m) 'z.bz.cz.o$ dz.Km ez.fz.gz.hz.f) k- /) 0$ $z.iz.jz.`8 o$ kz.lz.mz.nz.oz.pz.2&.M1 qz.rz.sz.tz.uz.^6 )c Hs vz.wz.xz.yz.kf.zz.PR Of.}I Az.Bz.h/./R Rz [+ Cz.m` +_ Dz.Ez.Fz.Gz.Hz.Iz.Jz.-% J+ Kz.i/.Lz.Mz.Nz.Jd Oz.R0.i: a# Pz.02.Qz.Rz.Sz.Tz.Uz.Vz.Wz.Xz.Yz.Zz.c .Ia.`z. A.i[ -& D@ Q& .A.+A.@A.#A.$A.%A.&A.*A.B. a5 X] -$ '. Z= 'M =A.4# P: w{ -A.;A.>A.4A ,A.'A.)A.!A.~A.00 4# W  sX {A.]A.^A./A.(A.h[.c# _A.C} :A.<A.[A.}A.-% }4 Op.|A.1A.2A.q5 F0 3A.4A.5/.5A.6A.7A.8A.9A.0A.%P aA.bA.cA.dA.eA.fA.1( X~ ]+ ",
"gA.k( *-.c/ m].hA.iA.jA.,(.kA.lA.aS mA.nA.oA.pA.i1 qA.rA.sA.tA.uA. . _) vA.wA.xA.yA.0$ zA.AA.BA.CA.DA.oy EA.la Q$ FA.GA.HA.IA.Q& 00 #q N( c+ JA.(#.KA.=R LA.MA.NA.OA.T  PA.O) T].QA.v) z) ., K[ W6 -% vx RA.SA.TA.UA.VA.WA.XA.YA.ZA.{2.Wp }. wf `A. B..B.'4 'e +B.@B.#B.$B.%B.&B.*B.=B.-B.+% ;B.>B.,B.|[.'B.)B.T&.!B.Su $q c) 34 ~B.E$ {B.]B.^B./B.(B._B. 2 ,- :B.K@ Bs ps.<B.[B.0$ 20 qD }B.|B.R< 1( )s 1B.2B.0$ o$ d[ 3B.4B.5B.6B.J+ i' }=./_ 7B.8B.9B.Q& 0B.aB.bB.cB.dB.eB.fB.gB.hB.f[ gQ e; iB.xB Z+ U9 jB.kB.lB.mB.nB.oB.pB.qB.rB.sB..s tB.uB.rG c) LI a0 -r vB.wB.xB.yB.2u zB.QU s& AB.BB./. 7v.;^ 3; (. }~ CB.DB.EB.FB.J+ TY [N GB.HB.IB.JB.KB.LB.MB.2' S  8, ^| NB.$| Tk.OB.~8 l- /. PB.QB.RB.SB.TB.S*.0$ %x.UB.M>.VB.Xp.jb WB.XB.YB.s* ZB.`B. C..C.+C.@C.#C.$C.%C.;N &C.*C.=C.my a/ ]+ ",
"-C.-_ ;C.+a >C.,C.'C.)C.!C.~C.{C.]C.^C./C.(C._C.:C./!.<C.[C.}C.|C.N( '' 1C.2C.3C.4C.0$ 5C.6C.M].7C.ei 5p 8C.9C.Ga 3; 0C.aC.bC.cC.k( Sz :8 j$ dC.eC.fC.gC.hC.iC.Qd.jC.kC.Pe 20 lC.W1..= /) w) r: m9 C! mC.nC.*i oC.pC.+@.qC.tM rC.sC.6s.{! tC.J..p .uC.vC.wC.xC.yC.zC.AC.RQ BC.CC.DC.EC.FC.GC.aC HC.IC.>;.y7 JC.KC.D{ H^ W0 h; LC.ac.MC.NC.OC.PC.QC.RC.SC.TC.UC.VC.WC.XC.YC.ZC.`C. D.r1 Dx..D.;y.+D.PZ h[ sF @D.#D.c# JH $D.%D.&D.*D.=D.-D.;D.>D.,D.'D.&j.)D.C[ !D.~D.{D.]D.^D./D.(D._D.:D.S@.<D. i./_ $m '' [D.}D.|D.1D.2D.3D.4D.5D.6D.7D.8D.+H 9D.(Z 0D.aD.H%.Wp.bD.cD.dD.eD.fD.)j.gD.S9 hD.9#.iD.Fe h~ +% ;8 4# jD.BX t}.g} kD.lD.mD.s0.nD.oD.pD._4.qD.rD.N6 u; Z  sD.tD.uD.(] B. vD.e5.W9 wD.xD.yD.zD.AD.BD.0$ |j CD.DD.ED.Xp.FD.GD.HD.ID.JD.KD.LD.mJ N|.ue.MD.ND.OD.PD.4(.2= w4.QD.RD.Z( ]+ ",
"Zh.<7 C{.,^ V8 SD.TD.;t.UD.VD.MC.WD.XD.YD.ZD.`D. E.yo..E.+E.@E.N6 ~8 ;' #E.m>.$E.%E.0$ &E.Sc *E.X> =E.-E.;E.>E.Xb.|= <+ h:.,E.'E.-8 >* a4 I> )E.!E.~E.{E.GK ]E.^E./E.(E._E.:E.<E.[E.;' _j V6 v{ J+ By.}E.|E.1E.2E.3E.qq Fw Z= 4E.5E.6E.jx 7E..g !. h1 8E.9E.0E.aE.bE.cE.dE.eE.VX fE.gE.)j hE.iE.B1.69 jE.(b.-& kE.lE.mE.X;.nE.oE.pE.qE.rE.sE.tE.`8 uE.vE.wE.xE.yE.zE.AE.BE.CE.DE.Q5.!0.EE.@a Z. FE.GE.'- HE.|} IE.g' S* JE.KE.LE.ME.NE.OE.PE.QE.RE.SE.TE.UE.VE.WE.XE.YE.ZE.`E. F..F.-x )f.+F.<^ @F.#F.$F.%F.R#.1y.&F.!y *F.=F.;U -F.;F.>F.,F.'F.)F.[) ,..2s.!F.~F.Ms.{F.Pe z) R$ ]F.yn.^F./F.(F._F.)$ 2# P| *j c0 :F.<F.[F.}F.|F.1F.t^ 2F.3F.M` 4F.5F.6F.7F.{m.&i 8+ 8F.9F.w| ^. PV 0F.aF.bF.cF.dF.eF.fF.gF.hF.h[.iF.jF.&^ kF./P Fe lF.mF.nF.oF.pF.qF.rF.sF.tF.uF.a|.vF.wF.xF.yF.zF.AF.BF.Ga ]+ ",
"CF.RS p@ xj DF.EF.FF.k*.GF.HF.'3.IF.JF.KF.LF.MF.P+.NF.OF.PF.34 05 ;8 3^ QF.RF.SF.l8 [[ TF.UF.1b..D.VF.WF.XF.YF.ZF.Y>.`F. G..G.<l.3_ h' *7 NY +G.W1 +% 7z M|.@G.#G.$G.%G.&G.*G.=G.-G.). #Z 6- ;G.0$ >G.,G.f/.'G.)G.!G.~G.{G.]G.^G.() i7./G.[D.N  :+ (G._G.:G.<G.[G.}G.|G.[z 1G.2G.cX 3G.f^ 4G.1E.5G.6G.cC..+ Da 7G.}e.8G.9G.0G.7e aG.bG.cG.dG.eG.fG.gG.hG.iG.jG.kG.0$ ^) lG.mG.nG.oG.pG.KW &g i| #+ qG.[8 $Z rG.$% J@.sG.tG.uG.0$ 0$ vG.wG.xG.yG.zG.AG.BG.a0.CG.>y.DG.o$ EG.,].FG./] GG.N3 `r HG.IG.JG.KG.W2.LG.MG.NG.OG.MF.PG.QG.RG.SG.TG.UG.VG.WG.+% b. fj XG.cu o$ '. QI ;G.@&.YG.ZG.`G.60 7f  H.o$ I  9o .H.g/ *7 +H.@H.#H.$H.L8.%H.&H.*H.=H.-H.S` bO >7.;H.^+ Lu.>H.,H.z[.'H.)H.Kx.!H.~H.{H.]H.^H.Gs.ij /H.(H._H.:H.<H.[H.}H.4^ 0D.|^ |H.1H.2H.j} 3H.4H.5H.7@.f' 5!.6H.7H.8H.9H.0H.aH.Q$ h. ",
"bH.cH.OJ 1( K-.dH.eH.qN X(.fH.gH.hH.5l./<.iH.jH.kH.lH.7Z mH.}^ _. () M+ nH.oH.pH.qH.2..rH.sH.tH.,:.hd.uH.vH.wH.ci.xH.yH.zH.R#.AH.q: v> (H.BH. b Z= -G CH.DH.EH.FH.4F GH.BC.HH.IH.`~.JH.F. O' r@ 0i KH.LH.-[.MH.NH.OH.PH.QH.RH.SH.|= TH.UH.VH.WH.XH.!s.YH.ZH.xg `H. I.O[..I.+I.@I.0v.#I.$I.%I.1. &I.*I.=I.y( v> v@ -I.;I.>I.J+ 0$ ,I.'I.)I.!I.~I.{I.]I.^I./I.(I._I.:I.0$ <I.[I.}I.|I.N}.1I.2I.D$ #+ Ij.{/ ik.x+ yA.3I.4I.5I.6I.7I.8I.9I.0I.aI.bI.cI.dI.eI.fI.W  ]_ gI.hI.b: iI.jI.kI.lI.mI.a#.nI.oI.4z.pI.qI.rI.sI.tI.uI.vI.wI.o_.xI.yI.zI.AI.BI.CI.DI.EI.P..FI.GI.Bb.R{ HI.M( II.J+ :@ F4 x| 27 JI.]O ;_ ;' {8  D.m[ 6+.KI.LI.Bh.MI.Qt.NI.OI.K9.PI.QI./M RI.SI.S$ z$ TI.UI.g] VI.WI.XI.YI.ZI.`I. J..J.+J.K~ @J.gM Oe #J.$J.%J.&J.-$ J  A) *J.s].=J.x3.-J.;J.>J.Fd ,J.'J.)J.!J.Xh.~J.{J.$:.0$ K  ",
"q  .!.]S '. @}.]J.^J.FD.w~./J.(J.T0 _J.hN )%.[6.:J.<J.[J.}J.|J.Q& F^  N 1J.tz.B}.s0 Zo.2J.3J.ZQ 4J.5J.6J.PD.7J.8J.4a.9J.0J.aJ.9; h .bJ.o;.{] cJ.dJ.eJ.fJ.gJ.T$ t~ o> ^) 0$ hJ.iJ.jJ.kJ.lJ.mJ.nJ.Y=.oJ.pJ.[R qJ.2Z rJ.sJ.tJ.uJ.oc.vJ.Fi.wJ.xJ.5$ `}.yJ.zJ.AJ.BJ.0z.CJ.DJ.EJ./p FJ.GJ.HJ.IJ.8z.n6 +% U1.JJ.KJ.LJ.#1 $..k; .Z J: 2W MJ.NJ.OJ.PJ.QJ.RJ.Yc.x. SJ.TJ.UJ.VJ.WJ.XJ.YJ.ZJ.`J. K..K.+K.@K.#K.'+ 1( $K.%K.&K.*K.=K.-K.;K.>K.,K.'K.)K.!K.9, <E ~K.{K.]K.P  o).^K./K.(K._K.4$.:K.QI f. PR <K.[K.0$ }K.|K.1K.2K.e0 3K.4K.W&.&_ UU 5K./n 6K.7K.8K.9K.0K.<% aK.bK.R< f} O7 K[ I  Q& @v.cK.dK.(+.eK.fK.Z^ gK.hK.iK.[H.jK.kK.0$ ^) 9, 7v.w@ 8e lK.mK.Yv nK.oK.pK.f} :(.qK.rK.sK.tK.uK.vK.0( wK.xK.yK.zK.AK.BK.CK.DK.(. EK.FK.GK.#8 +% n6 HK.IK.JK.KK.LK.3- H< |% 2| MK.NK.OK.rL PK.QK.RK.SK.0( K  ",
"TK.Ui h. y) UK.VK.WK.XK.<..&Y YK.ZK.`K. L.}K.r: .L.+L.@L.#L.$L.%L.Y| &L.*L.=L.-L._. ;L.>L.,L.'L.)L.!L.~L.{L.]L.^L./L.(L.m!._L.:L.<L.mI.s, [L.}L.|L.1L.2L.3L.'- Z2 <# i^... 4L.5L.6L.7L.Pi 8L.J; uT 9L.[L 0L.aL.bL.cL.Z= o> P'.dL.eL.6!.fL.gL.M9 hL.iL.jL.kL.lL.mL.2~.nL.oL.m* x}.pL.qL.>H.rL.sL.#4.tL./h uL.Ek.vL.Pw 'S wL.xL.yL.zL.AL.BL.CL.DL.EL.FL.GL.HL.IL.JL.KL.LL.ML.NL.OL.PL.QL.RL.Cd SL.TL.UL.VL.)a WL.XL.YL.Jw.ZL.`L. M..M.+M.@M.#M.$M.%M.&M.*M.=M.-M.V0 ;M.>M.,M.'M.)n )M.d4 qy.!M.~M.{M.]M.^M.*L./M.(M.}r _M.:M.<M.[M.}M.|M.1M.=+.2M.3M.4M.5M.=: rD.6M.qC.Ia -$ -& k- z) AA 7M.Ve 8M.3O 9M.9k 0M.aM.bM.cM.dM.eM.zg v@ fM.c_ gM.hM.Wg.iM.jM.kM.lM.mM.r: 1' nM.oM.pM.qM.rM.sM.tM.uM.vM.wM.xM.yM.zM.8H.AM.-% BM.CM.DM.EM.P| D^ FM.GM.HM.3c.yj X] IM.ML JM.KM.He LM.MM.NM.OM.PM.QM.O- K  ",
"RM.+, gQ a4 SM.TM.UM.VM.WM.or.3] 0$ XM.YM.ZM.`M. N..N.Fx +N.45.3^ m- 8=.@N.#N.@r 0$ $N.%N.&N.*N.=N.-N.;N.>N.,N.1G.'N.)N.!N.~N.l[ W. (. {N.]N.^N./N.(N._N.:N.<N.|;.O5.+! cu._j (& f) f) <! [N.UI.}N.|N.6_ 1N.2N.3N.SS D@ o> Ra.4N.5N.r~ <E ):.6N.7N.8N.9N.b& 0N.aN.bN.KB.cN.c# dN.eN.=R fN.gN.hN.iN.}f.jN.kN.lN.mN.nN.oN.pN.qN.rN.sN.tN.uN.vN.wN.xN.yN.zN.AN.BN.CN.DN.EN.FN.GN.HN.IN.JN.KN.LN.MN.NN.ON.PN.QN.RN.SN.TN.UN.VN.WN.XN.YN.ZN.`N. O..O.+O.@O.#O.$O.%O.&O.*O.=O.!).-O.;O.7/ )$ >O.,O.'O.)O.!O.~O.{O.]O.zq.^O./O.a5 8( (O._O.:O.<O.[O.}O.4b.Ec.|O.+9.1O.2O.3O.]. %c 4O.xb (a c$.1@.5O.}[ 6O.7O.LV 8O.9O.f) n6 0$ B/ `1 5(.la X] 0O.Y' aO.Cj bO.cO.dO.eO.|= u> *X fO.gO.hO.iO.jO.|Y H. kO.lO.mO.nO.oO.pO.qO.0$ <0 rO.sO.tO.F. c# /h.uO.d%.vO.wO.xO.yO.pQ zO.AO.<! BO.CO.DO.0S EO.FO.GO.V6 ",
"HO.rk -a h) IO.JO.KO.LO.MO.NO.OO.PO.QO.@c.RO.SO.TO..` o{ -% _. UO.O7  !.VO.WO. b 0$ <G XO.YO.xg ZO.`O. P..P.+P.@P.#P.$P.%P.&P.*G._. e_ *P.=P.-P.;P.&<.u2.>P.,P.'P.)P.-& +e 0e X[ !P.+! f. VZ ~P.{P.]P.=@ lD.9@ ^P./P.Tl ]% (P._P.:P.(P J+ <P.dA.yq [P.}P.|P.1P.2P.3P.4P.5P.0/. D.6P.7P.}N o3 8P.Tq.9P.0P.aP.bP.cP.dP.eP.f) fP.gP.hP.iP.jP.kP.lP.mP.nP.oP.pP.qP.rP.sP.tP.uP.vP.wP.xP.yP.zP.AP.BP.CP.DP.EP.FP.GP.HP.IP.JP.KP.LP.MP.NP.OP.PP.QP.RP.SP.TP.UP.VP.WP.XP.YP.ZP.`P. Q.0$ b# .Q.MH.+Q.s[.{l @Q.#Q.$Q.rl Z4.^i %Q.&Q.*Q.=Q.-Q.;Q.>Q.,Q.'Q.)Q.5-.!Q.%Z 0$ ~Q.O} Z= {Q.]Q.^Q.'- EI /Q.(Q.Q& _Q.:Q.<Q.[Q.q> 5Y }Q.|Q.4. g) ]8 1Q.2Q.3Q.4Q.5Q.6Q.0&.7Q.8Q.9Q.{. O+.0Q.aQ.wM.bQ.cQ.Q{.dQ.Q) eQ.fQ.gQ.6K.hQ.C;.iQ.0$ jQ.kQ.lQ.mQ.0( `. (& 0+ nQ.oQ.pQ.qQ.|4 Gg +j rQ.sQ.A#.tQ.uQ.vQ.wQ.xQ.yQ.]/ ",
"zQ.$^ d0 k5 AQ.BQ.CQ.DQ.EQ.FQ.tE GQ.HQ.IQ.JQ.KQ.71 LQ.MQ.NQ.OQ.~: d[ PQ.QQ.Wt F!.-% RQ.SQ.TQ.UQ.y).VQ.Jh.WQ.XQ.YQ.ZQ.`Q. R.FG.ju.z$ .R.+R.@R.#R.$R.%R.&R.*R.=R.-R.}r ;R.@].'- I^ VZ Hv hd ,- >R.,R.'R.U' )R.a'.!R.~R.^O L7 {R.J{ ]R.^R.~. 8f 4M./R.(R._R.:R.<R.[R.}R.|R.1R.!..rH.2R.3R.4R.[Q.5R.k- 'Q 6R.7R.8R.9R.0R.K[ vC aR.Zo bR.cR.dR.eR.fR.gR.hR.iR.jR.kR.lR.mR.nR.oR.pR.qR.rR.sR.tR.uR.vR.wR.xR.yR.zR.AR.BR.CR.DR.ER.FR.GR.HR.IR.JR.KR.LR.MR.NR.OR.PR.QR.RR.SR.TR.UR.rD.pa.Q$ VR.WR.XR.`}.YR.J+ ZR.-$ `R. S..S.+S.bz.@S.#S.$S.%S.&S.*S.=S.-S.;S.>S.Pe.k5 ,S.'S.)S.-B !S.~S.{S.-% 1@ ]S.sL.!l ^S./S.Q& X+ 6- (S._S.0| :S.A& v5 <S.[S.}S.YG.<f |S.1S.2S.3S.4S.nk 5S.6S.7S.8S.9S.0S.aS.bS.jV cS.OS dS.eS.fS.gS.,K N .hS.iS.jS.TM k{.kS.lS.mS.nS.oS.pS.qS.rS.sS.tS.uS.vS.wS.xS.'n.yS.zS.AS.]/ ",
"BS.Y$ CS.DS.ES.5:.FS.GS.HS.IS.JS.KS.LS.MS.NS.OS.PS.QS.RS.SS.TS.US.VS.WS.XS.6' YS.ZS.~].`S. T.c# |d .T.(2 +T.}L.@T.#T.0o.$T.0$ 6,.3# %T.&T.Ax *T.=T.-T. c zy.;T.>T.,T.'T.)T.!T.~T.S[.z` G] Z$ {T.]T.^T./T.,E (T._T.@i.}^ :T.<T.Hq [T.}T.$f |T.1T.2T.<: 3T.4T.5T.6T.7T.8T.9T.kX 0T.aT.bT.e{.IN /) cT.([.dT.eI eT.J+ 3; 0$ fT.gT.v$ hT.iT.jT.kT.lT.mT.nT.oT.pT.qT.rT.sT.tT.uT.vT.wT.xT.yT.zT.AT.BT.CT.DT.ET.FT.GT.HT.IT.JT.KT.LT.MT.NT.OT.PT.QT.RT.ST.TT.UT.VT.WT.XT.YT.ZT.`T. U..U.v7.+U.rQ @U.#U.$U.%U.G. #/ Bn &U.*U.=U.-U.;U.>U.i}.,U.'U.)U.!U.~U.{U.]U.$L ^U.(z./U.2D.(U._U.:U.<U.Q& [U.}U.ag 7C |U.1U.7, e9 y_ 2U.Ks 3U.4U.5U.6U.7U.8U.9U.c# qt.0U.aU.bU.vF.cU.1& #7.dU.eU.fU.gU.hU.iU.jU.5| kU.$[ 0$ lU.mU.*s.nU.oU.pU.qU.rU.sU.tU.uU.vU.wU.xU.yU.zU.3,.AU.BU.CU.DU.EU.FU.GU.HU.IU.JU.KU.q} ",
"LU.fg MU.NU.OU.PU.QU._$ RU.SU.TU.v. UU.[~ VU.b1 Cl.WU.XU.YU.ZU.`U. V..V.+V.@V.#V.$V.%V.&V.M=.0$ -% _$ *V.=V.-V.;V.>V.,V.9;.9. 'V.I  gK )V.!V.~V.qJ.{V.]V._# ^V./V.(V.XN _V.:V.<V.[V.}V.|V.;* NJ ;$ K&.1V.Ig.2V.3V.b*.K  4V.Sk.5V.6V.O9.wz.7V.);.5|.8V.9V.0V.^y aV.bV.ne cV.D<.)] dV.+/ eV.c< fV.gV.hV.M5.!].iV.jV.kV.lV.mV.=i nV.oV.pV.qV.rV.sV.tV.uV.vV.wV.xV.yV.zV.AV.BV.CV.DV.EV.FV.GV.HV.IV.JV.KV.LV.MV.NV.OV.PV.QV.RV.SV.TV.UV.VV.WV.XV.YV.ZV.`V. W..W.+W.@W.#W.$W.%W.&W.*W.=W./J.Dp m9 -W.;W.>W._h.gf ,W.'W.~&.)W.!W.~W.{W.Gu.]W.^W./W.(W._W.{u.:W.<W.[W.}W.AD.|W.]m 1W.2W.3W.Fw =r 4W.5W.Q& 6W.7W.)0 l( 8W.9W.`C iL 0W.aW.*(.bW.cW.dW.eW.fW.gW.hW.iW.jW.p*.3. 9C Yp.29.~R ]F.kW.lW.[t mW.nW.(& Q$ oW.pW.qW.rW.sW.tW.uW.vW.wW.xW.yW.zW.AW.BW.CW.DW.EW.OA FW.sL.Q$ GW.51.aW.HW.IW.JW.KW.|= ",
"LW.f. N( MW.NW.OW.0C.I+ PW.QW.RW.-% o: -% 0$ 0$ 0$ 0$ SW.TW.UW.Z* DW.VW.I&.WW.XW.YW.ZW.`W. X.}^ /. .X.+X.@X.n6 #n.=T 4E.#X.Gh _) }^ TA $X.%X.&X.*X.!d =X.-X.;X.>X.-& ,X.Oh.oa.'X.)X.!X.+J S  J@ W0 y@ Q& ~X.{X.]X.^X.l' Is./X.ij (X.dN.16.!c _X.:X.G2.<X.F. 0$ 0$ za [X.}X.tL.|X.1X.2X.3X.T~.4X.5X.6X.-& 7X.8X.9X.0X.aX.bX.iI cX.dX.eX.fX.gX.hX.iX.jX.kX.lX.mX.nX.oX.pX.qX.rX.sX.tX.uX.vX.wX.xX.yX.zX.AX.BX.CX.DX.EX.FX.GX.HX.IX.JX.KX.LX.MX.NX.OX.PX.QX.RX.SX.TX.UX.VX.WX.XX.YX.ZX.|).,~ `X.o>  Y..Y.+Y._B -V.,t.eK ,} |* @Y.cu #Y.F. -% J+ $Y.5G.%Y.&Y.*Y.6+ yr =Y.-Y.o$ /. }~ D. W6 Ep ;Y.Rm R$ `2 |~ 1E ;H.>Y.,Y.'Y.)Y.!Y.~Y.^} Ob {Y.2} j1.8u ]Y.^Y.os '9./Y.`# x. 2W (Y._Y.:Y.E& 0$ <Y.[Y.}Y.k. Z= K2.9E |Y.1Y.2Y.3Y.ZZ v4 4Y.5Y.6Y.7Y.Wd 0$ -% +% 9, -& f) Q& ~8 8Y.9Y.vC.O, 0Y.aY.bY.N6 ",
"cY.I8.8, dY.eY.fY.gY.hY.iY.jY.kY.lY.ix mY.0<.nY.oY.pY.n> qY.4X.P$ 0$ 0$ -% k'.N6.rY.sY.tY.uY.Vj vY.wY.Uo.xY.yY.zY.E!.]/ AY.O7 2' o$ BY.CY.DY.EY.FY.KA.GY.L] a/ NJ ;k HY.IY.!T.mV.JY.e<.zr w{  = ,^ W{ &r.KY.$-.LY.2..MY.NY.OY.nd.PY.QY.RY.F9 SY.TY.UY.0$ VY.5) #g.WY.XY.YY.qd ZY.`Y. Z..Z.;; Gv ke.Zj w) %n +Z.da @Z.#Z.F. $Z.%Z.&Z.*Z.=Z.-Z.;Z.>Z.,Z.'Z.)Z.!Z.~Z.{Z.+a w% ]Z.^Z./Z.(Z._Z.:Z.<Z.[Z.}Z.|Z.1Z.2Z.3Z.4Z.5Z.K[ O7 ]8 6Z.7Z.8Z.9Z.0Z.aZ.bZ.cZ.dZ.eZ.fZ.gZ.hZ.iZ.}Q jZ.kZ.lZ.mZ.u@ 9, nZ.oZ.)Z pZ.qZ.rZ.sZ.6_.z_ tZ.uZ.vZ.wZ.xZ.yZ.i*.zZ.AZ.BZ.CZ.I^ -% DZ.EZ.0$ :. D$ I^ 4a 2+ Jg.FZ.B/ b/ 6~ J .Y^ GZ.HZ.dh IZ.JZ.KZ.ma &* LZ.,~ MZ.NZ.OZ.PZ.QZ.RZ.SZ.II.wf z) 4L.TZ.UZ. I dU._C.VZ.WZ.XZ.>1.un.Vv.YZ.ZZ.)j.kf 0$ 0$ 0$ 0( 94.YB 1<.`Z. `..`.+`.@`.#`.$`.%`.&`.X< mV *`.=`.-`.;`.+% ",
">`.Rt 20 Fb ,`.'`.)`.!`.F4.~`.{`.]`.^`./`.cd.(`._`.:`. h <`.zj [`.n9.}`.<P.~Z J^ |`.1`.2`.3`.(g <a.v^.4`.x].&f.5`.6`.D' FA w. 1. 0$ 7`.8`.9`.0`.a`.b`.Vo.M0 c`.d`.Y1 e`.gO.f`.g`.:O 2d '* 0< |^ Su Wp h`.i`.JF.'e.j`.k`.^b.Vh 1(.sL.{0 y< rs Ny.l`.m`.OA.|} .e.n`.>[.o`.p`.q`.Q& qq zX }[.ee.r`.s`.t`.yO Rn.J  ry u`.v`.>+ w`.x`.y`.z`.A`.B`.C`.D`.E`.F`.G`.H`.I`.C. wD.J`.D..K`.L`.M`.N`.O`.P`.ov.[h y].Q`.R`.S`.T`.U`.Ix.Z#.~. J@ >^ V`.W`.X`.Y`.Z`.``.  +. ++ +@ +# +$ +LI % +y{.l~ & +$d <! * += +- +; +> +B:., +X] ' +[~.Nv ) +! +~ +{ +] +^ +]O./ +:Z 3^ f) gC.( +_ +;8 R$ J  D' Q& : +< +_ +3# X7 :8 6+ [ +} +| +1 +2 +lt.)+ 3 +1p %n >~.4 +5 +6 +7 +8 +9 ++2 X} 2- -a 0 +Q{ a +b +.` c +d +e +G` 1u f +g +h +n| i +j +k +l +U|.m +QO n +o +p +q +r +o+ s +t +u +v +ZO w ++..x +y +z +f) ",
"A +.+ Ha `T.B +C +h1.3X.D +E +F +G +vn H +I +J +K +Qe.jq.P0.L +M +N +O +P +Q +Y| R +S +T +U +f) V +W +ea @/ X +Y +ea z$ 0< Lh J  0$ Z +` + .+c6...++.+VY.W-.^: #* @.+#.+$.+%.+#n T!.=| 0$ ry &.+:f ,- *.+=.+-.+;.+>.+,.+'.+).+!.+qC.!= |E j*.~.+{.+Vq ].+sy.:A R8.(& ^.+/.+(.+i[ _.+ Q XO r: :.+<.+[.+D$ fg 3a /. ) +}.+|.+1.+2.+3.+4.+5.+6.+7.+8.+9.+0.+a.+b.+j' V8 c.+d.+e.+:w f.+g.+h.+i.+j.+2# -$ k.+l.+m.+n.+o.+p.+q.+lo -o.5# >| r.+s.+t.+u.+v.+w.+x.+y.+z.+A.+B.+C.+D.+.= E.+F.+G.+H.+;8 I.+J.+Fm _. Su ih  Q Q& UK.K.+Vt A) (& L.+Kq.M.+N.+O.+P.+Q.+|^ ,- y0.UB.77 #c J+ o$ ;^ 0$ `j R.+S.+T.+U.+V.+Z= W.+_r f) X.+Ki Y.+$8.w;.Z.+`.+ ++ S .+++++@++#++$++ , X] qh .d (S.%++&++)!.O8 6Q *++=++2# <N.-++;++>++0$ ,++[!.'++nE.e#.)++!++~++{++]++^++/++(++_++:++<++[++}++|++1++89 2++3++J+ ",
"4++zM y@ 5++6++^L >H r8 7++/_.8++9++0++VH./,.a++b++*` R@ c++d++e++f++DS g++2t Q& h++i++j++Ul Q& N7 k++)5.l++,.+m++pu.O' z) n++q&.Kt o++p++q++r++s++n3.R| m` W/ W$ t++{2.gf jq a/ D@ u++v++w++x++d'.}[ _~ y++a| j{ z++A++B++{F.C++j^.c) X] D++E++ZC./G.F++0$ ;' ;^ 00 a5 }X G++nE.y9.te H++k7 6# 0( &0 cw :+ ]+ )$ cn I++Z  J++K++L++M++N++O++P++Q++R++S++T++U++ = W, V++W++X++Y++Z++`++ @+.@++@+@@+x) #@+$@+%@+&@+*@+=@+-@+;@+>@+,@+K] '@+)@+!@+~@+{@+]@+^@+/@+(@+_@+:@+<@+[@+2$.+..}@+|@+++.D@ 9P.S] 63 >$ #^ 3; 1@+2B.2@+~u.N0 2' O' ^) ., E.+3@+4@+5@+6@+Q: =9 7@+8@+__ 32 ;^ l- 1. a4 9@+0@+a@+g< b@+c@+d@+}-.0$ h' DA c< ~_ && |+ V+ YO h~ 6}.e@+f@+g@+h@++< i@+j@+k@+0( 0| l@+*n m@+n@+o@+p@+q@+-& r@+s@+t@+MJ.0$ u@+6..v@+Ld w@+x@+y@+z@+A@+E!.sm B@+C@+D@+E@+F@+S0 G@+N:.H@+>3.)b.I@+P' ",
"J@+`t.C[ /E -& b_ K@+~I L@+M@+)b N@+E& ;' Q& 0$ -% _. O@+Kx.p|.P@+Q@+R@+S@+v8.Q& T@+U@+V@+W@+8, 2f X@+Y@+Z@+p:.t! `@+~R  #+.#++#+@#+##+}/ $#+%#+&#+c< W+ h. PC ^( *#++o j. 00 =#+U.+-#+;#+>#+,#+'#+)#+!#+~#+J+ -& a5 {#+]#+0$ ^#+/#+3' ,- (#+0x _#+K2.Z. ;' z}.#c :) ~8 :#+i5.<#+)a [#+^ .Sq L  }#+b+.c@ n7.|#+J8 1#+2#+3#+4#+5#+6#+7#+8#+9#+0#+a#+b#+c#+d#+e#+a!.[W f#+g#+h#+i#+j#+k#+l#+m#+n#+o#+p#+q#+r#+s#+t#+u#+v#+w#+.t x#+X# z$ y#+z#+A#+B#+C#+D#+E#+F#+G#+H#+I#+J#+K#+'3.L#+@L M#+c# 6'.N#+(] $^ qq vr vC.O#+hO.g4.P#+@. NC (. z) t_ w) TD Q#+R#+S#+g` A) T#+U#+!<.J+ -% o$ k- G&.V#+W#+V0.X#+Y#+Z#+`#+G[  $+Qr.., ,^ c; EH #@ m` .d E$ .= of..$++$+}#+@$+;v #$+$$+%$+&$+!C.*$+=$+-$+;$+>$+,$+H}.'$+!a.)$+G=.0$ !$+~$+7} {$+$8 ]$+^$+/$+!g.0$ 0$ -% ;' :d h0.($+_$+D0 :$+l= f) Q& p@ _r ",
"<$+>k [$+}$+'J.]n A,.|$+1$+2$+3$+_X 4$+5$+6$+Ho 7$+8$+9$+ye f5.|w 0$+a$+b$+5E.-% c$+d$+e$+f$+o> Z= g$+h$+Hi i$+j$+k$+/=.l$+m$+n$+o$+p$+O7 <^ ;+ ka ]} la <# q$+r$+s$+h .t(.t$+f'.u$+v$+w$+ay.x$+y$+z$+A$+B$+/T.Gg C$+U3.z].8v.;u.<k Z= J+ D$+E$+F$+A. G$+_. _. I  8. H$+UM |^  = I$+[|.J$+fo K$+L$+M$+N$+u@+3' O$+P$+Q$+R$+S$+T$+U$+V$+W$+X$+Y$+Z$+`$+ %+.%++%+-A.W  @%+#%+$%+%%+&%+*%+0` =%+-%+;%+>%+,%+'%+)%+!%+~%+{%+]%+^%+wy y].LI /%+(%+_%+:%+<%+[%+}%+|%+1%+2%+3%+4%+5%+6%+7%+8%+g/ }/ 9%+0%+a%+e- b%+c%+d%+e%+f%+(u.9. <g 3a (. (a /) ., (& g%+h%+&A i%+W6 j%+k%+l%+'J..) m%+ 1.n%+o%+p%+q%+r%+s%+zp.t%+u%+v%+6d !z z9.w%+q/ M+ E=.]+ A@ xB r@ 3/ d/ s@ x%+'> 58 y%+z%+A%+B%+C%+D%+E%+F%+G%+2# J+ H%+I%+J%+G=.+% K%+L%+Mq.M%+(0 W6 F. |:.N%+a} 'f.O%+P%+Q%+R%+S%+T%+ss U%+A[.[i zZ ^! <d ",
"V%+D, F^ W%+X%+Y%+Z%+It `%+ &+zP (- .&++&+@&+#&+$&+%&+&&+*&+=&+^| -b.-&+t_.[2 Q& ;&+>&+,&+Ak '&+)&+!&+sw.~&+{&+Gx.]&+^&+/&+<d >/ D, (&+:= ]+ q/ K8 _&+:&+Tp - .CA #W <&+I>.N* [&+}&+#& ]m Z! |&+Eu 1&+{J.2&+3&+4&+5&+6&+7&+8&+9&+{M.vb B. 0&+a&+b&+k- ^) ]. 1. t_ K] Q& S0 c&+%O (a d&+e&+f&+g&+h&+i&+j&+k&+3' l&+m&+n&+o&+p&+q&+r&+s&+t&+u&+v&+w&+x&+y&+z&+A&+B&+0( C&+D&+E&+F&+G&+H&+I&+J&+K&+L&+M&+N&+O&+P&+Q&+}e R&+S&+T&+_< }-.U&+V&+W&+X&+Y&+Z&+`&+ *+.*++*+@*+#*+$*+%*+&*+**+:O Da =*+-*+;*+>*+,*+'*+)*+(r _K +2 o* >p.!*++a k- 9( q# 8, F. ~*+{*+*o ]*+_. ^*+/*+(*+_*+:*+<*+[*+J% }*+|*+1*+2*+3*+:E.z) 0$ 4*+5*+6*+tP 7*+,. ~g.nn  ^  & i. o. v@ 6# ~_ L&.Z$ NJ -8 8*+s|.9*+0*+a*+b*+c*+d*+e*+f*+p} g*+h*+i*+^. j*+k*+l*+m*+q#.L  n*+o*+p*+q*+>A r*+s*+t*++y.u*+v*+a] pG.w*+x*+y*+Nz O, ",
"z*++. J  T( A*+B*+C*+|j.._ gX D*+E*+F*+:[.G*+H*+I*+J*+K*+L*+Wa <! M*+N*+O*+P*+0$ Q*+R*+S*+T*+U*+V*+W*+OL X*+'H U/ a5 =9 Tp xb Y*+v@ c_ &* Z*+<# I8 i: C@ 2+ A{ ^X F. `*+ =+,I.)$ .=+'%.^} +=+[- @=+r: K| #=+$=+%=+&=+*=+==+-=+;=+E< >=+[+ ,=+'=+)=+!. 9C D{ ue Q& ;H.`g !=+~=+5u.Oh {=+]=+^=+/=+(=+_=+:=+<=+0$ [=+}=+~{ |=+1=+2=+3=+4=+5=+6=+7=+8=+9=+0=+a=+b=+c=+d=+e=+f=+g=+h=+i=+j=+k=+l=+m=+n=+o=+p=+q=+r=+NB.s=+t=+u=+xr.v=+w=+x=+y=+z=+A=+B=+C=+D=+E=+F=+G=+H=+I=+J=+K=+L=+M=+N=+r: =t O=+P=+~v.U|.Q=+R=+S=+T=+U=+]Q V=+W=+b^.X=+rk -a NC Y=+pJ.L, ,[.%^ d: Z=+`=+ -+.-++-+@-+#-+:S.!C.$-+I& s9 %-+&-+J  (% h~ 0$ /R *-+=-+6H --+<# q> X% i: s( .& #^ := && mI.P: .+ el ;-+O) D' {5.gK =g /].>-+,-+'-+!i )-+RB }^ !-+~-+{-+]-+9..9..^-+/-+(-+_-+:-+<-+[-+}-+|-+4u.1-+R$ F. Ei.p) 2-+3-+D3 ",
"4-+fg a!.xd iL 5-+6-+7-+8-+9-+0-+zK a-+b-+yB.c-+d-+e-+f-+g-+0$ 3; h-+i-+j-+D[.0$ k-+l-+m-+n-+o-+p-+Z= o$ T9 ]: X+ p@ 3. q-+'V.e; &* r-+x{ && '[ 0i P+ P+ :d 6+ eY w*.s-+t-+u-+(<.U+ D^ '- v-+w-+x-+a0 ^_.2' hf 2( ^. 0| a5 ~. 0. 0- y-+gm.z-+A-+'j e_ @. B-+Fa C-+D-+E-+}9 F-+G-+H-+I-+tJ.J-+K-+L-+O. M-+k% 0$ N-+O-+P-+Q-+R-+S-+1p T-+U-+V-+W-+X-+Y-+Z-+`-+ ;+.;++;+@;+#;+$;+%;+&;+/. *;+=;+-;+P$ -$ ;;+>;+,;+<^ ^) ';+);+!;+~;+{;+];+^;+/;+(;+_;+:;+<;+[;+P  u=.Pe };+|;+1;+Y{ N#.2;+^} 3;+4;+H& 5;+6;+0$ 7;+8;+9;+e$.]w.0;+a;+b;+c;+d;+X[ t$.e;+f;+g;+h;+ag U$ a. () ^. 3; _. *j M( PG XO j' {. i;+j;+#1.,. Ga 4/ c) 1G k;+-q l;+d_ ,n h( Jn {= h( r> m;+r> Ob 6+ |$ :n.Pb {: 7~ pU n;+f$ +% 0$ m<.o;+J= 6j p;+q;+0$ r;+s;+t;+u;+v@ [^ v;+w;+x;+y;+z;+A;+B;+q].C;+D;+E;+F;+G;+H;+*~ vJ I;+`V ",
"J;+%. '' K;+L;+M;+N;+O;+P;+Q;+nA.R;+S;+T;+U;+V;+5Q W;+X;+0$ c# A) Y;+Z;+`;+ >+0$ .>++>+@>+#>+Q@.$>+,S.%>+uD Aa )f.yu.D' $8.^| .d L: $@ $& >y 2~ X% ^( ,y ;| Id &>+p+.*>+=>+/W ->+X[ zX ]8 ;>+>>+,>+-% 8. M8 3_ '>+NC +z -[.C! `1 @! ,1.4X.)>+!>+fe.z[ ~>+{>+HH.]>+^>+t~./>+z) n: (>+_>+:>+<>+[>+}>+c# *!.0r.0$ <t.|>+1>+2>+3>+4>+5>+6>+7>+8>+9>+0>+_. a>+b>+c>+d>+e>+f>+g>+h>+i>+j>+k>+l>+m>+UL.$c $c n>+o>+p>+q>+pE r>+s>+t>+u>+v>+w>+x>+y>+z>+Z= f5.A>+B>+]m [^ Z= C>+D>+E>+F>+G>+H>+-% I>+J>+K>+L>+M>+}-.N>+O>+P>+Q>+0$ Q& 6% R>+S>+T>+WM U>+V>+W>+LK.X>+Y>+j' Z>+`>+ ,+.,++n.+n.+,+@,+#,+%d D@ $,+%,+&,+n~ a# *9 (a 5-.*,+61 =,+q$+=|  ^ k7 .! Z2 `1 _= I, 2~ -,+^p ,' g. Fn %f -% A) ;,+tI.>,+,,+AB.',+),+!,+>h.0$ ~,+oC.{,+],+W6 D' -& ^,+/,+(,+_,+9*+:,+<,+a) [,+},+|,+8`.1,+h+ E>.2,+S  ",
"3,+d_ h~ 4,+5,+6,+c# 7,+8,+9,+0,+a,+b,+c,+X* d,+e,+S6 f) rk W. N6 f,+g,+%a h,+0$ i,+j,+k,+l,+m,+n,+l% TG o,+{q.g;.p,+q,+r,+}^ )$ X^ #. Z2 ]+ 9# ,$ && =} `1 >$ .! s,+t,+u,+v,+ab }1.O' `# w,+x,+y,+z,+A,+oK B,+C,+D,+E,+F,+d@.G,+1< -B [Q.H,+I,+9p.J,+}l Xr.K,+L,+K .y_ T!.M,+{* N,+O,+A' P,+Q,+R,+7, S,+fj (& T,+U,+V,+W,+X,+Y,+Z,+`,+ '+.'++'+@'+#'+0$ $'+%'+&'+*'+='+-'+;'+>'+,'+''+)'+!'+J  g/ {8 m9 ~'+@;+{'+]'+^'+XP./'+('+_'+:'+<'+['+}'+|'+1'+2'+3'+4'+5'+6'+7'+GR.8'+We 9'+Pz.n6 0'+a'+b'+c'+d'+e'+f'+5<.g'+h'+w. 0# i'+-% j'+k'+l'+OK.m'+n'+w/.o'+p'+d6 q'+r'+:[ s'+t'+u'+v'+^v.w'+x'+y'+z'+A'+.+.Q$ J+ B'+;`.C'+D'+E'+f5.6+ ,$ ,$ =* ]+ 4- i( J .'* f. Z^ 3' 2f 4+ @,+dN.[,.F'+G'+H'+I'+J'+K'+!7.L'+M'+N'+-% O'+Q< P'+Q'+k- R'+S'+T'+U'+V'+W'+;..X'+Y'+Z'+`'+KE ~y. )+.)+G< _j FE.d4 ",
"+)+#q k' @)+#)+$)+%)+&)+*)+=)+-)+Jx.5c ;)+1l.>)+5<.H%.,)+e$ 4^ 0| [a ')+))+!)+0$ ~)+{)+z(.])+o> Jo ^)+~*.S5 /)+()+_)+:)+<)+[)+})+e7 yr |)+R^ S  1)+j: 2)+3)+-y y^.Pb 4)+md.5)+6)+7)+$:.]+.8)+9)+0)+a)+b)+c)+d)+-M ^!.5L.e)+f)+}M |] -$ g)+h)+UR.H. Mo !d i)+j)+k)+c# l)+{= m)+~. n)+o)+p)+V8.q)+r)+y' s)+Qd.3; t)+_' u)+v)+w)+x)+y)+z)+A)+B)+C)+D)+E)+F)+G)+@K H)+I)+J)+K)+L)+M)+N)+O)+P)+Q)+h' h; ,^ z$ c# R)+S)+T)+U)+V)+W)+X)+Y)+Z)+`)+ !+.!++!+@!+#!+$!+%!+&!+*!+=!+-!+;!+>!+,!+-8 W0 '!+)!+-x.5u !!+~!+=+.{!+,s ]!+(<.<q ^!+c. Ge./!+(!+[Q _!+#0 5)+:!+<!+O% [!+}!+|!+1!+_8 2!+}4 ~' 3!+&A./q 4!+5!+Ay.6!+y/ 7!+Rc 8!+9!+W/ :E 2~ XK kg.n8 Z.+r@ 0!+$m.a!+'- i%.b!+c!+d!+e!+f!+g!+h!+i!+'P.j!+k!+/. l!+m!+n!+o!+0$ p!+q!+r!+s!+z) t!+u!+v!+w!+x!+$l @C y!+;E z!+A!+B!+C!+D!+J +E!+F!+0F G$.",
"G!+Ui {U K .H!+I!+/w mb 22 J!+Ne.TI.{8 mt J!+K!+L!+;j.M!+3s.Jd X] PR )p.N!+O!+0$ P!+Q!+d1.R!+Ga S!+T!+Q' -8 c# U!+sX Hd V!+W!+--.X!+Y!+8*+'= ]F.Z!+#m $& `!+|p vL.>| L:  ~+z) 9y .~+SL +~+@~+#~+$~+mm %~+&~+0$ %c ^/ K+ 5. -& `k *~+c# 3' =~+-~+o$ r: $M m8 ^( $G T) 2' P$ _. `[.;~+>~+,~+(& '~+)~+!~+~~+{~+(b.]~+3U.^~+/~+(~+_~+:~+<~+[~+}~+|~+1~+2~+3~+Xa [l 4~+5~+6~+7~+8~+9~+0~+a~+b~+c~+d~+2- #X e~+f~+g~+h~+i~+qs.j~+k~+l~+m~+n~+o~+p~+q~+r~+s~+t~+u~+v~+w~+x~+y~+z~+A~+B~+C~+*j d. D~+E~+F~+G~+4].H~+>! I~+J~+K~+h[ _. $@ z9 C! uA L~+M~+~t.c# Qe.N~+nv.tb B% O~+P~+Q~+iK R~+#Q.0$ O1 S~+T~+N,+U~+Hn.V~+_R.W~+X~+Y~+o$ Z~+t. hw.x7.`~+ 2 {m.e2 C*. {+}+..{++{+@{+#{+jd.${+@1.%{+&{+0$ (& *{+={+-. -{+;{+>{+&[ 0$ 7Z ,{+.C '{+A) ){+!{+~{+aX.{{+]{+^{+1u <! P+./{+m{.({+t].[J _{+am.09 |= ",
":{+}= Pe 7,+<{+[{+}{+j7.|{+2. 1{+2{+3{+Z= N-.4{+5{+,B.eW 6{+7{+&i -; 8{+mr.DT -% 9{+0{+a{+b{+N( UO.c{+xb.{#.d{+3w m9 X] I  'P w~.e{+f{+g{+h{+i{+j{+k{+]+ 7. T+ h~ k. Z] k4.<7 w) l{+m{+n{+o{+p{+q{+ Q r{+s{+-% Xp W; y) -9 t{+Ub u{+zZ.^) v{+w{+x{+)+ T!.S{ ,K #2.@Z U.+y{+}a z{+*{.A{+B{+0R.C{+D{+E{+J' q5 2!.-% F{+G{+z{ H{+I{+J{+K{+Fa L{+M{+N{+O{+P{+Q{+/q Dx <{+k>.R{+~8 0D.S{+T{+U{+V{+W{+X{+Y{+Z{+`{+ ]+.]++]+G^ o0 @]+#]+$]+%]+.$.&]+*]+=]+-]+;]+_j !].>]+,]+']+)]+Z= !]+$C ,- ~]+Ga {]+]]+^]+n9 /]+(]+_]+_%.:]+<]+[]+}]+|]+1]+2]+3]+LW.9o 5g ^^.SY.,- Ia 4]+5]+6]+7]+8]+9]+0]+a]+b]+c]+V.+E0.d]+~O.e]+f]+o$ %. g]+S{ C[ K8 O+ W% @/ ;0.h]+i]+j]+k]+l]+m]+n]+i=.HX 0( -% N6 o]+p]+q]+r]+s]+Fa b/ t]+u]+v]+w]+0$ Ef x]+}G.Au :8 O' y]+ww.z]+A]+B]+lf B. C]+D]+E]+F]+G]+8}.H]+I]+J]+K]+)$ ",
"L]+k' N( ;B.M]+Sw.p< N]+O]+Bd P]+Q]+R]+S]+T]+U]+V]+W]+D#.X]+Y]+/) (| Z]+`]+ ^+0$ .^++^+@^+TR.|^ #^+$^+%^+&^+*^+=^+-^+;^+b/ T  Q: >^+,^+yf.'^+)^+!^+~^+0$ S/ X} 3_ c< U  {^+]^+zg ^^+]_ E. j7./^+(^+]/ _^+:^+9i <^+[^+}^+|A.|^+1^+2^+m<.a0 ~7 y> l#.RS -a 3^+4^+5^+6^+7^+8^+5;+9^+eD.^d 0^+8> r^.9z a^+b^+`# B+.(& c^+d^+e^+P+ f^+g^+h^+3^ >/ i^+j^+k^+l^+m^+n^+e).o^+#-+p^+Q>.q^+PQ.T[.r^+s^+t^+u^+v^+w^+x^+y^+z^+ !.SA {L L; *=+A^+B^+C^+D^+E^+F^+G^+H^+!g.X} I^+J^+K^+L^+F. M^+N^+0$ _= O^+V.+P^+Q^+R^+0$ S^+T^+8++U^+V^+W^+X^+Y^+uf Z^+$) `^+cW 'P  /+./+Mu.S% d) mt +/+Y} @/+^m #/+$/+%/+&/+;R */+cL.=/+_. b/ u=.d0 -/+;/+>/+Rn.z{ 2. sx.i#.,/+'/+)/+!/+~/+{}.|X %` #! 5# E$ S9 VW {/+]/+^/+//+(/+Z= _/+:/+</+Q5 Q& 1&+[/+}/+|/+mw.b0 9o 1/+2/+3/+4/+5/+6/+]7 7/+@Q./= |t 8/+9/+0/+a/+a7 3^ ",
"b/+c/+N3 y).d/+e/+m{ !o.f/+>o Mi.g/++k.h/+i/+j/+k/+l/+2f cH.|_ ;I uz m/+n/+1..(& o/+p/+q/+r/+[i.s/+t/+$p J+ u/+<y.v/+w/+w) *. x/+o: o& *n y/+z/+A/+B/+C/+D/+;F E/+F/+c# G/+H/+g;.0f we @! :8 '- vL.!].I/+J/+f_.K/+L/+M/+gr N/+O/+P/+Q/+f} R/+S/+L+.qq 9C T/+U/+V~.e)+Ww %B.5W a@+V/+W/+X/+5B Y/+Z/+`/+_.  (+l)+A) .(++(+{l.^) @(+#(+$(+;8 5. %(+&(+*(+=(+-(+;(+>(+ O ,(+'(+)(+.U !(+~(+{(+](+^(+/(+((+_(+dp.:(+j@.<(+[(+}(+|(+1(+H6 s, 2(+3(+4(+5(+6(+7(+ym 3; 8(+9(+0(+x{  a a(+b(+'. B+.<'.}^ Ph.L(.c(+d(+dB e(+f(+7} 6o g(+h(+7E.i(+j(+&-.yr  ) k(+Uo.l(+N6  i.m(+2^ rr.n(+#X jq ua Aj.o(+p(+V8 FB.X~.9, zX Tl q(+r(+s(+t(+|_.]/ 9o {F.u(+v(+!( w(+x(+y(+z(+IS.0$ @& :q c) A(+B(+C(+D(+E(+kY F(+G(+H(+I(+J(+K(+L(+0$ M(+N(+O(+.-+7v.X. <^ D@ P(+Q(+mC.R(+S(+8#.T(+0$ U(+V(+D;+W(+X(+Y(+Z(+3^ ",
"`(+0/ Zi  _+._++_+@_+Q& g'.#_+$_+$^ lf MJ s|.%_+0$ J+ 8, A) /. f) f) &_+*_+=_+TM -_+;_+}U.^6 >_+,_+S.+h' QY.'_+)_+!_+oI.O'+3' ~_+~. @Z {_+]_+^_+/_+(_+__+'| `X./( z<.)c :_+<_+[_+}_+|_+F. #/ S  l9 1_+2_+3_+4_+5_+Z= 6_+7_+8_+Wd 9_+ve 6Y 0_+a_+b_+`;.4)+j| HE.c_+d_+e_+f_+g_+h_+V^ i_+j_+k_+l_+m_+n_+z$ 3d o_+p_+q_+r_+s_+N6 y_ t_+[W 6# u_+v_+w_+x_+y_+y/+z_+#T A_+B_+C_+D_+E_+F_+G_+H_+I_+J_+K_+L_+M_+R&+N_+O_+P_+Q_+R_+S_+T_+U_+Di V_+W_+X_+Y_+Z_+`_+@&.rk  :+.:++:+q} @:+#:+$:+%:+:. Am Fa {G.&:+*:+IF.=:+-:+;:+l:.>:+,:+':+):+gi yi.AF .$ !:+~:+{:+]:+zg ]: u=.L: L: qk ^:+j. 9- /:+(:+_:+U!+0A ::+-* Y^ $E G3.<:+[:+}:+P=+8, ]M.vZ.|:+1:+2:+3:+4:+5:+6:+Yb.'- 7:+gM.}{+vp.8:+8T }^ 9:+1G T~.0:+a:+b:+c:+d:++D m* 4[ e:+f:+0$ 0$ ';.^} E{ '- -& sx.qg pa.*g |^ z) 3O.g:+=6.p5 h:+i:+eo >8 ",
"j:+6. 1. k:+l:+m:+n:+o:+.k p:+J9 h#.W# /_.I1 q:+r:+J: g4 s:+b1 c1 t:+3i u:+v:+w:+x:+y:+z:+A:+B:+=++#c C:+&. Q' 6W D:+E:+F:+G:+;I h) H:+I:+J:+K:+L:+M:+N:+O:+K{ 0$ *@ P:+Q:+R:+Dk S:+={.T:+<. ;* .Q ^. U:+-i.V:+UU.'. W:+X:+Y:+9f ;!.|w ;y A@ Z:+`:+7E.r# f) X] 0$  <+.<++<+@i.@<+#<+$<+%<+k:+&<+u/.,_.0$ Qo *<+=<+-<+;<+><+0[ S< :+ u~  @ F` ,<+'<+)<+!<+~<+{<+]<+K$.2K.0> ^<+/<+(<+wv._<+:<+5L.<<+[<+}<+|<+1<+2<+3<+4<+A= 5<+6<+MI.7<+8<+9<+0<+)t.a<+b<+p1 W/ I, z$ A@ u=.;. qO c<+/ +s6 x7.d<+e<+f<+g<+t{+h<+H5 i<+Kk. &+1f j<+k<+(& K[ ^) l<+m<+n<+i& >_  a J@ m` s> o<+[g t++q-+p<+y].q<+r<+n8 v@ xB s<+Y  9$.t<+u<+3{+v<+w<+PR x<+y<+z<+f) ~R A<+B<+Uh.C<+D<+Q$ d: E<+F<+f'.l'.O' '$ f. G<+r@.*:+H<+I<+()+J<+)i K<+L<+M<+N<+O<+P<+Q<+R<+C# S<+1t T<+U<+O5 u* f1.D$ V<+W<+X<+Y<+yg sT i1 ,~ ",
"Z<+`<+8+  [+.[++[+@[+Ju.#[+$[+%[+&[+*[+=[+2<+-[+;[+>[+,[+'[+)[+![+~[+{[+][+^[+/[+([+_[+:[+<[+[[+}[+Yt |[+1[+2[+3[+qM 4[+5[+8h 2( r: F++6[+7[+8[+9[+z0 0[+a[+yg.]u.b[+c[+d[+e[+f[+g[+h[+0 .u; @/ .. A) i[+j[+k[+l[+mk m[+4!+n[+B+.~2.W  o[+p[+FO q[+r[+s[+3B.t[+u[+v[+<M w[+x[+y[+z[+A[+B[+P0 J@.C[+m' S  D[+E[+F[+G[+H[+I[+mo.0$ |w Z1 J[+/6 K[+L[+#@.U( M[+N[+O[+P[+Q[+R[+Q& Q{ S[+T[+U[+AW.V[+W[+X[+Y[+Z[+`[+ }+.}+0$ 0$ +}+@}+#}+$}+%}+&}+*}+=}+-}+;}+>}+K8 z@ S% ,}+xb '}+QV )}+!}+~}+{}+y. Zj.]}+^}+Z. /}+(}+_}+{^.:}+<}+ j.d +[}+Gs mY.}}+|}+1}+]a 2}+3}+]. Y] B@ <'.h: _d 'y 8[.4}+-* 5}+W% O: 6}+7}+[^ 8}+9}+0}+a}+b}+c}+d}+e}+f}+'- g}+h}+i}+j}+k}+l}+m}+Z. w) n}+o}+p}+q}+r}+s}+|A Q  yO t}+K, ~U.fH.u}+v}+w}+0!.x}+y}+z}+A}+B}+C}+D}+E}+F}+G}+H}+I}+J}+K}+L}+M}+N}+O}+r++P}+Q}+vf ]W ",
"R}+S}+B0 T}+U}+V}+W}+|S X}+Y}+Z}+`}+ |+.|++|+@|+#|+9x.$|+%|+Nl.&|+*|+=|+kf.Bt.mA.-|+;|+>|+P>.,|+D@+LI '|+)|+!|+~|+{|+]|+^|+Ia.{= Z( /|+(|+lk._|+:|+<|+[|+H>.l|.}|+||+1|+2|+3|+u,.4|+6Q *. 7~ 5|+6|+7|+.6.8|+9|+#1 PC 0|+[W Ge.A@ P' >| a|+b|+c|+d|+e|+f|+'w g|+h|+$<.i|+j|+k|+l|+m|+n|+o|+O: td.p|+a1 0$ d+ 6$ =F q|+r|+LY.s|+8! ._ nn >$ t|+u|+v|+w|+*; x|+y|+z|+ I A|+B|+C|+D|+E|+F|+G|+F5.PO.H|+d;.I|+J|+K|+L|+M|+N|+O|+P|+Q|+R|+S|+T[+T|+U|+V|+W|+X|+Y|+Z|+O: `|+Dj  1+.1+P^++1+@1+#1+$1+ $.[f.BG f* %1+&1+*1+=1+e[.-1+]D ;1+>1+,1+'1+)1+!1+21.~1+{1+]1+^1+2( /1+ = +_ 9# I8 ,* (1+_1+7~ j( :1+n^.pU 6Y =! ,=.5P.<1+[1+yJ.}1+|1+11+W1 Q| O' 21+31+41+51+QQ.61+-& R  :+ #6 71+81+91+01+a1+Tz 1G b1+c1+d1+V[.)4 e1+o^ f1+g1+h1+y++i1+j1+k1+l1+m1+n1+o1+p1+q1+r1+s1+/D t1+u1+v1+w1+x1+y1+4c.V6 ",
"z1+X} Z( A1+B1+C1+D1+E1+F1+_@ G1+fU.H1+I1+J1+O4.uM.l'.K1+'P yj O, 0$ -% '- L1+32 M1+N1+O1+P1+R..1< +} Q1+R1+S1+T1+&: U1+V1+>' W1+:@.X1+Y1+a +Z1+`1+ 2+.2+0$ A(.+2+@2+#2+$2+/. r: Z( vP sH b# %2+&2+*2+9v =2+-2+;2+E$ >2+++ P0 ,2+'2+n0 6. )2+!2+~2+{2+]2+^2+/2+(2+4@ _2+:2+<2+[2+/! }2+|2+^. rs 12+22+32+a| 42+52+62+72+82+B&.92+M0 02+a2+b2+c2+d2+e2+f2+g2+O}+h2+:u i2+j2+k2+l2+m2+n2+o2+p2+q2+r2+s2+t2+u2+v2+w2+x2+y2+z2+A2+)O B2+C2+D2+E2+F2+ZQ G2+H2+I2+;/ 9f Y$ J2+K2+L2+M2+N2+O2+P2+Q2+R2+S2+2s.T2+U2+V2+W2+R3 X2+Y2+G_.MC #p Z2+`2+ 3+.3++3+l1.@3+#3+$3+Tw %3+&3+P  3K [[ #* *3+2~  o =3+-3+;3+2..>3+,3+-+ '3+o: ,~ 9v )3+!3+~3+{3+]3+Q& ^3+/3+(3+Kk._3+:3+4$ L:  i.`h.:. Tt <3+[3+}3+|3+13+23+33+P[+43+53+(K  ) 63+f) 0$ 3; '$ 73+1:. <+83+J7 93+03+a3+^j b3+)Z l$ S#+C>.YB.c3+d3+e3+N( ",
"z1+a. f3+g3+h3+l9.i3+j3+k3+l3+m3+y_ 0$ B. r: Q& f) #1 n3+o3+p3+q3+r3+s3+t3+|1.@^ u3+v3+5-+w3+x3+J}.%! y3+0$ Iz Y>.z3+A3+B3+C3+x7.$@ K. D3+E3+F3+G3+H3+J& I3+J3+8H ;X.Su K3+NC W/ j. S% L3+7# M3+N3+O3+-& L4 P3+V..@! 0- d4 |[+Q3+R3+.Q.b!.Eu S3+bv.T3+U3+V3+W3+r..X3+p!.ZJ Y3+)S.Z3+`3+T.+ 4+o0 .4++4+ n.@4+G^ #4+$4+F9  & %4+&4+Ze Z1 o@ *4+=4+-4+;4+>4+,4+'4+)4+!4+~4+{4+]4+^4+/4+(4+_4+:4+<4+[4+}4+|4+14+24+%C.34+44+54+64+74+84+94+04+a4+b4+c4+r^ d4+e4+f4+k7 g4+h4+i4+j4+k4+l4+{y.m4+n4+o4+p4+q4+QJ r4+Rx s4+t4+u4+v4+j;.>H 7Q w4+x4+/r Ze.y4+z4+A4+B4+C4+D4+E4+F4+[^ u@ :d ._ 6} H=.G4+H4+'b.I4+1w..} c. Ol J4+[. 2&.N4 Hn u;.b(.IM K4+L4+M4+N4+O4+P4+Q4+R4+Bb.C@ </ a0 S4+P{ !D T4+@. q# H++U4+$7 V4+W4+X4+Y4+Z4++D.`4+ 5+.5++5+@5+#5+ +.W1 o: Yt 6} z) -$ [^ A) s: $5+%5+E3.&5+*5+W; K  ",
"=5+Tl 'R <! -5+;5+>5+,5+'5+)5+!5+Fx.{w ~5+{5+#v.]5+^5+C> }k zL./5+lJ (5+_5+:5+;b.)c <5+[5+}5+3$+|5+6[.15+}$ 25+r: >^ Fb sr 6M.]p (_ SW.u|.35+H0.lD 4:+45+55+65+75+]9 /+ 85+~8 a5 }[ f) !g.95+05+a5+b5+c5+d5+NV Z= e5+e|.Gh y_ _ +f5+,b.g5+h5+_3 4y i5+j5+k5+l5+m5+n5+,{ E4 0$ J] o5+p5+nY q5+r5+R/.0$ u| #U 9F /) y_ +& ~* s5+t5+u5+h~ v5+w5+x5+[$+y5+z5+Xf.mx.A5+B5+C5+D5+E5+F5+G5+H5+I5+J5+K5+V9 @3 y< rP.L5+M5+N5+O5+P5+Q5+R5+S5+T5+vf U5+V5+W5+tb X5+Y5+Z5+P' `5+4D.>`  6+eY 5. r1 Vl *(.-% K] N'+.6++6+72+@6+#6+k(+o> *v.$6+%6+&6+*6+=6+uU v-.-6+;6+>6+,6+'6+@t )6+-%.!6+|[+&i ~6+{6+]6+b[ ^6+/6+(6+_6+:6+]. 3; ;' <6+[6+l)+/_ Jd 8C.}6+|6+16+26+36+d8.46+df D{ 56+66+76+86+96+06+g. q. ;2+gR a6+b6+c6+l/.d6+e6+^O f6+g6+h6+i6+#) j6+k6+l6+m|+Iw m6+45+t! l8 ;R n6+o6+p6+q6+=g r6+s6+t6+N( ",
"u6+ = 3a '- v6+w6+x6+T4+y6+z6+A6+B6+C6+D6+E6+F6+f' G6+H6+9@ I6+J6+K6+L6+~|.M6+N6+M( 5>.5H O6+P6+PR Y] g/ ]g h> P' }+ w/+Q6+M}.R6+8*+S6+q*+T6+U6+V6+W6+X6+k&.UU.I^ Hn Y6+T  3`.Z6+`6+ 7+.7++7+@7+Of.#7+'O qr.$7+%7+&7+*7+Kv.=7+MJ.J~+xg.-7+m[ sO.;7+>7+,7+'7+)7+!7+~7+{7+]7+^7+_d.fk /7+(7+_7+:7+<7+[7+}7+w0.]@.H5.|p k7 :^ A) $7.|7+17+27+37+47+57+67+77+87+97+k:+07+a7+b7+c7+d7+e7+f7+g7+h7+i7+~8 ,^ z) j7+k7+l7+m7+n7+o7+p7+q7+r7+s7+t7+u7+v7+=2.w7+x7+y7+z7+A7+B7+C7+/. D7+O: L3 Z. y^ O-+Hq E7+F7+G7+eW.H7+8@.I7+J7+&g K7+L7+M7+N7+O7+P7+Q7+R7+S7+T7+}x U7+V7+W7+&% ~R qy.7|+,- X7+Y7+Z7+`7+ 8+.8++8+@8+#8+N7.$8+q'.{;.wf z{ ]+ %8+]m &8+*8+=8+-8+;8+Ba >8+al Q& ,8+'8+)8+!8+~8+32 H^ {8+]8+oX ^8+/8+(8+!>+_8+zm :8+<8+[8+}8+|8+18+28+38+48+58+t_.68+78+88+B&.98+#++08+a8+b8+c8+d8+=[+e8+f} ",
"f8+g8+ i.O' h8+i8+j8+$7+z1 k8+l8+m8+n8+o8+p8+q8+r8+`:+s8+t8+u8+hi.(D.<o v8+rB.w8+f) x8+y8+z8+A8+VJ O' ]o.B8+6L.+% )s C8+%R.b++D8+E8+F8+G8+H8+I8+J8+K8+L8+/^.M8+o$ |= N8+-% O8+59 P8+Q8+R8+u3.&n S8+T8+U8+V8+W8+/n X8+u- AL Y8+Z8+'&+8I ]`.`8+ 9+.9++9+oL @9+#9+$9+%9+&9+*9+E/.=9+-9+;9+@f g< >9+b(+Tl.,9+s& S7 '9+`7+3. S!+f5.)9+!9+~9+{9+]9+^9+/9+(9+yr _9+:9+<9+[9+Uq.+% }9+|9+19+29+39+49+59+>^ P: 69+79+89+99+09+a9+b9+c9+d9+K8+e9+f9+g9+2^ h9+i9+j9+k9+tJ.l9+m9+7S 63 63 >3+n9+o9+p9+e:.q9+r9+s9+t9+:<+u9+v9+w9+x9+}X y9+z9+A9+B9+C9+D9+E9+F9+G9+H9+I9+@C .~+I}.J9+jn.K9+L9+By..' M9+N9+O9+jF.P9+@_ Q9+R9+3k S9+T9+U9+-% P| ~8 A) Z= +T._#+V9+W9+X9+Y9+Z9+`9+ 0+Rn.{* .0++0+@0+#0+$0+%0+N& &0+23 *0+=0+-0+;0+f) >0+,0+'0+I8+)0+!0+Ts ~0+{0+Za ]0+^0+)9./0+2I (0+_0+KS M| 1).:0+<0+[0+Q& L  ",
"}0+zM `+ Y| |0+10+20+30+40+50+60+70+=; 80+90+ls.8^.00+a0+b0+GC./. f) c0+(!.d0+e0+Z. gw.<c f0+g0+h0+D3 i0+j0+k0+4X.l0+X<+m0+n0+o0+Di p0+$v.q0+r0+s0+t0+u0+v0+w0+x0+y0+z0+A0+B0+G:.]g.mh.g} q} s. nt C0+D0+E0+F0+G0+H0+c~ I0+J0+K0+o: IW P{ L0+M0+N0+O0+P0+Q0+R0+S0+T0+U0+V0+s< Ip.*/+W0+X0+Y0+-8 ,- Z0+`0+a.  a+uz j: h. 0e R  x. Sk .a++a+@a+#a+$a+%a+&a+f) *a+=a+-a+;a+>a+,a+qy.-% 'a+)a+!a+~a+}~ n(+{a+]a+^a+~2 o$ xJ /a+(a+@f Sc._a+k4.K+ :a+<a+[a+}a+8c.'e.|a+Yi 1a+>+ a5 2a+3a+4a+5a+6a+pA 7a+8a+~. J+ 9a+0a+Qc.aa+ba+ca+da+ea+fa+ga+ha+ia+ja+ka+la+3$ ma+s=.f) na+oa+pa+'6 -U.qa+ra+sa+#, ta+/: ua+o: ]/.xo /v.va+wa+#0 k$ xa+ya+za+Aa+Ba+Ca+Da+Ea+;9+|).xB.Fa+Ga+C-+Ha+Ia+Ja+Kx.Ka+La+Ma+Na+(f.Oa+Pa+Qa+Ra+0$ Sa+Ta+Ua+Va+6Q -% d}.-b.ZR Wa+Xa+^k ^I Ya+y7 Za+`a+ b+.b++b+SV @b+#b+0$ L  ",
"$b+L< ;+ @&.I1 %b+&b+*b+=b+-b+;b+%c 3^ f) -% f) t~ s|.>b+k% ,b+@a w; 'b+)b+!b+~b+<!+{b+]b+{z.^b+/b+^,+(b+_b+x].:b+<b+[b+}b+|b+1b+2b+<7+3b+4b+5b+Hg 6b+7b+8b+NY 9b+bm.O6.~).0b+ab+bb+5_ UO.15+O: 6} ~8.!/ &0+cb+db+/>+b_ b0 -( u> eb+fb+gb+}G hb+ib+jb+kb+ V.lb+mb+nb+ob+pb+qb+rb+3[+sb+tb+0$ %+ U  n0 mk [ +_^ Z1 q> U+ Z$ /+ i. UM fN.ub+vb+wb+xb+yb+zb+Ab+>' ^| Bb+Cb+Db+*[ Eb+9w Fb+Gb+Hb+Ib+Lh S< Jb+Kb+Lb+Mb+p& Nb+Ob+Pb+C3.Qb+/. T9 Ab+Rb+Sb+Tb+Ub+Vb+Wb+Xb+F9 A. V! `g Yb+Zb+`b+4*+ c+x3+_9+#A Oo ~2.=r $j .c++c+@c+#c+$c+%c+&c+pj.*c+=c+-c+;c+>c+]p ,c+/> }[ 'c++5 #,.)c+!c+~c+{c+'$ ]c+^c+/c+P3+6~ @^ |_ +% (c+_c+:c+];.W4+<c+[c+}c+|c+1c+2c+3c+Z6.4c+5c+6c+7c+8c+9c+0c+ac+bc+5[.cc+dc+ec+[i fc+gc+hc+3w ic+jc+m|+vc kc+lc+y{.mc+pN.nc+Ec 1( -% Q& ^) A) X7 oc+pc+Jr qc+Sb.Y6.O:+-% L  ",
"rc+.H.i. M6 ~f sc+tc+uc+<! vc+wc+xc+,4+yc+zc+Ac+Bc+Cc+Dc+Ec+Fc+Gc+FO Hc+Ic+Jc+Kc+Lc+P| Mc+}f.Nc+Oc+Pc+_: Qc+Rc+Sc+Tc+C7 Uc+Vc+Wc+Xc+Yc+Zc+`c+ d+js .d++d+Lv @d+fo ;].^[ #d+$d+%d+$1.^) u_ !0 |+ D. M<.&d+*d+=d+-d+u3+r: q} Z= {h ;d+ P.>d+,d+pE 'd+2# )d+!d+~d+{d+]d+^d+/d+(d+*$ Mh O} _d+.8 :d+nv.3/ ip ]+ Z+ @@ 0# #_ Oz jp !q.<d+-& Q>+Mc [d+}d+|d+1d+2d+3d+L  z}.4^ o, !o.4d+_L.5d+6d+7d+8d+9d+h' 0d+ad+bd+cd+dd+ed+fd+]O f) _. 1- gd+hd+id+jd+d) kd+ld+md+y_ -% QY nd+l8.od+pd+qd+rd+Gg sd+td+c. >3+6# (& m,+ud+2W.vd+wd+U!.xd+yd+k .3> zd+Ad+6. ]. Bd+Cd+Dd+17+cC.Ed+Fd+t4+Gd+J#.Hd+d}.Id+Jd+6} (E =| 'n y@ +z Kd+Ld+Md+vn Nd+Xn -9.nS Od+}^ Pd+fT 9)+Qd+Rd+Sd+Td+Ud+e*.Vd+DL Wd+6g.Xd+Yd+Zd+`d+c* U}. e+g#.3Q .e+EZ +e+@e+#e+Tb $e+,{+%e+&e+*e+]A.=e+j3.S3.-e+;e+>e+,e+'e+)e+!e+Fe.|^ L  ",
"~e+H$+@& 6. B/ -k.{e+]e+^e+Y, /e+(e+## _e+:e+<e+_0+[e+}e+|e+1e+2e+r< QI 3e+4e+5e+6e+-% 7e+8e+9e+0e+ae+be+ce+{b+hW de+ee+fe+ge+g:+he+Z= ie+sJ je+r5 %T H. ke+bX.le+me+ne+oe+nv.pe+/O J+ n. .@ U+ <^ =[.qe+re+2F.se+te+0$ ue+ve+we+0%+xe+ye+ze+Ae+Be+Ce+De+Ee+7&+Fe+Ge+He+B2.1) pj Ie+Je+4W.Ke+Le+Me+Ne+Rz *. 7~ S+ Ei.P' $+ G$.<(.Oe+3d P| tS Pe+Qe+|G Re+Se+Te+Ue+Ve+k- 3; X] z$ T:+We+Xe+Ye+Ze+U-+`e+ f+.f++f+b* Kq.i[ 0$ Gh '- @f+#f+$f+%f+&f+$^ 3Y *f+=f+>^ }^ -f+;f+>f+,f+l{ 'f+sR )f+.k !f+~f+#W {f+=! '- G: ]f+^f+/f+r*+(8+(f+_f+:f+ZD.76.<f+[f+M  }f+Pa |f+1f+2f+3f+4f+B!+P;.5f+4L.6f+7f+T4 8+ <@.R  3. z@ s].8f+9f+xc+0f+af+bf+v8+cf+df+z@ Ps.ef+2C -6+Z. xJ ff+gf+hf+A5 if+jf+0$ kf+lf+Q|.mf+nf+of+pf+J+ qf+rf+sf+/} 0F E7 tf+uf+vf+wf+xf+yf+zf+Af+Bf+Cf+Df+Ef+Ff+Gf+Hf+If+Jf+Kf+,^ L  ",
"Lf+z$ @& gQ (& Mf+Nf+Of+]n.)1 l'.Pf+Qf+Rf+Sf+O{.Tf+Uf+Vf+Wf+Xf+RC.m- v> y{.Yf+E]+Cs M; Zf+`f+ g+.g++g+@g+#g+$g+%g+&g+*g+=g+-g+;g+}9 >g+f. d/.,g+'g+)g+O, 8#.!g+~g+wa+I, {g+J+ -f.]g+^g+RG `+ L: {: c# @h./g+2..}f (g+##._g+:g+<g+[g+.,.D$ c) Da p .FG }g+|g+1g+2g+3g+4g+jc.5g+z~ `H 6g+7g+8g+9g+0g+YI.1' 7+ 4)+C' 9:+V% c. yO ag+bg+cg+dg+Q& eg+j0 fg+gg+hg+ig+jg+kg+lg+mg+>..C3 cH.D. ng+og+pg+qg+rg+sg+tg+ug+e9 o: ;^ .. vg+wg+xg+yg+zg+Ag+$G Bg+Cg+Dg+/d Y+ Eg+Fg+Gg+Hg+Ig+Jg+Kg+Lg+Mg+Ng+Og+Pg+8[ `# Qg+Rg+Id+Sg+6o Tg+Ug+N9.Vg+O/ Wg+Xg+Yg+D% Zg+t@ F-.;' W! `g+ h+X8+%2 .h++h+@h+C= #h+$h+%h+RG ^:+G9 Q' ym tn.&h+*h++. 20 =h+-h+;h+>h+,h+'h+)h+NF.!h+A) 9< W7+~h+{h+]h+^h+/h+(h+-% _h+:h+<h+[h+}h+|h+1h+J+ )A.54 2h+3h+}~ :+ ^=.4h+5h+6h+{V 7h+8h+9h+0h+ah+bh+2W.4( ch+dh+eh+Az.@K.f} L  ",
"fh+x| U$ %. #A ]a gh+hh+ih+jh+kh+lh+mh+nh+oh+ph+qh+rh+sh+th+>O.D, iB.CA Y=.S'.uh+#| vh+J: A5 K8+Dt wh+xh+yh+zh+Ah+Bh+Ch+Dh+Eh+TS Fh+]. ;$ Gh+Hh+2(.Ih+Yn.Jh+Kh+6!.6! ~0 pk ~. Lh+Mh+S>._. !* Q+ T  4^ Nh+Oh+@2.l(+aZ Ph+Qh+Rh+%p b_ 1G %` `[ Sh+Th+ 1.fA Uh+w/.Vh+g5+Wh+#2+H] Xh+`y.l:.Yh+Zh+`h+ i+Tn !P.N6 R{ mI..i+gC rk 0< +i+@i+#i+$i+%i+,- *x.&i+*i+=i+2. -i+;i+>i+,i+'i+)i+!i+~i+'- {i+]i+^i+/i+(i+9_..W _i+:i+<i+[i+}i+|i+1i+d2+:g D' o> 2i+3i+Bd k. ^( $d 4i+5i+6i+!a.t^.7i+8i+9i+0i+aI ai+bi+// L| ci+(~ di+<) Su 3_.ei+~i fi+gi+Di hi+ii+J+ ji+;O.0( {m.;I M; ki+B_.X#.li+mi+-n #$+d)+Q& R% x{ Q% Z2 h' Ww.ni+oi+pi+n^.mc qi+ri+si+x].ti+t$+Z;+qD l< V+ ui+vi+wi+xi+yi+zi+9+.Q& Ai+6p.T#.Ty.}2.Bi+Ci+Di+Ei+xF.Fi+Gi+Hi+84.PC Ii+Ji+Ki+pL.70+Li+Mi+Ni+Oi+Pi+Qi+Ri+Si+Ti+Ui+pY w@ ;_ L  ",
"Vi+/| 9# u> |u Wi+Xi+Yi+Zi+`i+ j+.j++j+E .@j+{J.#j+[P.yc 9(.^) $j+%j+&j+{8 *j+=j+-j+;j+>j+00+,j+4#.'j+)j+!j+~j+{j+]j+^j+/j+(j+_j+:j+O$ 1. n~ if <j+[j+@4+5C.}j+|j+ G S] Y*+c) sx.1j+~N c# zM Id W-.-A.4a 2j+3j+4j+5j+6j+}[ !6+a0 7j+Zo.8j+9j+0j+aj+Kx.bj+cj+ou Z= dj+o{+C) ej+BA.fj+gj+hj+ij+jj+kj+oT lj+mj+b~ h) '+ %+ <i J  nj+oj+pj+qj+rj+sj+tj+uj+vj+wj+xj+f5.20 yj+zj+Aj+Bj+Cj+Dj+Ej+Fj+Gj+Hj+Ij+Jj+Kj+Lj+Mj+Nj+Oj+Pj+Qj+Rj+a4 Sj+Jd.Tj+/. Uj+F) w6.f) pU ot 0$ Vj+Wj+Xj+Yj+Zj+e. `j+ k+.k++k+R=+@k+#k+8^.O, /]+$k+%k+&k+;n *k+L{ c# P3 =k+n}+6!+-k+;k+>k+,k+'k+]8 K+ o$ )k+!k+~k+]l.{k+]k+Ga  (+ $ k7 |p ^} ^k+/k+i[ n8 O: 2( (k+_k+:k+dB.<k+[k+}k+Pj.h' A* |k+1k+2k+3k+4k+5k+5G.0$ ({ 6k+7k+8k+9k+0k+&3+2& ak+bk+ck+f .j. =! /(.yh dk+ek+fk+@7 gk+hk+or.ik+jk+kk+N> lk+mk+nk+*W.Hj.b. h. ",
"ok+4# 3~ r> pk+1` qk+rk+0( sk+tk+uk+x]+vk+wk+xk+yk+zk+=f.)F Ak+7~ mI.Hk @&.Bk+Ck+S@+Dk+0$ Ek+Fk+Gk+Hk+ZA Ik+9z Jk+Kk+Lk+Mk+24.C) Nk+J1+]_ E{ Ok+Pk+Qk+Rk+>/.Sk+Tk+Uk+%g SA Vk+Wk+Xk+QM.M8 i' @z Yk+A@ *j ;/+Yf+Wz.34 =. .o.Zk+`k+ l+.l++l+@l+fL.#l+I..|$.$l+W] K*.^v.|] %l+-j+RY &l+*l+=l+-l+;l+>l+qF.,l+'l+)l+><.!l+m9 d<+O7 Ib.~l+{l+'( ]l+^l+/l+Ve (l+_l+:l+<l+[l+}l+|l+1l+2l+3l+4l+5l+6l+7l+8l+9l+0l+al+bl+cl+dl+el+fl+xa.gl+hl+@l il+jl+kl+H. u4 (|.-@ ll+ml+nl+ol+pl+ql+Qg+-( bp._] h+ rl+sl+tl+ul+vl+wl+xl+yl+zl+Al+Bl+:L oC nw.c+ Cl+B_./:+Dl++[.El+Fl+Gl+Hl+RF U4+c# PV M6 x7.Il+Jl+#/ ;/ U$ 8~.+e S/ ,+ Kl+Ll+Ml+:U Fx.)6.Nl+DU Ol+Pl+Ql+Ax.Rl+3' 8/ Sl+dN Tl+;0.Ul+@Y Vl+TO.83+Wl+rK.Xl+Yl+Zl+`l+I  u,  m+.m++m+o$ +! ^: .@ C' @m+a(+#m+$m+to.%m+&m+*m+=m+T3.-m+#K.;m+>m+,m+'m+-* ]+ ",
")m+E^ k7 ,F K3+!m+~m+{m+M9 ]m+^m+/m+(m+_m+:m+<m+[m+=l.}m+|m+1m+2m+'n 3m+WB 3s.4m+5m+6m+t_ S0+7m+8m+9m+0m+;; Z#+am+bm+cm+Zx 0$ L{.wh dm+|= `t.&r.em+fm+gm+hm+im+P:+jm+km+lm+mm+nm+om+pm+ln.y) [d qm+3K x| o7.W!+P^+0$ q).rm+sm+tm+um+vm+wm+xm+ym+zm+Am+Bm+Cm+Dm+Em+Fm+k_.Gm+Hm+Im+Jm+Km+<S fQ Lm+Mm+Nm+Om+Pm+Qm+Rm+Sm+Tm+~E.z) #A }~ PY.Um+Vm+Wm+%g.^) Jp Xm+Ym+Zm+`m+ n+.n++n+@n+#n+$n+%n+5a A) }~ 3; ., '{.&n+R/+*n+=n+Fe+-n+;n+>n+,n+'n+)n+1F !n+yd ~n+00 |E tb );.{n+]n+#c |w ^n+p. D, /n+(n+_n+:n++2 <n+8!+[n+}n+|n+1n+/a K`.2n+3n+tL.9&.r/.4n+5n+6n+0$ =_ Tf 7n+8n+9n+0n++/ ^) an+bn+@6+`# mk [g F< Z$ xb N% cn+dn+en+fn+gn+hn+in+jn+Vm kn+ln+mn+'3.G).:^ nn+on+pn+0$ qn+!#.rn+sn+na+y3.!7.@2+tn+un+jq.0$ vn+%k ji wn+9( z{ (s |~ T9 xn+yn+0].L,.zn+An+Bn+Cn+Dn+JA En+Fn+Gn+}8 Hn+d4 X+ ]+ ",
"In+E^ .@ Jn+Kn+<L.Ln+Mn+Nn+k6+CJ.~-.On+Pn+eD.O, cw b_ 7@.Qn+Rn+Sn+Tn+x% Un+#! |; Vn+96 Wn+Xn+Yn+eH.pj Zn+9> `n+ o+E& .o+0$ lq.+o+@o+-R ;$ #o+_j $o+%o+&o+*o+=o+-o+0( K#.:o.x+ VD ;o+>o+V7.z) h. A{ S  P' 0$ ,o+&Y 'o+0m+)o+!o+~o+{o+Q$ 9( <^ )$ ]o+^o+/o+(o+_o+:o+<o+3; [o+}o+|o+#S 1o+2o+_^+3o+4o+5o+-F.6o+ek 1/+>Y.7o+h3 8o+9o+i: 0o+ic f[ ao+bo+co+do+eo+fo+I|+go+ho+io+jo+ko+lo+mo+no+oo+a=.po+qo+7c ro+so+to+uo+vo+%t wo+xo+yo+*g+zo+Ao+Bo+Co+R>+4. Do+#* h~ Eo+Fo+Sv.2~ rl ^%.e} 9:+X+ tL.Go+Ho+Io+1U #7+Jo+K/+Ko+Lo+T` J  Mo+No+a'+Oo+Po+Qo+Ro+R  q@ =j <) Z  C` So+To+Uo+Z] Vo+Wo+w@.OV i: +g Xo+8/ ^. z2.Yo+Q7 z3 =n.e|+Zo+%{+$| `o+ p+.p++p+@p+U+ 0- VZ #p+$p+3}+A) %p+;x.Ef &p+*p+V  9!+ee Ez =p+)' -p+;p+>p+,p+<,.j. m` H$+ c *-+'p+lS )p+N1 !p+~p+{p+]p+^p+/p+(p+_p+:p+<p+y-+^+ ]+ ",
"[p+k' u@ $! u@ 1- }p+|p+1p+//.+k x6.2p+3p+4p+(k+0$ 0$ ';.U3.5p+6p+-& %. k- <p+7p+6V j:.8p+9p+0p+./ ap+;' bW Y[ bp+cp+dp+lx KD ep+fp+-$  ^ m].z$ gp+hp+{n.ip+,9+jp+i2.U>.kp+/q.Da./. lp+mp+CZ.T/ X+ <# Be+j' np+@{ '5+%U.6z U^.J+ f) r: l. J& n}+cC.op+iw S1.pp+qp+Y{.rp+O' sp+tp+rJ.up+kA.vp+wp+xp+p:.yp+zp+Ap+^. VZ Bp+Cp+Dp+Ep+Fp+Gp+&* S+ Hp+Ip+Jp+Kp+Lp+P).Mp+Np+Op+f]+Pp+Qp+Rp+Sp+Tp+Up+Vp+Wp+:J Xp+Yp+Zp+`p+ q+.q++q+@q+>(+#q+$q+IL %q+(~.a+ tB Ba W@+FB.3; &q+*q+=q+s~ -q+z{ $m ;q+>q+nU.,q+'q+)q+0$ !q+W +~q+f5+{q+Ai ]q+^q+/q+(q+#%.LA._q+:q+RG 7X.X-.<q+P' *j W%+[q+}q+<2.|q+1q+N6 *| T' 2q+/0 3q+)P.4q+5q+1'.6q+7q+8q+L] 9q+0q+aq+bq+cq+dq+0( /6 eq+fq+gq+e1+hq+// PR iq+jq+{&+$0+-% kq+lq+mq+nq+cf.oq+pq+aN.], P=. 6+V9 +% 9l qq+rq+H. a+ sq+tq+uq+w6.l0 y..a^+&=.vq+wq+a_ xq+ ^ ]+ ",
"yq+.% q> v_ 0# B{.t^ zq+Aq+:j 0$ Bq+{D.Cq+Dq+Eq+Fq+He Z4.Gq+Hq+Iq+Jq+Kq+R+.Lq+h'.Mq+Nq+Oq+Pq+8/.Qq+G7 cN.}~ }++Rq+Sq+'e.##+%2 Tq+Wp Uq+Z2 ^+ U  Vq+&e Wq+Xq+9[+Yq+~/ Zq+#:.`q+k- x..}&+_5  r+X7 R^ -y c< R% ,~ .r++r+n6+@r+_o.#r+$r+%r+&r+*r+=r+-r+<B ;r+$#+jk.qi.;k B[ >r+,r+'r+)r+!r+~r+Eo+O' rp+|.+{r+]r+^r+w% /r+(r+_r+:r+<r+0$ N6 [r+t@ U..T) }r+|r+k0 q;.P;+1r+2r+Zf+d1+3r+4r+5r+6r+j- |K gg.7r+8r+9r+uc+0r+ar+br+cr+:i dr+oM.er+.3.fr+FS.v .gr+hr+ir+Z` Hk jr+kr+lr+Tp &*  @ pU d4  (+mr+nr+or+pr+c# qr+rr+sr+tr+ur+vr+wr+b'+xr+GC.4n+yr+tg.., VZ zr+Ar+7~ ;/ {8 8N.Br+Cr+Dr+Er+Fr+HA ^0 l7 q/ W% '- 1Y Z$.Gr+Q& [Q.:n+Hr+Ir+Jr+Kr+Lr+Sk+Mr+Nr+ . Y+ z9 7U E{ e4.Or+Pr+Qr+Rr+<9 Sr+f5.Tr+Ur+Vr+%^.Wr+Xr+Yr+Zr+`r+ s+.s++s+@s+#s+$s+%s+&s+*s+[%.=s+-s+j4.;s+>s+6! ,s+'s+)s+!s+T) ^X X+ ]+ ",
"{  WZ j. V% W% b# ~s+{s+]s+^s+1D /s+(s+_s+YB :s+<s+[s+bP.}s+|s+1s+2s+3s+3,.4s+5s+6s+7s+8s+FK.9s+K` /g+0s+as+bs+cs+ds+@b es+fs+~s+o).5(.+@ X2 Hj.}+ gs+hs+is+js+ks+ls+YA /_.'$ B@ >I ms+lm ns+~Y j: zm w@ 2~ yh I<+]i os+ps+qs+rs+ss+5B.ts+us+vs+ws+xs+%s.-3+ys++e u@ p. 92  #.zs+As+Bs+Cs+&{+`  #/ ,..c0 J+ j. x) Ds+Es+V~+n{ Fs+Gs+Hs+Is+x{ <= o$ Js+Ks+8^.Ls+Ms+Ns+Os+Ps+Qs+Rs+Ss+Ts+Us+E8+|` 7..Vs+Ws+%i Xs+7%+Ys+^S.Zs+`s+ t+.t+av.+t+@t+#t+_$ $t+%t+Ke.=} Jd |: &t+)j.K+ |q Z.+Un+5- r@ n6 (p.*t+=t+9g.-t+;t+G0+>t+,t+'t+)t+!t+f) -p.~t+{t+Y| ym J8 Y+ U..3 +-& ]t+^t+/t+a:.(t+(o.o> ]S A[ +! ot _t+nv.u3 :t+7$.<t+:g [t+}t+MJ.|t+1t+2t+3t++p+4t+=. 0. && 5t+- .sb dv.6t+M#.7t+8t+9t+*d+0t+at+bt+ct+SM dt+et+ft+gt+ht+it+jt+kt+lt+@[+mt+D;+nt+ot+pt+qt+#c jc rt+st+tt+ut+vt+wt+xt++_ T+ ]+ ",
"yt+b7.:+ *! t. R  -^ zt+~z At+Bt+Ct+Dt+Et+Ft+Gt+Ht+It+Jt+Kt+Lt+Mt+Nt+Ot+Pt+rt W:+Qt+-& f) ~( Rt+St+Tt+Ut+Vt+Wt+f5+Nl Xt+Yt+Zt+`t+7- T+ T$ <'.R] -&  u+.u+/A +u+@u+#u+$u+c/.Tp W  Q$ 0$ S0.%u+bd Q& ,..VZ #! .+ Z= !d &u+~6+*u+=u+-u+~l+r@.0$ n9 A) 0$ J+ U9 ;u+>u+,u+Y+ 2;+'u+@:.)u+!u+~u+0$ P  c4 Q2./& 'y Hk ;+ {u+]u+:u ^u+/u+vb+(u+_u+pd u=.:u+3M.<u+rQ [u+}u+|u+Za 1u+2u+0$ 0$ 3u+4u+Yb+5u+6u+7u+8u+9u+0u+au+F$ bu++5+2G.6|.cu+du+eu+fu+8@ gu+%B.br.hu+iu+ju+W, r8.10 J^ m# 5K ;+ S% s^ 3^ ku+9Y.lu+mu+nu+ou+v`.pu+qu+ru+su+.$ ;p.tu+uu+l@.vu+wu+94.S2.R0.xu+yu+zu+Au+Bu+5O 3<.[t 9C j: o1 ,$ ^%.Su ]l Hx.+9.b0 Cu+Z( 0$ Du+Eu+Fu+Gu+Hu+Iu+Ju+F. @@ jp ic *. Ku+(/+Lu+2: Mu+3' C&.Nu+OA.Ou+Pu+nE.Qu+Ru+n6 0$ Su+w>.%Q }I a2 Tu+Uu+Vu+Wu+Cd.Xu+Yu+Zu+`u+ v+PO .v++v+@v+#v+~W $v+%v+X~ 9# ]+ ",
"&v+b7.`| E$ Zi :^ Q& *v+f5 =v+ak.-v+;v+>v+,v+'v+)v+!v+,-+ex.~v+%F.'O 0O ^) 0$ .+. k {v+]v+[h  0+iF X+.^v+yA /v+#E.(v+0$ _v+:v+$= UM |( =@ <v+b} J+ [v+}v+|v++..1v+2v+3v+uH 4v+3y De+5v+6v+:X 7v+E. 8v+S  9v+v@ z) w~.0v+av+5}.bv+Q!.cv+dv++2 V+ Be+t++PV ,V.h)+ev+'- fv+gv+hv+:_ iv+jv+kv+.,.q: lv+m` j. b; b; ^( +z gQ :) 1. 0$ mv+nv+ov+'- k- U|.<:+iM pv+qv+rv+}c sv+]>+HG./E tv+o> uv+vv+wv+xv+yv+!1+zv+Av+o> +@ Bv+Cv+k8 Dv+a] Ev+Dc Fv+_-.Gv+Hv+Iv+Jv+Kv+Lv+Mv+Nv+Ov+~c.7~ J..m. x{ X/ Pv+Qv+Rv+k*.Sv+Tv+Uv+Vv+Wv+Xv+Yv+Ga+D@ u .Zv+Xz.Uj X .`v+ w+.w+f) f5.+w+@w+;/+#8 dW.#w+0$ y@ ~* $w+4- %w+V3.&w+*w+=w+O9. 8.I(+e[.-w+;w+>w+Ue.,w+'w+)w+o$ nq U$ 2!.Z2 *! Au !w+~w+9F {w+L$+]w+s: ^w+rB /w+^W ]8 (w+<S _w+:w+Q& -% <w+K=.~/.[w+}w+|w+1w+sA.Xv 2w+3w+4w+: .5w+w# (~ 4-.@! W+ c-.X+ ]+ ",
"&v+$1 ve >| +! ]: 0$ 6w+7w+8w+Aw 9w+0w+aw+bw+cw+x_.dw+ew+Zi Q& 0$ Z= 8( fw+6g+gw+hw+iw+f{+va A) !_+jw+kw+lw+_( mw+nw+<*.ow+pw+qw+9:+ih @. 0$ 5J rw+sw+tw+u1 Ho.uw+vw+ww+xw+yw+*<.zw+Aw+1L q[+m*+Bw+nX P' <q o1 .. 2f [:.Cw+Dw+Ew+[^+[h.Fw+Gw+-r v;.Hw+Iw+Jw+Kw+Lw+ } z9 Mw+Nw+Ow+Pw+2@ Qw+Rw+*. Y2  W U% rk Ku+Sw+Tw+8C.w_ O' Uw+jv.Vw+9( u> b8+J!.x- Ww+Xw+w#+Yw+n}+mn.Zw+f:.0$ +@.fN.>7+`w+[2.86 Jg+ x+ @..x++x+y_ Fw @x+#x+$x+h~ %x+&x+*x+=x+-x+;x+1{+>x+0f+,x+'x+@X )x+!x+R$ [/ ~x+;B {x+]x+^x+/x+(x+_x+:x+<x+!}+.y.[x+}x+|x+j8.6)+7E.M; 1x+2x+3x+4x+5x+6x+6r !| 7x+}b.8x+9x+I1 +@.`| d4 ,[ 0x+!. ax+zH.bx+cx+r9.E<.dx+ex+fx+gx+hx+ix+jx+kx+lx+mx+n%.Y. |= u_ ;* f) nx+ox+#x.px+qx+[#.rx+x9+sx+tx+ux+M'.vx+wx+xx+yx+zx+Tw 3I o$ ,- f) c# (2.bQ Ax+3y.Bx+Cx+Dx+9x.Ex+Fx+Gx+qF.=2.;$ 9v /+ ]+ ",
"H  ;B I@ -@ 7- gQ h' Hx+Ix+Jx+Kx+Nn+FG.Lx+g= P| +% -% ^) ]9 wg Mx+Nx+Ox+Px+Qx+Rx+Sx+3{+Tx+Ux+^} Vx+Wx+Xx+Yx+n6 0w.Tv.(c.Zx+'9+>* `x+ y+RC..y++y+ZW  h+ps+@y+#y+$y+%y+&y+>++*y+=y+-y+;y+8-+>y+,y+'y+n~ gQ 2_ K8 R^ v> O|+)y+os.!y+~y+{y+]y+^y+R$ r-+Yo R] /y+(y+{&+_y+6J #Y.:y+<y+[y+}y+|y+Ka+f/ +( ^( ;F H< +@ m7 {% ^} 1y+7O 2y+1M.h0.HN 3y+y@.od+5|.4y+gW ^3 38+0( K[ 5y+6y+7y+8y+5%.9y+P..0y+ay+dJ by+cy+dy+ey+fy+gy+hy+iy+W3.J+ jy+ky+sU 1z ly+my+ny+oy+py+md+qy+ry+sy+IY.B5 ~6 sx.pC ty+uy+vy+wy+xy+yy+Z9+zy+Ay+Q^ By+Cy+Dy+/v+9j+Ey+fg  0+Fy+$C =3.!U.Gy+`F.Hy+Iy+Jy+Ky+n% -% Ly+Z$ (6 7U My+Ny+Oy+Py+Qy+Ry+4y.6f+Sy+Ty+Uy+Vy+Wy+Xy+Yy+dc Zy+4G.`y+ z+P).Eh.W6 G$.,~ .z++z+@z+#z+_. $z+%z+&z+*z+0$ =z+-z+XK.;z+>z+,z+'z+)z+!z+~z+{z+!$ -% Fw R< I5.]z+^z+/z+(z+_z+:z+<z+an+D, OJ i| 9# ]+ ",
"H  ;B m/.A{ `| [z+5_ l#.}z+b[.|z+1z+2z+3z+[^ [^ %6.4z+5z+6z+7z+8z+9z+0z+@t.az+bz+cz+dz+ez+Ll fz+/_ gz+hz+iz+jz+Jd kz+lz+d/ mz+d< 8/ nz+oz+pz+qz+8}.rz+sz+tz+uz+vz+wz+xz+t} e<.-.+yz+zz+Az+f) ~&._l &K (&  Q [+ E$ G]+QV Bz+Cz+Dz+Ez+Fz+9_ &H.{^ Gz+wm+0$ Hz+Iz+Jz+Kz+=v xZ Lz+Mz+Nz+Oz+Pz+Qz+o9.Q5.(% -$  = S% n6 Rz+Sz+Tz+Uz+ot+%^ Vz+Wz+Xz+Yz+Zz+`z+=W.'=. A+.A++A+@A+X6.@G.#A+$A+%A+(}.]m 9r. 2.&A+*A+f) =A+;<.-A+;A+>A+lC  Q.,A+h_.'A+X; )A+yz+q[.!A+~A+{A+]A+^A+/A+(A+w0._A+Qg.:A+(t+@K <A+[A+d!+m}.}A+|A+1A+al `v+2A+K1+5*+Z6 s3+5c.!= Pe 3A+4A+5A+'&+zZ 6A+7A+8A+9A+0A+Zr.%@ >$ .@ ++ 6T )$ ~&.aA+}m -n bA+cA+dA+f) NL.eA+cH fA+3N.gA+hA+If t%+iA+jA+kA+#~ lA+mA+cT.0$ O, m* Y| nA+oA+zg.@2+UU.3' N^.pA+-O qA+}z+rA+sA+q;+tA+uA+vA+}5 5| Zm+Z .;' -& wA+xA+yA+C(.g'.zA+dN.0D.ih {0 >$ ]+ ",
"&v+`<+*-.+_ ;k Ph t@ -% _/ AA+BA+CA+yz+DA+EA+FA+GA+HA+IA+JA+KA+n +LA+MA+_..~t eP.NA+OA+PA+QA+8^.-& RA+SA+TA+UA+1- 5_ Ij.+e !R >y >6 VA+NF.WA+|= l- XA+YA+ZA+`A+ B+.B++B+@B+|Y ]p #B+]a Wp $B+`q+%B++i.&B+c0 c< %& Tw+:(.j/.*B+=B+-].-B+;B+>B+,B+'B+)B+!B+U8+~B+{B+IL ]B+Yd 0$ ^B+/B+(B+_B+ae 'W :B+7;+<B+^) [B+}B+|B+1B+2B+3B+g;.4B+5B+6B+s9+7B+8B+9B+0B+aB+bB+cB+dB+eB+fB+gB+hB+iB+jB+ x+kB+lB+mB+nB+oB+pB+qB+rB+sB+m1+tB+uB+]s+vB+wB+xB+[).yB+zB+AB+BB+CB+DB+EB+Yt FB+GB+HB+|X x5 IB+=u+JB+KB+LB+FP MB+NB+OB+a@+jv.PB+QB+Qc.RB+SB+]0 TB+UB+ -.(. {u VB+WB+XB+YB+ZB+`B+ C+.C+Y| +C+p<+3m+1~ [r+@C+fB.u(+f1.i:  '.#C+$C+0++%C+uj.&C+*C+`w+=C+(5 -C+w@.1- `h ;C+>C+|x.,C+'C+> ++2 w. 3d DH )C+!C+~C+0$ {C+]C+^C+/C+Zv qg (C+_C+:C+<C+[C+8#.}C+|C+1C+2C+QU.3C+4C+5C+HD id.6C+LK 3- ,1.h( l{+C@ ]+ ",
"#  S$ h. i. ]+ W+ L  R$ X3.7C+8C+9C+0C+aC+bC+cC+Y/+dC+eC+fC+gC+hC+`x r/.Q& -% #m ^f iC+jC+`O kC+G. &0 lC+hq+mC+I. >$ nC+Z2 J8 @z ic :B w[.oC+%c *j pC+qC+^=.4l DW rC+sC+yG tC+uC+vC+/Z B@ wC+J+ xC+yC+3j 0$ ]+ [+ +@ $^ )$ zC+AC+[N.o7.BC+CC+DC+EC+Vf.FC+GC+HC+IC+^| /].JC+Y0.7, KC+LC+MC+Z= ^! C9.NC+OC+PC+*5 QC+RC+ZM.SC+TC+z+.UC+VC+WC+XC+,)+YC+ZC+`C+ D+W7 hd.dv..D++D+@D+#D+$D+@K q0+%D+&D+*D+=D+-D+;D+>D+4% ,D+'D+hw+)D+!D+~D+{D+dU.~w+]D+^D+;e./D+;*.(D+_D+<,.(o :D+Y0.<D+3*+[D+}D+T^ |D+1D+O@ 2D+Z= 3D+4D+5D+VP |{+LA.#'.6D+7D+** S% M  X+ P0 +x.&I 8D+9D+0D+aD+Ct+f3+s<+X~ <# bD+cD+dD+/E.eD+w<+Un+i. Z+ lS J'+o'.fD+gD+hD+V&.iD+jD+C|.kD+7+ Su lD+mD+fT nD+oD+pD+^/+Ri n~ Q& kH bN.y7.2W.0$ 1@ qD+rD+sD+tD+#& #A >' uD+vD+wD+cf.xD+>V.yD+zD+_:+AD+BD+CD+0$ DD+ED+h[+J+ a. $x.FD+C@ ]+ ",
"#  L  h. h. ]+ h. L  ,^ H|.GD+HD+ID+JD+KD+LD+MD+]`.ND+OD+PD+Bu+0$ c# !, QD+1{.RD+Wc.SD+TD+DZ.UD+{}+J+ Fz VD+ng.v7+WD+QC #! _= rk XD+ym YD+E8.Ye Z( ZD+yA+`D+e0  E+.E++E+m*.@E+#E+$E+fP >k f) 6H {s %E+sd+&E+R^ $& :g FB.9. h#.2s.sw.s5++_ *E+=E+-E+;E+>E+,E+'E+U.+B. )E+!E+~E+p .Xp {E+]E+^E+E^ ^) /E+(E+_E+:E+b6 Zl <E+|8.[E+}E+.e |E+Vq Bf.1E+2E+3E+4E+wB Y| QI _. U. t%+VH.5E+6E+7E+8E+9E+0E+aE+bE+cE+dE+eE+fE+Xr.|z+gE+r/+@% 3; p+.26.hE+iE+jE+kE+lE+<! mE+nE+j| oE+pE+z..qE+rE+sE+tE+uE+vE+wE+6} Q$ xE+yE+zE+LA )$ !B+AE+BE+0$ W  o1 F< ++ nt ;I ><.CE+DE+EE+jp+FE+-].9. 'F ;r X-.U! 9o GE+HE+3|+<! w) <@.{= IE+JE+KE+FQ.LE+S8 [j.os.ME+NE+Sk Pe L] OE+PE+7r.QE+RE+;^.w[.SE+X^ TE+UE+jx.VE+Q& p'+WE+XE+YE+].._. >^ V$ X$ #. A. ]. 4K ZE+`E+ F+C-..F++F+yp.fo.@F+#F+$F+%F+yO S' v@ >| T+ ]+ ",
"#  L  h. h. ]+ h. L  a/ f3+&F+*F+=F+-F+yB+5p H'.>N.(& 0$ ;% ;F+>F+,F+'F+)F+!F+~F+{F+@& wO.Z}.]F+B3 3^ ^F+/F+(F+_F+p: E$ h#.0$ :F+v;+<F+]v+[F+}F+f} (& |F+1F+'k.2F+xL HE 3F+Zl.4F+5F+Ss 6F+7F+8F+9F+0F+aF+bF+3^ >* h. _+ 9- cF+dF+eF++i.$2+fF+gF+hF+c# k- 1=.iF+jF+H@.kF+lF+mF+v{ nF+;% oF+pF+qF+rF+sF+32 Zj.tF+DG 7R.uF+l3.vF+0$ j|+wF+xF+)| yF+zF+A|.dl.ZB+sF+R3+W  AF+O+.|u ., L{ lf hu+|N BF+CF+DF+EF++n.O@+;' }^ qq 34 1' gQ `t.g: FF+F. bk+GF+HF+IF+{F.u; u; rI JF+KF+LF+m4+MF+:*.ty.Ov :8 NF+W$ OF+PF+QF+RF+SF+W-.|9.TF+UF+VF+0$ WF+8v -* RS XF+YF+pf+ZF+`F+ G+.G+B.  (+&& P' Gn 5+ .q +G+H+.@G+rZ.#G+0C.$G+bj.%G+') &G+5, ] +=:+lK *G+=G+G^ D{ F@ -G+;G+>G+,G+{o.'G+.0.v*.Yt Od+)G+e_+!G+o$ ~G+L` {G+]G+Wc.;^ ^G+9# (d i( /G+(G+_G+N@+[^ Q$ D3 :G+o> Vs.<G+N!.[G+*o.D@ }G+/= d} *-.T+ ]+ ",
"#  L  h. h. ]+ h. L  k( m;+)j.|G+1G+2G+3G+>1+>!.>W =/+4G+5G+6G+7G+8G+9G+0G+aG+bG+<! IE+cG+dG+eG+fG+{w 7, /e+gG+hG+1;.3; Jp iG+jG+0q+kG+b6.lG+mG+32 =+ nG+oG+pG+qG+rG+sG+tG+uG+vG+wG+xG+yG+-< zG+AG+BG+CG+f< DG+EG+^( 68 n1 FG+1^ WO GG+MS HG+IG+oE.JG+h; m].I^ KG+LG+MG+1:+r@.<t+:) NG+b) rE+OG+V{ >1.P  1' |;.PG+{1.U= n} QG+j7.s{.RG+SG+TG+UG+VG+WG+XG+k- YG+BO gf e9 Z+ |w ve e9 z$ >^ h' A@ N( j. P  rk ;G.xb 3G ,u+j. T+ && oH 0_+d. +% zO.J +FC.[(+ZG+3^ z}.Q& `G+_s. H+.H+g;.ii.B/ _s 4)+&B++H+@H+#H+lI.yi.$H+{/ -* %H+&H+*H+=H+0$ i| 'R -H+;H+>H++5+Xz+,H+]T RG '* v@ B@ =@ `V G^ 'H+)H+*;.!H+~H+St+{H+Gb.]H+^H+/H+(H+_H+:H+<H+[H+}H+|H+S$ UB+1H+2H+3H+4H+5H+6H+7H+=e ,- 8H+9H+0H+aH+U!+bH+cH+dH+eH+fH+gH+I, hH+iH+jH+kH+RB.lH+mH+nH+oH+OL /]+(_ pH+qH+rH+d9+c1+13.b/ b; Q% kg.[+ 9# ]+ ",
"#  L  h. h. ]+ ]+ ]+ ]+ Rz '* Pg+To.sH+tH+uH+vH+wH+@(.xH+yH+zH+AH+BH+CH+DH+EH+T/+6R.FH+GH+HH+v@.IH+bb.0$ JH+KH+LH+MH+i1._A+NH+OH+PH+QH+RH+SH+Kw+~U 4$ %c TH+UH+VH+6f+qi WH+XH+YH+ZH+`H+ I+Sl+.I++I+@I+T.+#I+$I+,p+5E 4b 5/ *+ %I+Lh &I+*I+/[.3B+=I+-I+Dv 2# ag ;I+>I+i;+Q& %/ -& mF+,I+'I+|% 1A+)I+!I+g= x..v; ~I+';.0B.E6.{I+Q;.]I+r` ^I+/I+B$.1+.(I+}E+;_ _I+{= :I+<i <I+[I+}I+B@ Hk |I+5/ 43 1I+9~ .a 2I+-* r@ u_ i: J5 3I+Hn G&.b. i. o: L{.4I+H=.5I+v[ 6I+bQ 7I+}c.8I+h8 Rx 9I+0I+aI+bI+3# ~^+cI+H6.C{+CD+dI+eI+$1+Q$ Y] fI+gI+hI+iI+^_.jI+kI+6d 1d.DI lI+mI+nI+i. oI+T+ X+ ka 2# pI+qI+pJ.IY rI+H* _J sI+tI+uI+vI+wI+xI+/].yI+zI+AI+BI+Q: C@ on CI+DI+EI+Pe.FI+GI+rn.HI+II+$= _C JI+KI+f) LI+MI+NI+OI+)H+PI+QI+RI+SI+6f+u<+TI+(I UI+VI+WI+MW XI+YI+ZI+`I+[d+ J+.J++J+A@ pZ i: T$ u_ #+ ]+ ",
"#  L  h. h. ]+ ]+ ]+ X+ 1p *c @J+#J+$J+%J+&J+J> *J+=J+-J+;J+C; >J+,J+'J+)J+_x.!J+N:+~J+{J+]J+^J+zt+/J+fi 4m.(J+CW _J+:J+<J+[J+&B+}J+|J+1J+2J+g0.3J+O<.4J+k- 5J+6J+7J+8J+9J+0J+aJ+bJ+cJ+0$ d9+!b.dJ+-% w% eJ+fJ+:> Q& c-.gJ+hJ+iJ+:^ jJ+kJ+lJ+f( mJ+nJ+oJ+ZE+pJ+qJ+md+8. ;>+^p >e rJ+sJ+tJ+uJ+(2.vJ+wJ+xJ+M] ;' yJ+zJ+AJ+a0 BJ+CJ+DJ+EJ+l`.'6.g$ '> FJ+@).`# GJ+t@ gL ^F+SR 0x+HJ+S' 63 y<.IJ+Z.+u_ P' Y+ JJ+z) >$ (d KJ+-j 92 9u.{b O<.a0 wf LJ+MJ+NJ+{Y. y.P5 qF OJ+5_.cZ Wp PJ+QJ+RJ+SJ+TJ+18 UJ+VJ+f[ WJ+XJ+5>.YJ+ZJ+`J+b/ 7D+8%+ K+.K++K+@K+#K+Dk K| $K+%K+.{ `| 3~ )[ ,F #M T) I'.&K+*K+=K+3^ -K+;K+U2.z) UH #'.>K+,K+'K+)K+pF+!K+]x ,- ~K+{K+;* X-.n| ';.Vj P=.4_ ~~ +8+]K+^K+/K+').(K+J+ }] _K+:K+<K+[K+'5+}K+Si |K+1K+2K+3K+4K+5K+6K+7K+8K+1@ 9K+0K+aK+bK+cK+o4+3' _+ |+ k7 .! ]+ ]+ ]+ ",
"#  L  h. h. ]+ ]+ ]+ ]+ I8 R% dK+eK+fK+.,+6B gK+Nx.hK+iK+jK+W<+kK+-e+lK+mK+nK+oK+pK+qK+rK+sK+<K+tK+uK+:3+Q& q;.!E+vK+e4 wK+xK+yK+ZO ur zK+AK+BK+nz.CK+)$ lK DK+EK+_..FK+P:.GK+HK+ud.IK+O9+0E JK+KK+;$ ]+ #_ fj LK+(k Y. MK+q$+NK+OK+;_ #Q PK+QK+mx.1T RK+SK+TK+UK+[^ AJ+';.Av+VK+WK+XK+av+YK+ZK+|j.,)+!/ `K+ L+.L++L+E< 4* @L+#L+$L+%L+&L+*L+ua+(| =L+-L+;L+>L+-X.,L+'L+)L+!L+e/ Q| $/ 9r &R.II.xq+'+ B/ ~L+L{.{L+{( a*.)* 22 ]L+^L+/L+(L+h~ _L+:L+<L+[L+}L+|L+1L+e3 0$ 2L+3L+^7 4L+5L+ql+6L+7L+8L+*g.9L+0L+aL+bL+cL+dL+eL+fL+(d #@ gL+X=.hL+iL+jL+kL+I[.lL+mL+^) nL+9f O: o@ @} si.oL+pL+qL+xq+:m ,..rL+sL+@|.tL+uL+vL+wL+xL+yL+zL+2C+AL+Ww Z= ^/ BL+*g CL+A* DL+EL+FL+0$ `. GL+HL+$v.ie.+% vb IL+JL+KL+Ys LL+ML+M] NL+OL+PL+QL+RL+@c.SL+TL+UL+}m xd VL+WL+XL+YL+a..gp +D.Ph z{ 7U Z] T$ T+ ]+ ",
"#  L  h. h. ]+ ]+ ]+ U$ ZL+Z] -% `L+ M+Ei+.M+1(.+M+@M+#M+$M+%M+&M+*M+=A =M+-M+;M+>M+,M+'M+h~ ~i )M+{(.!>+z< 2k.!M+~M+o$ {M+]M+;f ^M+/M+(M+_M+s` yg.:M+<M+[M+}M+hu.2# |M+ei.SS 1M+2M+3M+jn.4M+D@+0. $@ OJ 5M+6M+A{+7M+8M+e: _+ 7~ :m ~K+^) fn 9M+Am+0M+CE S<./=+Ha aM+c4 bM+cM+cu+Up )$ }^ /Y.dM+6%.|= 5J eM+fM+gM+j8.-& F4.hM+iM+jM+kM+lM+ey -& @. mM+F: nM+oM+pM+qM+rM+sM+Xg :d k:+tM+uM+vM+Z6.n6 +% Xb.wM+xM+yM+zM+^. pE AM+BM+@%.CM+!w+52 .7.@% DM+EM+PA+qw+-% yZ Xp FM+GM+HM+:6 a/ :8 !p+IM+^m JM+KM+LM+^p #_ WF j4+MM+NM+@5+Id 6. PF.OM+PM+QM+}6+Hr+RM+z) 4O SM+TM+7- *! b[ UM+VM+WM+n6 E2.V% Kn XM+YM+2F+ZM+`M+ N+.N++N+@N+Pj.#N+$N+a: %N+&N+*N+=N+-N+;N+>N+,N+'N+}S.)N+X% BI+!N+/Y.>8 ~N+{N+]N+^N+Z= /N+((.(N+_N+:N+<N+J0 Qm+[N+}N+|N+1N+a%.2N+3N+H8.4N+5N+6N+*} 7N+q/ l7 :m K^ k7 X+ ]+ ",
"#  L  h. h. h. L  L  5_ 8N+nv.O0 c+ 9N+.8.0N+al.aN+bN+cN+dN+eN+fN+gN+Q +hN+iN+jN+#[.5T.kN++& q/ lN+mN+nN+X^.,- oN+pN+k} `y.qN+rN+sN+tN+uN+vN+wN+xN+yN+zN+uV AN+a0  i.BN+lg.()+CN+DN+EN+FN+GN+>' a4 p5 Uq HN+q>.IN+JN+KN+xG 3- Id U..'F xB <,.+1.LN+MN+i[ n@ W. ^E #z NN+ON+{G.PN+QN+K@ Ey RN+SN+TN+,- 3^ C= Kt UN+VN+WN+XN+YN+ZN+0$ ff+`N+vx J+ z9 {. *$+ O+.O++O+_. @O+#O+$O+NK.%O+&O+*O+7P.=O+&1 -O+;O+>O+,O+'O+3j+)O+5<.!O+~O+0$ ~( M@.{O+]O+*d+<! ^O+/O+vf  x+(O+_O+:O+<O+[O+l- U$ }O+29 r: |O+ra 1O+I++2O+p@ 3O+5^ 4O+5O+6O+)D @g 3a e5.y8 7O+8O+Y7.M; +& 9f WF $+ 9O+(. 0O+aO+Vb.bO+cO+/r+h[ ';.o$ $:.dO+eO+fO+gO+kJ+hO+iO+_s Q$ 'P jO+kO+UF+xb.lO+mO+nO+oO+pO+qO+rO+sO+:f tO+uO+f1.+} vO+k|.wO+Q& d. /. xO+`$.yO+zO+p` AO+BO+]N+CO+t_.+H.DO+EO+.} FO+GO+Ee.wA+k- j( f. ]+ k7 u_ X+ ]+ ]+ ",
"#  L  h. h. L  L  L  f. %} k| l7  '.HO+/y+c# IO+JO+k/+KO+LO+MO+NO+OO+4$ 2i PO+QO+RO+|{+Tl ]+ h .SO+sc.TO+*! UO+VO+WO+{:.XO+E6+Pj.YO+io.ZO+`O+ P+.P+[`.uT +P+@P+W.+%L. 2 #P+ub+Q]+$P+%P+&P+nQ.-,.*P+[|.=P+W#+-P+;P+>P+,P+'P+)P+*! q. 6T Z>+,k -a !P+~P+{P+]P+^P+/P+(P+_P+:P+W% &k+<P+[P+.e+}P+|P+1P+2P+3P+4P+1:.UY.4Q 5P+6P+7P+{| 8P+9P+0P+aP+y_ `V c< h' (& A) N( $! bP+pK+cP+dP+eP+fP+0$ C, O;+gP+eA hP+iP+Q$ jP+kP+lP+mP+nP+oP+k7 7R pP+qP+rP+sP+tP+O:+C_ >}.uP+4~+vP+wP+xP+E{ o1 7- ^+ Z$ yP+9< zP+AP+op+BP+CP+6+ zJ+^} Y( DP+EP+FP+Pz hw.GP+HP+IP+h[.1+ JP+>$ KP+R' I^ LP+Z:.MP+NP+OP+PP+QP+RP+SP+-5.8C.B+ lN+TP+UP+VP+WP+X] XP+H, 9- `* yB YP+m1+ZP+`P+ Q+#4 .Q++Q+sU @Q+B].#Q+2s.yj f) $Q+%Q+Qn.#8.Ps gR hp &Q+*Q+=Q+-Q+a< ;Q+>Q+,Q+UA+'Q+)Q+!Q+~Q+0$ (K {Q+N6.h. ]+ ]+ ]+ ]+ ]+ ]+ ]+ ]+ ",
"#  L  h. h. L  L  L  U  3)+a/ ]Q+^. ^Q+^=+*O./Q+(Q+_Q+|M+:Q+X .M6.-% 0$ }1.$O+<Q+H' [Q+nC+c0 _= (. Q& }Q+|Q+1Q+2Q+3Q+4Q+5Q+6Q+h) 4_ /* 7Q+8Q+9Q+0Q+b;.aQ+'- u_ *! q@ T' O' N7.bQ+cQ+dQ+eQ+fQ+gQ+7+.hQ+'I+iQ+jQ+kQ+c# lQ+mQ+nQ+)%.'+ oQ+4. 9f O4 +, 4~.pQ+,H qQ+kn.rQ+sQ+tQ+uQ+vQ+wQ+xQ+yQ+zQ+AQ+BQ+CQ+DQ+EQ+FQ+GQ+l_.HQ+IQ+JQ+KQ+LQ+#T.MQ+fM ,~ .d Z$ V+ `<+|( vP 6+ 8# ;8 NQ+OQ+^) g+.DA <t.PQ+QQ+RQ+<K+bz 4)+SQ+V1+TQ+UQ+VQ+Sm WQ+XQ+02+T) uh.YQ+ZQ+`Q+ R+.R++R+S0 1^ w) V9  ! t> T  ]: vP e9 '| @R+#R+$R+%R+&R+*R+=R+&>+:6+-R+;R+>R+*-.,R+'R+)R+h[.S+ !R+_= ~R+)M./. {R+]R+v$+a+ ^R+BX gi /R+(R+_R+:R+<R+[R+}R+|R+1R+2R+F^ la 63 A@ ]! 2# +d Fe.3R+4R+5R+6R+7R+Z/ 8R+t3+9R+0R+aR+bR+cR+6c.dR+eR+3; gQ E$ mn fR+{T gR+hR+]O.(& J+ @% iR+jR+kR+su lR+mR+nR+oR+E9. = L  ]+ {+ ]+ ]+ ]+ ]+ ]+ ]+ ",
"#  L  h. h. h. L  L  S$ aA du pR+a0 2k.Cm.qR+rR+Li.9:.sR+tR+uR+vR+5d a^+wR+*)+L0+Q& $} *-._. 0( D/.xR+yR+zR+AR+BR+CR+KL DR+ER+FR+-@ ~c.|C.2).GR+b2 HR+IR+JR+b~ !. >..%m KR+{: 5<.LR+MR+NR+OR+PR+QR+0$ RR+SR+TR+0( 8. j/.UR+ v VR+9# ,* &c :q 9v |q Z  %<+WR+ h+XR+YR+ZR+`R+ S+.S++S+@S+#S+$S+%S+&S+*S+=S+-S+6S.;S+>S+,S+)q.r( :(.0O.'S+)S+!S+0$ )$ q}.Da HA Y  /E @+ P3+`% i( W% ~c.~S+34 {S+]S+^S+/S+(S+_S+:S+<S+[S+}S+7{+|S+1S+%w+2S+[f+~Q '- x:.I4.3S+4S+5S+a0+6S+}[ Q& 2f w*.+d 2# 2f ,. P| H' _g+M9 7S+T0 8S+9S+e|.^! 0S+aS+bS+cS+dS+eS+fS+cu.@* 6k gS+O: 2&.mw.]a Kg.hS+HK W+ +2 iS+jS+kS+0$ lS+Fv mS+nS+oS+pS+qS+rS+g .B@ |+ 6. sS+{5+tS+#i uS+fg+sy+vS+wS+su+ Q wZ.xS+x[.vN+yS+zS+AS+JA.BS+ag+@! f) {8 iq CS+DS+ES+FS+GS+HS+IS+JS+KS+@1.LS+MS+Q9 NS+OS+PS+2' ]+ h. h. ]+ ]+ ]+ ]+ ]+ ]+ ",
"#  K  ]+ ]+ ]+ ]+ ]+ ]+ ,$ '[ u@ w_ QS+!>+RS+SS+0$ TS+US+D$ w~.VS+~l WS+XS+Ef 3^ fg J+ ;% YS+ZS+`S+ T+6G+7z.VW..T+/e /5.2: +T+@T+0$ #T+$T+%T+&T+{} j~.p[+*T+=T+z,+he +& 9- [+ l[ R3 -T+;T+nu >T+,T+'T+)T+*{.Fs.(^ l7 @/ mm !T+~T+8}.tb G$.Id M+ 7U oQ+a#.Mj {T+]T++W ^T+/T+(T+_T+:T+<T+[T+}T+|T+1T+2T+3T+4T+-% }5.l_+5T+6T+7T+;q.o0 8T+9T+0T+aT+bT+cT+D5.2f /. h. !* S' mI.AY.R0.J8 W$ 75+dT+eT+fT+<..gT+hT+=!.iC ;F FE.iT+FE.Z$ 6+ zM Pe o$ :.+jT+kT+lT+mT+nT+oT+pT+qT+o6.rT+sT+S:.tT+uT+&Q @P vT+wT+!]+EB xT+yT+O, zT+AT+BT+CT+04 DT+ET+FT+bP+,F ;$ OJ =* :+ n~ v& GT+HT+Dm `* ^%.). IT+JT+KT+LT+MT+,R NT+Cr+gb+OT+PT+jq QT+VZ -8 /2 Za+RT+8l.9^+MH+k +ST+TT+UT+4$ VT+WT+XT+YT+c_+B]+ZT+{Q+`T+ U+.U++U+@U+.+.}^ WB |= #U+R@+$U+%U+us.&U+}+ *U+=U+76+*J+-U+of+{Q k( ]+ {+ ]+ ]+ ]+ ]+ ]+ ]+ ]+ ",
"#  K  ]+ ]+ ]+ ]+ ]+ 9# .& W-.1r.Z] O' {0+;U+>U+4G+,U+es._. -& J+ 'U+ue+W{ <) a0 *7+)U+@3+!U+~U+{U+]U+^U+/U+0$ _) XO Cc.(U+_U+:U+<U+[U+}U+'I+r@.>2+yw.|A |U+1U+2U+1G eu b. #_ z9 }B 3U+zB 4U+m1+5U+6U+ti+7U+f) |~ 9v+la |[+;c+|f+8U+9U++% W+ W+ j( PC 0U+!. aU+bU+cU+dU+R~.eU+fU+gU+m' J+ #c EI e_.hU+UT SF iU+_) Y. jU+kU+lU+mU+IY Ab.U+.[Z 8p+nU+oU+pU+8p+qU+rU+sU+|% -% 8. d. tU+1^ uU+vU+wU+JF.0$ xU+yU+ K 9, +{.2G 0$.tb a5 C= zU+3^+AU+BU+CU+@( f) Fw o$ .! DU+EU+FU+_O a@ GU+O;+HU+IU+Q:+JU+KU+LU+MU+NU+OU+U.+PU+Pn+jB.QU+om.RU+SU+h1 +@ +@ l# i. K..RC TU+UU+VU+WU+W6 ^( 7- S+ A) XU+YU+gg ZU+`U+ V+.V++V+@V+O' i: 1a+ Q `| #V+$V+%V+~k+3^ Q& 0$ E/.&V+/7  N k; $B.*V+=V+df to 29 -V+;V+>V+,V+'V+)V+!V+8U.,h+yh `2 )$ V0 ~V+,^ ., {V+_l.BK.]V+^V+/V+(V+^) 0e ]+ {+ ]+ ]+ ]+ ]+ ]+ ]+ ]+ ",
"#  K  ]+ ]+ ]+ ]+ ]+ ]+ ^( _V+k7 vP Id :V+<V+[V+}V+(T+&E |V+=3 X$ O5.&i <6+1V+2V+3V+4V+5V+6V+Td.7V+>9+-& xc+8V+:m+cW s].#3+9V+0V+,S+aV+bV+cV+V6 qZ !$ 2m+dV+8u+E& -% o$ <i eV+]@.32 fV+gV+hV+iV+eU+jV+kV+lV+mV+(. S< @@ nV+`# oV+/++5Q pV+0$ e. W/ qV+-B Kn+]S yI+rV+sV+U'+8*+tV+uV+vV+wV+xV+M6 yV+zV+AV++T+#{.Rn.BV+A. _j CV+DV+EV+}S+FV+pK S(.-; GV+jf.HV+IV+JV+KV+LV+Vp MV+NV+OV+f) PV+QV+'W RV+SV+TV+UV+~r.Q$ H|.Yx j8.-V.b6 VV+WV+XV+pN+YV+BF.f) ZV+H& J8.j( ;% k/.`V+K@+0$  W+O-+.W++W+@W+#W+$W+%W+&W+*W+=W+-W+Dv+&r.;W+>W+,W+'W+Z=+_+ iq WF /+ `t.`V )W+j+.!W+~W+@3 #8.7~ 5# _. ^*.{W+]W+^W+/W+(W+_W+:W+b5.1( <W+O: }$  = +% [W+}W+|W+1W+HE.P0 (_ s:+2W+3W+:m+RB+4W+5W+6W+0| |( V.+7W+(& 8W+9W+0W+aW+bW+cW+dW+eW+I<+fW+r@.v> #* pS gW+hW+iW+jW+7O.-b+kW+9C X+ h. h. ]+ ]+ ]+ ]+ ]+ ]+ ]+ ",
"#  K  ]+ ]+ ]+ ]+ ]+ 9# 3~ Hv 3+ G< ~g.-& lW+mW+nW+oW+pW+qW+rW+0$ sW+tW+cg.k& uW+vW+wW+xW+_l.i[ -% yW+Re A~ zW+AW+X3.P$ `6+O..BW+CW+[o+^[ pC (. DW+EW+FW+GW+HW+nu+IW+JW+k)+u; x{ v;.S7 KW+LW+MW+NW+OW+PW+dB+QW+RW+SW+9# ;k iB.9, iZ TW+UW+~t.Fw 5_ o1 i: c/.[H ^p VW+* .WW+,( 5+ XW+YW+ZW+g`..A.;T+`W+}P  X+.X+3^ x{ u> +X+3p @X+2( Wp {v+#X+$X+%X+D@+&X+0$ oe+1&+*X+=X+=r+xG+xx+-X+;X+>X+,X+7 .'X+)X+!X+~X+{X+ ].]X+^X+/X+vq.Dx.V{ kO (X+@m+_X+:X+<X+[X+}X+|X+`1 X7 ur y +PR W^.Ef A0.Hw _*.1X+2X+n}.-% 3X+4X+5X+6X+S! kQ+7X+8X+F}.Z. /+ %& 9X+#& J8 Zi I..-q 0X+aX+K  jp PC ]! #T+bX+cX+dX+gO.eX+Nn fX+Ba+gX+hX+C@ @^ M  Z. iX+jX+kX+lX+mX+nX+oX+pX+P| 1E.qX+rX+sX+tX+uX+vX+Q& <U+os.wX+D> xX+yX++% b% qz zX+D!+>D+(7.AX+BX+'~ Su+-% hM.CX+DX+EX+FX+GX+HX+IX+B{.JX+h. L  ]+ ]+ ]+ ]+ ]+ ]+ ]+ ",
"#  L  h. h. ]+ ]+ ]+ 9#  & f: c< c< e. b> 11+a[+KX+LX+nJ.MX+NX+@t+OX+}g+PX+QX+n,.Bf RX+,+ f) SX+TX+~F.7c.kR+K9 bq.UX+&p 0$ bc._p.z, VX+zg.WX+P| n3+6S.XX+YX+ZX+A,+`X+ Y+.Y+^[.7~ +Y+ka >_ @Y+#Y+$Y+%Y+&Y+*Y+=Y+-Y+;Y+e_ |+ 9< 2S+9, U^+#k.U0 g&+|^ Z+  ^ :q  & gf h) }h A7 >Y+BS g% ,Y+y$+J-+ER+q'.'Y+)Y+Ar.!Y+-% {: Z= ~Y+{Y+]Y+T) i* ^Y+/Y+(Y+_Y+:Y+<Y+Dv+[Y+/X `>+-% }Y+H=.|Y+1Y+2Y+3Y+4Y+9, 5Y+6Y+0$ SC 7Y+}f 8Y+9Y+u7 0Y+S+ 0$ K{.aY+oT+bY+ri cY+dY+=s.r{ /s.eY+fY+L5.h4.a5 <m F-+gY+)l+hY+o: e1.B[ iY+jY+{:.(Y kY+lY+Yf mY+3; t++nY+o@ Z/ )* }^ K> oY+pY+qY+W6 <i =y S7 /| rY+sY+Y;.a3 tY+uY+vY+wY+xY+vA S{ +$ U  .. u2.yY+zY+AY+BY+CY+DY+EY+FY+,- GY+HY+IY+JY+KY+6R.G< LY+MY+NY+bS.OY+PY+QY+pG.RY+3; Q$ P[ SY+4@+TY+UY+VY+WY+XY+YY+ZY+`Y+a:. Z+6< .Z+J+ J5 >$ ]+ ]+ ]+ ]+ ]+ ]+ ]+ ]+ ]+ ",
"#  L  h. h. ]+ ]+ ]+ 9# 3~ l| T$ 9v ~]+h( dV +Z+@Z+dT #Z+$Z+%Z+8,.&Z+*Z+=Z+.t s|.,J Mu.-Z+;Z+>Z+1: Jg+,Z+'Z+)Z+!Z+~Z+<#+e_ {Z+]Z+^Z+xx+!g+dQ Ef hf xG Q& f) 0$ /Z+(Z+_Z+:Z+<Z+Hn [Z+.:.}Z+|Z+1Z+2Z+3Z+4Z+5Z+6Z+7Z+Ko >q+8Z+2A.^( #^ }~ M5.ub+9Z+0Z+aZ+FE.Z] t> .d bZ+v_ ic+cZ+dZ+u3 'B 0$ /,.eZ+fZ+gZ+hZ+iZ+jZ+Su+vL.Zr.kZ+lZ+mZ+-& nZ+oZ+pZ+2# ag l(+lT+hY.qZ+S(+rZ+sZ+2^ [g .N t%+tZ+3I.df *( uZ+4. X/ w) N6.vZ+[v+wZ+xZ+yZ+O5 'j zZ+AZ+BZ+*o.CZ+&J.0$ >9+DZ+gx EG+}~ Q; EZ+pS a/ ^) FZ+GZ+HZ+IZ+H5.<g T) -% nw.JZ+KZ+LZ+YB ]/ ^%.$@ S$ |d MZ+(& fQ NZ+|n+OZ+^. :+ X+ (s PZ+g) QZ+@:.RZ+1/.7' 9J.SZ+TZ+UZ+B. VZ+WZ+,+ ({+g'+XZ+YZ+m0 n@ -% B. X7 ++ ZZ+`Z+ `+.`++`+rC+O9+-& @`+#`+aN+$`+%`+&`+7++*`+=`+!} -`+3; J+ :f o_ ;`+>`+,`+'`+)`+!`+~`+{`+]`+tw+x& fR+m` ]+ ]+ ]+ ]+ ]+ ]+ ]+ ]+ ]+ ]+ ",
"#  L  h. h. ]+ ]+ ]+ ]+ @* (+ #+ ,$ I, ^`+^} /`+xc (`+_`+:`+<`+[`+}`+/W X: n6 Mu.b[ VF.3].P{ (c+!0+E* |`+__+1`+2`+3`+4`+5`+A) t(.%C.vm au.6`+v[+v. PC K8 H}. = 7`+8`+9`+0`+~r.a`+b`+V+ _y.X] c`+d`+e`+f`+g`+h`+i`+j`+k`+Z1 <d >r gc.;r ., D+ l`+*h.m`+f3+,F :+ T' %* zJ+5Y Q| h:.*r+n`+l +){+=Y o`+p`+q`+r`+s`+t`+N6 u`+v`+Hy.+2 Uq+w`+x`+y`+ T.z`+A`+B`+Lg+C`+D`+E`+F`+<) )%.G`+H`+f{.I`+<;.xd Y2 xB J`+3-.K`+L`+M`+N`+O`+P`+Q`+R`+S`+7_ rR 32 yO ;C.OJ o$ T`+U`+V`+Rn.M<.W`+X`+k- K8 Y`+Ai 2f+Z`+/_ ``+  @(/+. @+ @/e `* - .@ @z@ # @.d zX T   #.v(+$ @% @1. :+ S$ # @3. :+ m. Z= & @|].* @= @- @; @> @ ) iH+6/ , @' @) @! @[b+~ @{ @fo W5+Pb ] @k- rq ^ @/ @U4.*I+( @-& |K.QR _ @}}+: @< @[ @sB |V } @| @/!.B%.Oe K[ <) sx.1 @<N 2 @3 @4 @5 @6 @:A+7 @!].7/ B@ ]+ ]+ ]+ ]+ ]+ ]+ ]+ ]+ ]+ ]+ ",
"#  L  h. h. ]+ ]+ ]+ ]+ #& C[ #* %! gf o1  . tZ+8 @9 @0 @a @b @c @W*.'. cW d @e @] +f @g @ev h @Uz D4.i @1^ j @k @l @cN+m @n @-& @%.o @5:+C} p @6n++% q @r @/) s @t @u @v @w @x @;p.5k y @z @*( A @B @C @D @E @W_.+% F @i| G @2I+H @mk P: r: 2Q.<B I @Ks ;8 d: ,n .& J @Hk Z/ 2# K @L @u:.gR+@2.U!+nY i7 `F M @vh 0$ KF.4A.`q+(<.N @O @7@+P @,z.Q @R @S @T @U @V @W @X @D. 0$ Y @Z @ME ` @#B+ .@k- #c ..@+.@cp+tZ 1 @@.@#.@$.@%.@&.@*.@=.@-.@+v )$ /+ n1 '- ;.@>.@,.@n6 `t.:( '.@2y.).@!.@~.@{.@].@2# i=.^.@/.@(.@&Z Yt _.@:.@a^.<.@}Z+7+ +* .8 [.@}.@CZ.!P.S% k7 {*.84.u@ ]+ PZ+9C q:+|.@1.@2.@3.@4.@5.@6.@R0.7.@8.@7N 9.@0.@a.@b.@c.@.h .J.d.@ W e.@5D.iz.f.@g.@%N+n6 >s.h.@i.@j.@k.@R].'| ,[ l.@m.@n.@o.@p.@q.@1l.Qi 6^ o1 >^ {..)t+r.@!v X}+s.@t.@H).W^.n8 u.@]+ ]+ ]+ ]+ ]+ ]+ ]+ ]+ ]+ ]+ ",
"#  L  h. h. ]+ ]+ ]+ ]+ ^( @& #* %! ,+ R+  ! L^ v.@w.@(M+x.@)*+y.@z.@sy.QD+!T+A.@:!.Hm B.@C.@D.@Jz =2.S] ua+D$ po.E.@F.@MF+`F+4# G.@H.@js+f- I.@`f.J.@K.@0v+Kd Cl L.@M.@N.@s6 O.@P.@-% S% 7# Q.@/<.R.@!9 S.@T.@U.@v@ f: O: E/+j: 3)+3a %! U  |^ l'.w].x1 V.@W6 a# i. 9# W.@V3..@ |[+Yt _d+#7 /8+/O #4.0$ X.@Y.@Z.@52 }i.`.@o: >/  +@.+@n@ k} U2.tX+f!.MA z(.[d+++@[^ jC z{ W6 n8.@+@#+@$+@%+@&+@y_ |= *+@=+@-+@(. ^. Qx.;+@>+@,+@'+@ph.CT+)+@!+@~+@E^ Rz E$ -^ {+@]+@ic+}[ )s ^+@/+@(+@_+@NK.{O :+@|P Kv+e8.L~+$/ <+@&X Q' [+@>3+-* ~8 r_.RD+/] d1+-%.W6 Y$ I8 .@ FE.d4 [f+|d :+ FE.^( }+@|+@1+@2+@8` T+ +@ ]! 3+@4+@5+@6+@Fk.7+@8+@*x.9+@0+@a+@G. b+@c+@d+@5N+ X+#5+z` <[+e+@W) f+@g+@0$ ;@ h+@D$ B/ i+@k`.j+@k+@Y}+l+@m+@n+@_= T%.o+@p+@q+@r+@s+@t+@Pz.T% MH R3+#+ ]+ ]+ ]+ ]+ ]+ ]+ ]+ ]+ ]+ ",
"#  L  h. h. ]+ ]+ ]+ ]+ j: .& u_ $& +! S' t> '- P+.u+@v+@w+@v7+x+@y+@z+@A+@rA.B+@C+@D+@ls.E+@P| (& F+@G+@H+@%@ C#.I+@w @J+@K+@L+@Q& M+@Xx+N+@O+@P+@Q+@R+@S+@T+@n9 U+@V+@N:.W+@X+@|$+{u P| .2 AM+Y+@1A Z+@`+@ @@.@@Ob OQ+#* k| Qz FD++@@m` C#.}L ,- 6Z @@@#@@j'.$@@|[+m;+K8 )M.%@@8~ Z( ,~ &@@F4.*@@=@@-@@-1+;@@pW+>@@dU ,@@^O 2& '@@:L+5p xw.)@@:#.!@@~@@Bh {@@S5 V6 8~.]@@0D.^@@SK+xe.+0./O+HU ^) |^ Ce+$>./@@u; (@@_@@9G.:@@<@@[@@}@@|@@1@@2@@3@@4@@R>.z{ y_ zq.sd+5@@C#.r` 6@@'6+pJ 7@@/7+RW+8@@9@@0@@a@@]_ b@@%! c@@d@@]9.e@@;I Vs.f@@g@@Lo+F. E^ el 0e ++ ^+ `r xu+L4 9# .! k7 h@@#M i@@LX j@@k@@H;+)P.l@@>. m@@n@@o@@p@@q@@r@@,Y+s@@t@@u@@v@@A6+w@@x@@8} y@@o: z@@A@@e8 M=+B@@9v C@@&a+D@@t]+Z^ 0$ x{+#% ^#+E@@F@@G@@H@@h4 I@@J@@K@@L@@M@@N@@@D P) P0 `1 o@ ]+ ]+ ]+ ]+ ]+ ]+ ]+ ]+ ]+ ]+ ",
"#  L  h. h. ]+ ]+ ]+ ]+ M+ Z] 9# O+ h. qk v@ )%.v{ O@@P@@Q@@R@@S@@T@@U@@V@@6!.W@@4Q+8k Z( 0$ @l {l X@@Y@@Z@@t_ C3 `@@8*. #@U~..#@OZ+o> md++#@mD+s4+@#@##@$#@%#@&#@*#@=#@-#@BA N .;#@>#@'o.Y~ ,#@'#@Ef+)#@!#@e2 ,n 9# 3)+G, `1 +@ |~ Z2  ^ l# AF+y@ K+ LT+~#@s[.{#@5=.J^ ]0 ]#@fM./8.^#@ic .^ 4$ J& Hn.D9./#@(#@&V l@.*a+r@.Ha _#@:#@}m.<#@[#@o& }#@x].d$.|#@ty+*a+d. 1#@Be+[U.t8 2#@)D.6_ 3#@<[ Q$ ,~ 4#@dM+5#@[^ H@.6#@<7+{#+N3 &r.7#@8#@9#@0#@a#@b#@c#@E. O0 d#@e#@f#@Y$ ,~ g#@D8 4e.h#@i#@j#@k#@'= L{ [+ u_ 0- ~+ B+.rI l#@vb m#@n#@f@@E9 Q& 'F ,$ M+ U+ && X+ jp ~_+L4 9#  & ]+ $m n6 o#@9W p#@xk.0`.;g L{ q#@1z r#@8q+s#@t#@RA+wg.u#@v#@DN w#@x#@y#@z#@A#@0( B#@C#@D#@E#@F#@G#@}Z+ 2 H#@I#@J#@K#@^6 sS+0$ 3' Qp.L#@M#@N#@O#@P#@Q#@R#@S#@T#@U#@V#@W#@3~ 0- X#@X+ ]+ ]+ ]+ ]+ ]+ ]+ ]+ ]+ ]+ ",
"#  L  h. h. ]+ ]+ ]+ 9# +@ &* T+ ^0 5_ G, Qz >6 {* q5 Y#@Z#@eI+`#@ $@.$@+$@.w.@$@,- ~8 kS+}h.#$@$$@d .HO %$@#_ &$@#X *$@=$@R`+-$@5y+_j qw+;$@>$@,$@hq+m.@'$@)$@!$@94.~$@X< }:+B! {$@Cx.n~+O'+]$@P6.%r.^$@/$@rk c. 6~ ($@_$@c< u@ X+  ^ d# jp ;$ !* pR 3; :$@<$@[$@+%.UA+:)  ^ .! `+ +@ vP Gn ++ ]! }~ }$@|$@_J.1$@IZ.[! 2$@G6 3$@4$@5$@6$@7$@8T $@ m;+#X Q$ w) vo `|+}W X$ 8$@9$@0$@a$@df b$@c$@Q$ Jd BY.f*.d$@e$@f$@g$@h$@-8 ``+$@ Ga i$@j$@k$@l$@+$ N=+m$@|!.u]+n$@o$@R3+`2 p$@c%.*k q$@r$@s$@J+ w) X% t$@}Z+.@ 0- o1 Q: 4t+*W.u$@v$@^W w$@l9 }L ;/ _+ t. T$ u@ .! k7 jp 9# 3~ X+ _y.#! {_.P3.x$@PH+]Q T]. ` Lo y$@z$@A$@$c+B$@;R C$@D$@E$@x8+F$@G$@H$@k5.I$@I^ J$@K$@L$@M$@N$@O$@P$@lc+;/+Q$@R$@S$@T$@U$@YJ V$@J+ Dj ,- ^R+P* X`+W$@X$@Y$@Z$@M8 w{ `$@8~.t++,n ]+ ]+ ]+ ]+ ]+ ]+ ]+ ]+ ]+ ]+ ",
"#  L  h. h. h. h. h. h. 3. 9# T+ j: 5_ 5_ #/ VZ `|+J+  %@.%@Mw++%@5R @%@#%@Hd o. #% $%@%%@7M..V+&%@*%@WL.=%@4# mn -%@k- fa O>.;%@>%@,%@0$ rH+'%@)%@!%@~%@{%@]%@^%@'b /%@(%@_%@:%@(% <%@[%@}%@|%@1%@2%@3%@4%@=! RC OJ i| @& 7/ 6/ [= s( ,F t> 5%@]. lG 6%@7%@8%@9%@v5 0%@(T.a%@(a UZ SW.-^ )* /+ Q2.%@ b# J+ r_.a1.b%@c%@=~ d%@UU.3I e%@f%@g%@@!  (+h%@O4 R^ ^^+6/ +@ s~ i%@]$.j%@k%@Q/ l%@m%@W(+X7 N3  I+n%@o%@gg p%@q%@r%@s%@t%@ic %@ u%@r@.v%@w%@8i+x%@y%@,0 =Q+z%@:M.A%@1u+B%@C%@vb+D%@Ia l- {: ,1.'n i| ~R+$} ;k 0$ E%@N& F%@G%@H%@I%@J%@S4+sx.0$ ,| W% K%@I8 @& pk+0~ M+ }+ Z$ -y '* *3.L%@M%@N%@O%@D%@P%@Q%@R%@S%@T%@U%@WK+V%@$I+W%@X%@Y%@2P.Z%@`%@Bw+xm+&K  &@.&@>%@+&@@&@#&@RA $&@j*.%&@^>.!G+&&@*&@=&@-&@;&@{} >&@,&@'&@ug.)&@!&@~&@{&@[) R+ H< L4 +& .& 9# ]+ ]+ ]+ ]+ ]+ ]+ ]+ ]+ ]+ ",
"#  L  h. h. L  L  L  L  ]+ ]+ ]+ ]+ 0e L  L  L  v_ u@ Fe )Q+]&@%k ,p rz+li.^&@/&@(&@46+_&@:&@<&@[&@}&@`}.wn+]_ Ly+#& *& -% y0.&W.|&@=6 !] 3; ;/+1&@2&@3&@4&@5&@6&@7&@LC.8&@9&@0&@(9 a&@Gr.'+ k( v& b&@c&@W{ t@ U.@K8 q> h. `| ]+ d&@Rz _+ {: e! e&@f&@g&@h&@i&@j&@Z` qP k&@l&@@x+;' Y  Y  $} Z$ 6# $! I@  Q f} n6 ,$+8R Sm.m&@n&@o&@p&@X# Q& k- 4. Tp 7~ 63 B-+{% #@ <i U+ c# q&@r&@s&@(}.t&@u&@#c X] ^W v&@w&@_. l#.y: L}.x&@y&@z&@Hi+[r+[r+A&@B&@C&@D&@E&@sL.Rz+]:.F&@G&@H&@hF+v=.z) ,- I&@i. +^ J&@*. rl $8. . xJ K&@L&@M&@/L P$ b]+N&@O&@x%@P&@Kb ow O' v@ Q&@ZL+&* %& rl T+ :+ 4~ q> v{ )t R&@S&@u;.f9 T&@r6+J& U&@V&@W&@X&@<y.Qa+Y&@Z&@`&@ *@.*@+*@0( s( cp.@*@,R.za.0$ KU.#*@[( $*@%*@*8.&*@-<.V%.**@=*@-*@;*@sj 0.@,^+>*@,*@'*@)*@!*@a#.}E X% .! U$ o1 3~ 9# ]+ ]+ ]+ ]+ ]+ ]+ ]+ ]+ ]+ ",
"#  L  h. h. L  L  L  L  ]+ ]+ ]+ ]+ h. L  L  U  _q ~*@z9 Dp qE.{*@]*@.g ^*@/*@~u 6c (*@_*@:*@<*@rR oU.:x.9u.fs.W).KG+[*@t. ju.Wm.}*@|*@y&.1*@2*@3*@4*@5*@6*@7*@8*@9*@*e.0*@N, 0+.a*@b*@c*@^} <# d*@Az vA U  <.@<# iT+6T ;$ #1 e*@f*@g*@h*@i*@j*@k*@l*@jg m*@n*@u;.QZ 3' o*@p*@ct+q*@r*@z` ua+X/ 9# Q' _d .@ e9 >+ ]S ,- ,+ 1t |A.s*@t*@u*@v*@w*@RF+). {. 7. 4~ 1r.-+ x*@Z+ T9 y*@;w z*@A*@B*@Y2.1^ 9, +y C*@D*@E*@F*@G*@H*@I*@J*@K*@}6 .!.ov.A) a. Xt+4|.L*@Qm+M*@N*@O*@P*@FL+f) fg r@ 2&.<'.%L.[= $* P3+=! Bb Q*@#a.R*@S*@T*@c# Q: U*@gz.V*@X3.W*@X*@Y*@Z*@i7.`*@ =@u=.qk RC <t+=| &} x{ ]S c/.RM :A+.=@V..67 +=@2k.0$ @=@CD+#=@$=@|z %=@&=@MX+*=@==@-=@)O+2_ ;=@>=@,=@/E 0. |% '=@)=@!=@~=@T|+{=@Y0.]=@^=@/=@(=@Cl+s#.$c+_=@:=@<=@[=@}=@|=@1=@!q.Cz.@& Z] @& @* ]+ ]+ ]+ ]+ ]+ ]+ ]+ ]+ ]+ ]+ ",
"#  L  h. h. L  L  L  L  ]+ ]+ ]+ ]+ h. L  L  L  Z  [+ 2=@yO 3=@4=@5=@6=@s/ 7=@eT..(+8=@9=@0=@a=@b=@c=@d=@C~+e=@f=@po.5# </ 0/ l@.g=@h=@i=@j=@k=@l=@m=@n=@o=@wh+p=@q=@r=@s=@t=@OX /T.u=@@C.'= +L v=@66.0$ `h.![ ~R+U+ >^ R$ f) S! w=@x=@N< <:+y=@z=@~c.%O A=@B=@G).^%.mn Fw C=@aw ,~.D=@E=@n-.[^ F=@O5.Ku+T!.A@ rl I< -r .+ V9 E. ]E.H$.G=@@{ H=@1~.I=@J=@K=@`1 }^ L+ u=.h( D7+4. L=@xf M=@1#+-D k.+rr.N=@O=@P=@Q=@R=@4G+gt.Qb 8@.%c -& =@ S=@qK T=@U=@V=@W=@#3+C9.^8+:(.B0 <(.<+ W/ K8 >$ Kn+%! @! c0 ,- 3z.Uo X=@Y=@Z=@`=@(& .! k7 7, tF+ -@'u 0i .-@+-@@-@#-@U%@'P+O' w% Yt .+ |p s( B@ $-@w) U+.UI.;*.LA <M+%-@q#@&-@*-@=-@--@;-@F;.>-@,-@$4+'-@)-@!-@~-@j- fp+{-@]-@<D.%@ 9o ^-@1O+/-@(-@_-@:-@^%@<-@D8+[-@}-@.6.Tn+|-@1-@2-@3-@4-@5-@6*.6-@z @'+ Jn W-.U$ Z2 ]+ ]+ ]+ ]+ ]+ ]+ ]+ ]+ ]+ ]+ ",
"#  L  h. h. h. h. h. h. ]+ ]+ ]+ ]+ h. h. h. h. M+ 7-@Bv+8-@4a 9-@0-@a-@b-@76.it c-@d-@7<+e-@f-@g-@h-@i-@j-@k-@l-@m-@k( n-@u_ ,~ Mp.o-@p-@q-@r-@s-@t-@u-@v-@As.w-@o> F++x-@y-@z-@'(.A-@zl B-@sh.C-@f= 9# @! 9v ;$ Pe 0$ D-@E-@F-@G-@H-@I-@@w.J-@K-@L-@M-@N-@O-@QI %/ B[ P-@Q-@R-@pp.S-@T-@U-@V-@W-@N3 5T 9- R{ x{ S  N: ,+ #1 m` >$ -$ /. X-@@Q.Y-@aC.Z-@`-@ ;@.;@!<.W/ gJ+^0 1& 9O+z{ -y >t <(. i.o. eY+(9 U! {/.+;@o$ #c y_ 1- !I.@;@#;@[` $;@%;@&;@qi *;@^( -& {% a. zX Z+ u@ 2/ Y1 <.@%+ n0 2( Ad R].=;@-;@;;@>;@,;@';@);@4$ !;@0D.~;@{;@ $.]+.qy ];@^;@/;@(;@_;@:;@<|.6!+(% 4^ u%@<;@T$ [;@f! };@|;@1;@2;@3;@0N+^l.4;@5;@bQ Q& 6;@7;@8;@Cm+9;@0;@a;@b;@c;@d;@J+ &i *! _r {m.e;@f;@g;@h;@i;@j;@k;@l;@<>+m;@n;@o;@p;@q;@hn.Rg+~$+r;@94.$z := @* ~+ 6- >* '* && ]+ ]+ ]+ ]+ ]+ ]+ ]+ ]+ ]+ ]+ ",
"#  L  h. h. ]+ ]+ ]+ ]+ ]+ ]+ ]+ ]+ ]+ ]+ ]+ ]+ .! <E h( =* ua+f/.s;@t;@u;@$T ^..v;@w;@A= {#+]$+x;@y;@z;@cb.Em+A;@B;@C;@/E Z= *5 D;@E;@F;@G;@rH+,- H;@MI I;@J;@K;@@x+0$ %{+)3 sF k[ L;@M;@N;@O;@<s Q$ P;@*#+Q;@0| R;@H9 S;@T;@U;@V;@W;@X;@Y;@Z;@`;@ >@.>@NH++>@o> a#.yX+p$.I: @>@#>@Q& $>@%>@&>@*>@=>@->@9, W0 f}  & rF+l)+g) JX+K8 y@ d6 u; .! '$ sl.xO ;>@>>@,>@'>@G]+;}.>6 )>@D-+[..z{+!>@~>@{>@]>@t .r].^>@/>@~^ #U+gM.yw./= (>@_>@:>@<>@[>@}>@-+ X7 7. ``+$+ h:  W Yr <'.|~ u@ ,n 5~ 8+ #/ $#+um+|>@1>@2>@z) >e 3>@B~ 4>@5>@=! ,- id 6>@7>@8>@N] 9>@0>@a>@b>@sr+c>@d>@e>@f>@rz+*3.s@ (= O+.N3 g>@h>@i>@j>@wu ]} k>@l>@`T.-& m>@n>@HT+o>@p>@wq.-% IY q>@r>@s>@t>@ah.f) @^ %v+$..G>+u>@=-.2A.v>@-,.6z.ug+w>@x>@y>@z>@A>@B>@C>@{v.D>@-. TL.E>@v@ U$ +@@6- K8 .! ]+ ]+ ]+ ]+ ]+ ]+ ]+ ]+ ]+ ]+ ",
"#  L  h. h. ]+ ]+ ]+ ]+ ]+ ]+ ]+ ]+ ]+ ]+ ]+ ]+ %! /+ -B t. 0# e5+1H F>@G>@H>@R! I>@J>@]S+K>@@Z HX wr 0$ L>@M>@N>@X} /6 O>@P>@Q>@%K.R>@S>@T>@p~.U>@0D.H%+V>@W>@X>@Y>@jB.Z>@<y py.`>@ ,@.,@+,@J( [L :^ U+ ;k d{.@,@#,@sq.$,@%,@V/ &,@*,@=,@-,@;,@x0 `5.N@@>,@,,@',@A!.),@!,@~,@{,@h`.Jd ;' ]%.],@^,@/,@l{ RR (,@|^ w% jq J .(d N: ,..|+ -r ~2._1+() |r.ms.V>@_,@:,@<,@l7 `1 Q: S^ [,@mL.},@|,@1,@2,@3,@Cx 4,@vn.6 @MW 5L+T!+<+ )* >^ 5,@wg 6,@#c.7,@|d q> Q' 2A.L&.Ml 8,@<q rl #K.d. 3; gf [{.9,@0,@a,@&.+b,@Jd X/ Yn.c,@d,@e,@W .oC+f,@g,@h,@i,@j,@k,@l,@m,@n,@o,@p,@q,@3z.p5+r,@/ .Zz s,@^. c/ V..Qg+t,@u,@)[.v,@_,@<R.w,@3|.nq.Ta+ m+x,@y,@z,@0$ [$ A,@z) e7 B,@C,@D,@E,@F,@;-+1. ,S+G,@`= Ia gM.w@ ox /s [*.H,@I,@J,@K,@7a+L,@M,@;$ 7N+Q+ `1 S% f; $* u_ .!  & 9# ]+ ]+ ]+ ]+ ]+ ]+ ]+ ]+ ]+ ",
"#  L  h. h. ]+ ]+ ]+ ]+ ]+ ]+ ]+ ]+ ]+ ]+ ]+ X+ la -* u@ o1 v@ N,@k' O,@P,@Q,@4X.R,@S,@M&.T,@U,@V,@W,@X,@Ve.Y,@Z,@/. `,@ '@.'@+'@@'@x].f) #'@$'@%'@2O $M &'@*'@='@;,@B~ -'@;'@>'@xy+,'@k!.''@[`.-& mc J8 r7 )'@!'@ty+]#+B/ V% o<+y) Wx.~'@y+.`6.{'@]'@^'@/'@('@_'@TD.:'@<'@Em.['@F+@}'@^Z [) |'@1'@.#@|o+L@ @2+2'@(z.Z$  ) 1( D` 4/ |( E$ 3'@4'@*;@@2+-j.4b c/ v-+]*.2. >^ X/ /. /[.i/+S0.(& -% -% 0$ Q& 0$ 5'@6'@7'@Q& 'V.2!.Z^ c4 ;y =& P$ 49 8'@9'@S$ V% := 9# E$ 0'@a'@G).-% b'@U1.c'@~=+d'@e'@f'@n6 y. *! /E f .g'@h'@eP.|g+i'@j'@k'@l'@~| ').m'@n'@@j+o'@~i /. #^ nV+,- 1V+p'@7w.q'@r'@]/.4^ J+ s'@t'@u'@v'@w'@x'@y'@W, z'@A'@B'@C'@D'@0$ KM.E'@F'@}c -% !g.G'@H'@I'@tA.J'@N3 K'@L'@EK 97+fv.M'@N'@FS+i&+jd.O'@}>@Bb P'@Q'@R'@}S+nn W% `] 4- +@@@+ X+ .@ o1 ]+ ]+ ]+ ]+ ]+ ]+ ]+ ]+ ]+ ]+ ",
"#  L  ]+ h. ]+ h. h. h. ]+ ]+ ]+ ]+ h. h. h. h. E$ u=.{= #+ XK ++ O+.S'@T'@U'@V'@W'@Y$.0$ Og.X'@)Q Y'@Z'@`'@rz+f)  )@,J+.)@+)@>$+Jz.(& @)@#)@$)@SV+%)@&)@*)@*)@=)@-)@;)@>)@{~ ,)@')@Wc.#2+))@!)@G^ ~)@{)@])@^)@t]./)@K  (& |_ ~2.]} Q& ih.()@n#@_)@:)@<)@tl+[)@})@7K |)@X9 1)@2)@3)@ i.Un+I` 4)@5)@6)@W_.eP.=j.7)@8)@B,+9)@0)@m9 J+ e5+Sq ,d '* bl a)@:=@X/ t. ,+  c ^+.Jx.`2 d4 b)@bC.c)@`;.@/ Q  TM+la {8 d)@e)@uA |$ #K.Eh.f)@j[ &@ - .K: 6P <Q+g)@D` b# h)@E, -. 1- G).i)@j)@BZ.k)@l)@m)@6!+n)@o)@p)@za ;8 FB.0$ q)@r)@<% *5 s)@t)@u)@1..v)@w)@x)@y)@%9.sg.Mu.#& ] @b# {8 -& ;x.{h.z)@A)@;u.-U.+0.(Y B)@8]+C)@Ey Wn+.A.D)@E)@F)@G)@H)@z) I)@J)@ 9 ]> K)@3u+7, -& ex L)@M)@N)@O)@32 P)@Yz.Q)@R)@S)@TX+~s+0$ T)@U)@V)@W)@<p.<@@F^ (s && 2~ O+ jp {= .& .@ 4- X+ ]+ ]+ ]+ ]+ ]+ ]+ ]+ ]+ ]+ ]+ ",
"#  K  ]+ ]+ L  L  L  L  ]+ ]+ ]+ ]+ h. L  L  L  h. ]+ ]+ ]+ T+ h. 0e Q& X)@Y)@Z)@5X `)@ !@.!@+!@o$ E] @!@0$ #!@$!@%!@Cd.&!@*!@+@.m/.=!@-!@;!@>!@,!@F<.'!@)!@!!@=@ Ln+~!@{!@]!@^!@^} /!@q/+(!@=r _!@ao :X.;H+sV+:!@<!@JK+[!@ZF.d/ Y$ P' (& LS #V+NF.}!@|!@1!@0$ 2!@;q 3!@4!@5!@6!@;F+2f S< 7!@dI Jd.8!@9!@/. <! +J Vo.0!@JM.a!@b!@J0 .( jO 0$ Q$ c!@t9 d!@Y$ :+ ;' bb.e!@V` f!@zX A) /,.g!@h!@z) DA i!@=9  ;.mq+0N+E{ Qe 5(.j!@k!@l!@0| pR+V6 Ml C2.m!@)$ 3^ y_ P @_(.n!@o!@p!@q!@r!@y]+s!@+% hw.t!@u!@v!@$&.w!@,- S=@x!@y!@5| z!@A!@^T+m- wl+B!@Xo.C!@Em+&+.Ga <v+OJ  . 7@.D!@aV E!@u3 F!@Pt.G!@[u+H!@I!@s8+u+@J!@0$ EB.K!@L!@=++M!@]r+O, N!@F*.B'@O!@P!@Q!@Uz+R!@S!@2( Rx T!@U!@V!@W!@]:+>/ X!@&,+q> Y!@Z!@`!@ ~@M5.hL .~@+~@U% X/ x{ X+ ]+ ]+ ]+ ]+ ]+ ]+ X+ ]+ ]+ ]+ ]+ ]+ ]+ ]+ ]+ ]+ ]+ ]+ ",
"#  K  ]+ ]+ L  L  L  L  ]+ ]+ ]+ ]+ h. L  L  L  h. ]+ ]+ ]+ h. h. h. K  t$.@~@#~@e'.$~@%~@&~@*~@l7 k( y) yA =~@-~@;~@>~@,~@]8 '~@)~@!~@~~@{~@]~@^~@/~@(~@_~@7=.:~@L^ <~@[~@}~@!N ]x PU |~@1~@j` 4C+2~@3~@|~@N[.4~@5~@6~@7~@8~@|^.;_ S' :g c/ g*@9~@0~@a~@;y.0$ Z= b~@c~@d~@e~@f~@g~@h~@i~@j~@Pw+`D+um.OQ+R% zM O: (& 0+ k)+5E+k~@l~@m~@n~@o~@p~@q~@r~@s~@L  t~@u~@1(.v~@w~@x~@y~@.d z~@A~@B~@(u.u@ .$ -8 C~@mV.Y#.b@@F. D~@E~@F~@wZ.+% W% -q+Ye G~@kf+~R H~@$e.I~@J~@K~@L~@M~@N~@0$ O' $^ A{ o> dg O~@k$ P~@Q~@R~@S~@T~@U~@Sq.q/.>7 -% '1./x+V~@^<.W~@X. Z2  = N  }L j/.oz X~@ZE.gS Oh Y~@Z~@W=@DM+uu.`~@lM  {@.{@+{@@{@#{@${@%{@&{@`V Uo *{@M>.={@-{@;{@%.@y3 :Z+>{@&R.34 *q T+@,{@'{@){@5: ^$.c. -8 3|.!{@~{@Rv+4`.{{@=W q@.@g s. 6[.Y$ ]+ ]+ ]+ ]+ ]+ ]+ ]+ ]+ ]+ ]+ ]+ ]+ ]+ ]+ ]+ ]+ ]+ ]+ ",
"#  K  ]+ ]+ L  L  L  L  ]+ ]+ ]+ ]+ h. L  L  L  h. ]+ ]+ ]+ h. h. ]+ h. I  %i+]{@^{@/{@({@_{@>V.:{@-_ <{@i}+[{@ut+}{@{,.J+ bE (m.|{@ru.1{@UP+GL+2{@3{@4{@2m+5{@6{@7{@Y$ Au.8{@9{@mi.3> 0{@a{@F<.:f rD+zM.b{@k- Jd -% ,p+c{@d{@e{@-& Q& w) .!.Yo Y5 n# f{@g{@Hd n: (e.h{@i{@;~.j{@k{@l{@m{@qP n{@o{@B_+0$ :8 M( Q& -% DA p{@'| J+ ~E.f( q{@!~+pG (8 NL r{@8~  = 90 s{@d$.2G.t{@sI+c# 9, 17+u{@L+@Q& N6 v{@w{@x{@9, y{@z{@9)+A{@0N+B{@^7+ (+c< +_.C{@D{@E{@F{@G{@p#.H{@KG+<! 0$ #A ., (& qq A) I{@/1.8h.J{@ :.b#@ 9 K{@L{@M{@_o.N{@-Y+6%+O{@P{@Q{@R{@qC 3I+:) Q& J+ /. 0$ [| S{@WE +% O) `# 'd+T{@1k.U{@V{@W{@X{@Y{@Z{@`{@ ]@.]@+]@@]@#]@$]@%]@&]@*]@=]@a|+-]@;]@>]@_ .}s+KU.'- r: &J+,]@']@)]@!]@e5.~]@{]@]]@<! ^]@1G+/]@(]@H^ _]@{( :]@q/ ]+ ]+ ]+ ]+ ]+ ]+ ]+ ]+ ]+ ]+ ]+ ]+ ]+ ]+ ]+ ]+ ]+ ]+ ",
"#  K  ]+ ]+ h. h. h. h. ]+ ]+ ]+ ]+ h. h. h. h. h. ]+ ]+ ]+ h. ]+ {+ ]+ P' }^ <]@[]@}]@uA.jB+JA /2 |]@1]@@S+2]@&_+A@ Q& 3]@4]@5]@,p 6]@7]@7! -H+E>@PA >!+8]@*k+9]@0]@/U+lf a]@b]@c]@d]@e]@iy Wp f]@ y.nf.0$ s^ N8 Z= g]@h]@V8+i]@j]@k]@l]@m]@YV d. J+ n]@jq.o]@4]@O& HE+d).p]@q]@.S r]@s]@t]@u]@v]@w]@mY+x]@y]@([.z]@A]@8}.B]@Tn ~K _/+0$ 0$ C]@Fr+D]@U9 7~ U% Yr E]@F]@G]@H]@I]@al.J  t% J]@K]@L]@VR+M]@N]@{B.W/ J  O]@P]@Q]@R]@bo+Lm.w% xB ^+ S]@T]@K=.t]+0$ U]@V]@]e 5-@i+@X^.W]@X]@Y]@-I _/+Z]@Fy+`]@`7+ ^@.^@+^@s4+@^@*D B^+#^@X(.$^@@O+h. x. nk %^@&^@*^@=^@'S -^@3I.;^@-u 6# k`+>^@+a Fw.,^@'^@<) -& )^@$R+!^@~^@qW+~=.,K {^@]^@)Q+^^@/^@(^@]8 !* _^@:^@<^@[^@ar }^@|^@J+ 0$ 1^@2^@3^@4^@5^@6^@7^@8^@9^@0^@a^@b^@U$ c^@d^@mk *! Z] ]+ ]+ ]+ ]+ ]+ ]+ ]+ ]+ ]+ ]+ ]+ ]+ ]+ ]+ ]+ ]+ ]+ ]+ ",
"#  K  ]+ ]+ ]+ ]+ ]+ ]+ ]+ ]+ ]+ ]+ ]+ ]+ ]+ ]+ ]+ ]+ ]+ ]+ ]+ ]+ ]+ ]+ @* :I+z}.e^@f^@p}.EK+g^@h^@i^@j^@k^@6F+2( ,- l^@m^@n^@o^@p^@^L ,$ xd :D+q^@f) r^@oF+s^@Rq+t^@U0.v .u=.u^@hj+wm.v^@w^@Q& x^@1[ al z}.W  /) y^@z^@A^@^7 B^@eA.C^@D^@$7 E^@L&.f]@!Q Z+ fV+F^@G^@H^@I^@J^@@+@K^@L^@M^@N^@O^@R%.)n P^@Q^@R^@S^@6K.g'.T^@U^@V^@+f+W^@X^@Y^@Z^@3; Y$ P' [f+7v.`E+`^@;0  /@./@+/@@/@c) f) #/@$/@%/@&/@*/@Of.^} O: 34 =/@-/@98.A[.;/@5G 2] O) >/@5# `2 ]W qP+,/@'/@)/@il !/@~/@{/@<] ]/@^/@//@(/@_/@:/@</@[/@}/@Wr+|/@1/@2/@3/@4/@5/@5z+D[ Mu.73 [W m9 6/@7/@8/@c@ 9/@E* 0/@a/@b/@}5.d/ PZ+ym r}.U{ SC o> c/@d/@W<.0/+e/@V +f/@F(+g/@h/@i/@j/@k/@2^ l/@.L+m/@R< n/@o/@p/@|V q/@P|.C! I^ @W r/@s/@t/@u/@rb+v/@w/@x/@y/@^! z/@_]@K^ @* Z] K^ ]+ ]+ ]+ ]+ ]+ ]+ ]+ ]+ ]+ ]+ ]+ ]+ ]+ ]+ ]+ ]+ ]+ ]+ ",
"#  K  ]+ ]+ ]+ ]+ ]+ ]+ ]+ ]+ ]+ ]+ ]+ ]+ ]+ ]+ ]+ ]+ ]+ ]+ ]+ ]+ ]+ ]+ {+ A/@J4+Vd.T7+o&@4*@pU+B/@0`+C/@%_+D/@m9 CK+E/@g0.HY+It.F/@2( Qz G/@H/@)/+j( (^ &| I/@/8+o^@J/@JA+kZ V/ K/@|F.L/@<E.%W.M/@N/@O/@W% '+ Jj KA+P/@Q/@ I @V+;s./R &2 R/@S/@T/@/!.U/@d. B. Ru+V/@Wy+p@+W/@}F X/@Y/@Z/@`/@b5  (@.(@|$@D] 8} +(@@(@&o #(@$(@%(@&(@kW.|V+*(@=(@bX+m* /E #1 ZF.-(@;(@1V+O, >(@,(@5_ ^0 ua+'(@)(@!(@tZ+|, ~(@o1 #1 *y pU i' m* V%@j1 {(@'3 ,- ^+ 3; Q1+](@^(@/(@((@_(@fr.oB Aa./Q.:(@<(@[(@}(@|(@1(@2(@3(@4(@5(@Uj.6(@7(@8(@s{ 8X.]M.Q& z$  = 9(@0(@a(@b(@c(@d(@e(@T0 v{@f(@g(@h(@i(@u; j(@26.k(@l(@0M+io m(@DA+8J.n(@o(@/7 cQ+p(@F6+#,.q(@8q+r(@s(@A> V+@t(@mr+J+ I* u(@v(@er w(@x(@c;.N8+a! x +y(@z(@A(@^Q vU B(@C(@-& +o iT+&* $m '* Q+ 9# ]+ ]+ ]+ ]+ ]+ ]+ ]+ ]+ ]+ ]+ ]+ ]+ ]+ ]+ ]+ ]+ ]+ ",
"#  K  ]+ ]+ ]+ ]+ ]+ ]+ ]+ ]+ ]+ ]+ ]+ ]+ ]+ ]+ ]+ ]+ ]+ ]+ ]+ ]+ ]+ ]+ EH /& D(@_s E(@F(@G(@H(@I(@~h.m* '' J(@@`.K(@93 L(@M(@VW+O' )c N(@O(@P(@Q(@'c+NJ <t+z}.xu R(@S(@T(@8Z dg.sL.U(@f{@V(@W(@X(@Y(@Z(@`(@B. %h+ _@._@+_@}~ ^) {> @_@4M.#_@$_@%_@&_@qL.2y.9P *_@R% 9O.%A.=_@-_@'u.;_@9,.>_@=A ,_@'G |% <x+'_@+s.)_@h[+!_@~_@{_@]_@^_@+@.HE./_@(_@e]+2a+^. i1.__@:_@<_@.. M  *. c/+I, -y >}+%@ {/ ic _8.he - .[_@P;@V  P  Ea q:+:Z+}_@|_@#c 1^ 1_@+q yA+i!+{w )^.2_@3_@4_@5_@6_@7_@8_@qc+9_@C= 0_@9k.a_@b_@c_@d_@b-@e_@f_@dc )+ O5.d6 _= f. mq g_@h_@i_@:} j_@k_@JH+$c vL.l_@m_@n_@R{ 9a.qK o_@B0+*5 p_@LD.q_@r_@s_@8=.t_@u_@(*.33+v_@w_@x_@y_@m<.z_@A_@B_@C_@D_@0$ LA $(@E_@`W.F_@V{ G_@m# nZ {i H_@I_@J_@K_@L_@M_@'* B+.1~  ^ [d $m @& ]+ ]+ ]+ ]+ ]+ ]+ ]+ ]+ ]+ ]+ ]+ ]+ ]+ ]+ ]+ ]+ ]+ ]+ ",
"#  K  ]+ ]+ ]+ ]+ ]+ ]+ ]+ ]+ ]+ ]+ ]+ ]+ ]+ ]+ ]+ ]+ ]+ ]+ ]+ ]+ ]+ ]+ %! J8 Z2 hR P(+N_@O_@P_@,s+z<+Q_@R_@3O.S_@T_@U_@&:.^m 3^ (t k%@V_@W_@X_@Y_@le O^+Z_@-^ J+ `_@ :@.:@lt+ V +:@@:@yv+Kd+#:@:_@$:@%:@&:@*:@(_ '[ P$ c)  ^ s^ =:@-:@;:@-P+>:@,:@':@):@!:@32 j. Id 7+ /) qy.H$.~:@r{ {:@]:@^:@Ko -& /:@(:@nZ+G[.$Q.t% _:@h$.3S.::@<:@[:@}:@|:@1:@2:@3:@4:@5:@6:@YJ+x[.I  `$ ot C@ xV zr+6#  a+]} Kn+5++G< |$ Kn :n.Ml ^Z 7:@8:@9:@vo.0:@0$ a:@b:@c:@-V Kq.d:@EU+e:@f:@g:@h:@V< i:@>V.j:@k:@l:@J+ m:@P=@n:@X@+E-@o:@D>.$[ 4* p:@q:@>u+Q$ r:@&Y =).s:@t:@u:@v:@w:@_= x:@y:@z:@Ga Ga ($@n7 A:@Hz 2h B:@HT+JH+C:@+i.D:@E:@F:@G:@H:@I:@J:@K:@L:@M:@XM+N:@O:@P:@Q:@R:@ Y.-& }+ S:@T:@U:@A+@Ml.LJ V:@W:@zP+A%.X:@Y:@Z:@:) Rz mk ^+ ^+ ^0 5+ #& ]+ ]+ ]+ ]+ ]+ ]+ ]+ ]+ ]+ ]+ ]+ ]+ ]+ ]+ ]+ ]+ ]+ ]+ ",
"#  L  h. h. ]+ ]+ ]+ ]+ ]+ ]+ ]+ ]+ ]+ ]+ ]+ ]+ ]+ ]+ ]+ ]+ ]+ ]+ ]+ ]+ X$ |E NJ N-.}b.:t+`:@7@@:F 29. <@.<@+<@@<@#<@$<@c;.{. %<@&<@*<@=<@-<@;<@><@#K.,<@'<@)<@=_ cW ,X.r6 !<@b-.~<@z$ xF.{<@w/.]<@^<@:8.L<./<@J.@%L.|p D$ (<@_<@t~ :<@<<@[<@}<@|<@1<@sT 2<@uq.3<@j( 4<@5<@qk -% 6<@G.+7<@8<@WX+f) _9.9<@0<@a<@^^.b<@c<@f!@f5+d<@e<@f<@g<@h<@i<@j<@k<@l<@m<@~z n<@o<@p<@W% q<@r<@V% q$+5^ b. |+ >F 7/ .& O: d# >* 5. s<@t<@Z^ u<@v<@w<@x<@y<@z<@A<@B<@C<@D<@E<@F<@G<@H<@I<@9& 6i+)5.Pt.J<@K<@`&.MV+0$ <|.L<@M<@N<@v{+=@ aA |w U$ X~ `Y `J.8@ gt+O<@P<@Q<@R<@S<@T<@J+ U<@V<@W<@ i.*! S$ X<@A'+bX.Y<@D} xN+Z<@`<@ [@.[@+[@@[@Wj.dV.q# &2 [(+S5 #[@$[@%[@&[@*[@@b =[@-[@;[@u-+J+ ;h >[@,[@'[@mK j2 )[@h7 ![@~[@{[@Z( 9# ]+ X+ X+ ]+ ]+ ]+ ]+ ]+ ]+ ]+ ]+ ]+ ]+ ]+ ]+ ]+ ]+ ]+ ]+ ]+ ]+ ]+ ]+ ]+ ]+ ",
"#  L  h. h. ]+ ]+ ]+ ]+ ]+ ]+ ]+ ]+ ]+ ]+ ]+ ]+ ]+ ]+ ]+ ]+ ]+ ]+ ]+ ]+ O5.0/ :^ yw.32 bQ R8+-;@_o.1t.][@^[@/[@([@_[@o0 :[@<[@[[@}[@|[@1[@2[@0l.,_.0$ 3[@nD 4[@+~ _r +a 5[@g*.5+ 6[@7[@8[@9[@0[@a[@ZG b[@c[@d[@e[@Fo.h: Y| f[@g[@h[@0$ 71+i[@j[@k[@=z.l[@m[@/F h* n[@6v W/ o[@+, Z^ p[@q[@r[@lB+0$ s[@t[@u[@v[@V+@w[@x[@y[@z[@A[@B[@C[@D[@E[@F[@G[@](+H[@I[@`F+LQ+J[@K[@L[@z{ -& E{ >2+R/ r<@$m @z k7 {= M[@U+ d4 34 wr D=.~L >O+N[@ku -@@O[@P[@a~@Q[@R[@S[@T[@U[@V[@W[@X[@Y[@Z[@ls+`[@ }@pG .}@+}@-V+@}@#}@GF+&b +~ 'F $}@@z j| V0 PC+%}@&}@*}@=}@-}@;}@>}@,}@.{.'}@)}@!}@D@ _r }^ ~}@{}@as.]}@^}@/}@(}@rM Di _}@:}@iC.W%+#%.Z  <}@[}@}}@]T+|}@1}@{|+2}@3}@4}@/e+5}@6}@7}@8}@9}@J2+V5.0}@a}@.7.b}@c}@d}@e}@d_ +& ]+ ]+ ]+ ]+ ]+ ]+ ]+ ]+ ]+ ]+ ]+ ]+ ]+ ]+ ]+ ]+ ]+ ]+ ]+ ]+ ]+ ]+ ]+ ]+ ]+ ]+ ",
"#  L  h. h. ]+ ]+ ]+ ]+ ]+ ]+ ]+ ]+ ]+ ]+ ]+ ]+ ]+ ]+ ]+ ]+ ]+ ]+ ]+ ]+ W-.f}@`  mI.Y6++. l8 !1+g}@h}@i}@j}@k}@P!.0$ x8 l}@m}@n}@o}@p}@q}@eD.r}@=y.0p @] s}@t}@z$ #/ yb.Z|+,- u}@v}@w}@x}@y}@z}@A}@B}@zI+Q{.*D+C}@D}@E}@0| F}@G}@H}@I}@FZ J}@K}@3>@L}@M}@N}@&*+O}@P}@2f L  7# 0e ny Q}@R}@3c S}@.{+T}@U}@V}@B$.qE.W}@X}@H4 Y}@Z}@u*@lA+Aw `}@ |@.|@Uv+2l. K++|@@|@#|@$|@%|@&|@*|@=|@c/.W/ b; Z2 w@ j: K8 =! P% Uf -|@;|@>|@,|@5g.5C+'|@)|@r' !|@Ss.~|@{|@]|@^|@/|@(|@_|@:|@U,+<|@[|@}|@||@]y 1|@2|@3|@4|@5|@M;.6|@-r QT+w{ @@ ^. Sh+7|@8|@9|@0|@!a.At.a|@b|@c|@'$ d|@e|@f|@3# ,. F* g|@=`.7C.h|@i|@/! z'+f4.j|@qB+F7+1u+8|.k|@7~ ~0 Q| e{+au.l|@m|@!:.n|@mm o|@p|@q|@r|@s|@CK p{ -% u0 t|@u|@a@+!c+v|@w|@]= m;+=| ]+ ]+ ]+ ]+ ]+ ]+ ]+ ]+ ]+ ]+ ]+ ]+ ]+ ]+ ]+ ]+ ]+ ]+ ]+ ]+ ]+ ]+ ]+ ]+ ]+ ]+ ",
"#  L  h. h. ]+ ]+ ]+ ]+ ]+ ]+ ]+ ]+ ]+ ]+ ]+ ]+ ]+ ]+ ]+ ]+ ]+ ]+ ]+ ]+ <# ::+P: |q x|@&X }G+7j+9 +y|@z|@4_+A|@B|@Z<.N .rZ.C|@D|@E|@F|@U=@G|@M&.H|@I|@x~ J|@=g.O' 1E .$ |= 1'.K|@L|@M|@N|@[^ 0$ >p.O|@P|@Q|@R|@f~@S|@p)@b) YS+$7 T|@~5 #w.U|@V|@@|@1i W|@/R .+ X|@N>./$.Y|@!0 du Z|@BY `|@Y#. 1@.1@+1@@1@#1@$1@Yi.%1@&1@*1@=1@-1@;1@>1@,1@'1@)1@!1@~1@v7 {1@/] ~1@]1@^1@sj VD+/1@(1@_1@NJ *. C@ c_ pz.$m T+ YV #Q.:1@<1@[1@}1@|1@11@T^ 21@s| 31@41@C;.51@f_+61@fX+71@81@91@(J+kg 01@a1@L7 b1@c1@gH.d1@e1@f1@g1@K/._o W/ -+ ++ 4+ h1@i1@T>@6* j1@k1@l1@m1@x:.0$ n1@o1@p1@q1@+% r1@s1@t1@u1@v1@w1@x1@TU.-% ;W+y1@m^@z1@A1@B1@$[ u=.C1@N3 D1@E1@6! F1@G1@ii+H1@I1@uA+J1@K1@Q$@L1@M1@N1@m{+W, O1@P1@Q1@R1@S1@T1@D=..! ]+ ]+ ]+ ]+ ]+ ]+ ]+ ]+ ]+ ]+ ]+ ]+ ]+ ]+ ]+ ]+ ]+ ]+ ]+ ]+ ]+ ]+ ]+ ]+ ]+ ]+ ",
"#  L  h. h. ]+ ]+ ]+ ]+ ]+ ]+ ]+ ]+ ]+ ]+ ]+ ]+ ]+ ]+ ]+ ]+ ]+ ]+ ]+ ]+ X+ U$ Y1 ]+ $m d# U1@vo 0| n[+V1@y$+0$ ,N.W1@X1@)b.@1.Y1@Z1@`1@ 2@.2@|i +2@x[.@2@#2@$2@o. 8P U9 w~.%2@&2@*2@=2@0$ MU+'~ 0g Q& -2@;2@>2@,2@'2@)2@ez.!2@~2@6b {2@@c.y_ Vh+]2@)A.^2@/2@S< (2@_M+_2@(8.o1 O+ :2@yY+<2@0$ dJ.|f+C4+.= 1( P$ S2 J[.[2@;=@}2@St |2@=*.12@22@32@42@52@62@72@82@92@t%+02@a2@b2@.1 21.fv+s<+s. S+ 7- ^( Ob Q' Q2.} +c2@d2@e2@u8 f2@*e g2@h2@i2@j2@k2@l2@m2@n2@o2@p2@q2@r2@v!@s2@t2@u2@WM yr v2@mw.|;.t]+w2@x2@y2@z2@A2@|_ B2@ih /o.Kk C2@c# Js+Cd.D2@E2@F2@0( G2@H2@I2@J2@-[.|_.K2@L2@J;@M2@N2@{}++% 0~.O2@P2@Q2@R2@S2@T2@$l+U2@{h V2@H}.1'.W2@}E+X2@Dl+Y2@Z2@`2@ 3@.3@7V++3@~L @3@#3@;[+$3@%3@&3@*3@=3@n9 w@ /d Pb ]+ ]+ ]+ ]+ ]+ ]+ ]+ ]+ ]+ ]+ ]+ ]+ ]+ ]+ ]+ ]+ ]+ ]+ ]+ ]+ ]+ ]+ ]+ ]+ ]+ ]+ ",
"#  L  h. h. ]+ ]+ ]+ ]+ ]+ ]+ ]+ ]+ ]+ ]+ ]+ ]+ ]+ ]+ ]+ ]+ ]+ ]+ ]+ ]+ l7 @* CT G, m` t@ $x.5/ x% u.@~^+-3@;o+,y+;3@VW >3@,3@E/@'3@)3@Bf.!3@tY X. n- ~3@9<@V$@_+ {3@PR ]3@^3@/3@(3@Q& >E _3@:3@x,@<3@ ) :6+[3@}3@|3@13@23@33@43@53@63@73@83@<! 93@03@a3@b3@0$ gg 3$+m[ c3@g+.J` }g -Q.pW+e<+d3@e3@`2 8/ i. 2/ 9, ^R+f3@g3@> +h3@i3@;c j3@k3@l3@m3@uH+n3@o3@p3@q3@r3@-& +d XM /. r: fg *& R^ 1E &! >$ %m S7 |q s3@1- [^ a4 /| ]. CD+t3@c3 u3@v3@r%+w3@5$ x3@y3@z3@PB+A3@B3@SO+';.>t K[ X-.nC+Ij.C3@0^.D3@~T+76.](+n$ +} E3@g+.6% a6.<' F3@Gr G3@H3@q^.a_ |^@nc+I3@J3@K3@L3@M3@N3@O3@xp P3@FH -& ,@@Q3@R3@S3@qt.T3@MY+U3@V3@W3@X3@@:@<7 ia Y3@Z3@[I+`3@'y.!3@i+. 4@Yw+.4@`(@w^.+4@@4@#4@$4@$N+%4@U' B. j. kg.0# P' ]+ ]+ ]+ ]+ ]+ ]+ ]+ ]+ ]+ ]+ ]+ ]+ ]+ ]+ ]+ ]+ ]+ ]+ ]+ ]+ ]+ ]+ ]+ ]+ ]+ ]+ ",
"#  L  h. h. ]+ ]+ ]+ ]+ ]+ ]+ ]+ ]+ ]+ ]+ ]+ ]+ ]+ ]+ ]+ ]+ ]+ ]+ ]+ ]+ 9# o1 C@  ^ w{ u> 5%@Y2 (s ;!.&4@*4@=4@-4@$9 ;4@>4@ %.,4@'4@)4@!4@r^.U% nu ~4@{4@]4@f) (& ,U .#@^4@/4@Jq+n9 (4@0q._4@|U %6+:4@KM.<4@., [4@*'@$v }4@S-@|4@14@24@34@44@2*+<r+54@8/.0$ q<+64@q0+74@84@`_.5^ 94@,_ 04@a4@b4@F/ }~ y_ EA.c4@0v.d4@e4@f4@;' >' #_ *g Ss %R dW./N g4@h4@'V+i4@IN+j4@u. Z=+k4@l4@/6.5+ %+ nC+m` M+ W% -* m4@U$ /) RF+{W It ]:+O6 n4@o4@p4@7X+q4@r4@s4@-Y+t4@Tj+H|.qV+el .Q rr.u4@v4@:<++( F @y. qC _j w4@x4@y4@z4@A4@Jd t@ iU+B4@C(+C4@D4@2# E4@F4@2P wk.6O G4@H4@I4@J4@,y+1J {-.l1@SC n6 K4@=g L4@M4@N4@O4@P4@vX+Q4@R4@bB.S4@T4@~3 .~.0$ U4@V4@W4@X4@B6.Y4@i;+Z4@`4@ 5@v%@.5@+5@0$ jB.@5@#5@V{@c# $M $5@j| T+ X+ ]+ ]+ ]+ ]+ ]+ ]+ ]+ ]+ ]+ ]+ ]+ ]+ ]+ ]+ ]+ ]+ ]+ ]+ ]+ ]+ ]+ ]+ ]+ ]+ ]+ ]+ ",
"#  L  h. h. ]+ ]+ ]+ ]+ ]+ ]+ ]+ ]+ ]+ ]+ ]+ ]+ ]+ ]+ ]+ ]+ ]+ ]+ ]+ ]+ &* Id ,k ZR.%5@+& W-.O5. @ }q :+ Ee &5@`:.*5@=5@-5@`t+;5@>5@Uo+,5@'5@)5@Q@+!5@~5@{5@^) I'.]5@^5@/5@Ec 0$ ,U (5@_5@:5@<5@5$ [5@}5@|5@15@,- y. 25@35@45@GR 55@65@75@85@Kg 7g.95@Sn.05@JA.a5@b5@c5@d5@e5@LI @&.^0.f5@g5@h5@i5@bQ aV+=t._.+j5@k5@l5@|.  ^ Q' m5@n5@>^ _K lC o5@p5@q5@r5@s5@t5@u5@v5@sK+w5@DJ+x5@y5@z5@$@ w_ T+ A5@;| u@ N: B5@C5@D5@gv E5@Q| EB+pq #n.F5@-B.U_+G5@H5@'Q |^ Y$ v@ 7~ I5@vo J5@K5@L5@~6 }[ (B M5@N5@O5@YW.P5@R) cC. 6+yj 2/+p].Q5@R5@S5@vC+T5@#].U5@V5@W5@b2@X5@Y5@&|@Z5@`5@ 6@Cv+f) .6@+6@/[@@6@#6@qu+V] $6@%6@&6@9O.ab u_@*6@=6@-6@W.@wu+;6@>6@,6@eT '6@)6@!6@~6@{6@!3.zQ 9V+]6@^6@/6@(6@Q$ Z+ _6@%* V% ^Z M^ ]+ ]+ ]+ ]+ ]+ ]+ ]+ ]+ ]+ ]+ ]+ ]+ ]+ ]+ ]+ ]+ ]+ ]+ ]+ ]+ ]+ ]+ ]+ ]+ ]+ ]+ ",
"#  L  h. h. ]+ ]+ ]+ ]+ ]+ ]+ ]+ ]+ ]+ ]+ ]+ ]+ ]+ ]+ ]+ ]+ ]+ ]+ ]+ ]+ 9# 9# Z2 && Z2 ]+ K8 U$ x{ hp W+ o$ 1M :6@<6@[6@}6@|6@16@26@36@wZ+'P+46@56@Fw.~(@32 66@76@86@O[ Kq.0$ si._o.v=++u+96@mu.06@a6@WL+4C+b6@c6@d6@9, =#+u%+5c+e6@g'.f6@g6@h6@i6@j6@k6@86 l6@m6@n6@o6@p6@q6@c) r6@s6@t6@0Q+u6@iF BD v6@^M.w6@kE+x6@y6@8. +@ aD.m;+-/ .! M+ a&.z6@A6@B6@C6@D6@Mw+E6@F6@%<+G6@H6@3|.5{@I6@X7 /= `| J6@4- Y] d/.K6@L6@^M. 5 M6@yO O5.Ze N6@O6@)*+A*@P6@Q6@[) 0U+&* E=.J..:m +} R6@gO.lQ.S6@T6@Dq.U6@V6@W6@/t X6@Y6@7. Z6@c&+`6@U4@U8. 7@.7@Re.+7@@7@#7@$7@%7@&7@*7@=7@-7@Z9+;7@(& c# @x+>7@^O.Oi+,7@'7@)7@!7@~7@{7@]7@3B+n7.|] ^7@/7@(7@U]+Z2 e! a8 9r._7@:7@,o.<7@k8.[7@}7@iD |7@17@27@37@Q& ]+ >$ -* C@ #+ X+ X+ ]+ ]+ ]+ ]+ ]+ ]+ ]+ ]+ ]+ ]+ ]+ ]+ ]+ ]+ ]+ ]+ ]+ ]+ ]+ ]+ ]+ ]+ ]+ ]+ ]+ ]+ ",
"#  L  h. h. ]+ ]+ ]+ ]+ ]+ ]+ ]+ ]+ ]+ ]+ ]+ ]+ ]+ ]+ ]+ ]+ ]+ ]+ ]+ ]+ ]+ ]+ ]+ ]+ ]+ ]+ ]+ ]+ u@ O: ]+ t> )$ _u.47@57@67@77@87@97@07@.~.f) n8 _. Z( '| &7+a7@b7@c7@d7@-% n: e7@f7@du+*q+g7@Fw vO+h7@i7@j7@:| d%+k+.)S.-% B. $#+k7@l7@}G E:+m7@@]+n7@o7@s#.UV <n+K[ s@.p7@q7@q: EA r7@s7@t7@.7.u7@v7@w7@x7@i3+y7@z7@=/++2 ka 8~.A7@T!.#/.+e {. J= B7@wQ.C7@D7@E7@-8 U+ 1} F7@G7@Z= H7@I7@J7@Hk K7@$} RC F^ (T.L7@g= a8 M7@_9+mc yh N7@O7@58 P7@Q7@:h W1 NJ ~+ D.+_E zJ+/= R{ R7@Nk.2n 6!.Q{.S7@T7@U7@tO+|[@V7@3B+Z*+;/ yB W7@X7@,- 4+ k`.Y7@Z7@iR `7@Mg. 8@Z1.Aa..8@+8@&` '| Fs.W]@Cm.@8@!I+Gt #8@$8@`V :<+%8@&8@*8@=8@~;.-8@B_.O-+;8@>8@{l g) ,. o$ a4 B. ]8 ,8@'8@)8@ub.!8@~` ~8@{8@0$ L  {+ ]+ ]+ ]+ ]+ ]+ ]+ ]+ ]+ ]+ ]+ ]+ ]+ ]+ ]+ ]+ ]+ ]+ ]+ ]+ ]+ ]+ ]+ ]+ ]+ ]+ ]+ ]+ ]+ ]+ ]+ ]+ ]+ ",
"#  L  h. h. ]+ ]+ ]+ ]+ ]+ ]+ ]+ ]+ ]+ ]+ ]+ ]+ ]+ ]+ ]+ ]+ ]+ ]+ ]+ ]+ ]+ ]+ ]+ ]+ ]+ ]+ ]+ ]+ ]+ 63 && W% L4 a~ ]M.]8@^8@/8@(8@_8@:8@ea <8@:g 1r. ) w~.-P+[8@be 36@Q$ OQ+V3 Y|.}8@|8@)U+c# 18@f; ;& 28@38@48@-{.58@$) gK.r,+-& ]+.68@78@88@98@08@a8@b8@c8@d8@e8@6'.k8 f8@g8@`) E].Ha O-@h8@i8@GN+j8@k8@l8@m8@n8@o8@p8@{+ l. D@ =$ ]5.-. }Z+,J q8@~c r8@s8@t8@E[@u8@v8@Og.w8@x8@0$ y8@E% /7+z. T% _+ D` -w X1@z8@Q& :T.A8@E0+- .B8@C8@D8@E8@>u.F8@$= +. 3. }$ #& T1.U  6- h( Wp G8@H8@k%+I8@J8@K8@L8@M8@N8@qi  . *! 5+ O8@P8@Q8@(}+4v+R8@Xi+S8@3u.T8@U8@V8@W8@X8@/: r: ]/ od Y8@Z8@(5.`8@ 9@Dk l$.z) .9@X[ ev+s/ +9@3$+@9@S[.*j U3.t5+[6@gh+#j+<i Y$ nV+W3.<8@k +#9@^F+$9@%9@/F O-@O' 0e ]+ {+ ]+ ]+ ]+ ]+ ]+ ]+ ]+ ]+ ]+ ]+ ]+ ]+ ]+ ]+ ]+ ]+ ]+ ]+ ]+ ]+ ]+ ]+ ]+ ]+ ]+ ]+ ]+ ]+ ]+ ]+ ]+ ]+ ",
"#  L  h. h. ]+ ]+ ]+ ]+ ]+ ]+ ]+ ]+ ]+ ]+ ]+ ]+ ]+ ]+ ]+ ]+ ]+ ]+ ]+ ]+ ]+ ]+ ]+ ]+ ]+ ]+ ]+ ]+ u@ |w &9@*9@1& ot A) =9@-9@;9@>9@Hs.,9@'9@zZ+)9@!9@:B ~9@{9@]9@^9@[) }$ Ws+^K+/9@(9@@t+0$ hz._9@0X Fa yw.k/@:9@<9@fk ns+[9@go.M+@}9@0$ QY (y+|9@19@29@39@49@-..59@69@}k+9j @! $@ $m _V+nv.79@89@99@09@}|@a9@T9+b9@c9@n. o@ D@ lD+Um.yM d9@g: e9@ef.f9@An.g9@h9@i9@Q'.'(@J+ ^F j9@{> Iq+k9@a@+o: X~ 3- () (M.[x+l9@uu m9@Cc.0$ g/ n9@o9@+y p9@|v.q9@1:.r9@+. ]!+s9@v7 t9@*-.u9@(6 M; v9@w9@x9@y9@z9@;'@CM++c+7, A9@3/ B9@nq I'.l(@E;.C9@$I D9@eX+m3 qK+E9@F9@;*.<! ]_ G9@H9@I9@h{ J9@K9@L9@M9@N9@N3 ' +Ww+O9@o> P9@~k.Q9@R9@S9@l#@0$ @( T9@&9.U9@uz.[/ >9+A+.<o V9@:A+^,@W9@X9@Y9@}$ Z9@9# {+ 84.]+ ]+ ]+ ]+ ]+ ]+ ]+ ]+ ]+ ]+ ]+ ]+ ]+ ]+ ]+ ]+ ]+ ]+ ]+ ]+ ]+ ]+ ]+ ]+ ]+ ]+ ]+ ]+ ]+ ]+ ]+ ]+ ",
"#  L  h. h. ]+ ]+ ]+ ]+ ]+ ]+ ]+ ]+ ]+ ]+ ]+ ]+ ]+ ]+ ]+ ]+ ]+ ]+ ]+ ]+ ]+ ]+ ]+ ]+ ]+ ]+ ]+ ]+ #& +@ #+ #m `9@.2 S' 3;  0@-P+.0@+0@@0@#0@Y @$0@%0@4_+&0@*0@4*@Q$ I  c].6z =0@-0@<0 n6 ;0@>0@,0@'0@)0@S% U  [^ 9h !0@:`.~0@Ya.To.*$@l`.Wj {0@]0@^0@/k./0@J*.6V.6T.#^.V! 6,.>|.R0.gf 9v+R' R< ,w YB+]r+| +(0@_0@X] X-.:= +@.:0@N].<0@u].!]+[0@F3@Ha }0@|0@10@20@30@o_ ]. 6*.40@oe 50@60@[- 70@,- R% OC ^) f%+80@d0.w$ rP #% |^ -% 90@00@a0@b0@c0@d0@h~ X~ e0@f0@g0@h0@33@h}.W{ E=.%L.-% fC i0@P> 'f.g2 j0@ ) R/ <.@w@ G< 7/ ,- Ka+,N RK+k0@l0@ie+m0@n0@o0@p0@q0@r0@&J.s0@jQ+t0@u0@@u+'7 H~ T$.v0@ = w0@x0@y0@>n./. z0@A0@,Z+B0@@=+D` 0| h5.ej+C0@$_@D0@m6+E0@F0@G0@eN H0@I0@Y9@J+ ;| r1 I8 ]+ ]+ ]+ ]+ ]+ ]+ ]+ ]+ ]+ ]+ ]+ ]+ ]+ ]+ ]+ ]+ ]+ ]+ ]+ ]+ ]+ ]+ ]+ ]+ ]+ ]+ ]+ ]+ ]+ ]+ ]+ ]+ ]+ ]+ ",
"#  L  h. h. ]+ ]+ ]+ ]+ ]+ ]+ ]+ ]+ ]+ ]+ ]+ ]+ ]+ ]+ ]+ ]+ ]+ ]+ ]+ ]+ ]+ ]+ ]+ ]+ ]+ ]+ ]+ ]+ l7 T$ G, ih %5@L&.0i ;k /. 0o CC D3+J0@K0@0$ L0@M0@N0@%:.6v+k' c) O0@P0@Q0@)C+jf.m<.-% R0@D+.S0@T0@U0@4)+V0@]S %+ f: Kt Z~.W0@F0@X0@Y0@Z0@Dk `0@yW+RH n9 0o  a@'x.86+.a@76+/. &+ ^:+;+ '* j. d. 1G ]. /. ^} S{ u@ +& |_ sg.Y3@+a@K1+@a@yG+YA.>8 F^ #a@$a@%a@&a@_7 ld R< 7/ z) *a@QQ iI =a@-a@`* 73 0. 3; ;a@>a@s% ,a@'a@8[ ^O E(+)a@F8 !a@~a@{a@]a@a4 b_ ^a@/a@d,@(a@_a@:a@u2@i. ,[ ,$ u> Jd nX ]m 1- <a@[a@ ^ }a@{= N3 ;p.|a@1a@2a@5l.3a@M8.8+ C3 4a@5a@6a@7a@/s+_C.8a@9a@0a@0b /P aa@ba@x*.ca@da@ea@fa@ga@ha@cW Y| :L ia@yi+ja@bw O' [^ %; ka@la@ma@na@(#@0$ oa@pa@qa@R>+c# a. @! [z+#+ ]+ ]+ ]+ ]+ ]+ ]+ ]+ ]+ ]+ ]+ ]+ ]+ ]+ ]+ ]+ ]+ ]+ ]+ ]+ ]+ ]+ ]+ ]+ ]+ ]+ ]+ ]+ ]+ ]+ ]+ ]+ ]+ ]+ ]+ ",
"#  L  h. h. ]+ ]+ ]+ ]+ ]+ ]+ ]+ ]+ ]+ ]+ ]+ ]+ ]+ ]+ ]+ ]+ ]+ ]+ ]+ ]+ ]+ ]+ ]+ ]+ ]+ ]+ ]+ ]+ Z2 ^( P' &/ p. &@ '[ #! 4. N3 ra@i_ sa@ta@Lk eE.ua@va@B9.wa@W1 ga.xa@*h.ya@za@Aa@Ba@Vw.Ca@Da@Ea@Fa@l_@.!.Ga@Ha@~(@7I.y_ Ia@H#.Ja@Ka@N7.;+ 0$ /_ #! =y L  $9 La@ol.Ma@Na@Oa@Pa@|d.!6+Gh 6. qk L^ ]: 4. <+ +. Tl R< D@ 0$ Qa@Ra@8a xt+c# *: Sa@=8 Ta@lq+8]+Ua@G[.Va@Wa@c8 D{ D. (0@Xa@%W.Pl Ya@Ls @3 B0 xJ /I+Za@Ak+2g.`a@0$ 05 -p.**+[{. b@.b@+b@@b@T) Wp #b@$b@24.h. zk.%b@,8@0$ 7, Q& /. i$@+, gQ NJ ,$ $& &b@K[ eB *b@=b@-b@;b@o>@n,.>b@,b@ux 6# y@ w. 9, {m.PN 'b@)b@!b@Kd -& ;G.'$+'8 ~b@),.{b@-~ ]b@^b@/b@(b@ 6+h~ .a@u:.qe+_b@:b@<b@0( Zs [b@}b@|b@/r.>2 -I+1b@2b@O) j( vP FD+nn ]+ ]+ ]+ ]+ ]+ ]+ ]+ ]+ ]+ ]+ ]+ ]+ ]+ ]+ ]+ ]+ ]+ ]+ ]+ ]+ ]+ ]+ ]+ ]+ ]+ ]+ ]+ ]+ ]+ ]+ ]+ ]+ ]+ ]+ ]+ ",
"#  L  h. h. ]+ ]+ ]+ ]+ ]+ ]+ ]+ ]+ ]+ ]+ ]+ ]+ ]+ ]+ ]+ ]+ ]+ ]+ ]+ ]+ ]+ ]+ ]+ ]+ ]+ ]+ ]+ ]+ ]+ #& U% @z '* [z+N: .@ J5 <t+QT+g).U7.3b@4b@A%+0`+Nd+5b@6b@_=+t_.7b@8b@9b@~( -& 0b@'6+>V+ab@bb@/0+]+.]_ cb@db@eb@V9 C3@fb@yZ E3 ib+cV+3' H. Y0+R< _^ [W jJ+gb@hb@ib@jb@kb@V4@,e.lb@bb+&#+0$ 3' Z. 0$ -% #w.6W+}p mb@nb@EM.ob@pb@7C qb@rb@ 8 o5.sb@tb@ub@f/.$/ vb@wb@xb@_g Da yb@+B.zb@Ab@Bb@R[+I  '- G#@9w+Cb@eP.Db@vS+y_ y. u#.Eb@Fb@ c 0$ B. >^ (L+Gb@Hb@Ib@Jb@Kb@@&@uD.w$ fQ Lb@Mb@s&@[P.Nb@0$ 9o a#._. ._.Ob@n4.Pb@Qb@#:@Rb@Sb@Tb@Ub@'` Vb@@b@}^ )+ g)+{8 H'.Wb@Xb@a; _L+Y] S$ uO Yb@Zb@`b@ c@.c@+c@@c@p[@#c@LZ ^. -[.$c@%c@&5@%#@1d.&c@*c@=c@)/+-c@;c@>c@,c@'c@3; ^G+]E A[ _6 )0 j: ]+ ]+ ]+ ]+ ]+ ]+ ]+ ]+ ]+ ]+ ]+ ]+ ]+ ]+ ]+ ]+ ]+ ]+ ]+ ]+ ]+ ]+ ]+ ]+ ]+ ]+ ]+ ]+ ]+ ]+ ]+ ]+ ]+ ]+ ",
"#  L  h. h. ]+ ]+ ]+ ]+ ]+ ]+ ]+ ]+ ]+ ]+ ]+ ]+ ]+ ]+ ]+ ]+ ]+ ]+ ]+ ]+ ]+ ]+ ]+ ]+ ]+ ]+ ]+ ]+ ]+ 9# 2~ ^( X+ 9# ]+ k7 #+ w@ pz.*j !y )c@!c@~c@{c@]c@^c@/c@(c@_c@b9 :c@1u m9 <c@8b@[c@tb+}c@|c@s*@!G+J+ 1c@2c@3c@Y| 4c@5c@c; 6c@&].7c@X6+<&.8c@jx+Y! @& F9 l^.$,.9c@GI.0c@ac@bc@cc@dc@ec@fc@_8 HU <X+gc@gj hc@{:+ic@jc@Z#@sU kc@lc@mc@}D+f&@nc@oc@pc@;3 7T+qc@rc@~J+3^ sc@tc@^p uc@vc@)X SZ wc@Z= r: U3.xc@yc@T#+zc@Ac@X. Bc@f: o*.Cc@Av.(x+)}+9I Dc@Ec@R[ Fc@r[+Gc@Hc@(E+Ic@M$+r .Jc@Kc@Lc@W1.Mc@qo Nc@Oc@Pc@Qc@Rc@q4.Sc@Tc@Uc@F2.Vc@0A+bW Wc@;B.^x.Xc@4l.Yc@K2@Zc@`c@{[ q> O: `t. d@.d@+d@@d@#d@$d@_{.%d@~^+&d@M]+Im O' >n.*d@=d@-d@t|@;d@dY+>d@u8 ,d@'d@)d@!d@-% ++ Z+ l7 ]+ =| Z2 T$ ]+ ]+ ]+ ]+ ]+ ]+ ]+ ]+ ]+ ]+ ]+ ]+ ]+ ]+ ]+ ]+ ]+ ]+ ]+ ]+ ]+ ]+ ]+ ]+ ]+ ]+ ]+ ]+ ]+ ]+ ]+ ]+ ]+ ]+ ",
"#  L  h. h. ]+ ]+ ]+ ]+ ]+ ]+ ]+ ]+ ]+ ]+ ]+ ]+ ]+ ]+ ]+ ]+ ]+ ]+ ]+ ]+ ]+ ]+ ]+ ]+ ]+ ]+ ]+ ]+ ]+ ]+ ]+ ]+ ]+ ]+ ]+ ]+ ]+ &@ |q U  A) Tn+~d@{d@]d@Dl+^d@Ks /d@(d@Yd.<2.66 )d._d@:d@<d@)+@11@]l Wa.3&@[d@}d@|d@1d@M( 2d@ ^ 7~ '[ 3d@2'@x9 4d@GS+5d@6d@K[ Q& v++7d@8d@Zv 9d@0d@ad@bd@V!.Z @cd@dd@ed@fH.fd@rE+Y}.^! A) I* gd@hd@*0 id@jd@& +7v+sO.kd@ld@t|.md@nd@od@ $ Q$ pd@qd@rd@sd@td@2_ DR+ud@^| N6 vd@wd@;E+xd@R0 g} yd@zd@Ad@m* Bd@Cd@Dd@Ed@Fd@Gd@Hd@(E+Id@L8+Jd@ZG+Kd@Ld@[g+4j+]E.W@+;`.; +Md@Nd@Od@Z @,*+Pd@Qd@Rd@Sd@Td@Ud@Vd@Wd@9~@Xd@Yd@vu.Zd@,N `d@ e@.e@@).RE f3+%+ 9v :n.r,++e@@e@#e@$e@%e@&e@@7.xp *e@=e@-e@gU.rr.;e@>e@,e@'e@)e@A) !e@+-.~e@{e@CK+-$ L  ]+ {+ ]+ ]+ ]+ ]+ ]+ ]+ ]+ ]+ ]+ ]+ ]+ ]+ ]+ ]+ ]+ ]+ ]+ ]+ ]+ ]+ ]+ ]+ ]+ ]+ ]+ ]+ ]+ ]+ ]+ ]+ ]+ ]+ ]+ ]+ ]+ ]+ ]+ ]+ ]+ ",
"#  L  h. h. ]+ ]+ ]+ ]+ ]+ ]+ ]+ ]+ ]+ ]+ ]+ ]+ ]+ ]+ ]+ ]+ ]+ ]+ ]+ ]+ ]+ ]+ ]+ ]+ ]+ ]+ ]+ ]+ ]+ ]+ ]+ ]+ ]+ ]+ ]+ ]+ X+ 8~.Y2 pR ]e@.Q ^e@/e@(e@_e@:e@@`.<e@6z.d{.=r [e@}e@|e@1e@2e@Ht 3e@4e@|E+5e@6e@7e@8e@]:+PV P3+|(  (+7+ W6 0$ 0$ 9e@0e@ae@_s+l9 yh be@,a.WD ce@de@ee@fe@`D./;.*W )b@ge@dK.he@:n.)$ cW P0 2- ie@je@ke@le@lN+me@B1.ne@Q!.oe@pe@qe@YR.vL.,- qq re@se@te@ue@ve@_7@-& we@k3 xe@ye@ze@Ae@0( g5.Be@0$ Ce@De@T+@Q$ 0| ~8 Ee@Fe@Ge@He@JJ.Ie@Je@Ke@q].(| Le@Me@Vd.F-./| R{ ,- fD.:+@9h 5W Ne@Oe@Pe@U4@Qe@(^@Re@Se@6/.Te@Ue@Ve@We@Xe@Ye@<]@0$ 0$ Q& o: f$ .@@7+ WZ #7.+@.Ze@`e@{y+hQ+ f@.f@+f@@f@{#@&x+g5@#f@$f@%f@X] &f@*f@_f P[ =f@-f@>Z+;f@>f@W/ h. ]+ {+ ]+ ]+ ]+ ]+ ]+ ]+ ]+ ]+ ]+ ]+ ]+ ]+ ]+ ]+ ]+ ]+ ]+ ]+ ]+ ]+ ]+ ]+ ]+ ]+ ]+ ]+ ]+ ]+ ]+ ]+ ]+ ]+ ]+ ]+ ]+ ]+ ]+ ]+ ]+ ",
"#  L  h. h. ]+ ]+ ]+ ]+ ]+ ]+ ]+ ]+ ]+ ]+ ]+ ]+ ]+ ]+ ]+ ]+ ]+ ]+ ]+ ]+ ]+ ]+ ]+ ]+ ]+ ]+ ]+ ]+ ]+ ]+ ]+ ]+ ]+ ]+ ]+ ]+ ]+ |w :g d# ]Z +@ n. ,f@p:+'f@)f@(8 !f@Jt vq+~f@f#.He {f@]f@^f@/f@Fg+(f@_f@5. :f@<f@k3 @:@f) lf [f@}f@|f@kX m{.<n.1f@D4 2f@3f@,F r: 4f@S+.5f@6f@7f@8f@9f@:> {b+0f@af@Fa b} I^ bf@&i (M %f Y$ cf@df@%.+ef@ff@gf@hf@if@jf@_J.(2@[+ ;+ [+ IJ+-$ kf@lf@mf@~s+nf@{O -% C) of@t2.pf@>8.qf@H. _k n9.-% rf@sf@tf@.W uf@Hi+x..o> vf@wf@xf@yf@3i Ob.zf@cp Af@Bf@Cf@3; Z= 0$ Q& y. zM ;I f) Df@%C Ef@;;@Ff@qB 9M+4Z+Gf@o5.Hf@If@Jf@Kf@Lf@r]@h@.Mf@x~.f( Nf@Of@_Z *7 c# 0$ Pf@Qf@}=.yh Rf@Sf@Tf@{p+Uf@47.9_ Vf@Wf@Xf@Yf@5,.Zf@Fx `f@ g@.g@Qs.K[ @^ o@ {+ {+ {+ ]+ ]+ ]+ ]+ ]+ ]+ ]+ ]+ ]+ ]+ ]+ ]+ ]+ ]+ ]+ ]+ ]+ ]+ ]+ ]+ ]+ ]+ ]+ ]+ ]+ ]+ ]+ ]+ ]+ ]+ ]+ ]+ ]+ ]+ ]+ ]+ ]+ ]+ ]+ ",
"#  L  h. h. ]+ ]+ ]+ ]+ ]+ ]+ ]+ ]+ ]+ ]+ ]+ ]+ ]+ ]+ ]+ ]+ ]+ ]+ ]+ ]+ ]+ ]+ ]+ ]+ ]+ ]+ ]+ ]+ ]+ ]+ ]+ ]+ ]+ ]+ ]+ ]+ #& 2+ 9# jp ]E -^ U$ +g@Z  @g@#g@$g@%g@&g@6@@*g@=g@-g@;g@&3+SS >g@,g@ 0@0$ J+ h~ 'g@)g@V/.!g@nr.~g@{g@]g@^g@/g@(g@_g@*- {8 ~+ 0/ >+ :g@89.&!._M.<g@[g@}g@|g@KU+It.|K+P$ L> 1g@2g@g>@3g@4g@.T+5g@$'@6g@7g@8g@Tl.Ik.9g@!=+A[+)$ ]e@0g@z{ QS 1d.ag@bg@GI.p5 yz+cg@dg@eg@IH+fg@gg@|O.hg@xz.:-+eo f) be.ig@jg@kg@ ) {= 3. k7 '- wm+e[@lg@mg@ng@t$+og@pg@qg@rg@sg@tg@ug@vg@wg@n:.xg@zp |% Za@yg@zg@Ag@Bg@N2@Cg@Dg@Eg@Fg@K| Gg@Hg@Ig@Jg@MN+Kg@Lg@Mg@Ng@Og@Pg@Qg@Rg@Sg@Tg@ao Ug@o> J+ Vg@Wg@Xg@Yg@IA V! &J+Zg@&k.`g@ h@.h@+h@@h@#h@NJ C#.X2 o<+>$ ]+ ]+ ]+ ]+ ]+ ]+ ]+ ]+ ]+ ]+ ]+ ]+ ]+ ]+ ]+ ]+ ]+ ]+ ]+ ]+ ]+ ]+ ]+ ]+ ]+ ]+ ]+ ]+ ]+ ]+ ]+ ]+ ]+ ]+ ]+ ]+ ]+ ]+ ]+ ]+ ]+ ]+ ",
"#  L  h. h. ]+ ]+ ]+ ]+ ]+ ]+ ]+ ]+ ]+ ]+ ]+ ]+ ]+ ]+ ]+ ]+ ]+ ]+ ]+ ]+ ]+ ]+ ]+ ]+ ]+ ]+ ]+ ]+ ]+ ]+ ]+ ]+ ]+ ]+ ]+ ]+ j: k| .@ 4~ j: Hv 2~ W-.U1@)$ $h@%h@5y Rq+&h@*h@z6.=h@`E+-h@;h@P.@>h@*A.,h@'h@)h@!h@~h@KA+{h@]h@dt+'=.1E.m>@dK.o$ 0$ ,^ y. >^ 2( :F ^h@/h@rE+(h@Vz _h@:h@&e n..V!+&:.<h@[h@}h@Pq.|h@uJ Lj.@t+1h@2h@[-+Ww 3h@K;@4h@u|.]7.L{ #/ {= 5E x@ v{ 5h@8&+6h@7h@]. 8h@9h@0h@c&+ah@bh@ch@'|@8*+dh@eh@fh@D$ 2'.gh@hh@ih@jh@ye kh@lh@mh@g/ 94.kG nh@oh@>-.qS ph@*C.qh@rh@sh@th@uh@vh@wh@xh@yh@l/.bt+zh@S@+Ah@<Q Bh@7++Ch@_7.Dh@4Q+Eh@Fh@Gh@Hh@Ih@Jh@Kh@Lh@Mh@Nh@Oh@U& Ph@T|+Qh@Rh@Sh@Th@Uh@Vh@Wh@@X.Xh@{n+sI+5l.Yh@S1.Zh@`h@ i@.i@Pl +i@/+ ^0 33 pR+X+ ]+ ]+ ]+ ]+ ]+ ]+ ]+ ]+ ]+ ]+ ]+ ]+ ]+ ]+ ]+ ]+ ]+ ]+ ]+ ]+ ]+ ]+ ]+ ]+ ]+ ]+ ]+ ]+ ]+ ]+ ]+ ]+ ]+ ]+ ]+ ]+ ]+ ]+ ]+ ]+ ]+ ]+ ",
"#  L  h. h. ]+ ]+ ]+ ]+ ]+ ]+ ]+ ]+ ]+ ]+ ]+ ]+ ]+ ]+ ]+ ]+ ]+ ]+ ]+ ]+ ]+ ]+ ]+ ]+ ]+ ]+ ]+ ]+ ]+ ]+ ]+ ]+ ]+ ]+ ]+ ]+ ]+ 7- Z2 +& =| 7/ @z $m .@ K8 WZ nQ.@i@#i@$i@%i@&i@6x+*i@=i@(s.-i@;i@>i@,i@'i@)i@!i@~i@a5 0$ n6 N6 4# Y. -,+G. 4# ,1.%+ q} 0$ {i@s}.]i@:V+^i@/i@$o /g (i@_i@K+.B^ :i@yp.<i@[i@b- S|.}i@7M.n]@|i@1i@2i@AH.(h@3i@4i@g<+O6 u_ &* ,[ d; VZ 5i@6i@./ 7i@@2 5^ w,+8i@9i@0i@ai@gB bi@ci@di@ei@fi@-2.=& |6 gi@hi@ii@!2 Y  9- ;y $! ji@]W }Y+ki@li@$P+zq.mi@ni@oi@{~ pi@qi@i%+ri@od si@ti@ui@3Q.vi@wi@xi@yi@<c zi@[3@3y+MU Ai@;B.E& Bi@Ci@Di@Ei@Fi@Gi@Hi@Ii@Ji@Ki@0$ Z= e3+Li@Mi@Y' Ni@&*.Oi@Pi@Qi@$O+Ri@]T 4B Si@Ti@Ui@Vi@Wi@n6 `r 2)+2)+1r.m. ]+ ]+ ]+ ]+ ]+ ]+ ]+ ]+ ]+ ]+ ]+ ]+ ]+ ]+ ]+ ]+ ]+ ]+ ]+ ]+ ]+ ]+ ]+ ]+ ]+ ]+ ]+ ]+ ]+ ]+ ]+ ]+ ]+ ]+ ]+ ]+ ]+ ]+ ]+ ]+ ]+ ]+ ]+ ",
"#  L  h. h. ]+ ]+ ]+ ]+ ]+ ]+ ]+ ]+ ]+ ]+ ]+ ]+ ]+ ]+ ]+ ]+ ]+ ]+ ]+ ]+ ]+ ]+ ]+ ]+ ]+ ]+ ]+ ]+ ]+ ]+ ]+ ]+ ]+ ]+ ]+ ]+ K8 Jn #! +_ X+ &* l7 >=+$m 5 .-* 9. Xi@Yi@Zi@`i@ j@0G.av.Va.Vd.#( lw..j@+j@q@.@j@#j@]. Y^ RG R^ o@ x/+>q+n- c# -& -% =_ $j@%j@&j@}6@*j@5c.~* 9+ `Y +9.=j@-j@[c.;j@&:.L-@>j@!B.O, ,j@'j@)j@r< !j@~j@/l.kb.v=+3!@qr+b!.{j@5# R{ F< yJ+J+ ]j@'%@^j@/j@Q& 0e %w+H. mo.Q!.(j@RD+_j@N3@:j@<j@[j@4/ K8 Ga hD }j@|j@7;+G. l)+]0 3W.z{ 1j@5M+2j@3j@6d.|a *Z E* 4j@5j@6j@7j@8j@yj #Z a .9j@,M /H /A 0j@aj@bj@cj@<3@}^ V6 dj@v7 ,#@-z T,+0( ~: t[ br+ej@fj@gj@kQ+e7 wf Y] M  |: hj@)6.<!+Af.ij@jj@kj@{w lj@5<.mj@nj@oj@pj@Dy+0( B@ .! qj@O: E>@zX ]+ ]+ ]+ ]+ ]+ ]+ ]+ ]+ ]+ ]+ ]+ ]+ ]+ ]+ ]+ ]+ ]+ ]+ ]+ ]+ ]+ ]+ ]+ ]+ ]+ ]+ ]+ ]+ ]+ ]+ ]+ ]+ ]+ ]+ ]+ ]+ ]+ ]+ ]+ ]+ ]+ ]+ ]+ ",
"#  L  h. h. ]+ ]+ ]+ ]+ ]+ ]+ ]+ ]+ ]+ ]+ ]+ ]+ ]+ ]+ ]+ ]+ ]+ ]+ ]+ ]+ ]+ ]+ ]+ ]+ ]+ ]+ ]+ ]+ ]+ ]+ ]+ ]+ ]+ ]+ ]+ ]+ ]+ Id #& O+ #& %} 9# la 7- .}+hp <= rj@r: %g+sj@tj@uj@vj@0$ Ap wj@xj@yj@zj@@x+j|.mq f. .$ Aj@{= jp Ps Bj@x;.F;+bb.>$+M{.Cj@Dj@Ej@Jp f) |I+SM+Fj@hP.V]+Gj@Hj@Ij@L$+Jj@Kj@wr+Lj@Mj@Nj@Oj@6, [#.Pj@bd.i|.Qj@f7 Rj@I^ m;+8~.`] H< C[ 5# rt.Sj@Tj@Uj@Ha@O7 T% X7 6++Vj@Wj@Xj@Yj@VO.Zj@`j@/F+ k@32 .k@:n.+k@@k@U0 #k@$k@5# EH k7 o@ ]= I5.:. C7 B<.%k@&k@BQ+*k@=k@P. -k@;k@9_@>k@,k@'k@)k@G*.=-.k= ci@!k@*^. = pZ ]Z ]. Qi ~k@{k@]k@^k@/k@6L.(k@28.8-+9I+#n  W ;| c; 0~ a@@_k@:k@ +.<k@[k@}k@|k@#s+1k@2k@3k@4k@N1@5k@^_.I8 k7 A[ &@ $8.0# A@ ]+ ]+ ]+ ]+ ]+ ]+ ]+ ]+ ]+ ]+ ]+ ]+ ]+ ]+ ]+ ]+ ]+ ]+ ]+ ]+ ]+ ]+ ]+ ]+ ]+ ]+ ]+ ]+ ]+ ]+ ]+ ]+ ]+ ]+ ]+ ]+ ]+ ]+ ]+ ]+ ]+ ]+ ]+ ",
"#  L  h. h. ]+ ]+ ]+ ]+ ]+ ]+ ]+ ]+ ]+ ]+ ]+ ]+ ]+ ]+ ]+ ]+ ]+ ]+ ]+ ]+ ]+ ]+ ]+ ]+ ]+ ]+ ]+ ]+ ]+ ]+ ]+ ]+ ]+ ]+ ]+ ]+ ]+ ]+ ]+ ]+ ]+ ]+ ]+ ]+ T+ d} #m o1 3)+|I+,- [0.c)+6k@7k@B8.yG+E3+w[+~v.-E 8k@9k@0k@Yk++e S$ >' G.@ak@}t bk@ck@dk@ek@fk@+1.7W+H. F. ]W 3/ x@ D. 9[.gk@hk@R(+ik@C-@Qb.Aj.EZ %7 j.@,t :0@jk@<7+kk@lk@QF mk@nk@S_.2G sH _r kg.2~ .& X[ ok@BU+EK pk@qk@zc NH `# su.rk@@6+e]+sk@tk@uk@vk@wk@=5.G&.5_ xk@P| ~x.yk@zk@Ak@xj `+ 3/ 2d@Y2 Bk@Y  ;s.Ck@3{@d_+Dk@Q[@D^@Ek@Fk@Gk@Hk@Ik@Jk@Kk@Lk@Mk@Nk@Ok@*< *D+M% %c 8v 8v Z!+o: Pk@c0.1'@o5.Qk@z' Rk@D+@Sk@Tk@Uk@c0 #! ]! }G+6 .%L+Vk@Wk@Xk@Yk@Q9 Zk@`k@ l@.l@+l@P& 0$ zX 9# ]+ ]+ ]+ ]+ ]+ ]+ ]+ ]+ ]+ ]+ ]+ ]+ ]+ ]+ ]+ ]+ ]+ ]+ ]+ ]+ ]+ ]+ ]+ ]+ ]+ ]+ ]+ ]+ ]+ ]+ ]+ ]+ ]+ ]+ ]+ ]+ ]+ ]+ ]+ ]+ ]+ ]+ ]+ ]+ ]+ ]+ ]+ ]+ ]+ ]+ ",
"#  L  h. h. ]+ ]+ ]+ ]+ ]+ ]+ ]+ ]+ ]+ ]+ ]+ ]+ ]+ ]+ ]+ ]+ ]+ ]+ ]+ ]+ ]+ ]+ ]+ ]+ ]+ ]+ ]+ ]+ ]+ ]+ ]+ ]+ ]+ ]+ ]+ ]+ ]+ ]+ ]+ ]+ ]+ ]+ ]+ ]+ X+ y<.R' #&  & 7~ @l@QT+ym #l@$l@%l@m!@,!+&l@}^.*l@=l@;v Ay.'* !0 j: b. u++JS Rc.'E.vZ+rU F. _j -l@;l@>l@OA.13.P+ [Z+`|+,l@*3@]i@!s+'l@)l@UB.!l@~l@{l@W .]l@A}@^l@3W /l@(l@_l@B&.Yz e2 :l@;y z&.<l@y@ Pe Ey+[l@}l@|l@1l@2l@3l@4l@#s+5l@8n 6l@7l@hA.8l@9l@0l@al@bl@}6 t,+cl@0~ ;_ dl@k @el@qV+Y+ !Q */ /= h. [_@'- fl@gl@hl@il@'O.jl@F'@kl@ll@ml@nl@ol@pl@ql@rl@S5  O Py sl@tl@J+ %@ ,~ ul@D]@vl@1W.wl@Z= _. {o+xk@xl@yl@zl@Pk@T% ;* )0 Yo .& Al@Bl@Cl@Dl@El@Fl@Gl@Hl@Il@Jl@V  L8 |+ pR ]+ ]+ ]+ ]+ ]+ ]+ ]+ ]+ ]+ ]+ ]+ ]+ ]+ ]+ ]+ ]+ ]+ ]+ ]+ ]+ ]+ ]+ ]+ ]+ ]+ ]+ ]+ ]+ ]+ ]+ ]+ ]+ ]+ ]+ ]+ ]+ ]+ ]+ ]+ ]+ ]+ ]+ ]+ ]+ ]+ ]+ ]+ ]+ ]+ ]+ ]+ ",
"#  L  h. h. ]+ ]+ ]+ ]+ ]+ ]+ ]+ ]+ ]+ ]+ ]+ ]+ ]+ ]+ ]+ ]+ ]+ ]+ ]+ ]+ ]+ ]+ ]+ ]+ ]+ ]+ ]+ ]+ ]+ ]+ ]+ ]+ ]+ ]+ ]+ ]+ ]+ ]+ ]+ ]+ ]+ ]+ ]+ ]+ X+ J .J ..@ #& >r 4. 4~ +@@#c < .Kl@Ll@Ml@>:@@_ ,r Nl@Ol@=8 JX+)0 x@ oH c/ :L bn+>l Pl@2< Ql@Rl@Sl@Tl@Ul@Vl@Wl@Xl@j/.Yl@Zl@`l@ m@z) h .%p Y~.;z+<b *#@p,+.m@+m@~8.k9@a5+JA.Q+.n<@9O.*! 'y 7k x7.rp+<(.)D @m@BK+k[+#m@$m@%m@&m@*m@=m@p% MR -m@$e.C= 0$ ;m@>m@,m@'m@)m@eu I, !m@Rz 7U =@ ~m@{m@63 =* -* 3~ )0 3m+V0@:n.]m@^m@$o /m@(m@_m@ha :m@<m@[m@}m@sU |m@Q& {/ f) 1m@2m@3m@+z 4m@K'+Me@5m@6m@7m@i:@8m@28@9m@Fu._e.0m@D3.3' x@ am@,+ =* PJ bm@cm@dm@45.em@fm@gm@hm@E4@P| im@,+ 7X.,$ ]+ ]+ ]+ ]+ ]+ ]+ ]+ ]+ ]+ ]+ ]+ ]+ ]+ ]+ ]+ ]+ ]+ ]+ ]+ ]+ ]+ ]+ ]+ ]+ ]+ ]+ ]+ ]+ ]+ ]+ ]+ ]+ ]+ ]+ ]+ ]+ ]+ ]+ ]+ ]+ ]+ ]+ ]+ ]+ ]+ ]+ ]+ ]+ ]+ ]+ ]+ ",
"#  L  h. h. ]+ ]+ ]+ ]+ ]+ ]+ ]+ ]+ ]+ ]+ ]+ ]+ ]+ ]+ ]+ ]+ ]+ ]+ ]+ ]+ ]+ ]+ ]+ ]+ ]+ ]+ ]+ ]+ ]+ ]+ ]+ ]+ ]+ ]+ ]+ ]+ ]+ ]+ ]+ ]+ ]+ ]+ ]+ ]+ 9# G, Jn K8 X+ o. _+ }=.Pb x*@+a ^| )@.jm@km@lm@mm@@1@nm@om@Dj xu+G @pm@M+ F. 'G rB.]i qm@rm@sm@tm@9X+r: um@vm@wm@xm@M& P;+ym@9b gM.>j@zm@Am@`U.Bm@Cm@Dm@Em@eq E( Fm@Gm@=8+Hm@pS !. 2r.%m ~* Im@G]+|^ Jm@Km@,z Lm@Mm@Nm@Om@Pm@Qm@Rm@3{+Sm@Tm@Um@Vm@0$ Wm@Xm@Ym@N= n| V$ +e Zm@ ^ *! P' X+ @@ I8 jp &* 2/ 2&.7# `m@H@  n@hF..n@|v++n@o:.-U !A ]x QY @n@#n@$n@%n@8k &n@*n@=n@-n@;n@>n@,n@'n@N7.D3.MA.)n@X#.:2.!n@~n@11@{n@_. ]n@^| 4K ^n@~. /n@(n@_n@:n@<n@[n@}n@'c |n@x..,$ 0# 1n@_= I5.T+ ]+ ]+ ]+ ]+ ]+ ]+ ]+ ]+ ]+ ]+ ]+ ]+ ]+ ]+ ]+ ]+ ]+ ]+ ]+ ]+ ]+ ]+ ]+ ]+ ]+ ]+ ]+ ]+ ]+ ]+ ]+ ]+ ]+ ]+ ]+ ]+ ]+ ]+ ]+ ]+ ]+ ]+ ]+ ]+ ]+ ]+ ]+ ]+ ]+ ]+ ",
"#  L  h. h. ]+ ]+ ]+ ]+ ]+ ]+ ]+ ]+ ]+ ]+ ]+ ]+ ]+ ]+ ]+ ]+ ]+ ]+ ]+ ]+ ]+ ]+ ]+ ]+ ]+ ]+ ]+ ]+ ]+ ]+ ]+ ]+ ]+ ]+ ]+ ]+ ]+ ]+ ]+ ]+ ]+ ]+ ]+ ]+ 9# Ob P+ 3~ ]+ X+ @* c< I@ L4 e; Z  /. <l+2n@3n@4n@5n@6n@7n@*:@f3+A[ nZ +$ 9f ). =_ fN.jM {h.8n@^) ;/ ;$ +&.0$ 9n@0n@an@bn@cn@'` o: dn@en@fn@gn@hn@(/ )[@in@jn@kn@ln@mn@nn@0p dc B{.`2 R  &@ $8.$} @&.on@pn@qn@rn@sn@sR+tn@fY.g7@un@vn@wn@xn@yn@zn@An@Bn@Cn@O~ Dn@-( i: #z P% '* -* <# '* && '* ^!+ih V$ 5c@En@kg.H]+Fn@37@~H+w++Gn@Fv Hn@In@tg@cB.Jn@Kn@Ym+Ln@Mn@$-@Nn@On@|b+#{.Pn@Qn@2# ;' D` `* z}.w,+Rn@Sn@{u i%.m- </ ;* Oz k7 `% X{ [c++ @Tn@Un@Vn@Wn@Xn@Q& h#.>| K8 Q+ FD+2~ kg.T+ ]+ ]+ ]+ ]+ ]+ ]+ ]+ ]+ ]+ ]+ ]+ ]+ ]+ ]+ ]+ ]+ ]+ ]+ ]+ ]+ ]+ ]+ ]+ ]+ ]+ ]+ ]+ ]+ ]+ ]+ ]+ ]+ ]+ ]+ ]+ ]+ ]+ ]+ ]+ ]+ ]+ ]+ ]+ ]+ ]+ ]+ ]+ ]+ ]+ ]+ ",
"#  L  h. h. ]+ ]+ ]+ ]+ ]+ ]+ ]+ ]+ ]+ ]+ ]+ ]+ ]+ ]+ ]+ ]+ ]+ ]+ ]+ ]+ ]+ ]+ ]+ ]+ ]+ ]+ ]+ ]+ ]+ ]+ ]+ ]+ ]+ ]+ ]+ ]+ ]+ ]+ ]+ ]+ ]+ ]+ ]+ ]+ T+ du -B +@ ]+ k7 T+ j: iC Yn@o. Z] R^ Zn@`* `n@|5@U[. o@.o@+o@W:+v> H5.sH t> zX /+ J  z) 6} 3n.b/ %5@$m %n C. ]x @o@#o@=L.$o@xp+K*.+) %o@&o@*o@=o@-o@E[ ;o@>o@^=@,o@'o@)o@!o@fA+u~ ]/ ^+ T+ T+ m` m` U+ ,+ l(.~o@{o@_M+]o@^o@z. 7}+nv.=q /o@(o@qg._o@:o@ra.<o@#..+! I8 -B @* 2/ %m uZ+`% X+ u_ #^ [o@8P r<@}o@U+ hp.|o@#s QW+6z+W#+1o@2o@aM 3o@4o@5o@6o@7o@8o@9o@rt.Qz 2r+0o@u9 VN+F/ D` Z=+O  '* ao@d_ R% }. +2 ;r bo@:q Q2.co@A. sl.do@eo@fo@go@ho@io@r< 1G K  hf PC 9# .& 5~ f; ]+ ]+ ]+ ]+ ]+ ]+ ]+ ]+ ]+ ]+ ]+ ]+ ]+ ]+ ]+ ]+ ]+ ]+ ]+ ]+ ]+ ]+ ]+ ]+ ]+ ]+ ]+ ]+ ]+ ]+ ]+ ]+ ]+ ]+ ]+ ]+ ]+ ]+ ]+ ]+ ]+ ]+ ]+ ]+ ]+ ]+ ]+ ]+ ]+ ]+ ]+ ]+ ",
"#  L  h. h. ]+ ]+ ]+ ]+ ]+ ]+ ]+ ]+ ]+ ]+ ]+ ]+ ]+ ]+ ]+ ]+ ]+ ]+ ]+ ]+ ]+ ]+ ]+ ]+ ]+ ]+ ]+ ]+ ]+ ]+ ]+ ]+ ]+ ]+ ]+ ]+ ]+ ]+ ]+ ]+ ]+ ]+ ]+ ]+ ]+ ,$ t. `~+9# jp .@ ]+ Z2 X} F-.W/ 2&.ji@W+ c/+gQ #e+jo@ko@lo@mo@no@oo@]8 S' `m@Z+ u.@ ! po@%I+4)+RG 6~ 0~ C. i[ qo@ro@so@Al iw.dc to@uo@Jk@vo@wo@xo@yo@zo@Ao@Bo@Co@`#+Do@Eo@Fo@Q& $! |q ,F #+ &@ m# h: 6.@00 Wp Xi@YK Go@H}.Ho@@^ 3; Io@Jo@*7 Ei.B8@0$ p4+[J.L> ^( 6- K8 3~ %} W% G, %m 9# /= <= ,k Q' !R =| Do+w% Ko@Lo@c}@Mo@No@'y+2#@9V+Oo@Po@0a Qo@Ro@s&.So@To@2# Uo@Vo@AI.Wo@$= -% W+ o1 %w+G9 +g m| - .b. Xo@,| ._ J+ @3 Yo@Zo@`o@ p@.p@+p@_K Q| @p@kh@3. d< s. L: 9# /& 6- 3)+]+ ]+ ]+ ]+ ]+ ]+ ]+ ]+ ]+ ]+ ]+ ]+ ]+ ]+ ]+ ]+ ]+ ]+ ]+ ]+ ]+ ]+ ]+ ]+ ]+ ]+ ]+ ]+ ]+ ]+ ]+ ]+ ]+ ]+ ]+ ]+ ]+ ]+ ]+ ]+ ]+ ]+ ]+ ]+ ]+ ]+ ]+ ]+ ]+ ]+ ]+ ",
"#  L  h. h. ]+ ]+ ]+ ]+ ]+ ]+ ]+ ]+ ]+ ]+ ]+ ]+ ]+ ]+ ]+ ]+ ]+ ]+ ]+ ]+ ]+ ]+ ]+ ]+ ]+ ]+ ]+ ]+ ]+ ]+ ]+ ]+ ]+ ]+ ]+ ]+ ]+ ]+ ]+ ]+ ]+ ]+ ]+ ]+ ]+ Y2 rF+C[ 9# .@ .@ ]+ ]+ S$ 8/ d# u@ 2/ T' w@ -* 3; v. ;h #p@$p@%p@&p@*p@0+ [^ _+ [z+!m@>}+u> ;$ u@ Kn h) 9e@gf. j+=p@FZ.}).-p@;p@>p@v-@5h ,p@'p@/Q+5!@/i.)p@!p@'l+~p@{p@]p@C-+xj T+ m` la m7 |d ^: la ^p@/p@Ps *! t> E=.A@ WF y@ # @(p@_p@cl@#l Hi+_. m,+:p@&3.:^ <p@]: ]9 ;+ _= |w -y *y %m Y1 >$ o1 T+ [p@R0.5. {w }p@|p@!s+1p@gP.k4 2p@3p@+O C%@4p@5p@$c+6p@7p@h~ 8p@9p@v_@;W.mi |M 0$ V6 C[ -* #* Yc.:q W% g; a~ P$ 0p@ap@bp@cp@dp@ep@$` -& w_ UL.*& >3+K8 9# P' Z] u_ 9# #+ i: ]+ ]+ ]+ ]+ ]+ ]+ ]+ ]+ ]+ ]+ ]+ ]+ ]+ ]+ ]+ ]+ ]+ ]+ ]+ ]+ ]+ ]+ ]+ ]+ ]+ ]+ ]+ ]+ ]+ ]+ ]+ ]+ ]+ ]+ ]+ ]+ ]+ ]+ ]+ ]+ ]+ ]+ ]+ ]+ ]+ ]+ ]+ ]+ ]+ ]+ ]+ ",
"#  L  h. h. ]+ ]+ ]+ ]+ ]+ ]+ ]+ ]+ ]+ ]+ ]+ ]+ ]+ ]+ ]+ ]+ ]+ ]+ ]+ ]+ ]+ ]+ ]+ ]+ ]+ ]+ ]+ ]+ ]+ ]+ ]+ ]+ ]+ ]+ ]+ ]+ ]+ ]+ ]+ ]+ ]+ ]+ ]+ ]+ ]+ ]+ ]+ 9# ]+ ]+ ]+ ]+ ]+ ]+ ]+ ]+ ]+ ]+ ]+ ]+ ]+ z&.q: y_ 6% IX fp@gp@hp@ip@jp@nL+Rn.kp@k7 pZ TB+f) lp@6j@mp@np@`= 4l.op@pp@Hc+qp@rp@sp@5j l1.Fk tp@up@i3 vp@wp@xp@7C yp@g;+1( Tl zp@gJ+2A.}#.d# K3+(s =j |d VZ Y$ ic M6 I` l7 ^) Ap@Bp@Ey {. )* X~ D@ !-+Cp@XY+3; ;$ >r X. 20 *! h. L  8~.7~ ]+ ]+ ]+ ;+ |+ @@ P' Q& Dp@Ep@g^@Fp@'^ Gp@B5@!c Hp@Ip@hk@eN.CJ Jp@k:+:6+e>.Kp@@*.Lp@H7+9k@/u+Eo.-% Mp@|d L+ ++ q} Y. Np@Op@Pp@Qp@Rp@Sp@Tp@Q& X+ T+ ]+ #+ ]+ ]+ ]+ ]+ ]+ ]+ ]+ ]+ ]+ ]+ ]+ ]+ ]+ ]+ ]+ ]+ ]+ ]+ ]+ ]+ ]+ ]+ ]+ ]+ ]+ ]+ ]+ ]+ ]+ ]+ ]+ ]+ ]+ ]+ ]+ ]+ ]+ ]+ ]+ ]+ ]+ ]+ ]+ ]+ ]+ ]+ ]+ ]+ ]+ ]+ ]+ ]+ ]+ ]+ ]+ ]+ ]+ ]+ ]+ ]+ ]+ ",
"#  L  h. h. ]+ ]+ ]+ ]+ ]+ ]+ ]+ ]+ ]+ ]+ ]+ ]+ ]+ ]+ ]+ ]+ ]+ ]+ ]+ ]+ ]+ ]+ ]+ ]+ ]+ ]+ ]+ ]+ ]+ ]+ ]+ ]+ ]+ ]+ ]+ ]+ ]+ ]+ ]+ ]+ ]+ ]+ ]+ ]+ ]+ ]+ ]+ ]+ ]+ ]+ ]+ ]+ ]+ ]+ ]+ ]+ ]+ ]+ ]+ ]+ ]+ X+ ,F |p jp O) Zr.Up@Vp@Wp@Xp@Yp@88.=9  . $5@Zp@Xt `p@ q@.q@^z+!B./}@F7 +q@@q@#7.#q@'!@_e.$q@%q@3' :(.{. m=.&q@Ci@xe.*q@q%.Z= zX vo F< H< T$ U$ #^ 'y =q@K..w{ Ft.-q@;n.;q@)$ S_.>q@hP+X=+r@ h1 $M 5_ 0( ,q@'q@eP./. `Y !B )q@!q@;_ ]+ 84.]+ ]+ ]+ ]+ Z2 Ob X+ O+ $. ~q@{q@qo@]q@^q@/q@Q& 7. 0$ ~z+JM.(q@_q@:q@h[.Zd.<q@od.[q@}b.{!.2X+}q@|q@1q@-7.[r+p+.3d 2q@3q@4q@5q@6q@7q@K1+Jd N( h. ]+ ]+ ]+ ]+ ]+ ]+ ]+ ]+ ]+ ]+ ]+ ]+ ]+ ]+ ]+ ]+ ]+ ]+ ]+ ]+ ]+ ]+ ]+ ]+ ]+ ]+ ]+ ]+ ]+ ]+ ]+ ]+ ]+ ]+ ]+ ]+ ]+ ]+ ]+ ]+ ]+ ]+ ]+ ]+ ]+ ]+ ]+ ]+ ]+ ]+ ]+ ]+ ]+ ]+ ]+ ]+ ]+ ]+ ]+ ]+ ]+ ]+ ]+ ]+ ]+ ",
"#  L  h. h. ]+ ]+ ]+ ]+ ]+ ]+ ]+ ]+ ]+ ]+ ]+ ]+ ]+ ]+ ]+ ]+ ]+ ]+ ]+ ]+ ]+ ]+ ]+ ]+ ]+ ]+ ]+ ]+ ]+ ]+ ]+ ]+ ]+ ]+ ]+ ]+ ]+ ]+ ]+ ]+ ]+ ]+ ]+ ]+ ]+ ]+ ]+ ]+ ]+ ]+ ]+ ]+ ]+ ]+ ]+ ]+ ]+ ]+ ]+ ]+ ]+ {= e; Gp+#1 _+ +g #c 5*.8q@9q@0q@aq@bq@cq@Su $8 dq@eq@fq@+{.g. 5K gq@hq@iq@J,.)m@jq@75.hh./Q+kq@lq@0$ a%@mq@6@.oK nq@S$@l' Y$ `+ 5%@%m eq+#+ oq@C@ && pq@,F 1' b6 pQ+57@qq@rq@sq@tq@uq@Ae+.& G, ml+2/ F-.vq@wq@93 ^O+xq@yq@zq@u'@0e L  ]+ ]+ ]+ ]+ ]+ -y m. W/ &y +{.o: Aq@Bq@Cq@Dq@Eq@$f@+% Fq@Gq@Hq@Iq@Jq@Kq@9C 1M {z Lq@Mq@Bm+Nq@Oq@Pq@`*+Qq@n/@w% Rq@Sq@Tq@Uq@Vq@Wq@Xq@ES 7+ 5E ]+ ]+ ]+ h. ]+ ]+ ]+ ]+ ]+ ]+ ]+ ]+ ]+ ]+ ]+ ]+ ]+ ]+ ]+ ]+ ]+ ]+ ]+ ]+ ]+ ]+ ]+ ]+ ]+ ]+ ]+ ]+ ]+ ]+ ]+ ]+ ]+ ]+ ]+ ]+ ]+ ]+ ]+ ]+ ]+ ]+ ]+ ]+ ]+ ]+ ]+ ]+ ]+ ]+ ]+ ]+ ]+ ]+ ]+ ]+ ]+ ]+ ]+ ]+ ]+ ]+ ]+ ",
"#  L  h. h. ]+ ]+ ]+ ]+ ]+ ]+ ]+ ]+ ]+ ]+ ]+ ]+ ]+ ]+ ]+ ]+ ]+ ]+ ]+ ]+ ]+ ]+ ]+ ]+ ]+ ]+ ]+ ]+ ]+ ]+ ]+ ]+ ]+ ]+ ]+ ]+ ]+ ]+ ]+ ]+ ]+ ]+ ]+ ]+ ]+ ]+ ]+ ]+ ]+ ]+ ]+ ]+ ]+ ]+ ]+ ]+ ]+ ]+ ]+ ]+ ]+ 2r.E3@%+ 6# z&.`|+Hk 26.f$ Yq@Zq@`q@ r@.r@+r@qP+@r@#r@y! $r@P  -B %r@&r@*r@=r@_) $z R< +/ -r@;r@>r@nY ,r@'r@)r@u) AZ >U.}~ $@ =* Tl Hk !r@g .C@ 2~ Z2 ;@ 6- A@ ~r@n:+=$@jq.{r@]r@^r@QV C' S  jq >k W/ #K.., /e *0+/r@Gm (r@_r@:r@h. ]+ ]+ ]+ ]+ {+ ]+ i: xq+s^ _= w@ #/.<r@[r@}r@L>@hf@|r@1r@2r@3r@4r@PV+HK m. |= 7L.5r@6r@xe+B) Z2 7r@'[ w0 8r@9r@0r@ar@br@cr@dr@er@]. ;G.u_ :+ Y+ L  {+ ]+ h. ]+ ]+ ]+ ]+ ]+ ]+ ]+ ]+ ]+ ]+ ]+ ]+ ]+ ]+ ]+ ]+ ]+ ]+ ]+ ]+ ]+ ]+ ]+ ]+ ]+ ]+ ]+ ]+ ]+ ]+ ]+ ]+ ]+ ]+ ]+ ]+ ]+ ]+ ]+ ]+ ]+ ]+ ]+ ]+ ]+ ]+ ]+ ]+ ]+ ]+ ]+ ]+ ]+ ]+ ]+ ]+ ]+ ]+ ]+ ]+ ]+ ]+ ]+ ",
"#  L  h. h. ]+ ]+ ]+ ]+ ]+ ]+ ]+ ]+ ]+ ]+ ]+ ]+ ]+ ]+ ]+ ]+ ]+ ]+ ]+ ]+ ]+ ]+ ]+ ]+ ]+ ]+ ]+ ]+ ]+ ]+ ]+ ]+ ]+ ]+ ]+ ]+ ]+ ]+ ]+ ]+ ]+ ]+ ]+ ]+ ]+ ]+ ]+ ]+ ]+ ]+ ]+ ]+ ]+ ]+ ]+ ]+ ]+ ]+ ]+ ]+ ]+ i: h( - .d# k7 2~ v@ T+ q> ^_ 9( fr@gr@hr@ir@jr@kr@lr@mr@-+ (d  d nr@or@ye+pr@1H+=2.A@ ;I {m.|C.+m.%g lM qr@-9+rr@4_+1< xb b; sr@tr@xb@m4@<W+P0 ur@+J L  vr@wr@0x+@).xr@yr@zr@Ar@$c 2( @& Br@B' *@ Y5 3y+Cr@-% rt.kC+M @Dr@^k $T.k( L  L  h. {+ 84.>$ ,n Er@Fr@M+ -* <E M( Gr@Hr@['.y0.Yf+Ir@Jr@Kr@Lr@., Mr@[Z+,Z Nr@Or@1W Pr@,+ Qr@nV+Rr@Sr@Tr@H(@Ur@Vr@Wr@Xr@Pe 9+ 9# >=+Yr@|~ u@ ]+ ]+ ]+ ]+ ]+ ]+ ]+ ]+ ]+ ]+ ]+ ]+ ]+ ]+ ]+ ]+ ]+ ]+ ]+ ]+ ]+ ]+ ]+ ]+ ]+ ]+ ]+ ]+ ]+ ]+ ]+ ]+ ]+ ]+ ]+ ]+ ]+ ]+ ]+ ]+ ]+ ]+ ]+ ]+ ]+ ]+ ]+ ]+ ]+ ]+ ]+ ]+ ]+ ]+ ]+ ]+ ]+ ]+ ]+ ]+ ]+ ]+ ]+ ]+ ]+ ]+ ]+ ",
"#  L  h. h. ]+ ]+ ]+ ]+ ]+ ]+ ]+ ]+ ]+ ]+ ]+ ]+ ]+ ]+ ]+ ]+ ]+ ]+ ]+ ]+ ]+ ]+ ]+ ]+ ]+ ]+ ]+ ]+ ]+ ]+ ]+ ]+ ]+ ]+ ]+ ]+ ]+ ]+ ]+ ]+ ]+ ]+ ]+ ]+ ]+ ]+ ]+ ]+ ]+ ]+ ]+ ]+ ]+ ]+ ]+ ]+ ]+ ]+ ]+ ]+ ]+ u@ X+ [d `] OQ+C[ Jn d# /& =/ Y% -a f) Zr@`r@ s@.s@+s@@s@#s@ic }$ Tk $s@%s@Hd@&s@*s@t$@=s@-s@y) d! ;s@N1+>s@,s@'s@)s@3+ X~ =9 l<+!s@U< '' L3 ~s@j)+~n@z3.W^.{s@%& nq ig ]s@^s@+../s@}E+(s@;O+_s@:s@<s@Eb.[s@Ey 0r.}s@wG TY ]. i. h. h. h. ]+ {+ {+ h. Q& |s@1s@K#.Id #^ 2s@88.3s@4s@p@ h$ 5s@d{.q# %/ W-.fI.6s@7s@8s@g_ ex+9s@:. _^ A) 0s@as@bs@cs@ds@es@q: 3^ .= S+ ]+ %! la ;* #& ]+ ]+ ]+ ]+ ]+ ]+ ]+ ]+ ]+ ]+ ]+ ]+ ]+ ]+ ]+ ]+ ]+ ]+ ]+ ]+ ]+ ]+ ]+ ]+ ]+ ]+ ]+ ]+ ]+ ]+ ]+ ]+ ]+ ]+ ]+ ]+ ]+ ]+ ]+ ]+ ]+ ]+ ]+ ]+ ]+ ]+ ]+ ]+ ]+ ]+ ]+ ]+ ]+ ]+ ]+ ]+ ]+ ]+ ]+ ]+ ]+ ]+ ]+ ]+ ]+ ]+ ]+ ",
"#  L  h. h. ]+ ]+ ]+ ]+ ]+ ]+ ]+ ]+ ]+ ]+ ]+ ]+ ]+ ]+ ]+ ]+ ]+ ]+ ]+ ]+ ]+ ]+ ]+ ]+ ]+ ]+ ]+ ]+ ]+ ]+ ]+ ]+ ]+ ]+ ]+ ]+ ]+ ]+ ]+ ]+ ]+ ]+ ]+ ]+ ]+ ]+ ]+ ]+ ]+ ]+ ]+ ]+ ]+ ]+ ]+ ]+ ]+ ]+ ]+ ]+ ]+ ]+ && iC du @* f; Ku+u_ zJ+fs@U$ 6+ I, g) n6 gs@hs@is@js@ks@<#@ls@-% fW.ms@ns@os@ps@qw+=! qs@3. M_@<s.,} al._z rs@ss@ts@us@c# S].vs@bV ws@Hj.xs@ys@zs@As@Bs@d. S7 _= nL++% 5r Cs@tB Ds@Es@p3.Fs@Gs@Hs@Is@Js@Ks@Ls@Ms@f) M^ q> 1~ ]+ ]+ ]+ ]+ Z+ ]+ K  i2.Ns@Os@W:+y_ Ps@Mu+-.+Qs@Rs@Ss@Ts@Us@)6. + I8 Vs@W/ =<@Ws@&)@Xs@Ys@xJ m].~~ Zs@7%+`s@ t@.t@x;@d/ 9v 5 .R% |p .@ /+ @* T+ ]+ ]+ ]+ ]+ ]+ ]+ ]+ ]+ ]+ ]+ ]+ ]+ ]+ ]+ ]+ ]+ ]+ ]+ ]+ ]+ ]+ ]+ ]+ ]+ ]+ ]+ ]+ ]+ ]+ ]+ ]+ ]+ ]+ ]+ ]+ ]+ ]+ ]+ ]+ ]+ ]+ ]+ ]+ ]+ ]+ ]+ ]+ ]+ ]+ ]+ ]+ ]+ ]+ ]+ ]+ ]+ ]+ ]+ ]+ ]+ ]+ ]+ ]+ ]+ ]+ ]+ ]+ ]+ ",
"#  L  h. h. ]+ ]+ ]+ ]+ ]+ ]+ ]+ ]+ ]+ ]+ ]+ ]+ ]+ ]+ ]+ ]+ ]+ ]+ ]+ ]+ ]+ ]+ ]+ ]+ ]+ ]+ ]+ ]+ ]+ ]+ ]+ ]+ ]+ ]+ ]+ ]+ ]+ ]+ ]+ ]+ ]+ ]+ ]+ ]+ ]+ ]+ ]+ ]+ ]+ ]+ ]+ ]+ ]+ ]+ ]+ ]+ ]+ ]+ ]+ ]+ ]+ u@ C@ =| 3/ &/ i: ]+ $& +t@~2.%/ m7 -y A@ K8 QI f) jh@Hd @t@#t@$t@%t@*e &t@*t@=t@-t@;t@9P.vL.>t@an+6=.,t@{& 't@)t@%_+na+!t@-+.~t@{t@]t@L5 K[ ^t@`O+/t@`7@(t@_t@:t@9-  2 n6 <t@[t@E8 >-@}t@f) Q& -& -& N6 gK |t@1t@2t@&;+:+ eu /( @@ $8.$B+]+ *} i. -% M<@3t@]&.Q&.;^ 4t@4).J+ 5t@6t@7t@F6 8t@3:@8, 9t@2+ 0t@at@}D+bt@ct@dt@et@sM+ft@xs.,W gt@>/ [) 3m+/& H, =* i!@|+ Pb ]+ 7U O+ j: ]+ ]+ ]+ ]+ ]+ ]+ ]+ ]+ ]+ ]+ ]+ ]+ ]+ ]+ ]+ ]+ ]+ ]+ ]+ ]+ ]+ ]+ ]+ ]+ ]+ ]+ ]+ ]+ ]+ ]+ ]+ ]+ ]+ ]+ ]+ ]+ ]+ ]+ ]+ ]+ ]+ ]+ ]+ ]+ ]+ ]+ ]+ ]+ ]+ ]+ ]+ ]+ ]+ ]+ ]+ ]+ ]+ ]+ ]+ ]+ ]+ ]+ ]+ ]+ ]+ ]+ ]+ ",
"#  L  h. h. ]+ ]+ ]+ ]+ ]+ ]+ ]+ ]+ ]+ ]+ ]+ ]+ ]+ ]+ ]+ ]+ ]+ ]+ ]+ ]+ ]+ ]+ ]+ ]+ ]+ ]+ ]+ ]+ ]+ ]+ ]+ ]+ ]+ ]+ ]+ ]+ ]+ ]+ ]+ ]+ ]+ ]+ ]+ ]+ ]+ ]+ ]+ ]+ ]+ ]+ ]+ ]+ ]+ ]+ ]+ ]+ ]+ ]+ ]+ ]+ ]+ ]+ ]+ ]+ X+ X+ ]+ ]+ X+ X+ X+ X+ X+ X+ ]+ ]+ ]+ #& '[ |= ht@6%@z+ it@jt@kt@lt@mt@nt@ot@pt@qt@+2 rt@Q8@l[ st@1! tt@Z( Fh@ut@vt@%; wt@xt@yt@&E+|m.zt@gp.sy At@p#./. Y% P' 78 /g Bt@Ct@7] 4N W1 ;' Dt@qQ+Et@Ft@Gt@Ht@It@Jt@d/ Jn U$ d# 4- gc.|p K8 >$ Kt@Lt@#:+Mt@nZ+Nt@Ot@Pt@k'.Qt@Rt@St@Tt@y7@Ut@mV+pc.Bm Vt@Wt@Xt@vo.Yt@Zt@zV+`t@ u@@I+0$ 0e ,F ]+ X+ X+ ]+ X+ X+ ]+ 9# ]+ X+ ]+ ]+ ]+ ]+ ]+ ]+ ]+ ]+ ]+ ]+ ]+ ]+ ]+ ]+ ]+ ]+ ]+ ]+ ]+ ]+ ]+ ]+ ]+ ]+ ]+ ]+ ]+ ]+ ]+ ]+ ]+ ]+ ]+ ]+ ]+ ]+ ]+ ]+ ]+ ]+ ]+ ]+ ]+ ]+ ]+ ]+ ]+ ]+ ]+ ]+ ]+ ]+ ]+ ]+ ]+ ]+ ]+ ]+ ]+ ]+ ]+ ]+ ]+ ]+ ]+ ]+ ]+ ]+ ]+ ",
"#  L  h. h. ]+ ]+ ]+ ]+ ]+ ]+ ]+ ]+ ]+ ]+ ]+ ]+ ]+ ]+ ]+ ]+ ]+ ]+ ]+ ]+ ]+ ]+ ]+ ]+ ]+ ]+ ]+ ]+ ]+ ]+ ]+ ]+ ]+ ]+ ]+ ]+ ]+ ]+ ]+ ]+ ]+ ]+ ]+ ]+ ]+ ]+ ]+ ]+ ]+ ]+ ]+ ]+ ]+ ]+ ]+ ]+ ]+ ]+ ]+ ]+ ]+ ]+ ]+ ]+ ]+ ]+ ]+ ]+ ]+ ]+ ]+ ]+ ]+ ]+ ]+ ]+ ]+ N: cu.2+ |_ mc |_ GC..u@+u@-N+@u@#u@Ls@$u@%u@&d t!@&u@L).]9@*u@=u@RY+-u@{B ;u@qK >u@IL ,k@:o.Fw 3; SZ.,u@'u@)u@-% 0|+o$ @%.!u@d2 ~u@{u@]u@^u@/u@(u@_u@G,+:u@<u@1V.[u@}u@qq T$ cl@g: ]Q+>* _1+|u@V6 1u@2u@3u@4u@5u@w~.6u@:v+7u@8u@9u@0u@au@ )+D;@2;.bu@cu@du@eu@X*@fu@gu@hu@iu@|( l- h. K  ]+ ]+ ]+ ]+ ]+ ]+ ]+ ]+ ]+ ]+ ]+ ]+ ]+ ]+ ]+ ]+ ]+ ]+ ]+ ]+ ]+ ]+ ]+ ]+ ]+ ]+ ]+ ]+ ]+ ]+ ]+ ]+ ]+ ]+ ]+ ]+ ]+ ]+ ]+ ]+ ]+ ]+ ]+ ]+ ]+ ]+ ]+ ]+ ]+ ]+ ]+ ]+ ]+ ]+ ]+ ]+ ]+ ]+ ]+ ]+ ]+ ]+ ]+ ]+ ]+ ]+ ]+ ]+ ]+ ]+ ]+ ]+ ]+ ]+ ]+ ]+ ]+ ]+ ]+ ]+ ]+ ",
"#  L  h. h. ]+ ]+ ]+ ]+ ]+ ]+ ]+ ]+ ]+ ]+ ]+ ]+ ]+ ]+ ]+ ]+ ]+ ]+ ]+ ]+ ]+ ]+ ]+ ]+ ]+ ]+ ]+ ]+ ]+ ]+ ]+ ]+ ]+ ]+ ]+ ]+ ]+ ]+ ]+ ]+ ]+ ]+ ]+ ]+ ]+ ]+ ]+ ]+ ]+ ]+ ]+ ]+ ]+ ]+ ]+ ]+ ]+ ]+ ]+ ]+ ]+ ]+ ]+ ]+ ]+ ]+ ]+ ]+ ]+ ]+ ]+ ]+ ]+ ]+ ]+ ]+ ]+ >$ ,F ;b.VZ C@ ,| n;+w) h~ pV+><.ju@ku@lu@mu@nu@EM ou@pu@qu@ru@T>+k +su@tu@uu@vu@wu@t#.C'+xu@a0@+@@Q: yu@zu@Au@7v.>^ 9O.Bu@Cu@Du@FE.Eu@eP+Fu@5D+Gu@Hu@Iu@Ju@C-+_. Sx Ku@N~@i' hw.@@ U$ ^+ Y1 (E Lu@O#+Mu@NX Nu@Ou@-h Pu@Qu@Ru@Su@Tu@Uu@Vu@Wu@u:+Xu@Yu@Zu@`u@ v@.v@+v@Lu@00 '+ 2~ y@ ]+ {+ L  ]+ ]+ ]+ ]+ ]+ ]+ ]+ ]+ ]+ ]+ ]+ ]+ ]+ ]+ ]+ ]+ ]+ ]+ ]+ ]+ ]+ ]+ ]+ ]+ ]+ ]+ ]+ ]+ ]+ ]+ ]+ ]+ ]+ ]+ ]+ ]+ ]+ ]+ ]+ ]+ ]+ ]+ ]+ ]+ ]+ ]+ ]+ ]+ ]+ ]+ ]+ ]+ ]+ ]+ ]+ ]+ ]+ ]+ ]+ ]+ ]+ ]+ ]+ ]+ ]+ ]+ ]+ ]+ ]+ ]+ ]+ ]+ ]+ ]+ ]+ ]+ ]+ ]+ ]+ ]+ ",
"#  L  h. h. ]+ ]+ ]+ ]+ ]+ ]+ ]+ ]+ ]+ ]+ ]+ ]+ ]+ ]+ ]+ ]+ ]+ ]+ ]+ ]+ ]+ ]+ ]+ ]+ ]+ ]+ ]+ ]+ ]+ ]+ ]+ ]+ ]+ ]+ ]+ ]+ ]+ ]+ ]+ ]+ ]+ ]+ ]+ ]+ ]+ ]+ ]+ ]+ ]+ ]+ ]+ ]+ ]+ ]+ ]+ ]+ ]+ ]+ ]+ ]+ ]+ ]+ ]+ ]+ ]+ ]+ ]+ ]+ ]+ ]+ ]+ ]+ ]+ ]+ ]+ ]+ ]+ &* na Jn t,+3. S' %* @v@#v@8-@jq 8. _M Lw.'M+nE.$v@59.%v@&v@mg X}@*v@=v@-v@Su.;v@>v@(& -d.,v@xl+]8 _s <U+'v@EB++} -% )v@!v@l^@=9 ~v@{v@]8 h) a5 Q& 0$ o$ Su X$ 32 ]v@^v@/v@-n 0A C{ %m m. g: T) (v@_v@|` 0$ rY.Fv.EN+e6@:v@`m+<v@l].[v@Qe+}v@|v@1v@2v@3v@XM+<! c# |_ nC+V% ue yJ+i. h. {+ L  ]+ ]+ ]+ ]+ ]+ ]+ ]+ ]+ ]+ ]+ ]+ ]+ ]+ ]+ ]+ ]+ ]+ ]+ ]+ ]+ ]+ ]+ ]+ ]+ ]+ ]+ ]+ ]+ ]+ ]+ ]+ ]+ ]+ ]+ ]+ ]+ ]+ ]+ ]+ ]+ ]+ ]+ ]+ ]+ ]+ ]+ ]+ ]+ ]+ ]+ ]+ ]+ ]+ ]+ ]+ ]+ ]+ ]+ ]+ ]+ ]+ ]+ ]+ ]+ ]+ ]+ ]+ ]+ ]+ ]+ ]+ ]+ ]+ ]+ ]+ ]+ ]+ ]+ ]+ ]+ ",
"#  L  h. h. ]+ ]+ ]+ ]+ ]+ ]+ ]+ ]+ ]+ ]+ ]+ ]+ ]+ ]+ ]+ ]+ ]+ ]+ ]+ ]+ ]+ ]+ ]+ ]+ ]+ ]+ ]+ ]+ ]+ ]+ ]+ ]+ ]+ ]+ ]+ ]+ ]+ ]+ ]+ ]+ ]+ ]+ ]+ ]+ ]+ ]+ ]+ ]+ ]+ ]+ ]+ ]+ ]+ ]+ ]+ ]+ ]+ ]+ ]+ ]+ ]+ ]+ ]+ ]+ ]+ ]+ ]+ ]+ ]+ ]+ ]+ ]+ ]+ ]+ ]+ ]+ ]+ #+ Jn 3)+Jn C@ u@ 9# K8 K8 V3.}#.!Q */ x) Z= lz+qf bl 4v@5v@6v@7v@8v@9v@0v@av@bv@N% d! 2f cv@dv@ev@|j.b) Y=+pd fv@gv@hv@B1@y8 5M+y@ =( n;+0A iv@Y^ $^ -a >^ mk v@ Z. jv@kv@Jq@lv@`i |;.]8 f) }t@Ao+mv@IN #0+^U+nv@+< gc+F'+Tl.ov@pv@qv@rv@VF.9h sv@+% :8 yw.t> gQ aA 8P :m X+ %} u@ ]+ ]+ ]+ ]+ ]+ ]+ ]+ ]+ ]+ ]+ ]+ ]+ ]+ ]+ ]+ ]+ ]+ ]+ ]+ ]+ ]+ ]+ ]+ ]+ ]+ ]+ ]+ ]+ ]+ ]+ ]+ ]+ ]+ ]+ ]+ ]+ ]+ ]+ ]+ ]+ ]+ ]+ ]+ ]+ ]+ ]+ ]+ ]+ ]+ ]+ ]+ ]+ ]+ ]+ ]+ ]+ ]+ ]+ ]+ ]+ ]+ ]+ ]+ ]+ ]+ ]+ ]+ ]+ ]+ ]+ ]+ ]+ ]+ ]+ ]+ ]+ ]+ ]+ ]+ ]+ ]+ ]+ ]+ ",
"#  L  h. h. ]+ ]+ ]+ ]+ ]+ ]+ ]+ ]+ ]+ ]+ ]+ ]+ ]+ ]+ ]+ ]+ ]+ ]+ ]+ ]+ ]+ ]+ ]+ ]+ ]+ ]+ ]+ ]+ ]+ ]+ ]+ ]+ ]+ ]+ ]+ ]+ ]+ ]+ ]+ ]+ ]+ ]+ ]+ ]+ ]+ ]+ ]+ ]+ ]+ ]+ ]+ ]+ ]+ ]+ ]+ ]+ ]+ ]+ ]+ ]+ ]+ ]+ ]+ ]+ ]+ ]+ ]+ ]+ ]+ ]+ ]+ ]+ ]+ ]+ ]+ ]+ ]+  ^ ~0 3/ Z2 #& P' C@ Z2 ;| X+ tv@uv@u@ *-.,1.&. +&.0e c# Ak+vv@DM wv@xv@yv@zv@Av@Bv@L}@Cv@Dv@xz+Ev@Fv@Gv@Hv@Iv@O>.+9+Jv@f4@f5.-% 0$ k- rr.Jd 32 :8 rr.N6 D@ #c X] o> 0$ Kv@Lv@Mv@yM+Nv@Ov@Pv@Qv@Rv@Sv@Tv@Uv@q!.Vv@Wv@Xv@Yv@{S+|}.Zv@`v@Zn@7. {: o0 v.  w@A5@i. ;r <a@+^ u_ Q' `] T$ ]+ ]+ ]+ ]+ ]+ ]+ ]+ ]+ ]+ ]+ ]+ ]+ ]+ ]+ ]+ ]+ ]+ ]+ ]+ ]+ ]+ ]+ ]+ ]+ ]+ ]+ ]+ ]+ ]+ ]+ ]+ ]+ ]+ ]+ ]+ ]+ ]+ ]+ ]+ ]+ ]+ ]+ ]+ ]+ ]+ ]+ ]+ ]+ ]+ ]+ ]+ ]+ ]+ ]+ ]+ ]+ ]+ ]+ ]+ ]+ ]+ ]+ ]+ ]+ ]+ ]+ ]+ ]+ ]+ ]+ ]+ ]+ ]+ ]+ ]+ ]+ ]+ ]+ ]+ ]+ ]+ ]+ ]+ ",
"#  L  h. h. ]+ ]+ ]+ ]+ ]+ ]+ ]+ ]+ ]+ ]+ ]+ ]+ ]+ ]+ ]+ ]+ ]+ ]+ ]+ ]+ ]+ ]+ ]+ ]+ ]+ ]+ ]+ ]+ ]+ ]+ ]+ ]+ ]+ ]+ ]+ ]+ ]+ ]+ ]+ ]+ ]+ ]+ ]+ ]+ ]+ ]+ ]+ ]+ ]+ ]+ ]+ ]+ ]+ ]+ ]+ ]+ ]+ ]+ ]+ ]+ ]+ ]+ ]+ ]+ ]+ ]+ ]+ ]+ ]+ ]+ ]+ ]+ ]+ ]+ ]+ ]+ ]+ -* W-.jp .w@Z>+.@ Id P' _= Qz /& +w@h( d# 2/ na +& ~+ N: G$.;{ 2&.vL.$/ 4[ @w@s%@:0@t$+#w@$w@%w@&w@*w@=w@-w@;w@>w@,w@'w@)w@{S+we@[N.!w@~w@JF._7.{w@/h.kF C3+!x+%^.]w@^w@bc.uI+/w@(w@_w@:w@<w@[w@}w@yl@|w@1w@2w@2b@3w@p-+N0 D' n(+^_.@3 i' Y$ Ol %! c@@#@ 7/ Id h( `% FD+C[ u@ /+ ]+ ]+ ]+ ]+ ]+ ]+ ]+ ]+ ]+ ]+ ]+ ]+ ]+ ]+ ]+ ]+ ]+ ]+ ]+ ]+ ]+ ]+ ]+ ]+ ]+ ]+ ]+ ]+ ]+ ]+ ]+ ]+ ]+ ]+ ]+ ]+ ]+ ]+ ]+ ]+ ]+ ]+ ]+ ]+ ]+ ]+ ]+ ]+ ]+ ]+ ]+ ]+ ]+ ]+ ]+ ]+ ]+ ]+ ]+ ]+ ]+ ]+ ]+ ]+ ]+ ]+ ]+ ]+ ]+ ]+ ]+ ]+ ]+ ]+ ]+ ]+ ]+ ]+ ]+ ]+ ]+ ]+ ]+ ]+ ",
"#  L  h. h. ]+ ]+ ]+ ]+ ]+ ]+ ]+ ]+ ]+ ]+ ]+ ]+ ]+ ]+ ]+ ]+ ]+ ]+ ]+ ]+ ]+ ]+ ]+ ]+ ]+ ]+ ]+ ]+ ]+ ]+ ]+ ]+ ]+ ]+ ]+ ]+ ]+ ]+ ]+ ]+ ]+ ]+ ]+ ]+ ]+ ]+ ]+ ]+ ]+ ]+ ]+ ]+ ]+ ]+ ]+ ]+ ]+ ]+ ]+ ]+ ]+ ]+ ]+ ]+ ]+ ]+ ]+ ]+ ]+ ]+ ]+ ]+ ]+ ]+ ]+ ]+ ]+ ]+ T$ T$ 9# <# %m {= o1 3~ {=  ^ +@ 3~ ^+ la M+ u_ 7/ ;$ 8[.V$ *& ml+4w@S< O+ c) <) `* h[.|N y' 5w@6w@7w@Zt 8w@-O 9w@0w@+B.aw@b+.bw@cw@(1 :V.dw@ew@t'.fw@1p+gw@hw@iw@jw@kw@nu+lw@lT+mw@nw@ow@pw@qw@g[ 0g 2. 2^ ]_ j( [r+q> k. l| 0#  _ :g T  P3+P' N: #/.m)+5/ iT+Ij.FD+#+ .@ W% 9# ]+ ]+ ]+ ]+ ]+ ]+ ]+ ]+ ]+ ]+ ]+ ]+ ]+ ]+ ]+ ]+ ]+ ]+ ]+ ]+ ]+ ]+ ]+ ]+ ]+ ]+ ]+ ]+ ]+ ]+ ]+ ]+ ]+ ]+ ]+ ]+ ]+ ]+ ]+ ]+ ]+ ]+ ]+ ]+ ]+ ]+ ]+ ]+ ]+ ]+ ]+ ]+ ]+ ]+ ]+ ]+ ]+ ]+ ]+ ]+ ]+ ]+ ]+ ]+ ]+ ]+ ]+ ]+ ]+ ]+ ]+ ]+ ]+ ]+ ]+ ]+ ]+ ]+ ]+ ]+ ]+ ]+ ]+ ",
"#  K  ]+ ]+ ]+ ]+ ]+ ]+ ]+ ]+ ]+ ]+ ]+ ]+ ]+ ]+ ]+ ]+ ]+ ]+ ]+ ]+ ]+ ]+ ]+ ]+ ]+ ]+ ]+ ]+ ]+ ]+ ]+ ]+ ]+ ]+ ]+ ]+ ]+ ]+ ]+ ]+ ]+ ]+ ]+ ]+ ]+ ]+ ]+ ]+ ]+ ]+ ]+ ]+ ]+ ]+ ]+ ]+ ]+ ]+ ]+ ]+ ]+ ]+ ]+ ]+ ]+ ]+ ]+ ]+ ]+ ]+ ]+ ]+ ]+ ]+ ]+ ]+ ]+ ]+ ]+ ]+ T+ ]+ 9# -* K8 #+ 9# 9# #+ X+ 9# u@ X+ Z2 T+ 9# k7 ]+ #+ -* Z1 +& i: ]+ T$ ]+  ^ m. 3. Tl f} S< k- Q& 0$ c# 0( F. |% lz+rw@sw@tw@Kf+uw@/6.vw@4s ww@xw@yw@zw@Aw@#Y.Bw@6g.a_ e2 Z= Q& Q& Q$ 1. V6 K  L  9# U$ m. 9# U$ X+ u@ @* 3. C@ u@ ]+ -* 9# ]+ -* -* #+ U$ #+ -* ]+ X+ 9# ]+ ]+ ]+ ]+ ]+ ]+ ]+ ]+ ]+ ]+ ]+ ]+ ]+ ]+ ]+ ]+ ]+ ]+ ]+ ]+ ]+ ]+ ]+ ]+ ]+ ]+ ]+ ]+ ]+ ]+ ]+ ]+ ]+ ]+ ]+ ]+ ]+ ]+ ]+ ]+ ]+ ]+ ]+ ]+ ]+ ]+ ]+ ]+ ]+ ]+ ]+ ]+ ]+ ]+ ]+ ]+ ]+ ]+ ]+ ]+ ]+ ]+ ]+ ]+ ]+ ]+ ]+ ]+ ]+ ]+ ]+ ]+ ]+ ]+ ]+ ]+ ]+ ]+ ]+ ]+ ]+ ]+ ]+ ]+ ",
"#  K  ]+ ]+ ]+ ]+ ]+ ]+ ]+ ]+ ]+ ]+ ]+ ]+ ]+ ]+ ]+ ]+ ]+ ]+ ]+ ]+ ]+ ]+ ]+ ]+ ]+ ]+ ]+ ]+ ]+ ]+ ]+ ]+ ]+ ]+ ]+ ]+ ]+ ]+ ]+ ]+ ]+ ]+ ]+ ]+ ]+ ]+ ]+ ]+ ]+ ]+ ]+ ]+ ]+ ]+ ]+ ]+ ]+ ]+ ]+ ]+ ]+ ]+ ]+ ]+ ]+ ]+ ]+ ]+ ]+ ]+ ]+ ]+ ]+ ]+ ]+ ]+ ]+ ]+ ]+ ]+ ]+ ]+ ]+ ]+ ]+ ]+ ]+ ]+ ]+ ]+ ]+ ]+ ]+ ]+ ]+ ]+ ]+ ]+ ]+ ]+ ]+ ]+ ]+ ]+ ]+ ]+ ]+ ]+ ]+ ]+ ]+ ]+ h. L  L  L  L  K  K  K  N( ]/ q} q} q} q} q} q} q} q} ]/ ]/ ]/ ]/ ]/ ]/ @. S$ L  L  L  L  L  L  L  h. ]+ ]+ ]+ ]+ ]+ ]+ ]+ ]+ ]+ ]+ ]+ ]+ ]+ ]+ ]+ ]+ ]+ ]+ ]+ ]+ ]+ ]+ ]+ ]+ ]+ ]+ ]+ ]+ ]+ ]+ ]+ ]+ ]+ ]+ ]+ ]+ ]+ ]+ ]+ ]+ ]+ ]+ ]+ ]+ ]+ ]+ ]+ ]+ ]+ ]+ ]+ ]+ ]+ ]+ ]+ ]+ ]+ ]+ ]+ ]+ ]+ ]+ ]+ ]+ ]+ ]+ ]+ ]+ ]+ ]+ ]+ ]+ ]+ ]+ ]+ ]+ ]+ ]+ ]+ ]+ ]+ ]+ ]+ ]+ ]+ ]+ ]+ ]+ ]+ ]+ ]+ ]+ ]+ ]+ ]+ ]+ ]+ ]+ ]+ ]+ ]+ ]+ ]+ ]+ ]+ ]+ ]+ ]+ "};
