/* XPM */
static char * quetzal_xpm[] = {
"265 256 43908 3",
"   	c #00040F",
".  	c #00050F",
"+  	c #000810",
"@  	c #010A0F",
"#  	c #050E11",
"$  	c #262C2C",
"%  	c #373D3C",
"&  	c #3A403F",
"*  	c #3A403E",
"=  	c #3C413E",
"-  	c #3B413E",
";  	c #3C423E",
">  	c #3B403C",
",  	c #393F3B",
"'  	c #393F3A",
")  	c #3B413C",
"!  	c #404540",
"~  	c #414541",
"{  	c #424641",
"]  	c #424742",
"^  	c #404641",
"/  	c #414742",
"(  	c #424843",
"_  	c #424943",
":  	c #3F4741",
"<  	c #3E4640",
"[  	c #3F4641",
"}  	c #3F4541",
"|  	c #3E453F",
"1  	c #3D443F",
"2  	c #3E443F",
"3  	c #3F4640",
"4  	c #404741",
"5  	c #3E4541",
"6  	c #3D4541",
"7  	c #3B423E",
"8  	c #383F3B",
"9  	c #39413C",
"0  	c #38423B",
"a  	c #39423C",
"b  	c #3B443E",
"c  	c #3C453F",
"d  	c #3E4741",
"e  	c #3F4842",
"f  	c #3F4944",
"g  	c #3F4A43",
"h  	c #404B43",
"i  	c #404A42",
"j  	c #3F4A42",
"k  	c #3E4941",
"l  	c #3C473F",
"m  	c #3A463D",
"n  	c #3F4B43",
"o  	c #404C44",
"p  	c #3F4C43",
"q  	c #3D4C43",
"r  	c #3C4B41",
"s  	c #3C4C42",
"t  	c #3E4E44",
"u  	c #3F4F45",
"v  	c #3E4C44",
"w  	c #3E4C45",
"x  	c #3E4D45",
"y  	c #404E46",
"z  	c #414F47",
"A  	c #3E4F46",
"B  	c #405047",
"C  	c #3E5045",
"D  	c #3B4E42",
"E  	c #394C41",
"F  	c #3A4C41",
"G  	c #3B4D42",
"H  	c #394D42",
"I  	c #394D41",
"J  	c #394E42",
"K  	c #394E43",
"L  	c #3A4E44",
"M  	c #3B4E44",
"N  	c #394E41",
"O  	c #3A4F41",
"P  	c #3B5043",
"Q  	c #3C5043",
"R  	c #3B5143",
"S  	c #395243",
"T  	c #395143",
"U  	c #385142",
"V  	c #375040",
"W  	c #364E3F",
"X  	c #354D3E",
"Y  	c #385041",
"Z  	c #395041",
"`  	c #3B5041",
" . 	c #3A4F40",
".. 	c #3B5042",
"+. 	c #3C5243",
"@. 	c #394D40",
"#. 	c #354C3E",
"$. 	c #374E40",
"%. 	c #3A5042",
"&. 	c #395042",
"*. 	c #3B5244",
"=. 	c #3D5445",
"-. 	c #3E5547",
";. 	c #3E5446",
">. 	c #3C5345",
",. 	c #3D5347",
"'. 	c #3A5144",
"). 	c #3A5044",
"!. 	c #3A5043",
"~. 	c #394F41",
"{. 	c #3C5244",
"]. 	c #3E5245",
"^. 	c #3D5144",
"/. 	c #3C4F42",
"(. 	c #3A4D40",
"_. 	c #3A4C3F",
":. 	c #3C4E42",
"<. 	c #3E5044",
"[. 	c #3E4F44",
"}. 	c #3D4D43",
"|. 	c #3B4B41",
"1. 	c #3B4941",
"2. 	c #3C4942",
"3. 	c #3C4941",
"4. 	c #3D4B43",
"5. 	c #3F4C45",
"6. 	c #3F4C46",
"7. 	c #3D4A44",
"8. 	c #3C4A44",
"9. 	c #3E4A44",
"0. 	c #3D4843",
"a. 	c #3D4742",
"b. 	c #3C4641",
"c. 	c #3B4540",
"d. 	c #3C4540",
"e. 	c #3C4440",
"f. 	c #3D4641",
"g. 	c #3D453F",
"h. 	c #404942",
"i. 	c #404943",
"j. 	c #404944",
"k. 	c #404844",
"l. 	c #3F4843",
"m. 	c #414A45",
"n. 	c #404843",
"o. 	c #3E4642",
"p. 	c #3D4542",
"q. 	c #3F4743",
"r. 	c #424A46",
"s. 	c #3E4540",
"t. 	c #3C423D",
"u. 	c #3D433F",
"v. 	c #3D433E",
"w. 	c #3C413D",
"x. 	c #3D4240",
"y. 	c #3E4443",
"z. 	c #3F4544",
"A. 	c #3B4140",
"B. 	c #303736",
"C. 	c #1A2124",
"D. 	c #030A13",
"E. 	c #010812",
"F. 	c #000612",
"G. 	c #000512",
"H. 	c #000510",
"I. 	c #02080D",
"J. 	c #2F352D",
"K. 	c #6D7667",
"L. 	c #97A193",
"M. 	c #9FA99B",
"N. 	c #9EA99A",
"O. 	c #A0A99D",
"P. 	c #A2AAA0",
"Q. 	c #A2AAA1",
"R. 	c #A2AB9F",
"S. 	c #A4ACA1",
"T. 	c #A6AEA3",
"U. 	c #A7AFA3",
"V. 	c #A8B0A4",
"W. 	c #A7ADA3",
"X. 	c #A5ABA0",
"Y. 	c #A9AFA4",
"Z. 	c #ACB1A7",
"`. 	c #ABB2A7",
" + 	c #A7B0A5",
".+ 	c #A8B1A5",
"++ 	c #A5AEA3",
"@+ 	c #A7B1A5",
"#+ 	c #ABB6A9",
"$+ 	c #ACB7AB",
"%+ 	c #A7B2A5",
"&+ 	c #A6B1A4",
"*+ 	c #A6B0A5",
"=+ 	c #A7AFA7",
"-+ 	c #A9B0A8",
";+ 	c #AAB2AA",
">+ 	c #ADB4AC",
",+ 	c #ACB4AA",
"'+ 	c #AAB2A7",
")+ 	c #AAB2A6",
"!+ 	c #ACB4A8",
"~+ 	c #ACB5A9",
"{+ 	c #AEB6AA",
"]+ 	c #ACB3A8",
"^+ 	c #A9B1A6",
"/+ 	c #AAB3AA",
"(+ 	c #ACB6AD",
"_+ 	c #ABB4AB",
":+ 	c #A9B2A9",
"<+ 	c #A9B3AA",
"[+ 	c #A8B3A7",
"}+ 	c #A8B4A7",
"|+ 	c #ABB7AA",
"1+ 	c #AEB9AD",
"2+ 	c #AEBAAD",
"3+ 	c #ABB6AA",
"4+ 	c #ACB7AC",
"5+ 	c #AEBAB0",
"6+ 	c #ADB9AF",
"7+ 	c #ACB8AE",
"8+ 	c #ADB9AD",
"9+ 	c #AEBBAC",
"0+ 	c #ADB9AA",
"a+ 	c #ADB9AB",
"b+ 	c #ADBBAC",
"c+ 	c #AEBCAD",
"d+ 	c #B0BEAE",
"e+ 	c #ADBCAC",
"f+ 	c #A9B9A9",
"g+ 	c #ABBBAB",
"h+ 	c #AEBEAE",
"i+ 	c #A6BAA9",
"j+ 	c #A5B9A8",
"k+ 	c #AABEAC",
"l+ 	c #AEC2B1",
"m+ 	c #ADC2B1",
"n+ 	c #A8BAAC",
"o+ 	c #A8BAAD",
"p+ 	c #ACBEB0",
"q+ 	c #AFC1B3",
"r+ 	c #ACBDAE",
"s+ 	c #ACBEAF",
"t+ 	c #AEC0B1",
"u+ 	c #ADC0B1",
"v+ 	c #ACC1B1",
"w+ 	c #AFC5B4",
"x+ 	c #B0C5B5",
"y+ 	c #ACC2B0",
"z+ 	c #A8BFAC",
"A+ 	c #A7BFAB",
"B+ 	c #A9C0AD",
"C+ 	c #A6BEAB",
"D+ 	c #A5BDAA",
"E+ 	c #A4BDAA",
"F+ 	c #A7C0AC",
"G+ 	c #A6BFAB",
"H+ 	c #A6BDAC",
"I+ 	c #A5BCAB",
"J+ 	c #A7BEAD",
"K+ 	c #A8BFAE",
"L+ 	c #A5BCA8",
"M+ 	c #AAC2AD",
"N+ 	c #ABC2AE",
"O+ 	c #ACC4AF",
"P+ 	c #A8C5AF",
"Q+ 	c #A9C6B0",
"R+ 	c #A6C3AD",
"S+ 	c #A3C0AA",
"T+ 	c #A9C3AD",
"U+ 	c #A8C0AA",
"V+ 	c #AAC2AB",
"W+ 	c #ADC5AE",
"X+ 	c #ADC4AE",
"Y+ 	c #ACC3AE",
"Z+ 	c #A9C1AD",
"`+ 	c #A8BFAB",
" @ 	c #ABC3AE",
".@ 	c #AAC4AF",
"+@ 	c #A8C3AD",
"@@ 	c #A9C4AF",
"#@ 	c #A7C2AC",
"$@ 	c #A7C2AD",
"%@ 	c #A5C0AC",
"&@ 	c #A4BFAB",
"*@ 	c #A6C0AC",
"=@ 	c #A8C2AD",
"-@ 	c #A8C1AC",
";@ 	c #A7C1AC",
">@ 	c #A9C2AD",
",@ 	c #A9C0AC",
"'@ 	c #A5BDA8",
")@ 	c #A6BDA9",
"!@ 	c #A6BCA8",
"~@ 	c #A7BCA8",
"{@ 	c #A9BEAA",
"]@ 	c #ABC0AC",
"^@ 	c #ADC2AE",
"/@ 	c #ABBFAD",
"(@ 	c #AABDAC",
"_@ 	c #ABBEAD",
":@ 	c #ACBFAE",
"<@ 	c #ACBEAE",
"[@ 	c #AABCAB",
"}@ 	c #A6B9A8",
"|@ 	c #A9BBAB",
"1@ 	c #A9B9AA",
"2@ 	c #AAB9AB",
"3@ 	c #AABAAC",
"4@ 	c #ABBAAC",
"5@ 	c #AABAAD",
"6@ 	c #AAB9AE",
"7@ 	c #A8B8AD",
"8@ 	c #A7B6AC",
"9@ 	c #A9B8AD",
"0@ 	c #ACB9AF",
"a@ 	c #ABB8AE",
"b@ 	c #A9B6AC",
"c@ 	c #A8B3AA",
"d@ 	c #A8B4AA",
"e@ 	c #A9B5AB",
"f@ 	c #ABB7AD",
"g@ 	c #AAB6AC",
"h@ 	c #AFBBB1",
"i@ 	c #B0BCB2",
"j@ 	c #B0BBB1",
"k@ 	c #ACB7AD",
"l@ 	c #ABB6AC",
"m@ 	c #ACB8AB",
"n@ 	c #ADB8AC",
"o@ 	c #AEB9AF",
"p@ 	c #ACB7AE",
"q@ 	c #ADB8AE",
"r@ 	c #ADB8AF",
"s@ 	c #AAB5AC",
"t@ 	c #AFBAB0",
"u@ 	c #AAB5AB",
"v@ 	c #A7B1A7",
"w@ 	c #AAB4AA",
"x@ 	c #AEB8AE",
"y@ 	c #AAB4A9",
"z@ 	c #AAB4A8",
"A@ 	c #AAB5A9",
"B@ 	c #ABB5A9",
"C@ 	c #A9B4A8",
"D@ 	c #A8B3A6",
"E@ 	c #AAB5A8",
"F@ 	c #A8B1A6",
"G@ 	c #A7B0A4",
"H@ 	c #A6AFA3",
"I@ 	c #ABB3A8",
"J@ 	c #ABB4A8",
"K@ 	c #ACB4A9",
"L@ 	c #ABB3A9",
"M@ 	c #A7AFA6",
"N@ 	c #AAB3A7",
"O@ 	c #ABB5A8",
"P@ 	c #A8B2A6",
"Q@ 	c #9FA8A4",
"R@ 	c #777E7D",
"S@ 	c #2B2F32",
"T@ 	c #020712",
"U@ 	c #020714",
"V@ 	c #020410",
"W@ 	c #201B1F",
"X@ 	c #494740",
"Y@ 	c #606456",
"Z@ 	c #5B6051",
"`@ 	c #505445",
" # 	c #4C5041",
".# 	c #494C42",
"+# 	c #4B4E46",
"@# 	c #484C44",
"## 	c #494C44",
"$# 	c #494C45",
"%# 	c #494D44",
"&# 	c #4C4F45",
"*# 	c #4D5046",
"=# 	c #4C5046",
"-# 	c #4D4F46",
";# 	c #505149",
"># 	c #4C4C45",
",# 	c #4C4D45",
"'# 	c #4D4E46",
")# 	c #4B4C44",
"!# 	c #4F4F47",
"~# 	c #4C4E46",
"{# 	c #494C43",
"]# 	c #4F5149",
"^# 	c #4C4F46",
"/# 	c #4C5047",
"(# 	c #4B4F46",
"_# 	c #4D5047",
":# 	c #4A4E45",
"<# 	c #4E5249",
"[# 	c #4F524A",
"}# 	c #4F5249",
"|# 	c #4E5149",
"1# 	c #4A4D45",
"2# 	c #4F5148",
"3# 	c #51524A",
"4# 	c #4D5048",
"5# 	c #4F534A",
"6# 	c #53564D",
"7# 	c #52554D",
"8# 	c #52564D",
"9# 	c #4E5349",
"0# 	c #52574E",
"a# 	c #51554C",
"b# 	c #53584F",
"c# 	c #50554B",
"d# 	c #53574E",
"e# 	c #50544B",
"f# 	c #4F544B",
"g# 	c #4E544A",
"h# 	c #4D5349",
"i# 	c #50564C",
"j# 	c #4D5248",
"k# 	c #50564B",
"l# 	c #4F554A",
"m# 	c #52584D",
"n# 	c #4D5549",
"o# 	c #50584C",
"p# 	c #4F574B",
"q# 	c #4D564A",
"r# 	c #4E574B",
"s# 	c #4B5448",
"t# 	c #4E584C",
"u# 	c #4C564A",
"v# 	c #4D574B",
"w# 	c #4B584B",
"x# 	c #4F5D4F",
"y# 	c #4B594C",
"z# 	c #4E5B4E",
"A# 	c #4D5B4D",
"B# 	c #4C5B4C",
"C# 	c #4E5D4E",
"D# 	c #495849",
"E# 	c #4A594A",
"F# 	c #4A5A4A",
"G# 	c #465A46",
"H# 	c #495D49",
"I# 	c #485C48",
"J# 	c #495E4A",
"K# 	c #445B47",
"L# 	c #455D48",
"M# 	c #465D49",
"N# 	c #48604A",
"O# 	c #455D47",
"P# 	c #486049",
"Q# 	c #475F49",
"R# 	c #4B614B",
"S# 	c #495D48",
"T# 	c #4B5F4A",
"U# 	c #495B49",
"V# 	c #4E604D",
"W# 	c #4B5C4A",
"X# 	c #4E5F4D",
"Y# 	c #4D5F4D",
"Z# 	c #4D5E4C",
"`# 	c #4B5D4B",
" $ 	c #4A5C4A",
".$ 	c #4D5F4C",
"+$ 	c #4D5F4E",
"@$ 	c #4F604F",
"#$ 	c #4C5E4D",
"$$ 	c #4D5E4D",
"%$ 	c #4B5C4B",
"&$ 	c #4B5D4C",
"*$ 	c #4C5C4B",
"=$ 	c #4D5C4B",
"-$ 	c #4F5E4D",
";$ 	c #4E5D4C",
">$ 	c #52614F",
",$ 	c #4E5D4D",
"'$ 	c #516050",
")$ 	c #4E5C4C",
"!$ 	c #505F4F",
"~$ 	c #4B5A4A",
"{$ 	c #4D5C4C",
"]$ 	c #4F5E4E",
"^$ 	c #485747",
"/$ 	c #4A5949",
"($ 	c #4C5B4D",
"_$ 	c #4B5B4D",
":$ 	c #4A594B",
"<$ 	c #4B594B",
"[$ 	c #4C594A",
"}$ 	c #4D5A4A",
"|$ 	c #495647",
"1$ 	c #4F5C4C",
"2$ 	c #4A5647",
"3$ 	c #4C5849",
"4$ 	c #495546",
"5$ 	c #4D5748",
"6$ 	c #4F584A",
"7$ 	c #505A4C",
"8$ 	c #4F594C",
"9$ 	c #525C50",
"0$ 	c #4F584C",
"a$ 	c #50594D",
"b$ 	c #4F594D",
"c$ 	c #4B5549",
"d$ 	c #51594F",
"e$ 	c #4E554B",
"f$ 	c #51594E",
"g$ 	c #50584D",
"h$ 	c #4D564B",
"i$ 	c #4C5449",
"j$ 	c #50574D",
"k$ 	c #4E574C",
"l$ 	c #4F574C",
"m$ 	c #51584E",
"n$ 	c #4E564B",
"o$ 	c #4C544A",
"p$ 	c #4C5248",
"q$ 	c #4F554B",
"r$ 	c #51574D",
"s$ 	c #50554C",
"t$ 	c #51564D",
"u$ 	c #4C5148",
"v$ 	c #51534B",
"w$ 	c #52554C",
"x$ 	c #50534A",
"y$ 	c #54564E",
"z$ 	c #51544B",
"A$ 	c #52544C",
"B$ 	c #50524A",
"C$ 	c #53554D",
"D$ 	c #55574F",
"E$ 	c #55574D",
"F$ 	c #52544A",
"G$ 	c #515248",
"H$ 	c #525449",
"I$ 	c #505247",
"J$ 	c #52534A",
"K$ 	c #4E4F47",
"L$ 	c #4F5048",
"M$ 	c #4B4D44",
"N$ 	c #4B4E45",
"O$ 	c #4D4F47",
"P$ 	c #505249",
"Q$ 	c #4E4F46",
"R$ 	c #505148",
"S$ 	c #4B4C43",
"T$ 	c #4C4D44",
"U$ 	c #4E4F45",
"V$ 	c #4B4D43",
"W$ 	c #515249",
"X$ 	c #4C4F47",
"Y$ 	c #4B4F47",
"Z$ 	c #4A4E43",
"`$ 	c #4C5044",
" % 	c #4A4E42",
".% 	c #4E5246",
"+% 	c #5D6054",
"@% 	c #767B70",
"#% 	c #6F746B",
"$% 	c #505352",
"%% 	c #1C1D22",
"&% 	c #030511",
"*% 	c #0C0813",
"=% 	c #271B1F",
"-% 	c #392F2D",
";% 	c #3A3634",
">% 	c #302C29",
",% 	c #2E2B28",
"'% 	c #2E2A27",
")% 	c #312E2B",
"!% 	c #2E2D28",
"~% 	c #2F2D29",
"{% 	c #32312C",
"]% 	c #302E2A",
"^% 	c #302E29",
"/% 	c #2B2925",
"(% 	c #32302B",
"_% 	c #312F2A",
":% 	c #35322E",
"<% 	c #33302C",
"[% 	c #37312E",
"}% 	c #38322F",
"|% 	c #352E2B",
"1% 	c #362F2C",
"2% 	c #393330",
"3% 	c #332F2B",
"4% 	c #373430",
"5% 	c #383430",
"6% 	c #373530",
"7% 	c #383631",
"8% 	c #37342F",
"9% 	c #36342F",
"0% 	c #34322E",
"a% 	c #33322E",
"b% 	c #32312D",
"c% 	c #34332F",
"d% 	c #36312E",
"e% 	c #3B3633",
"f% 	c #383330",
"g% 	c #383530",
"h% 	c #34312C",
"i% 	c #35332D",
"j% 	c #33312C",
"k% 	c #363430",
"l% 	c #363530",
"m% 	c #383732",
"n% 	c #383632",
"o% 	c #373531",
"p% 	c #383733",
"q% 	c #373632",
"r% 	c #393833",
"s% 	c #34332E",
"t% 	c #353530",
"u% 	c #363630",
"v% 	c #373732",
"w% 	c #363631",
"x% 	c #353630",
"y% 	c #383933",
"z% 	c #34352F",
"A% 	c #363731",
"B% 	c #383A34",
"C% 	c #33352E",
"D% 	c #2F322B",
"E% 	c #353730",
"F% 	c #373932",
"G% 	c #373B34",
"H% 	c #353932",
"I% 	c #393D36",
"J% 	c #383C35",
"K% 	c #363B34",
"L% 	c #353C33",
"M% 	c #2F372E",
"N% 	c #313930",
"O% 	c #323A31",
"P% 	c #303A30",
"Q% 	c #333F33",
"R% 	c #303D31",
"S% 	c #313E31",
"T% 	c #334033",
"U% 	c #314132",
"V% 	c #2E4530",
"W% 	c #2D452F",
"X% 	c #314933",
"Y% 	c #304732",
"Z% 	c #2C4530",
"`% 	c #2B4731",
" & 	c #29452E",
".& 	c #2E4A33",
"+& 	c #2C4831",
"@& 	c #2D4731",
"#& 	c #2D4730",
"$& 	c #2F4832",
"%& 	c #29422C",
"&& 	c #2F422E",
"*& 	c #31422F",
"=& 	c #2C3E2A",
"-& 	c #31432F",
";& 	c #2E402C",
">& 	c #31402E",
",& 	c #2E3C2A",
"'& 	c #32402E",
")& 	c #364331",
"!& 	c #354230",
"~& 	c #324031",
"{& 	c #313F30",
"]& 	c #2C392B",
"^& 	c #323C31",
"/& 	c #333D32",
"(& 	c #313C30",
"_& 	c #364035",
":& 	c #3A4439",
"<& 	c #354034",
"[& 	c #343E33",
"}& 	c #354035",
"|& 	c #374135",
"1& 	c #333E32",
"2& 	c #374136",
"3& 	c #333D31",
"4& 	c #353F34",
"5& 	c #363F34",
"6& 	c #313A2F",
"7& 	c #343D32",
"8& 	c #333C31",
"9& 	c #333B31",
"0& 	c #394136",
"a& 	c #333B30",
"b& 	c #353D32",
"c& 	c #353D35",
"d& 	c #373E36",
"e& 	c #373F37",
"f& 	c #343C34",
"g& 	c #353C34",
"h& 	c #343A31",
"i& 	c #30362D",
"j& 	c #2F352C",
"k& 	c #373D34",
"l& 	c #33382F",
"m& 	c #383C34",
"n& 	c #373B32",
"o& 	c #383C33",
"p& 	c #373B33",
"q& 	c #393C34",
"r& 	c #383B33",
"s& 	c #363931",
"t& 	c #373A32",
"u& 	c #353831",
"v& 	c #343730",
"w& 	c #373A33",
"x& 	c #33362F",
"y& 	c #363831",
"z& 	c #393B34",
"A& 	c #393B35",
"B& 	c #363732",
"C& 	c #373833",
"D& 	c #3A3B36",
"E& 	c #3B3D37",
"F& 	c #363832",
"G& 	c #363932",
"H& 	c #32352E",
"I& 	c #373933",
"J& 	c #34362F",
"K& 	c #393A34",
"L& 	c #35352F",
"M& 	c #373631",
"N& 	c #33332E",
"O& 	c #363531",
"P& 	c #3A3934",
"Q& 	c #3A3631",
"R& 	c #3A3632",
"S& 	c #393531",
"T& 	c #393530",
"U& 	c #3B3733",
"V& 	c #3A3531",
"W& 	c #36322E",
"X& 	c #3B3632",
"Y& 	c #3C3833",
"Z& 	c #3A352F",
"`& 	c #3B352F",
" * 	c #3A342D",
".* 	c #3C3730",
"+* 	c #3C3630",
"@* 	c #39322F",
"#* 	c #3D3633",
"$* 	c #3B3431",
"%* 	c #3A3532",
"&* 	c #3A3431",
"** 	c #36302D",
"=* 	c #322C29",
"-* 	c #36312D",
";* 	c #37312D",
">* 	c #3B3531",
",* 	c #3C3632",
"'* 	c #39332F",
")* 	c #37302D",
"!* 	c #35312E",
"~* 	c #34322F",
"{* 	c #35332F",
"]* 	c #322F2C",
"^* 	c #32302C",
"/* 	c #302D2C",
"(* 	c #322D2E",
"_* 	c #322E2E",
":* 	c #312C2D",
"<* 	c #2D2929",
"[* 	c #37382D",
"}* 	c #525349",
"|* 	c #353531",
"1* 	c #212023",
"2* 	c #05040C",
"3* 	c #00080D",
"4* 	c #120B11",
"5* 	c #190D10",
"6* 	c #241D1B",
"7* 	c #292421",
"8* 	c #2B2623",
"9* 	c #2C2724",
"0* 	c #2F2A27",
"a* 	c #2D2925",
"b* 	c #2E2B26",
"c* 	c #2D2A25",
"d* 	c #33302B",
"e* 	c #2C2825",
"f* 	c #332F2C",
"g* 	c #36322F",
"h* 	c #2D2B27",
"i* 	c #302F2A",
"j* 	c #31302B",
"k* 	c #342F2B",
"l* 	c #35302C",
"m* 	c #332E2A",
"n* 	c #312C28",
"o* 	c #332F2A",
"p* 	c #2D2B26",
"q* 	c #2F2E29",
"r* 	c #2F2A26",
"s* 	c #35342F",
"t* 	c #37322E",
"u* 	c #322D29",
"v* 	c #34302B",
"w* 	c #35322D",
"x* 	c #302D28",
"y* 	c #2F2C27",
"z* 	c #2C2B26",
"A* 	c #33322D",
"B* 	c #2F2E2A",
"C* 	c #2F2F2A",
"D* 	c #2B2C26",
"E* 	c #32332D",
"F* 	c #30312B",
"G* 	c #33342E",
"H* 	c #2D2E28",
"I* 	c #373832",
"J* 	c #31322C",
"K* 	c #32342E",
"L* 	c #353731",
"M* 	c #2E312A",
"N* 	c #32382E",
"O* 	c #353C32",
"P* 	c #303A2F",
"Q* 	c #2F3B2F",
"R* 	c #2C3B30",
"S* 	c #324134",
"T* 	c #324133",
"U* 	c #324233",
"V* 	c #2F3F2E",
"W* 	c #2E432E",
"X* 	c #304531",
"Y* 	c #2E4430",
"Z* 	c #2E4531",
"`* 	c #2D4531",
" = 	c #2E4731",
".= 	c #304932",
"+= 	c #304933",
"@= 	c #2C452F",
"#= 	c #314A35",
"$= 	c #2D4430",
"%= 	c #2E4330",
"&= 	c #2E422E",
"*= 	c #304430",
"== 	c #30432F",
"-= 	c #2E402D",
";= 	c #2D3E2B",
">= 	c #304030",
",= 	c #2F3F2F",
"'= 	c #344333",
")= 	c #303F2E",
"!= 	c #334130",
"~= 	c #303D2F",
"{= 	c #2E3C2D",
"]= 	c #2D3B2C",
"^= 	c #323F31",
"/= 	c #2E382D",
"(= 	c #313A30",
"_= 	c #313B30",
":= 	c #2D372C",
"<= 	c #2F392E",
"[= 	c #2C362B",
"}= 	c #313B31",
"|= 	c #2D352A",
"1= 	c #2F372C",
"2= 	c #2E362B",
"3= 	c #333A32",
"4= 	c #2C332B",
"5= 	c #2E342D",
"6= 	c #2E352D",
"7= 	c #30362E",
"8= 	c #31362F",
"9= 	c #2F342D",
"0= 	c #353A33",
"a= 	c #2E332C",
"b= 	c #2C312A",
"c= 	c #323730",
"d= 	c #30352E",
"e= 	c #2C312B",
"f= 	c #31342D",
"g= 	c #30332C",
"h= 	c #2F302A",
"i= 	c #2D2F29",
"j= 	c #383B34",
"k= 	c #30322C",
"l= 	c #32322D",
"m= 	c #353430",
"n= 	c #322F2A",
"o= 	c #36332E",
"p= 	c #3A3732",
"q= 	c #38332F",
"r= 	c #393430",
"s= 	c #38302D",
"t= 	c #332B28",
"u= 	c #342C29",
"v= 	c #372F2C",
"w= 	c #362E2B",
"x= 	c #312E29",
"y= 	c #322E2A",
"z= 	c #35312D",
"A= 	c #35312C",
"B= 	c #2E2925",
"C= 	c #322D2A",
"D= 	c #312C29",
"E= 	c #2D2825",
"F= 	c #302B28",
"G= 	c #262420",
"H= 	c #2E2D29",
"I= 	c #2C2B2A",
"J= 	c #100E13",
"K= 	c #0A080F",
"L= 	c #01070D",
"M= 	c #150A11",
"N= 	c #15060A",
"O= 	c #211B18",
"P= 	c #26211E",
"Q= 	c #2A2522",
"R= 	c #2E2A26",
"S= 	c #2A2722",
"T= 	c #2B2823",
"U= 	c #302D29",
"V= 	c #312D2A",
"W= 	c #2D2926",
"X= 	c #2C2924",
"Y= 	c #332E2B",
"Z= 	c #312D29",
"`= 	c #302C28",
" - 	c #34302C",
".- 	c #322E29",
"+- 	c #393631",
"@- 	c #30302A",
"#- 	c #33352F",
"$- 	c #343930",
"%- 	c #323A2F",
"&- 	c #2F3C30",
"*- 	c #2C3E33",
"=- 	c #2D3F32",
"-- 	c #2E3F30",
";- 	c #2B3D2B",
">- 	c #2E412E",
",- 	c #2C442D",
"'- 	c #2B452D",
")- 	c #2E4930",
"!- 	c #2B482E",
"~- 	c #2B4A2E",
"{- 	c #2C4B2E",
"]- 	c #2D4C2F",
"^- 	c #304F32",
"/- 	c #2A492C",
"(- 	c #29452B",
"_- 	c #27432B",
":- 	c #2A432C",
"<- 	c #2A422B",
"[- 	c #2C422C",
"}- 	c #28432C",
"|- 	c #2A442E",
"1- 	c #2B432D",
"2- 	c #2C402B",
"3- 	c #2F3F2B",
"4- 	c #2F402E",
"5- 	c #2D3F2E",
"6- 	c #2B3E2E",
"7- 	c #293C2D",
"8- 	c #243828",
"9- 	c #2C3B2C",
"0- 	c #2B392A",
"a- 	c #2D3A2C",
"b- 	c #30392F",
"c- 	c #2B352A",
"d- 	c #293328",
"e- 	c #31392E",
"f- 	c #32392F",
"g- 	c #30372F",
"h- 	c #323931",
"i- 	c #282E27",
"j- 	c #333831",
"k- 	c #2D322C",
"l- 	c #343932",
"m- 	c #31352E",
"n- 	c #3A3B35",
"o- 	c #343630",
"p- 	c #33332D",
"q- 	c #34342E",
"r- 	c #31302C",
"s- 	c #38312E",
"t- 	c #39312E",
"u- 	c #352D2A",
"v- 	c #342D2A",
"w- 	c #342F2C",
"x- 	c #322E2B",
"y- 	c #2F2B28",
"z- 	c #2E2926",
"A- 	c #1F1B1B",
"B- 	c #080309",
"C- 	c #0B060E",
"D- 	c #04060D",
"E- 	c #190A12",
"F- 	c #150609",
"G- 	c #1E1916",
"H- 	c #282320",
"I- 	c #282420",
"J- 	c #292621",
"K- 	c #2E2B27",
"L- 	c #272420",
"M- 	c #2B2724",
"N- 	c #302B27",
"O- 	c #2B2622",
"P- 	c #2D2824",
"Q- 	c #2C2723",
"R- 	c #2D2C27",
"S- 	c #2E2F29",
"T- 	c #2A2B25",
"U- 	c #2C2D27",
"V- 	c #282923",
"W- 	c #292A24",
"X- 	c #2C2F28",
"Y- 	c #292C25",
"Z- 	c #2B2E27",
"`- 	c #272A23",
" ; 	c #2E302A",
".; 	c #2B3027",
"+; 	c #262D22",
"@; 	c #273025",
"#; 	c #293429",
"$; 	c #293529",
"%; 	c #2A3829",
"&; 	c #2B3B27",
"*; 	c #31442B",
"=; 	c #2E472A",
"-; 	c #2C502F",
";; 	c #305834",
">; 	c #346039",
",; 	c #37673B",
"'; 	c #366B3D",
"); 	c #346F3F",
"!; 	c #316C3C",
"~; 	c #367141",
"{; 	c #397146",
"]; 	c #3A7048",
"^; 	c #3B6E47",
"/; 	c #386A44",
"(; 	c #366741",
"_; 	c #366341",
":; 	c #315B3B",
"<; 	c #284E2F",
"[; 	c #234526",
"}; 	c #1F3D21",
"|; 	c #253921",
"1; 	c #263923",
"2; 	c #293C29",
"3; 	c #283B2A",
"4; 	c #27382A",
"5; 	c #243223",
"6; 	c #263425",
"7; 	c #283627",
"8; 	c #293728",
"9; 	c #273526",
"0; 	c #263025",
"a; 	c #283227",
"b; 	c #2D372D",
"c; 	c #2A3429",
"d; 	c #293228",
"e; 	c #273126",
"f; 	c #2B3328",
"g; 	c #2C3429",
"h; 	c #2A3228",
"i; 	c #2D342C",
"j; 	c #282F27",
"k; 	c #293028",
"l; 	c #2D332C",
"m; 	c #292E27",
"n; 	c #2B3029",
"o; 	c #2D322B",
"p; 	c #282D26",
"q; 	c #282B24",
"r; 	c #2D3029",
"s; 	c #2C2C27",
"t; 	c #2D2D27",
"u; 	c #2D2D28",
"v; 	c #31312B",
"w; 	c #312D28",
"x; 	c #332C29",
"y; 	c #322A27",
"z; 	c #2D2522",
"A; 	c #302825",
"B; 	c #2F2724",
"C; 	c #2E2623",
"D; 	c #2C2824",
"E; 	c #1E1919",
"F; 	c #070107",
"G; 	c #0D070F",
"H; 	c #05040D",
"I; 	c #1D0A14",
"J; 	c #140408",
"K; 	c #25201D",
"L; 	c #2A2622",
"M; 	c #282520",
"N; 	c #26231E",
"O; 	c #282421",
"P; 	c #26221F",
"Q; 	c #231F1C",
"R; 	c #24211E",
"S; 	c #251F1B",
"T; 	c #251E1B",
"U; 	c #251E1A",
"V; 	c #29221E",
"W; 	c #27221E",
"X; 	c #28231F",
"Y; 	c #26211D",
"Z; 	c #26201C",
"`; 	c #28211E",
" > 	c #27201D",
".> 	c #29221F",
"+> 	c #29231F",
"@> 	c #241F1C",
"#> 	c #241F1B",
"$> 	c #2A231F",
"%> 	c #27211D",
"&> 	c #292420",
"*> 	c #25221D",
"=> 	c #27241F",
"-> 	c #262520",
";> 	c #25241F",
">> 	c #272621",
",> 	c #23221D",
"'> 	c #24231E",
")> 	c #24231F",
"!> 	c #262721",
"~> 	c #252620",
"{> 	c #262722",
"]> 	c #23241E",
"^> 	c #24251F",
"/> 	c #22231D",
"(> 	c #242620",
"_> 	c #232620",
":> 	c #23261F",
"<> 	c #262922",
"[> 	c #252821",
"}> 	c #22281E",
"|> 	c #242B21",
"1> 	c #242D22",
"2> 	c #222D21",
"3> 	c #2B382B",
"4> 	c #283A27",
"5> 	c #2A442B",
"6> 	c #2A4E2C",
"7> 	c #346236",
"8> 	c #3A6D3E",
"9> 	c #3E7445",
"0> 	c #397440",
"a> 	c #397A40",
"b> 	c #3C8444",
"c> 	c #448F4D",
"d> 	c #46914F",
"e> 	c #489452",
"f> 	c #4D9856",
"g> 	c #4E9A58",
"h> 	c #4F975B",
"i> 	c #4D915B",
"j> 	c #4F915B",
"k> 	c #4B8B56",
"l> 	c #498853",
"m> 	c #427F4E",
"n> 	c #468253",
"o> 	c #437D4F",
"p> 	c #417A4C",
"q> 	c #3F7749",
"r> 	c #3F7046",
"s> 	c #35613C",
"t> 	c #244A2B",
"u> 	c #1D3C23",
"v> 	c #19331E",
"w> 	c #223121",
"x> 	c #233122",
"y> 	c #223021",
"z> 	c #1D2B1C",
"A> 	c #1C291B",
"B> 	c #1F291E",
"C> 	c #202A1F",
"D> 	c #212A20",
"E> 	c #1E281D",
"F> 	c #1D271C",
"G> 	c #212B20",
"H> 	c #232D22",
"I> 	c #20291F",
"J> 	c #222C21",
"K> 	c #232C22",
"L> 	c #1F271C",
"M> 	c #20281D",
"N> 	c #232B20",
"O> 	c #222A1F",
"P> 	c #242B23",
"Q> 	c #272E26",
"R> 	c #232A22",
"S> 	c #222921",
"T> 	c #262B24",
"U> 	c #232821",
"V> 	c #21261F",
"W> 	c #242922",
"X> 	c #222720",
"Y> 	c #222620",
"Z> 	c #242821",
"`> 	c #22251E",
" , 	c #242520",
"., 	c #272822",
"+, 	c #282722",
"@, 	c #22211C",
"#, 	c #26241F",
"$, 	c #2A2521",
"%, 	c #2A221F",
"&, 	c #29211E",
"*, 	c #2B2320",
"=, 	c #2B221F",
"-, 	c #29201E",
";, 	c #29201D",
">, 	c #281F1D",
",, 	c #25201C",
"', 	c #25211E",
"), 	c #292522",
"!, 	c #2D2623",
"~, 	c #2D2624",
"{, 	c #1F1719",
"], 	c #090107",
"^, 	c #0E060F",
"/, 	c #05050B",
"(, 	c #1F0C14",
"_, 	c #160508",
":, 	c #221B19",
"<, 	c #292321",
"[, 	c #28221F",
"}, 	c #27211E",
"|, 	c #2C2522",
"1, 	c #2C2823",
"2, 	c #2A2823",
"3, 	c #2A2926",
"4, 	c #2C2A28",
"5, 	c #2F2C2A",
"6, 	c #2D2C28",
"7, 	c #2A2925",
"8, 	c #2B2926",
"9, 	c #2A2421",
"0, 	c #2B2421",
"a, 	c #2F2825",
"b, 	c #322B29",
"c, 	c #322A2A",
"d, 	c #322A29",
"e, 	c #312A29",
"f, 	c #322B2A",
"g, 	c #302A29",
"h, 	c #2F2D28",
"i, 	c #2F2C28",
"j, 	c #2F2E28",
"k, 	c #2E2E29",
"l, 	c #2D2D29",
"m, 	c #2E2E2A",
"n, 	c #30302B",
"o, 	c #32332E",
"p, 	c #31322D",
"q, 	c #33332F",
"r, 	c #33342F",
"s, 	c #30312C",
"t, 	c #2B2E28",
"u, 	c #2B2F29",
"v, 	c #2D302B",
"w, 	c #2C2E29",
"x, 	c #2B2F28",
"y, 	c #2E2F28",
"z, 	c #2F3129",
"A, 	c #2C3228",
"B, 	c #282F21",
"C, 	c #25301D",
"D, 	c #1C2D16",
"E, 	c #1A3519",
"F, 	c #264D2A",
"G, 	c #346232",
"H, 	c #407444",
"I, 	c #407F4A",
"J, 	c #3F884B",
"K, 	c #42904D",
"L, 	c #499653",
"M, 	c #549E58",
"N, 	c #61A75E",
"O, 	c #6FB166",
"P, 	c #7BB771",
"Q, 	c #85BD7D",
"R, 	c #8AC083",
"S, 	c #8CC184",
"T, 	c #8CC285",
"U, 	c #8EC189",
"V, 	c #8BBE87",
"W, 	c #84BB80",
"X, 	c #75B171",
"Y, 	c #5EA15A",
"Z, 	c #569D5B",
"`, 	c #59A161",
" ' 	c #559B5D",
".' 	c #4B9057",
"+' 	c #478C57",
"@' 	c #418B4D",
"#' 	c #3F844C",
"$' 	c #3C784A",
"%' 	c #3D7247",
"&' 	c #37693E",
"*' 	c #2D5C37",
"=' 	c #1C3D22",
"-' 	c #142716",
";' 	c #192718",
">' 	c #1E291A",
",' 	c #242F20",
"'' 	c #242D21",
")' 	c #252F25",
"!' 	c #26352A",
"~' 	c #25392A",
"{' 	c #253727",
"]' 	c #283427",
"^' 	c #293327",
"/' 	c #283629",
"(' 	c #283327",
"_' 	c #273226",
":' 	c #2B362A",
"<' 	c #2C372B",
"[' 	c #2D382C",
"}' 	c #2E382E",
"|' 	c #2E372E",
"1' 	c #2A342A",
"2' 	c #2A382B",
"3' 	c #2A362B",
"4' 	c #283229",
"5' 	c #253128",
"6' 	c #2C332A",
"7' 	c #2D342A",
"8' 	c #2C3329",
"9' 	c #2D342B",
"0' 	c #2C3229",
"a' 	c #2A3128",
"b' 	c #283027",
"c' 	c #273027",
"d' 	c #283128",
"e' 	c #2A3329",
"f' 	c #2D352D",
"g' 	c #2E352E",
"h' 	c #2F362F",
"i' 	c #2F362E",
"j' 	c #2E322C",
"k' 	c #2F332D",
"l' 	c #323731",
"m' 	c #323631",
"n' 	c #323530",
"o' 	c #323430",
"p' 	c #343632",
"q' 	c #333632",
"r' 	c #333631",
"s' 	c #313430",
"t' 	c #30332F",
"u' 	c #30332E",
"v' 	c #31332F",
"w' 	c #2E312C",
"x' 	c #2D302C",
"y' 	c #2D2F2B",
"z' 	c #2C2D29",
"A' 	c #2E2E2B",
"B' 	c #2E2F2B",
"C' 	c #2E2E28",
"D' 	c #31312C",
"E' 	c #34342F",
"F' 	c #32322E",
"G' 	c #312E2A",
"H' 	c #32312B",
"I' 	c #34332D",
"J' 	c #33322C",
"K' 	c #34322D",
"L' 	c #322E28",
"M' 	c #312C27",
"N' 	c #302B26",
"O' 	c #332D29",
"P' 	c #37312C",
"Q' 	c #38312D",
"R' 	c #36302B",
"S' 	c #352F2B",
"T' 	c #332B29",
"U' 	c #36322D",
"V' 	c #2C2623",
"W' 	c #2F2926",
"X' 	c #2F2826",
"Y' 	c #2C2423",
"Z' 	c #2F2726",
"`' 	c #251D1F",
" ) 	c #0A0106",
".) 	c #10070E",
"+) 	c #05060B",
"@) 	c #200D13",
"#) 	c #170407",
"$) 	c #231A1A",
"%) 	c #2B2321",
"&) 	c #28211F",
"*) 	c #2D2523",
"=) 	c #2B2220",
"-) 	c #20201E",
";) 	c #0F0D0C",
">) 	c #0A0908",
",) 	c #080807",
"') 	c #070706",
")) 	c #060605",
"!) 	c #080504",
"~) 	c #090604",
"{) 	c #0B0706",
"]) 	c #0C0807",
"^) 	c #0D0807",
"/) 	c #0E080A",
"() 	c #0F080A",
"_) 	c #0C0809",
":) 	c #0D080A",
"<) 	c #0D090A",
"[) 	c #0D0909",
"}) 	c #0C0908",
"|) 	c #0C0907",
"1) 	c #0B0806",
"2) 	c #0C0906",
"3) 	c #0C0706",
"4) 	c #0D0808",
"5) 	c #0C0707",
"6) 	c #0C0A07",
"7) 	c #0D0A08",
"8) 	c #0D0A09",
"9) 	c #0C0A09",
"0) 	c #0B0B09",
"a) 	c #0B0B0A",
"b) 	c #0A0A08",
"c) 	c #0D0C0A",
"d) 	c #0C0B0A",
"e) 	c #0C0C0A",
"f) 	c #0D0D0B",
"g) 	c #090D08",
"h) 	c #0B0D09",
"i) 	c #0E0F0A",
"j) 	c #11140D",
"k) 	c #12190F",
"l) 	c #12150E",
"m) 	c #142717",
"n) 	c #2B5135",
"o) 	c #356D40",
"p) 	c #357A41",
"q) 	c #369051",
"r) 	c #479C50",
"s) 	c #5FA957",
"t) 	c #85BF74",
"u) 	c #ACD89C",
"v) 	c #C8EAB5",
"w) 	c #D3F2C5",
"x) 	c #E3FBDC",
"y) 	c #EAFCE9",
"z) 	c #F1FCEC",
"A) 	c #F6FCEA",
"B) 	c #F7FDEB",
"C) 	c #F7FBE9",
"D) 	c #F7FAEE",
"E) 	c #F6FAF1",
"F) 	c #F4FAF1",
"G) 	c #F0F9F0",
"H) 	c #ECF9EF",
"I) 	c #E9F5DF",
"J) 	c #D8E8C7",
"K) 	c #C4E4B3",
"L) 	c #A8D39D",
"M) 	c #8EC989",
"N) 	c #6CB56E",
"O) 	c #62A865",
"P) 	c #5B9E60",
"Q) 	c #57955D",
"R) 	c #548F5A",
"S) 	c #407D4E",
"T) 	c #336E3F",
"U) 	c #3A6C41",
"V) 	c #2F5834",
"W) 	c #183519",
"X) 	c #0C1D0C",
"Y) 	c #0E190F",
"Z) 	c #0C140D",
"`) 	c #0C170E",
" ! 	c #09150B",
".! 	c #0B120A",
"+! 	c #0D100A",
"@! 	c #0E0F0B",
"#! 	c #0C100B",
"$! 	c #0B0F0A",
"%! 	c #0A0C09",
"&! 	c #090B07",
"*! 	c #090C07",
"=! 	c #0A0D08",
"-! 	c #080E08",
";! 	c #090F08",
">! 	c #0B0F0B",
",! 	c #0D100C",
"'! 	c #0C100C",
")! 	c #0A110B",
"!! 	c #0D0E0A",
"~! 	c #0A0E09",
"{! 	c #080E09",
"]! 	c #0A0D07",
"^! 	c #090B06",
"/! 	c #080A06",
"(! 	c #080B06",
"_! 	c #070905",
":! 	c #070A06",
"<! 	c #080906",
"[! 	c #0A0907",
"}! 	c #0A0A07",
"|! 	c #080907",
"1! 	c #090B08",
"2! 	c #0B0A0A",
"3! 	c #0B090A",
"4! 	c #0C0A0B",
"5! 	c #0D0B0B",
"6! 	c #0B0A0B",
"7! 	c #0A0A0A",
"8! 	c #090A09",
"9! 	c #090909",
"0! 	c #0A0909",
"a! 	c #0B0908",
"b! 	c #0C0A08",
"c! 	c #0D0A07",
"d! 	c #0E0C09",
"e! 	c #0E0B09",
"f! 	c #0D0B09",
"g! 	c #0E0B0A",
"h! 	c #0D0B0A",
"i! 	c #0D0A0A",
"j! 	c #0E0A0A",
"k! 	c #100A09",
"l! 	c #10090A",
"m! 	c #100A0A",
"n! 	c #0F0A0A",
"o! 	c #0E0909",
"p! 	c #0D0908",
"q! 	c #0E0B08",
"r! 	c #0D0B08",
"s! 	c #0D0806",
"t! 	c #0C0705",
"u! 	c #0E0707",
"v! 	c #0E0607",
"w! 	c #0F0706",
"x! 	c #0E0706",
"y! 	c #0D0706",
"z! 	c #0A0706",
"A! 	c #080706",
"B! 	c #0A0806",
"C! 	c #0C0806",
"D! 	c #14110E",
"E! 	c #2C2A26",
"F! 	c #332D2B",
"G! 	c #271F1E",
"H! 	c #2F2725",
"I! 	c #312927",
"J! 	c #271F1D",
"K! 	c #2E2526",
"L! 	c #241C1E",
"M! 	c #0A0206",
"N! 	c #11090E",
"O! 	c #06060B",
"P! 	c #210E14",
"Q! 	c #170307",
"R! 	c #2C2422",
"S! 	c #2A2220",
"T! 	c #2E2523",
"U! 	c #1D1C18",
"V! 	c #010100",
"W! 	c #020100",
"X! 	c #010201",
"Y! 	c #030403",
"Z! 	c #050605",
"`! 	c #070807",
" ~ 	c #07090A",
".~ 	c #050708",
"+~ 	c #050607",
"@~ 	c #040506",
"#~ 	c #030405",
"$~ 	c #040405",
"%~ 	c #030305",
"&~ 	c #040406",
"*~ 	c #030406",
"=~ 	c #030507",
"-~ 	c #020406",
";~ 	c #020304",
">~ 	c #03050A",
",~ 	c #020408",
"'~ 	c #030509",
")~ 	c #040609",
"!~ 	c #040508",
"~~ 	c #050609",
"{~ 	c #06070A",
"]~ 	c #07080C",
"^~ 	c #08080C",
"/~ 	c #08080D",
"(~ 	c #06060A",
"_~ 	c #050809",
":~ 	c #040607",
"<~ 	c #05060A",
"[~ 	c #030508",
"}~ 	c #04060A",
"|~ 	c #020407",
"1~ 	c #030608",
"2~ 	c #030609",
"3~ 	c #030709",
"4~ 	c #03080A",
"5~ 	c #040408",
"6~ 	c #040307",
"7~ 	c #040308",
"8~ 	c #030407",
"9~ 	c #030408",
"0~ 	c #060606",
"a~ 	c #070B07",
"b~ 	c #050E06",
"c~ 	c #102112",
"d~ 	c #174D20",
"e~ 	c #1F662D",
"f~ 	c #2C8039",
"g~ 	c #3E9646",
"h~ 	c #5AA756",
"i~ 	c #91C875",
"j~ 	c #BDE5A8",
"k~ 	c #DFF6CD",
"l~ 	c #F6FDDD",
"m~ 	c #FBFCE1",
"n~ 	c #F6FCE2",
"o~ 	c #F3FDD7",
"p~ 	c #EBFBC2",
"q~ 	c #E4FBB3",
"r~ 	c #E1FAAB",
"s~ 	c #DEF9A8",
"t~ 	c #DEFAA8",
"u~ 	c #DEFAA7",
"v~ 	c #DDFAA6",
"w~ 	c #DBF9A1",
"x~ 	c #DAF89F",
"y~ 	c #DBF8A6",
"z~ 	c #DEFAAF",
"A~ 	c #E1FAB8",
"B~ 	c #E6FCCA",
"C~ 	c #ECFED4",
"D~ 	c #F0FEDA",
"E~ 	c #F4FDE6",
"F~ 	c #F7FCF1",
"G~ 	c #F4F9EB",
"H~ 	c #DFEEC6",
"I~ 	c #BDE0A1",
"J~ 	c #96CB85",
"K~ 	c #71B26E",
"L~ 	c #57AB5E",
"M~ 	c #50A666",
"N~ 	c #4D9B67",
"O~ 	c #4F885A",
"P~ 	c #477147",
"Q~ 	c #375943",
"R~ 	c #22392C",
"S~ 	c #0D1912",
"T~ 	c #0B0E09",
"U~ 	c #060401",
"V~ 	c #000600",
"W~ 	c #000700",
"X~ 	c #020700",
"Y~ 	c #030901",
"Z~ 	c #020B03",
"`~ 	c #020A03",
" { 	c #051007",
".{ 	c #0A160D",
"+{ 	c #0C1910",
"@{ 	c #09190F",
"#{ 	c #0E1E13",
"${ 	c #15211B",
"%{ 	c #0F1617",
"&{ 	c #0F1513",
"*{ 	c #101411",
"={ 	c #0E100C",
"-{ 	c #060A06",
";{ 	c #030A04",
">{ 	c #030805",
",{ 	c #040A06",
"'{ 	c #050A07",
"){ 	c #040907",
"!{ 	c #050A0A",
"~{ 	c #05090B",
"{{ 	c #040809",
"]{ 	c #05090A",
"^{ 	c #050B0C",
"/{ 	c #050A0B",
"({ 	c #040A0A",
"_{ 	c #04070A",
":{ 	c #04070B",
"<{ 	c #05080B",
"[{ 	c #05080C",
"}{ 	c #040909",
"|{ 	c #040906",
"1{ 	c #030906",
"2{ 	c #050808",
"3{ 	c #040707",
"4{ 	c #030607",
"5{ 	c #030506",
"6{ 	c #040708",
"7{ 	c #060909",
"8{ 	c #060809",
"9{ 	c #06090A",
"0{ 	c #060B0B",
"a{ 	c #070B0B",
"b{ 	c #020405",
"c{ 	c #030505",
"d{ 	c #030307",
"e{ 	c #04060B",
"f{ 	c #030409",
"g{ 	c #04050A",
"h{ 	c #020509",
"i{ 	c #02060A",
"j{ 	c #03060A",
"k{ 	c #010408",
"l{ 	c #04080C",
"m{ 	c #03070B",
"n{ 	c #050509",
"o{ 	c #05070B",
"p{ 	c #05070A",
"q{ 	c #06080B",
"r{ 	c #06090C",
"s{ 	c #07070C",
"t{ 	c #050508",
"u{ 	c #050608",
"v{ 	c #040507",
"w{ 	c #050505",
"x{ 	c #040605",
"y{ 	c #030605",
"z{ 	c #030706",
"A{ 	c #030604",
"B{ 	c #030402",
"C{ 	c #020302",
"D{ 	c #010102",
"E{ 	c #1E1816",
"F{ 	c #2D2424",
"G{ 	c #241B1E",
"H{ 	c #07070D",
"I{ 	c #220F15",
"J{ 	c #241B1B",
"K{ 	c #261E1C",
"L{ 	c #28201E",
"M{ 	c #29211F",
"N{ 	c #3F3A36",
"O{ 	c #080805",
"P{ 	c #070404",
"Q{ 	c #464442",
"R{ 	c #686765",
"S{ 	c #666563",
"T{ 	c #676664",
"U{ 	c #696866",
"V{ 	c #6F6E6A",
"W{ 	c #73726C",
"X{ 	c #6F6E61",
"Y{ 	c #717064",
"Z{ 	c #6E6C60",
"`{ 	c #73716B",
" ] 	c #706E6D",
".] 	c #716F6E",
"+] 	c #737170",
"@] 	c #767574",
"#] 	c #747372",
"$] 	c #6D6F6E",
"%] 	c #6A7373",
"&] 	c #6C7474",
"*] 	c #6E7677",
"=] 	c #6D7576",
"-] 	c #6D7575",
";] 	c #6D7475",
">] 	c #697172",
",] 	c #6E7574",
"'] 	c #6F7474",
")] 	c #686E6D",
"!] 	c #6C7271",
"~] 	c #6C7171",
"{] 	c #6E7575",
"]] 	c #707878",
"^] 	c #676E6F",
"/] 	c #697070",
"(] 	c #6A7272",
"_] 	c #6E7775",
":] 	c #6B7572",
"<] 	c #6E7774",
"[] 	c #6F7876",
"}] 	c #6B7471",
"|] 	c #6D7676",
"1] 	c #6B7473",
"2] 	c #6E7776",
"3] 	c #707979",
"4] 	c #707A79",
"5] 	c #727D7B",
"6] 	c #707B79",
"7] 	c #6F7A79",
"8] 	c #6E7978",
"9] 	c #717D7B",
"0] 	c #727F7E",
"a] 	c #727F7D",
"b] 	c #73807E",
"c] 	c #788583",
"d] 	c #798281",
"e] 	c #7F8787",
"f] 	c #7D8987",
"g] 	c #7F8D8B",
"h] 	c #778885",
"i] 	c #76807E",
"j] 	c #656C69",
"k] 	c #39443C",
"l] 	c #19311F",
"m] 	c #274A30",
"n] 	c #276D38",
"o] 	c #3A853E",
"p] 	c #6FAA5F",
"q] 	c #ADD894",
"r] 	c #D5F5BC",
"s] 	c #EDFEC7",
"t] 	c #E9FEB9",
"u] 	c #DBFBA4",
"v] 	c #CEF58B",
"w] 	c #BEED6F",
"x] 	c #ADEA4D",
"y] 	c #A2E640",
"z] 	c #9CE738",
"A] 	c #97E832",
"B] 	c #93E72F",
"C] 	c #8FE32C",
"D] 	c #8DE128",
"E] 	c #8DE225",
"F] 	c #8DE223",
"G] 	c #8AE026",
"H] 	c #8DE32F",
"I] 	c #8DE234",
"J] 	c #88DB33",
"K] 	c #85D634",
"L] 	c #86DA34",
"M] 	c #90DD41",
"N] 	c #A4E15C",
"O] 	c #BBE87E",
"P] 	c #D3F39D",
"Q] 	c #E3F8B5",
"R] 	c #ECFBD3",
"S] 	c #F0FBEC",
"T] 	c #F0FAEB",
"U] 	c #EBF7D9",
"V] 	c #CBE7BD",
"W] 	c #9FCB8D",
"X] 	c #6EB167",
"Y] 	c #59A269",
"Z] 	c #4C8F69",
"`] 	c #458055",
" ^ 	c #437252",
".^ 	c #3F624C",
"+^ 	c #2A4132",
"@^ 	c #132313",
"#^ 	c #112914",
"$^ 	c #2B482F",
"%^ 	c #4D7153",
"&^ 	c #5F8866",
"*^ 	c #689471",
"=^ 	c #608D6B",
"-^ 	c #5A8764",
";^ 	c #5D8967",
">^ 	c #628D6C",
",^ 	c #598164",
"'^ 	c #406C4C",
")^ 	c #386A43",
"!^ 	c #3E6C4A",
"~^ 	c #365D43",
"{^ 	c #2F4E38",
"]^ 	c #314937",
"^^ 	c #566859",
"/^ 	c #67796A",
"(^ 	c #6E8172",
"_^ 	c #6E8376",
":^ 	c #74897C",
"<^ 	c #778C7F",
"[^ 	c #798E81",
"}^ 	c #73887D",
"|^ 	c #758981",
"1^ 	c #778C84",
"2^ 	c #788D85",
"3^ 	c #7A8E86",
"4^ 	c #788F87",
"5^ 	c #769086",
"6^ 	c #708B81",
"7^ 	c #718C82",
"8^ 	c #728C83",
"9^ 	c #6C857E",
"0^ 	c #718A83",
"a^ 	c #768E87",
"b^ 	c #748C85",
"c^ 	c #72867E",
"d^ 	c #73847C",
"e^ 	c #72837B",
"f^ 	c #75867D",
"g^ 	c #75867E",
"h^ 	c #798881",
"i^ 	c #75847E",
"j^ 	c #76847E",
"k^ 	c #72817A",
"l^ 	c #74817B",
"m^ 	c #717E78",
"n^ 	c #73807A",
"o^ 	c #6F7B75",
"p^ 	c #6D7671",
"q^ 	c #717B76",
"r^ 	c #747D78",
"s^ 	c #77817C",
"t^ 	c #7A847F",
"u^ 	c #7B8680",
"v^ 	c #717C77",
"w^ 	c #707B76",
"x^ 	c #707C76",
"y^ 	c #727C78",
"z^ 	c #747E7B",
"A^ 	c #727B78",
"B^ 	c #727B79",
"C^ 	c #6F7875",
"D^ 	c #717A78",
"E^ 	c #707A77",
"F^ 	c #717B78",
"G^ 	c #707978",
"H^ 	c #6B7373",
"I^ 	c #6F7777",
"J^ 	c #727B7B",
"K^ 	c #6E7777",
"L^ 	c #6F7877",
"M^ 	c #747D7D",
"N^ 	c #717A7A",
"O^ 	c #6C7575",
"P^ 	c #6B7474",
"Q^ 	c #687473",
"R^ 	c #6C7877",
"S^ 	c #697474",
"T^ 	c #6A7675",
"U^ 	c #6B7676",
"V^ 	c #6B7575",
"W^ 	c #687372",
"X^ 	c #6B7675",
"Y^ 	c #727979",
"Z^ 	c #727877",
"`^ 	c #717776",
" / 	c #757B7A",
"./ 	c #747A79",
"+/ 	c #6F7878",
"@/ 	c #707879",
"#/ 	c #717878",
"$/ 	c #6B7171",
"%/ 	c #6F7575",
"&/ 	c #6D7373",
"*/ 	c #6E7373",
"=/ 	c #6E7272",
"-/ 	c #676C6B",
";/ 	c #6C7070",
">/ 	c #6F7472",
",/ 	c #707472",
"'/ 	c #707573",
")/ 	c #737875",
"!/ 	c #717371",
"~/ 	c #747170",
"{/ 	c #71706E",
"]/ 	c #737471",
"^/ 	c #6F716D",
"// 	c #6B6D68",
"(/ 	c #686964",
"_/ 	c #4C4C49",
":/ 	c #080808",
"</ 	c #010104",
"[/ 	c #0F0909",
"}/ 	c #362E2C",
"|/ 	c #2C2324",
"1/ 	c #2D2425",
"2/ 	c #21181B",
"3/ 	c #090105",
"4/ 	c #130B10",
"5/ 	c #231016",
"6/ 	c #251D1B",
"7/ 	c #403A36",
"8/ 	c #070704",
"9/ 	c #010101",
"0/ 	c #3E3C34",
"a/ 	c #4F4B48",
"b/ 	c #3F3A35",
"c/ 	c #3E3933",
"d/ 	c #3D3933",
"e/ 	c #3E3934",
"f/ 	c #403A38",
"g/ 	c #3A3331",
"h/ 	c #3F3835",
"i/ 	c #413A37",
"j/ 	c #3B3230",
"k/ 	c #3E3533",
"l/ 	c #423937",
"m/ 	c #453C3A",
"n/ 	c #403A37",
"o/ 	c #433C39",
"p/ 	c #423B38",
"q/ 	c #494240",
"r/ 	c #413B3A",
"s/ 	c #443F3E",
"t/ 	c #443F3F",
"u/ 	c #443E3E",
"v/ 	c #464140",
"w/ 	c #494441",
"x/ 	c #4B4544",
"y/ 	c #403B3A",
"z/ 	c #3E3939",
"A/ 	c #45403E",
"B/ 	c #474240",
"C/ 	c #494442",
"D/ 	c #403C3A",
"E/ 	c #433E3C",
"F/ 	c #403D3B",
"G/ 	c #464341",
"H/ 	c #444040",
"I/ 	c #433F3E",
"J/ 	c #413D3D",
"K/ 	c #454441",
"L/ 	c #41403D",
"M/ 	c #43413E",
"N/ 	c #474543",
"O/ 	c #464441",
"P/ 	c #464544",
"Q/ 	c #403E3D",
"R/ 	c #454442",
"S/ 	c #444341",
"T/ 	c #474644",
"U/ 	c #424341",
"V/ 	c #454644",
"W/ 	c #434442",
"X/ 	c #3F403E",
"Y/ 	c #424442",
"Z/ 	c #414543",
"`/ 	c #444845",
" ( 	c #454946",
".( 	c #444846",
"+( 	c #3D4340",
"@( 	c #3E4843",
"#( 	c #3A4842",
"$( 	c #394943",
"%( 	c #304139",
"&( 	c #22372B",
"*( 	c #24422E",
"=( 	c #1C4729",
"-( 	c #1A5029",
";( 	c #1E5B26",
">( 	c #92BA7C",
",( 	c #DBFAAB",
"'( 	c #D6F696",
")( 	c #C2E97F",
"!( 	c #9FDB5C",
"~( 	c #83C43C",
"{( 	c #6EB524",
"]( 	c #61AD1A",
"^( 	c #57A418",
"/( 	c #4F981A",
"(( 	c #4A9316",
"_( 	c #458F14",
":( 	c #428F14",
"<( 	c #438D14",
"[( 	c #468B12",
"}( 	c #468C10",
"|( 	c #488E10",
"1( 	c #4D9412",
"2( 	c #519C13",
"3( 	c #5BAA18",
"4( 	c #6BBC27",
"5( 	c #7BCD32",
"6( 	c #8ADF3D",
"7( 	c #95EE49",
"8( 	c #94EF46",
"9( 	c #8AE837",
"0( 	c #82E32D",
"a( 	c #7ADC25",
"b( 	c #7AD823",
"c( 	c #8ADA40",
"d( 	c #A9E366",
"e( 	c #CBEE93",
"f( 	c #E4FBB8",
"g( 	c #F7FBDF",
"h( 	c #F6FBE1",
"i( 	c #E6F5D7",
"j( 	c #B7DEAC",
"k( 	c #81C177",
"l( 	c #58A75F",
"m( 	c #48945A",
"n( 	c #47895E",
"o( 	c #3D7152",
"p( 	c #375E46",
"q( 	c #1E3526",
"r( 	c #102410",
"s( 	c #19361B",
"t( 	c #31623D",
"u( 	c #3E754C",
"v( 	c #2D6039",
"w( 	c #285C34",
"x( 	c #32653D",
"y( 	c #2C5F38",
"z( 	c #2B6234",
"A( 	c #387A3D",
"B( 	c #419045",
"C( 	c #46964A",
"D( 	c #428A46",
"E( 	c #48814B",
"F( 	c #497549",
"G( 	c #3E5E3C",
"H( 	c #344B31",
"I( 	c #2D412D",
"J( 	c #334B35",
"K( 	c #3A523C",
"L( 	c #3C543E",
"M( 	c #364D38",
"N( 	c #3C5440",
"O( 	c #364C3D",
"P( 	c #354B3D",
"Q( 	c #3F5446",
"R( 	c #3C5042",
"S( 	c #3D5043",
"T( 	c #3F5245",
"U( 	c #3A4D3F",
"V( 	c #384A3E",
"W( 	c #37483D",
"X( 	c #3B4C41",
"Y( 	c #415044",
"Z( 	c #3A473C",
"`( 	c #404D41",
" _ 	c #3D4A3F",
"._ 	c #424F44",
"+_ 	c #404C42",
"@_ 	c #48534A",
"#_ 	c #444F46",
"$_ 	c #434D45",
"%_ 	c #444C44",
"&_ 	c #434A42",
"*_ 	c #3F463E",
"=_ 	c #424841",
"-_ 	c #454741",
";_ 	c #43453F",
">_ 	c #4A4D46",
",_ 	c #40423C",
"'_ 	c #40433D",
")_ 	c #444540",
"!_ 	c #484943",
"~_ 	c #444640",
"{_ 	c #464641",
"]_ 	c #464542",
"^_ 	c #444340",
"/_ 	c #474643",
"(_ 	c #42413E",
"__ 	c #41413E",
":_ 	c #43413F",
"<_ 	c #434140",
"[_ 	c #4A4948",
"}_ 	c #403F3E",
"|_ 	c #41403F",
"1_ 	c #41403E",
"2_ 	c #474745",
"3_ 	c #3E3C3B",
"4_ 	c #464543",
"5_ 	c #444241",
"6_ 	c #4C4B49",
"7_ 	c #403F3D",
"8_ 	c #444542",
"9_ 	c #444442",
"0_ 	c #3E3F3C",
"a_ 	c #444240",
"b_ 	c #43403F",
"c_ 	c #454240",
"d_ 	c #453F3D",
"e_ 	c #4A4542",
"f_ 	c #494341",
"g_ 	c #4B4543",
"h_ 	c #423C3B",
"i_ 	c #423D3C",
"j_ 	c #463E3D",
"k_ 	c #463D3C",
"l_ 	c #413A38",
"m_ 	c #453D3C",
"n_ 	c #433836",
"o_ 	c #463D3A",
"p_ 	c #483F3C",
"q_ 	c #423835",
"r_ 	c #48403B",
"s_ 	c #4B423E",
"t_ 	c #49403B",
"u_ 	c #473E3A",
"v_ 	c #4A403D",
"w_ 	c #443B37",
"x_ 	c #413B36",
"y_ 	c #49443E",
"z_ 	c #47443C",
"A_ 	c #4B4941",
"B_ 	c #605E59",
"C_ 	c #433F3D",
"D_ 	c #060204",
"E_ 	c #0D0505",
"F_ 	c #3B3331",
"G_ 	c #2A2222",
"H_ 	c #2F2627",
"I_ 	c #09060C",
"J_ 	c #241016",
"K_ 	c #160307",
"L_ 	c #271D1D",
"M_ 	c #291F1F",
"N_ 	c #2B2222",
"O_ 	c #2B211F",
"P_ 	c #433C3A",
"Q_ 	c #090807",
"R_ 	c #443D3C",
"S_ 	c #2C1D1D",
"T_ 	c #2E2221",
"U_ 	c #312926",
"V_ 	c #2E2823",
"W_ 	c #2E2420",
"X_ 	c #382727",
"Y_ 	c #3E2C2D",
"Z_ 	c #3E2E2E",
"`_ 	c #372626",
" : 	c #362525",
".: 	c #412B2C",
"+: 	c #3F2829",
"@: 	c #3D2526",
"#: 	c #3F2728",
"$: 	c #3C2626",
"%: 	c #3F2928",
"&: 	c #422C2B",
"*: 	c #412D2B",
"=: 	c #422F2D",
"-: 	c #3B2826",
";: 	c #45312F",
">: 	c #3E2A28",
",: 	c #3D2927",
"': 	c #422B2A",
"): 	c #3E2424",
"!: 	c #452B2B",
"~: 	c #402626",
"{: 	c #412727",
"]: 	c #422C29",
"^: 	c #3A2421",
"/: 	c #3E2825",
"(: 	c #412C28",
"_: 	c #46302D",
":: 	c #452D2D",
"<: 	c #432B2C",
"[: 	c #462E30",
"}: 	c #432B2D",
"|: 	c #392A28",
"1: 	c #3E302D",
"2: 	c #3C2E2B",
"3: 	c #362825",
"4: 	c #3D2E2B",
"5: 	c #3D2C28",
"6: 	c #402F2C",
"7: 	c #362521",
"8: 	c #3C2A27",
"9: 	c #382623",
"0: 	c #3F2E2A",
"a: 	c #42302C",
"b: 	c #382826",
"c: 	c #332625",
"d: 	c #392D2B",
"e: 	c #362B2A",
"f: 	c #372D2B",
"g: 	c #312827",
"h: 	c #332D2E",
"i: 	c #2E2D2C",
"j: 	c #2A2F2C",
"k: 	c #232C27",
"l: 	c #1C3829",
"m: 	c #1B3E2A",
"n: 	c #174026",
"o: 	c #154627",
"p: 	c #164E29",
"q: 	c #105020",
"r: 	c #467932",
"s: 	c #6FA242",
"t: 	c #4E8418",
"u: 	c #2F6A04",
"v: 	c #155301",
"w: 	c #094500",
"x: 	c #084200",
"y: 	c #0B4101",
"z: 	c #0C4102",
"A: 	c #084100",
"B: 	c #094101",
"C: 	c #094102",
"D: 	c #0A4205",
"E: 	c #0C4205",
"F: 	c #0C4204",
"G: 	c #0C4303",
"H: 	c #0B4201",
"I: 	c #0C4201",
"J: 	c #0D4803",
"K: 	c #0D4D03",
"L: 	c #125203",
"M: 	c #155701",
"N: 	c #185C01",
"O: 	c #246E03",
"P: 	c #4A9524",
"Q: 	c #6ABB3A",
"R: 	c #80DC4C",
"S: 	c #90F358",
"T: 	c #9AF846",
"U: 	c #92EF3A",
"V: 	c #87E528",
"W: 	c #81DE1F",
"X: 	c #7FD821",
"Y: 	c #9CDF55",
"Z: 	c #C5EE9A",
"`: 	c #E5FBCF",
" < 	c #F5FBE1",
".< 	c #F3FBDF",
"+< 	c #CDEABA",
"@< 	c #8AC77D",
"#< 	c #50A257",
"$< 	c #4B925D",
"%< 	c #497A53",
"&< 	c #476B4E",
"*< 	c #345B41",
"=< 	c #183424",
"-< 	c #1B3924",
";< 	c #2B5032",
">< 	c #21492B",
",< 	c #1F4D2D",
"'< 	c #1D4B27",
")< 	c #1E4A23",
"!< 	c #1E5E25",
"~< 	c #7CA963",
"{< 	c #CCE8A6",
"]< 	c #BCE0A5",
"^< 	c #90D07B",
"/< 	c #6DB568",
"(< 	c #589956",
"_< 	c #55854C",
":< 	c #56764B",
"<< 	c #526A46",
"[< 	c #3A502F",
"}< 	c #233922",
"|< 	c #2A3F2A",
"1< 	c #32412D",
"2< 	c #2D3829",
"3< 	c #2F402A",
"4< 	c #2F4029",
"5< 	c #2C3D26",
"6< 	c #283822",
"7< 	c #293522",
"8< 	c #323628",
"9< 	c #2B3021",
"0< 	c #2F3526",
"a< 	c #2E3626",
"b< 	c #2B3424",
"c< 	c #2E3728",
"d< 	c #2A3123",
"e< 	c #2D3125",
"f< 	c #2C2F23",
"g< 	c #31362B",
"h< 	c #32382D",
"i< 	c #2B2F26",
"j< 	c #33342D",
"k< 	c #31302A",
"l< 	c #2E3027",
"m< 	c #2B2E24",
"n< 	c #34342B",
"o< 	c #343129",
"p< 	c #332F27",
"q< 	c #2F2C24",
"r< 	c #35332A",
"s< 	c #322F27",
"t< 	c #34312A",
"u< 	c #3C3331",
"v< 	c #3A2F2D",
"w< 	c #3C2C2B",
"x< 	c #3D2D2C",
"y< 	c #392A29",
"z< 	c #40312F",
"A< 	c #443331",
"B< 	c #3F2E29",
"C< 	c #41302C",
"D< 	c #402F2A",
"E< 	c #453331",
"F< 	c #422F2E",
"G< 	c #443231",
"H< 	c #3E2B2A",
"I< 	c #463433",
"J< 	c #42302F",
"K< 	c #3A2828",
"L< 	c #3F2D2C",
"M< 	c #412F2F",
"N< 	c #3D2E2C",
"O< 	c #413230",
"P< 	c #382A28",
"Q< 	c #423432",
"R< 	c #3C2D2B",
"S< 	c #3B2A28",
"T< 	c #392726",
"U< 	c #402F2E",
"V< 	c #382725",
"W< 	c #402F2D",
"X< 	c #3B2827",
"Y< 	c #412E2D",
"Z< 	c #402D2C",
"`< 	c #44302F",
" [ 	c #402B29",
".[ 	c #46312F",
"+[ 	c #463130",
"@[ 	c #45302E",
"#[ 	c #3E2A27",
"$[ 	c #473330",
"%[ 	c #43302D",
"&[ 	c #422F2C",
"*[ 	c #402C29",
"=[ 	c #46322F",
"-[ 	c #422E2C",
";[ 	c #3F2B29",
">[ 	c #422A29",
",[ 	c #482D2D",
"'[ 	c #412625",
")[ 	c #482B2C",
"![ 	c #492C2C",
"~[ 	c #452A29",
"{[ 	c #442826",
"][ 	c #482A29",
"^[ 	c #502E2E",
"/[ 	c #4D2B2C",
"([ 	c #442626",
"_[ 	c #4A2B2C",
":[ 	c #482A2A",
"<[ 	c #402725",
"[[ 	c #44332C",
"}[ 	c #402926",
"|[ 	c #3F2625",
"1[ 	c #3F2A29",
"2[ 	c #362422",
"3[ 	c #2E231F",
"4[ 	c #322B28",
"5[ 	c #4C4141",
"6[ 	c #120B0C",
"7[ 	c #0A0403",
"8[ 	c #3E3634",
"9[ 	c #2D2526",
"0[ 	c #231B1D",
"a[ 	c #0A050C",
"b[ 	c #261117",
"c[ 	c #150205",
"d[ 	c #22191A",
"e[ 	c #241A1B",
"f[ 	c #261C1D",
"g[ 	c #281F1F",
"h[ 	c #2C2223",
"i[ 	c #291E1D",
"j[ 	c #413837",
"k[ 	c #0A0707",
"l[ 	c #423837",
"m[ 	c #251617",
"n[ 	c #1E0E10",
"o[ 	c #240E10",
"p[ 	c #320F11",
"q[ 	c #3A0E11",
"r[ 	c #380E11",
"s[ 	c #3B1416",
"t[ 	c #3C1316",
"u[ 	c #3D1316",
"v[ 	c #3E1115",
"w[ 	c #3C0F13",
"x[ 	c #3A0F12",
"y[ 	c #3B1113",
"z[ 	c #3D1315",
"A[ 	c #391613",
"B[ 	c #391B18",
"C[ 	c #341612",
"D[ 	c #331612",
"E[ 	c #341311",
"F[ 	c #341412",
"G[ 	c #331210",
"H[ 	c #331211",
"I[ 	c #341614",
"J[ 	c #331613",
"K[ 	c #30110F",
"L[ 	c #331412",
"M[ 	c #331814",
"N[ 	c #341B16",
"O[ 	c #321914",
"P[ 	c #2F1510",
"Q[ 	c #321813",
"R[ 	c #321615",
"S[ 	c #341717",
"T[ 	c #2F1212",
"U[ 	c #2C0E0D",
"V[ 	c #331716",
"W[ 	c #2F1513",
"X[ 	c #2E1312",
"Y[ 	c #301614",
"Z[ 	c #2F1310",
"`[ 	c #311512",
" } 	c #321512",
".} 	c #2F1511",
"+} 	c #28140E",
"@} 	c #2A1610",
"#} 	c #28130E",
"$} 	c #291510",
"%} 	c #281511",
"&} 	c #271614",
"*} 	c #261613",
"=} 	c #231612",
"-} 	c #211511",
";} 	c #221716",
">} 	c #201717",
",} 	c #1B1715",
"'} 	c #161815",
")} 	c #141A15",
"!} 	c #142219",
"~} 	c #122519",
"{} 	c #12281A",
"]} 	c #0E2816",
"^} 	c #0E2C17",
"/} 	c #062811",
"(} 	c #052804",
"_} 	c #052900",
":} 	c #062A01",
"<} 	c #042701",
"[} 	c #012801",
"}} 	c #012701",
"|} 	c #022902",
"1} 	c #042A04",
"2} 	c #062B05",
"3} 	c #072C02",
"4} 	c #082C02",
"5} 	c #092D03",
"6} 	c #082D03",
"7} 	c #092C03",
"8} 	c #0A2C03",
"9} 	c #092B02",
"0} 	c #092A02",
"a} 	c #082902",
"b} 	c #082901",
"c} 	c #062A00",
"d} 	c #052B00",
"e} 	c #062F00",
"f} 	c #093500",
"g} 	c #0F3901",
"h} 	c #113E00",
"i} 	c #104500",
"j} 	c #115000",
"k} 	c #206307",
"l} 	c #4F9127",
"m} 	c #77BF44",
"n} 	c #94E553",
"o} 	c #9DF64F",
"p} 	c #92F13C",
"q} 	c #7DE618",
"r} 	c #77DA0E",
"s} 	c #81D12D",
"t} 	c #B0E077",
"u} 	c #DAF4B1",
"v} 	c #F6FADB",
"w} 	c #F2FBE2",
"x} 	c #D1EBBE",
"y} 	c #8BBE80",
"z} 	c #469458",
"A} 	c #448C59",
"B} 	c #437E47",
"C} 	c #3E7E48",
"D} 	c #2B5F30",
"E} 	c #163C19",
"F} 	c #1B3F23",
"G} 	c #1B3C23",
"H} 	c #15361A",
"I} 	c #163C18",
"J} 	c #204A11",
"K} 	c #81A45A",
"L} 	c #DBF7AE",
"M} 	c #EFFDD9",
"N} 	c #F3FADF",
"O} 	c #E8F9C8",
"P} 	c #C0E3A7",
"Q} 	c #88C57C",
"R} 	c #67B06A",
"S} 	c #599F63",
"T} 	c #4A8252",
"U} 	c #406543",
"V} 	c #3F5333",
"W} 	c #293B19",
"X} 	c #1C2E1A",
"Y} 	c #1A2B14",
"Z} 	c #1A2913",
"`} 	c #1C2815",
" | 	c #1D2614",
".| 	c #1E2718",
"+| 	c #1F2A1C",
"@| 	c #1F2619",
"#| 	c #212417",
"$| 	c #232215",
"%| 	c #201D10",
"&| 	c #201F10",
"*| 	c #212113",
"=| 	c #1F2113",
"-| 	c #1B2012",
";| 	c #1D1F11",
">| 	c #1F1E12",
",| 	c #1C190F",
"'| 	c #1F1A10",
")| 	c #201910",
"!| 	c #1F1810",
"~| 	c #1E150D",
"{| 	c #21150F",
"]| 	c #261510",
"^| 	c #281612",
"/| 	c #251611",
"(| 	c #23140F",
"_| 	c #241611",
":| 	c #22130F",
"<| 	c #21120F",
"[| 	c #251413",
"}| 	c #271415",
"|| 	c #240F10",
"1| 	c #260F11",
"2| 	c #240E0E",
"3| 	c #24100F",
"4| 	c #271412",
"5| 	c #291514",
"6| 	c #2D1B19",
"7| 	c #2A1512",
"8| 	c #2A1510",
"9| 	c #2B1510",
"0| 	c #2C1712",
"a| 	c #2B1712",
"b| 	c #29130F",
"c| 	c #2A1310",
"d| 	c #2C1512",
"e| 	c #2C1613",
"f| 	c #29120F",
"g| 	c #28120F",
"h| 	c #2B1512",
"i| 	c #2D1714",
"j| 	c #2F1A17",
"k| 	c #2B110F",
"l| 	c #301513",
"m| 	c #321716",
"n| 	c #311413",
"o| 	c #311312",
"p| 	c #2F1111",
"q| 	c #321514",
"r| 	c #311816",
"s| 	c #311917",
"t| 	c #2D1311",
"u| 	c #2E1412",
"v| 	c #331815",
"w| 	c #341A16",
"x| 	c #351815",
"y| 	c #351614",
"z| 	c #331312",
"A| 	c #30100E",
"B| 	c #331311",
"C| 	c #351513",
"D| 	c #351412",
"E| 	c #361514",
"F| 	c #321411",
"G| 	c #361915",
"H| 	c #351713",
"I| 	c #351512",
"J| 	c #361814",
"K| 	c #391916",
"L| 	c #391513",
"M| 	c #3E1817",
"N| 	c #3D1313",
"O| 	c #3C1413",
"P| 	c #3C1313",
"Q| 	c #3D1414",
"R| 	c #3C1111",
"S| 	c #3E1212",
"T| 	c #411412",
"U| 	c #3B1312",
"V| 	c #291A15",
"W| 	c #2B1A18",
"X| 	c #291919",
"Y| 	c #241A19",
"Z| 	c #46373A",
"`| 	c #150E0F",
" 1 	c #080302",
".1 	c #3D3533",
"+1 	c #292021",
"@1 	c #20181B",
"#1 	c #0B0206",
"$1 	c #130A10",
"%1 	c #0A060D",
"&1 	c #231A1B",
"*1 	c #23191A",
"=1 	c #2A2021",
"-1 	c #2B2122",
";1 	c #2C2120",
">1 	c #413838",
",1 	c #0A0606",
"'1 	c #433937",
")1 	c #2D1D1E",
"!1 	c #240D11",
"~1 	c #2F0C0F",
"{1 	c #3C0A0E",
"]1 	c #460A0E",
"^1 	c #510C13",
"/1 	c #560E16",
"(1 	c #5A0D17",
"_1 	c #5F0E19",
":1 	c #620E1A",
"<1 	c #5F111A",
"[1 	c #5F111B",
"}1 	c #5E111B",
"|1 	c #5E101A",
"11 	c #5D0F18",
"21 	c #5F1018",
"31 	c #5D0E17",
"41 	c #5C1018",
"51 	c #5A1017",
"61 	c #59121A",
"71 	c #53131C",
"81 	c #4F1018",
"91 	c #501019",
"01 	c #511119",
"a1 	c #4F121A",
"b1 	c #4D1219",
"c1 	c #4D1319",
"d1 	c #4E141A",
"e1 	c #4A1319",
"f1 	c #491319",
"g1 	c #4A1419",
"h1 	c #4A141A",
"i1 	c #4C161B",
"j1 	c #4B141B",
"k1 	c #491219",
"l1 	c #4A131A",
"m1 	c #4B151C",
"n1 	c #461017",
"o1 	c #460F16",
"p1 	c #481118",
"q1 	c #481117",
"r1 	c #471016",
"s1 	c #470F16",
"t1 	c #430F14",
"u1 	c #3C1113",
"v1 	c #390E10",
"w1 	c #380C0E",
"x1 	c #36090D",
"y1 	c #35080E",
"z1 	c #33080D",
"A1 	c #31070B",
"B1 	c #2F060A",
"C1 	c #2D050C",
"D1 	c #2B050C",
"E1 	c #27050B",
"F1 	c #210307",
"G1 	c #1E0307",
"H1 	c #0B0102",
"I1 	c #060102",
"J1 	c #050201",
"K1 	c #030201",
"L1 	c #020201",
"M1 	c #040301",
"N1 	c #030304",
"O1 	c #010804",
"P1 	c #010B00",
"Q1 	c #030C00",
"R1 	c #040D01",
"S1 	c #060F02",
"T1 	c #090F02",
"U1 	c #0D0F01",
"V1 	c #0E0F02",
"W1 	c #0C0E01",
"X1 	c #0C0F01",
"Y1 	c #0B1000",
"Z1 	c #0F1303",
"`1 	c #0F1403",
" 2 	c #0E1403",
".2 	c #0D1502",
"+2 	c #0C1702",
"@2 	c #0C1B02",
"#2 	c #0B1D02",
"$2 	c #0D1D02",
"%2 	c #0D1E02",
"&2 	c #0F2403",
"*2 	c #0F2A04",
"=2 	c #0F2D04",
"-2 	c #0B3605",
";2 	c #0F4104",
">2 	c #144F02",
",2 	c #3B781E",
"'2 	c #6DB541",
")2 	c #88E54B",
"!2 	c #8FF24A",
"~2 	c #83EA2D",
"{2 	c #7CDF1F",
"]2 	c #76D124",
"^2 	c #95D65A",
"/2 	c #D1F19E",
"(2 	c #F2FBD3",
"_2 	c #F4F6E2",
":2 	c #D8E5BD",
"<2 	c #81B473",
"[2 	c #3F9B51",
"}2 	c #2F833D",
"|2 	c #347A42",
"12 	c #357445",
"22 	c #204B25",
"32 	c #11290F",
"42 	c #152610",
"52 	c #0E2A0E",
"62 	c #11350D",
"72 	c #275C03",
"82 	c #65A529",
"92 	c #A6DC68",
"02 	c #D0F795",
"a2 	c #E6FBC4",
"b2 	c #F6FCD6",
"c2 	c #F6F9D7",
"d2 	c #D9EEC2",
"e2 	c #9DCF8D",
"f2 	c #68BA60",
"g2 	c #58A05E",
"h2 	c #46804B",
"i2 	c #3C6838",
"j2 	c #3A5A37",
"k2 	c #2B472B",
"l2 	c #0E230D",
"m2 	c #0A1606",
"n2 	c #0D1208",
"o2 	c #0D0F09",
"p2 	c #0B0F07",
"q2 	c #091004",
"r2 	c #0A1303",
"s2 	c #0A1702",
"t2 	c #0D1A03",
"u2 	c #121A05",
"v2 	c #171A0A",
"w2 	c #1C1A0E",
"x2 	c #1D1710",
"y2 	c #1E150F",
"z2 	c #1E130C",
"A2 	c #1C1109",
"B2 	c #1E1309",
"C2 	c #1E1207",
"D2 	c #1C0F07",
"E2 	c #1D0E07",
"F2 	c #1E0D07",
"G2 	c #210E08",
"H2 	c #200C07",
"I2 	c #1E0A0B",
"J2 	c #1D090A",
"K2 	c #1D0809",
"L2 	c #210807",
"M2 	c #230807",
"N2 	c #240707",
"O2 	c #290B0C",
"P2 	c #320E11",
"Q2 	c #3E0D14",
"R2 	c #3F0E15",
"S2 	c #411017",
"T2 	c #400E14",
"U2 	c #431317",
"V2 	c #441417",
"W2 	c #421115",
"X2 	c #411014",
"Y2 	c #401014",
"Z2 	c #401216",
"`2 	c #411216",
" 3 	c #421317",
".3 	c #441318",
"+3 	c #441217",
"@3 	c #451419",
"#3 	c #451318",
"$3 	c #471118",
"%3 	c #4A1118",
"&3 	c #4B121A",
"*3 	c #4B1119",
"=3 	c #4A1119",
"-3 	c #491118",
";3 	c #461016",
">3 	c #451016",
",3 	c #461117",
"'3 	c #481017",
")3 	c #4C1017",
"!3 	c #4E1119",
"~3 	c #4D1118",
"{3 	c #4B0F17",
"]3 	c #4B1017",
"^3 	c #4A0F16",
"/3 	c #4D121A",
"(3 	c #51121A",
"_3 	c #52121B",
":3 	c #52121A",
"<3 	c #51111A",
"[3 	c #55111B",
"}3 	c #57111C",
"|3 	c #58101C",
"13 	c #5C121E",
"23 	c #5A101C",
"33 	c #5C101D",
"43 	c #5D0D1B",
"53 	c #610F1D",
"63 	c #640F1D",
"73 	c #66111B",
"83 	c #66101A",
"93 	c #650F1A",
"03 	c #640E19",
"a3 	c #650B19",
"b3 	c #630618",
"c3 	c #5A0716",
"d3 	c #500914",
"e3 	c #40070D",
"f3 	c #391115",
"g3 	c #251112",
"h3 	c #2C1F1F",
"i3 	c #46383A",
"j3 	c #150F0F",
"k3 	c #070202",
"l3 	c #3D3634",
"m3 	c #2A2121",
"n3 	c #21191B",
"o3 	c #140B11",
"p3 	c #0B070E",
"q3 	c #1F1617",
"r3 	c #251B1C",
"s3 	c #281F20",
"t3 	c #291D1D",
"u3 	c #3D3534",
"v3 	c #403635",
"w3 	c #362021",
"x3 	c #321519",
"y3 	c #381A1C",
"z3 	c #210203",
"A3 	c #1C0000",
"B3 	c #1F0100",
"C3 	c #230100",
"D3 	c #250100",
"E3 	c #290101",
"F3 	c #2B0101",
"G3 	c #2A0100",
"H3 	c #2A0001",
"I3 	c #220100",
"J3 	c #210000",
"K3 	c #1E0000",
"L3 	c #1D0000",
"M3 	c #1C0100",
"N3 	c #1D0200",
"O3 	c #1D0101",
"P3 	c #1E0101",
"Q3 	c #200001",
"R3 	c #1F0001",
"S3 	c #1C0101",
"T3 	c #1B0101",
"U3 	c #1B0100",
"V3 	c #1A0100",
"W3 	c #160200",
"X3 	c #150200",
"Y3 	c #140100",
"Z3 	c #140101",
"`3 	c #130101",
" 4 	c #120201",
".4 	c #120101",
"+4 	c #130100",
"@4 	c #120100",
"#4 	c #110101",
"$4 	c #110100",
"%4 	c #0F0101",
"&4 	c #0D0100",
"*4 	c #0C0100",
"=4 	c #0A0200",
"-4 	c #090200",
";4 	c #020000",
">4 	c #020102",
",4 	c #020104",
"'4 	c #030401",
")4 	c #020307",
"!4 	c #010504",
"~4 	c #030700",
"{4 	c #0D0500",
"]4 	c #0E0400",
"^4 	c #100601",
"/4 	c #130903",
"(4 	c #160B05",
"_4 	c #190908",
":4 	c #1A0A08",
"<4 	c #190A08",
"[4 	c #1A0A09",
"}4 	c #170806",
"|4 	c #120704",
"14 	c #0D0602",
"24 	c #0B0601",
"34 	c #0C0701",
"44 	c #0D0903",
"54 	c #0B1100",
"64 	c #0C1301",
"74 	c #0B1401",
"84 	c #0E1802",
"94 	c #0C1D00",
"04 	c #0D2400",
"a4 	c #0C2D01",
"b4 	c #0D3603",
"c4 	c #0E3C06",
"d4 	c #1B4B0A",
"e4 	c #54922E",
"f4 	c #8BDB46",
"g4 	c #9CF747",
"h4 	c #90F033",
"i4 	c #81E31B",
"j4 	c #76D618",
"k4 	c #98DC4F",
"l4 	c #D8F2A7",
"m4 	c #F5F5DB",
"n4 	c #F1F7E6",
"o4 	c #A9D3A3",
"p4 	c #4DA747",
"q4 	c #3A8B40",
"r4 	c #2F723C",
"s4 	c #2E6830",
"t4 	c #22471F",
"u4 	c #0D2207",
"v4 	c #0D2208",
"w4 	c #0A2208",
"x4 	c #14280B",
"y4 	c #213809",
"z4 	c #345C09",
"A4 	c #609921",
"B4 	c #91D541",
"C4 	c #B0F068",
"D4 	c #CCF997",
"E4 	c #E5FCBF",
"F4 	c #F3FDD8",
"G4 	c #D7F7C7",
"H4 	c #A8DD9C",
"I4 	c #68B95C",
"J4 	c #55A455",
"K4 	c #438554",
"L4 	c #31693A",
"M4 	c #2F5B35",
"N4 	c #345338",
"O4 	c #122515",
"P4 	c #090D06",
"Q4 	c #0F0905",
"R4 	c #061202",
"S4 	c #173819",
"T4 	c #1E4F24",
"U4 	c #1F5828",
"V4 	c #184A1F",
"W4 	c #1A3D1B",
"X4 	c #10230A",
"Y4 	c #0F1305",
"Z4 	c #0C0B03",
"`4 	c #0A0803",
" 5 	c #0B0502",
".5 	c #0C0403",
"+5 	c #0D0302",
"@5 	c #090401",
"#5 	c #070400",
"$5 	c #070300",
"%5 	c #070100",
"&5 	c #070000",
"*5 	c #0B0100",
"=5 	c #0C0000",
"-5 	c #0E0000",
";5 	c #100000",
">5 	c #110000",
",5 	c #150100",
"'5 	c #170101",
")5 	c #170001",
"!5 	c #180001",
"~5 	c #190001",
"{5 	c #160100",
"]5 	c #170201",
"^5 	c #180101",
"/5 	c #190101",
"(5 	c #170100",
"_5 	c #180100",
":5 	c #190100",
"<5 	c #1B0200",
"[5 	c #1F0000",
"}5 	c #200101",
"|5 	c #1B0201",
"15 	c #1A0200",
"25 	c #1D0100",
"35 	c #170200",
"45 	c #1C0200",
"55 	c #1C0201",
"65 	c #210001",
"75 	c #240102",
"85 	c #260102",
"95 	c #280100",
"05 	c #270100",
"a5 	c #240001",
"b5 	c #1E0001",
"c5 	c #1C0001",
"d5 	c #1E0100",
"e5 	c #260403",
"f5 	c #391619",
"g5 	c #291113",
"h5 	c #332425",
"i5 	c #47383B",
"j5 	c #140D0E",
"k5 	c #070302",
"l5 	c #261F1D",
"m5 	c #0A0205",
"n5 	c #150C12",
"o5 	c #251016",
"p5 	c #211819",
"q5 	c #291F20",
"r5 	c #261B1A",
"s5 	c #3E3635",
"t5 	c #3E3332",
"u5 	c #322120",
"v5 	c #331A1A",
"w5 	c #47282D",
"x5 	c #24070D",
"y5 	c #1A0006",
"z5 	c #220005",
"A5 	c #2A0209",
"B5 	c #2D040A",
"C5 	c #2C0409",
"D5 	c #220305",
"E5 	c #1E0303",
"F5 	c #1C0102",
"G5 	c #1B0102",
"H5 	c #1B0002",
"I5 	c #190002",
"J5 	c #180002",
"K5 	c #160001",
"L5 	c #120202",
"M5 	c #100001",
"N5 	c #0F0001",
"O5 	c #0E0002",
"P5 	c #0B0001",
"Q5 	c #0A0001",
"R5 	c #0A0101",
"S5 	c #0B0101",
"T5 	c #0D0101",
"U5 	c #0E0101",
"V5 	c #0A0102",
"W5 	c #090101",
"X5 	c #080101",
"Y5 	c #060101",
"Z5 	c #070101",
"`5 	c #060000",
" 6 	c #050100",
".6 	c #020200",
"+6 	c #010200",
"@6 	c #000100",
"#6 	c #010004",
"$6 	c #000108",
"%6 	c #000102",
"&6 	c #030203",
"*6 	c #040602",
"=6 	c #040702",
"-6 	c #020401",
";6 	c #030400",
">6 	c #030500",
",6 	c #040500",
"'6 	c #050601",
")6 	c #060501",
"!6 	c #080501",
"~6 	c #090602",
"{6 	c #0A0702",
"]6 	c #0C0804",
"^6 	c #0C0904",
"/6 	c #0D0905",
"(6 	c #110806",
"_6 	c #140707",
":6 	c #140304",
"<6 	c #0E0302",
"[6 	c #0C0401",
"}6 	c #100701",
"|6 	c #120801",
"16 	c #140801",
"26 	c #100A03",
"36 	c #100F02",
"46 	c #101602",
"56 	c #0E1B01",
"66 	c #112202",
"76 	c #152D02",
"86 	c #103406",
"96 	c #0D4103",
"06 	c #4B8723",
"a6 	c #83CF41",
"b6 	c #94F14A",
"c6 	c #86EB33",
"d6 	c #83E727",
"e6 	c #83DF2A",
"f6 	c #A4E368",
"g6 	c #DEF6BD",
"h6 	c #F4FBE9",
"i6 	c #D7ECCE",
"j6 	c #7DB87B",
"k6 	c #3D9042",
"l6 	c #2C762C",
"m6 	c #1D5920",
"n6 	c #163C15",
"o6 	c #0D2004",
"p6 	c #111C03",
"q6 	c #152106",
"r6 	c #1E2904",
"s6 	c #293000",
"t6 	c #343308",
"u6 	c #394B09",
"v6 	c #568B15",
"w6 	c #79C828",
"x6 	c #92DE47",
"y6 	c #B8ED80",
"z6 	c #E2FABF",
"A6 	c #F1FDD7",
"B6 	c #E6F6D1",
"C6 	c #ADD89C",
"D6 	c #71C36B",
"E6 	c #4B9F56",
"F6 	c #327A3D",
"G6 	c #306438",
"H6 	c #3F6447",
"I6 	c #324B38",
"J6 	c #112114",
"K6 	c #102D13",
"L6 	c #27542B",
"M6 	c #265D2A",
"N6 	c #498D48",
"O6 	c #559D51",
"P6 	c #468A41",
"Q6 	c #387635",
"R6 	c #2F672E",
"S6 	c #23461E",
"T6 	c #152B10",
"U6 	c #12220E",
"V6 	c #080F05",
"W6 	c #0C0A05",
"X6 	c #070504",
"Y6 	c #030202",
"Z6 	c #020001",
"`6 	c #030001",
" 7 	c #030101",
".7 	c #040100",
"+7 	c #050000",
"@7 	c #070001",
"#7 	c #080001",
"$7 	c #060100",
"%7 	c #090100",
"&7 	c #080100",
"*7 	c #0D0201",
"=7 	c #0E0201",
"-7 	c #100102",
";7 	c #110102",
">7 	c #110202",
",7 	c #100101",
"'7 	c #0C0101",
")7 	c #0D0000",
"!7 	c #0E0100",
"~7 	c #0F0100",
"{7 	c #130201",
"]7 	c #140102",
"^7 	c #160102",
"/7 	c #170002",
"(7 	c #190003",
"_7 	c #1E0004",
":7 	c #200005",
"<7 	c #220106",
"[7 	c #220105",
"}7 	c #240207",
"|7 	c #250207",
"17 	c #230206",
"27 	c #1D0105",
"37 	c #1A0001",
"47 	c #290709",
"57 	c #451F25",
"67 	c #31171A",
"77 	c #342325",
"87 	c #48383B",
"97 	c #140E0E",
"07 	c #3A3230",
"a7 	c #2C2323",
"b7 	c #2A2122",
"c7 	c #0C070D",
"d7 	c #271216",
"e7 	c #160204",
"f7 	c #201716",
"g7 	c #251B1A",
"h7 	c #281C1C",
"i7 	c #2B2020",
"j7 	c #2B1D1D",
"k7 	c #413736",
"l7 	c #0D0406",
"m7 	c #493436",
"n7 	c #331F20",
"o7 	c #37181A",
"p7 	c #52292D",
"q7 	c #2D080C",
"r7 	c #29000A",
"s7 	c #380611",
"t7 	c #52111D",
"u7 	c #6A1825",
"v7 	c #791F2D",
"w7 	c #8F343A",
"x7 	c #8A4045",
"y7 	c #875741",
"z7 	c #8B564A",
"A7 	c #7A5C54",
"B7 	c #80564C",
"C7 	c #7F5546",
"D7 	c #7B544C",
"E7 	c #7A5644",
"F7 	c #7C5C43",
"G7 	c #7E5E40",
"H7 	c #7D5E41",
"I7 	c #7A5A41",
"J7 	c #81614C",
"K7 	c #846446",
"L7 	c #83633B",
"M7 	c #7D5F46",
"N7 	c #7D5E40",
"O7 	c #806144",
"P7 	c #84664A",
"Q7 	c #826545",
"R7 	c #7F623C",
"S7 	c #7A5E4A",
"T7 	c #7D613D",
"U7 	c #81644F",
"V7 	c #7D6048",
"W7 	c #775B3E",
"X7 	c #785B46",
"Y7 	c #7D6041",
"Z7 	c #806350",
"`7 	c #7E6145",
" 8 	c #7C5F47",
".8 	c #7D6148",
"+8 	c #7F624D",
"@8 	c #826457",
"#8 	c #816256",
"$8 	c #7C5E54",
"%8 	c #7D5E55",
"&8 	c #7E6055",
"*8 	c #7E6051",
"=8 	c #7E5F54",
"-8 	c #7C5D50",
";8 	c #7E5F56",
">8 	c #7B5D53",
",8 	c #7A5F53",
"'8 	c #795E55",
")8 	c #785E55",
"!8 	c #765D57",
"~8 	c #70574B",
"{8 	c #6D5343",
"]8 	c #6C5638",
"^8 	c #68554D",
"/8 	c #594843",
"(8 	c #453637",
"_8 	c #180B0F",
":8 	c #0A0104",
"<8 	c #060003",
"[8 	c #040102",
"}8 	c #040002",
"|8 	c #030000",
"18 	c #000301",
"28 	c #000501",
"38 	c #000601",
"48 	c #010701",
"58 	c #010700",
"68 	c #010800",
"78 	c #020801",
"88 	c #020901",
"98 	c #030903",
"08 	c #020703",
"a8 	c #010401",
"b8 	c #040401",
"c8 	c #100605",
"d8 	c #140706",
"e8 	c #130504",
"f8 	c #130202",
"g8 	c #180705",
"h8 	c #1B0906",
"i8 	c #160702",
"j8 	c #110A01",
"k8 	c #0C1501",
"l8 	c #0D1F04",
"m8 	c #0D2A05",
"n8 	c #0C3103",
"o8 	c #0C3A02",
"p8 	c #48842C",
"q8 	c #8FDB4D",
"r8 	c #98F441",
"s8 	c #7FE928",
"t8 	c #7EED29",
"u8 	c #82DC36",
"v8 	c #BFE192",
"w8 	c #F2F8E2",
"x8 	c #EEF8E4",
"y8 	c #B0D399",
"z8 	c #44913C",
"A8 	c #1B7224",
"B8 	c #1D5312",
"C8 	c #193A10",
"D8 	c #0C2004",
"E8 	c #101A09",
"F8 	c #18230E",
"G8 	c #382107",
"H8 	c #4B1F09",
"I8 	c #4C2107",
"J8 	c #442708",
"K8 	c #414507",
"L8 	c #618E21",
"M8 	c #76C429",
"N8 	c #77D32C",
"O8 	c #A0DE69",
"P8 	c #DEF6B6",
"Q8 	c #F9FBE2",
"R8 	c #E7F4CF",
"S8 	c #9CD083",
"T8 	c #59A652",
"U8 	c #4E8E52",
"V8 	c #33613A",
"W8 	c #345E3C",
"X8 	c #50775E",
"Y8 	c #294C3A",
"Z8 	c #193C1F",
"`8 	c #154409",
" 9 	c #639651",
".9 	c #A0D38B",
"+9 	c #8BCC79",
"@9 	c #6AB660",
"#9 	c #57A152",
"$9 	c #548D47",
"%9 	c #46753B",
"&9 	c #3A612F",
"*9 	c #374F26",
"=9 	c #484E38",
"-9 	c #656B58",
";9 	c #636855",
">9 	c #686B58",
",9 	c #676E5A",
"'9 	c #66735D",
")9 	c #6E7863",
"!9 	c #6D7464",
"~9 	c #6D6F62",
"{9 	c #6F6D60",
"]9 	c #706A5C",
"^9 	c #6C635B",
"/9 	c #6E625C",
"(9 	c #72635D",
"_9 	c #73615B",
":9 	c #6F5C57",
"<9 	c #745F3B",
"[9 	c #776245",
"}9 	c #79623F",
"|9 	c #79604D",
"19 	c #735B40",
"29 	c #755E52",
"39 	c #7A6259",
"49 	c #7A6053",
"59 	c #7A5F52",
"69 	c #7E6246",
"79 	c #806348",
"89 	c #80633A",
"99 	c #80634E",
"09 	c #7E6139",
"a9 	c #866857",
"b9 	c #87695D",
"c9 	c #806241",
"d9 	c #7E6046",
"e9 	c #7C5D3A",
"f9 	c #7F6155",
"g9 	c #82645C",
"h9 	c #84665C",
"i9 	c #84665B",
"j9 	c #7B5D4E",
"k9 	c #7F604C",
"l9 	c #7F6040",
"m9 	c #795A4A",
"n9 	c #816243",
"o9 	c #82633F",
"p9 	c #856647",
"q9 	c #85663C",
"r9 	c #80614D",
"s9 	c #7F6043",
"t9 	c #81603E",
"u9 	c #866447",
"v9 	c #876452",
"w9 	c #866148",
"x9 	c #875F44",
"y9 	c #876049",
"z9 	c #896339",
"A9 	c #896147",
"B9 	c #836143",
"C9 	c #826246",
"D9 	c #836353",
"E9 	c #82633C",
"F9 	c #7E5E47",
"G9 	c #80613F",
"H9 	c #826349",
"I9 	c #856451",
"J9 	c #856243",
"K9 	c #845F51",
"L9 	c #855D3F",
"M9 	c #865D4E",
"N9 	c #865B3F",
"O9 	c #885D4D",
"P9 	c #8C5F46",
"Q9 	c #906350",
"R9 	c #8C563F",
"S9 	c #863E3D",
"T9 	c #64242A",
"U9 	c #65222A",
"V9 	c #591820",
"W9 	c #400B13",
"X9 	c #220104",
"Y9 	c #2D0C0E",
"Z9 	c #4F292D",
"`9 	c #33181A",
" 0 	c #372522",
".0 	c #493637",
"+0 	c #160D0F",
"@0 	c #080203",
"#0 	c #3A2F2E",
"$0 	c #2C2020",
"%0 	c #271C1C",
"&0 	c #2D2121",
"*0 	c #2B2121",
"=0 	c #201718",
"-0 	c #0C0204",
";0 	c #160A10",
">0 	c #281418",
",0 	c #150204",
"'0 	c #1E1614",
")0 	c #221A18",
"!0 	c #251C1B",
"~0 	c #2E2222",
"{0 	c #291B1B",
"]0 	c #403636",
"^0 	c #0F0B0B",
"/0 	c #0E0406",
"(0 	c #4B3437",
"_0 	c #361C1F",
":0 	c #3B1519",
"<0 	c #542A2C",
"[0 	c #300B0D",
"}0 	c #30010B",
"|0 	c #460D19",
"10 	c #66121F",
"20 	c #88232C",
"30 	c #982E34",
"40 	c #9A2C32",
"50 	c #872A2F",
"60 	c #612420",
"70 	c #6C2024",
"80 	c #632726",
"90 	c #5C2625",
"00 	c #582224",
"a0 	c #562328",
"b0 	c #522226",
"c0 	c #502424",
"d0 	c #512622",
"e0 	c #522722",
"f0 	c #512624",
"g0 	c #512627",
"h0 	c #512626",
"i0 	c #512825",
"j0 	c #512927",
"k0 	c #4E2724",
"l0 	c #4F2825",
"m0 	c #4E2924",
"n0 	c #4F2927",
"o0 	c #4C2723",
"p0 	c #4F2A29",
"q0 	c #4C2728",
"r0 	c #4C2827",
"s0 	c #492524",
"t0 	c #492622",
"u0 	c #4C2826",
"v0 	c #4D2927",
"w0 	c #4D2928",
"x0 	c #4B2725",
"y0 	c #4F2B29",
"z0 	c #512D28",
"A0 	c #532F2A",
"B0 	c #522D29",
"C0 	c #502C28",
"D0 	c #4E2C24",
"E0 	c #4E2B25",
"F0 	c #4D2923",
"G0 	c #4E2B27",
"H0 	c #4F2D28",
"I0 	c #492924",
"J0 	c #492A26",
"K0 	c #472B26",
"L0 	c #482D2A",
"M0 	c #472C29",
"N0 	c #422825",
"O0 	c #3E2820",
"P0 	c #3B2823",
"Q0 	c #33211D",
"R0 	c #2B1614",
"S0 	c #1C0402",
"T0 	c #170302",
"U0 	c #150303",
"V0 	c #120203",
"W0 	c #0E0205",
"X0 	c #0A0103",
"Y0 	c #060002",
"Z0 	c #010001",
"`0 	c #000402",
" a 	c #000401",
".a 	c #000400",
"+a 	c #000500",
"@a 	c #010502",
"#a 	c #000503",
"$a 	c #010402",
"%a 	c #020300",
"&a 	c #070503",
"*a 	c #0A0704",
"=a 	c #100201",
"-a 	c #170503",
";a 	c #160603",
">a 	c #140602",
",a 	c #110901",
"'a 	c #100F01",
")a 	c #0C1500",
"!a 	c #0E2103",
"~a 	c #103404",
"{a 	c #1C4706",
"]a 	c #65A637",
"^a 	c #92EB4A",
"/a 	c #80E431",
"(a 	c #7BE130",
"_a 	c #87ED2C",
":a 	c #96DD55",
"<a 	c #DCF8B4",
"[a 	c #F3F9E9",
"}a 	c #D6E7C7",
"|a 	c #65934F",
"1a 	c #1E6718",
"2a 	c #18510A",
"3a 	c #143205",
"4a 	c #1B1A08",
"5a 	c #211A03",
"6a 	c #432101",
"7a 	c #791B08",
"8a 	c #811109",
"9a 	c #6A1408",
"0a 	c #621905",
"aa 	c #582901",
"ba 	c #4C5707",
"ca 	c #719B24",
"da 	c #78C52E",
"ea 	c #68BD2A",
"fa 	c #AEDC7C",
"ga 	c #E8FAC3",
"ha 	c #F9F9E6",
"ia 	c #CDE9BD",
"ja 	c #68B367",
"ka 	c #3E8A44",
"la 	c #3C633B",
"ma 	c #365C3C",
"na 	c #31523B",
"oa 	c #102F11",
"pa 	c #094203",
"qa 	c #70A349",
"ra 	c #DFF9B8",
"sa 	c #F3FBEC",
"ta 	c #E7F6DA",
"ua 	c #BDE4A7",
"va 	c #7DBD63",
"wa 	c #62A548",
"xa 	c #61964E",
"ya 	c #4D7745",
"za 	c #3B6034",
"Aa 	c #304628",
"Ba 	c #2C3620",
"Ca 	c #333623",
"Da 	c #343324",
"Ea 	c #303021",
"Fa 	c #333123",
"Ga 	c #343126",
"Ha 	c #342D25",
"Ia 	c #372C23",
"Ja 	c #372B21",
"Ka 	c #352621",
"La 	c #372722",
"Ma 	c #3A2724",
"Na 	c #3E2724",
"Oa 	c #422925",
"Pa 	c #3F251F",
"Qa 	c #412621",
"Ra 	c #422620",
"Sa 	c #442725",
"Ta 	c #472A27",
"Ua 	c #452924",
"Va 	c #472A26",
"Wa 	c #482923",
"Xa 	c #4B2B28",
"Ya 	c #4F2D2A",
"Za 	c #4D2A28",
"`a 	c #502E29",
" b 	c #4C2A28",
".b 	c #4E2C27",
"+b 	c #4E2D27",
"@b 	c #502E2A",
"#b 	c #4F2B27",
"$b 	c #4B2726",
"%b 	c #4C2926",
"&b 	c #4F2B28",
"*b 	c #4E2A28",
"=b 	c #512E29",
"-b 	c #4F2A28",
";b 	c #4B2624",
">b 	c #4F2925",
",b 	c #502B27",
"'b 	c #512D27",
")b 	c #522E2C",
"!b 	c #502C29",
"~b 	c #522D28",
"{b 	c #563029",
"]b 	c #593229",
"^b 	c #5D322E",
"/b 	c #5A2D2A",
"(b 	c #5A2D28",
"_b 	c #5A2E26",
":b 	c #582C2B",
"<b 	c #572D2A",
"[b 	c #562D2A",
"}b 	c #572D2C",
"|b 	c #562C28",
"1b 	c #562C2A",
"2b 	c #5B2F2A",
"3b 	c #562A27",
"4b 	c #5B2E2C",
"5b 	c #5D2E2B",
"6b 	c #5F2D2D",
"7b 	c #632A2A",
"8b 	c #672D2E",
"9b 	c #6A2B2A",
"0b 	c #6F2C2C",
"ab 	c #6F2929",
"bb 	c #762A2B",
"cb 	c #692822",
"db 	c #7B2425",
"eb 	c #B23241",
"fb 	c #952B36",
"gb 	c #721923",
"hb 	c #4E0A14",
"ib 	c #260103",
"jb 	c #330E11",
"kb 	c #552B2F",
"lb 	c #341718",
"mb 	c #362320",
"nb 	c #473435",
"ob 	c #170D10",
"pb 	c #090203",
"qb 	c #3D3131",
"rb 	c #2A1E1E",
"sb 	c #2A1D1D",
"tb 	c #2C2121",
"ub 	c #201819",
"vb 	c #0C080E",
"wb 	c #281317",
"xb 	c #1F1715",
"yb 	c #211917",
"zb 	c #261C1B",
"Ab 	c #2B1F1F",
"Bb 	c #2A1B1B",
"Cb 	c #413636",
"Db 	c #0E0405",
"Eb 	c #4B3336",
"Fb 	c #3B1C20",
"Gb 	c #3F1619",
"Hb 	c #5A3031",
"Ib 	c #361010",
"Jb 	c #3A020D",
"Kb 	c #571220",
"Lb 	c #881728",
"Mb 	c #BF3742",
"Nb 	c #E2525B",
"Ob 	c #D43441",
"Pb 	c #C03345",
"Qb 	c #7E2025",
"Rb 	c #621718",
"Sb 	c #66161C",
"Tb 	c #5F1419",
"Ub 	c #590E13",
"Vb 	c #550B13",
"Wb 	c #500A12",
"Xb 	c #510F12",
"Yb 	c #4D0D0D",
"Zb 	c #521113",
"`b 	c #4C0B0F",
" c 	c #500E15",
".c 	c #521018",
"+c 	c #4C0D15",
"@c 	c #470A12",
"#c 	c #4A0D14",
"$c 	c #4A0E15",
"%c 	c #4D1018",
"&c 	c #4E1219",
"*c 	c #470D13",
"=c 	c #4A0F15",
"-c 	c #4E1319",
";c 	c #430D13",
">c 	c #451015",
",c 	c #471214",
"'c 	c #440F14",
")c 	c #400A0F",
"!c 	c #430E13",
"~c 	c #471116",
"{c 	c #461116",
"]c 	c #440E14",
"^c 	c #420B12",
"/c 	c #450F15",
"(c 	c #410C12",
"_c 	c #400F13",
":c 	c #400F14",
"<c 	c #3B0A0F",
"[c 	c #3C0B0F",
"}c 	c #3A090F",
"|c 	c #3B0D13",
"1c 	c #36090F",
"2c 	c #34090D",
"3c 	c #32090D",
"4c 	c #30090C",
"5c 	c #2D080A",
"6c 	c #270608",
"7c 	c #25080A",
"8c 	c #22070A",
"9c 	c #0D0002",
"0c 	c #0D0003",
"ac 	c #0C0002",
"bc 	c #050102",
"cc 	c #060404",
"dc 	c #020502",
"ec 	c #010602",
"fc 	c #010603",
"gc 	c #000702",
"hc 	c #010901",
"ic 	c #000900",
"jc 	c #010A02",
"kc 	c #020A02",
"lc 	c #010902",
"mc 	c #010703",
"nc 	c #010301",
"oc 	c #010503",
"pc 	c #020404",
"qc 	c #080401",
"rc 	c #140202",
"sc 	c #1C0407",
"tc 	c #1A0408",
"uc 	c #160302",
"vc 	c #140802",
"wc 	c #0D0E01",
"xc 	c #141E05",
"yc 	c #19290D",
"zc 	c #143405",
"Ac 	c #2A5E0C",
"Bc 	c #6EBE3E",
"Cc 	c #82EB45",
"Dc 	c #7DE925",
"Ec 	c #88ED24",
"Fc 	c #87DF38",
"Gc 	c #C0EE9F",
"Hc 	c #F3F6DB",
"Ic 	c #EEF1D6",
"Jc 	c #8CB16B",
"Kc 	c #286414",
"Lc 	c #1D490D",
"Mc 	c #2D2703",
"Nc 	c #291D00",
"Oc 	c #812F2F",
"Pc 	c #E699A0",
"Qc 	c #CA6F73",
"Rc 	c #A1232A",
"Sc 	c #870B08",
"Tc 	c #6F1202",
"Uc 	c #621E05",
"Vc 	c #4E2D01",
"Wc 	c #4E6E14",
"Xc 	c #70B820",
"Yc 	c #6DC015",
"Zc 	c #78C244",
"`c 	c #C3E99E",
" d 	c #F0F9DD",
".d 	c #EDF5D9",
"+d 	c #A0C48B",
"@d 	c #47873F",
"#d 	c #2A5E2C",
"$d 	c #275027",
"%d 	c #1C3912",
"&d 	c #073300",
"*d 	c #1F5F08",
"=d 	c #79B64D",
"-d 	c #C5EE90",
";d 	c #EAFAC0",
">d 	c #F8FDD5",
",d 	c #F2F8DE",
"'d 	c #CAEAB6",
")d 	c #82C270",
"!d 	c #579C59",
"~d 	c #52844D",
"{d 	c #486C41",
"]d 	c #3C5735",
"^d 	c #323F27",
"/d 	c #201D0F",
"(d 	c #24150E",
"_d 	c #28130F",
":d 	c #271110",
"<d 	c #270E10",
"[d 	c #270C0C",
"}d 	c #290D0B",
"|d 	c #290D0E",
"1d 	c #2A0C0D",
"2d 	c #310F11",
"3d 	c #361114",
"4d 	c #330D10",
"5d 	c #381112",
"6d 	c #381012",
"7d 	c #380E10",
"8d 	c #3A0D10",
"9d 	c #380B10",
"0d 	c #3F1219",
"ad 	c #3D0E16",
"bd 	c #3E0D16",
"cd 	c #400D16",
"dd 	c #400D17",
"ed 	c #43101A",
"fd 	c #410F18",
"gd 	c #44111A",
"hd 	c #400C15",
"id 	c #410C15",
"jd 	c #420E16",
"kd 	c #440F18",
"ld 	c #430F17",
"md 	c #441017",
"nd 	c #441018",
"od 	c #451018",
"pd 	c #451117",
"qd 	c #441016",
"rd 	c #420E14",
"sd 	c #430E15",
"td 	c #450F16",
"ud 	c #440E16",
"vd 	c #430D14",
"wd 	c #440E15",
"xd 	c #420C13",
"yd 	c #420B11",
"zd 	c #450C13",
"Ad 	c #4B1015",
"Bd 	c #480D0E",
"Cd 	c #4B1011",
"Dd 	c #4B0F16",
"Ed 	c #4A0A12",
"Fd 	c #500F15",
"Gd 	c #500E14",
"Hd 	c #4E0C13",
"Id 	c #4F0D14",
"Jd 	c #520F13",
"Kd 	c #591519",
"Ld 	c #530D12",
"Md 	c #5A1318",
"Nd 	c #580F15",
"Od 	c #5A1117",
"Pd 	c #5A0D14",
"Qd 	c #66141B",
"Rd 	c #6E151D",
"Sd 	c #73141D",
"Td 	c #811E26",
"Ud 	c #8B292B",
"Vd 	c #B43B40",
"Wd 	c #C8444D",
"Xd 	c #B53F3E",
"Yd 	c #992C36",
"Zd 	c #640F1A",
"`d 	c #330105",
" e 	c #3A1013",
".e 	c #592B30",
"+e 	c #37191A",
"@e 	c #36231F",
"#e 	c #483434",
"$e 	c #170B0F",
"%e 	c #0B0203",
"&e 	c #3B3030",
"*e 	c #2B1E1E",
"=e 	c #2C2221",
"-e 	c #170B11",
";e 	c #231B19",
">e 	c #231A19",
",e 	c #241919",
"'e 	c #271918",
")e 	c #0C0808",
"!e 	c #483134",
"~e 	c #3D1C20",
"{e 	c #3D1516",
"]e 	c #5D3534",
"^e 	c #3B1111",
"/e 	c #520918",
"(e 	c #7B192A",
"_e 	c #AD2A38",
":e 	c #D1685B",
"<e 	c #F5C5AC",
"[e 	c #EFBA9B",
"}e 	c #CA5743",
"|e 	c #CA4741",
"1e 	c #8E3F38",
"2e 	c #793430",
"3e 	c #782D32",
"4e 	c #752D2D",
"5e 	c #712A31",
"6e 	c #702D2F",
"7e 	c #6F322F",
"8e 	c #6A2D28",
"9e 	c #6B2C2A",
"0e 	c #6D2D2D",
"ae 	c #68282E",
"be 	c #692A2E",
"ce 	c #68292D",
"de 	c #682B2F",
"ee 	c #67282B",
"fe 	c #642628",
"ge 	c #62242B",
"he 	c #642729",
"ie 	c #652929",
"je 	c #64272D",
"ke 	c #65282B",
"le 	c #63282F",
"me 	c #652B2C",
"ne 	c #662B2C",
"oe 	c #652A2D",
"pe 	c #63272A",
"qe 	c #602629",
"re 	c #622728",
"se 	c #622729",
"te 	c #61262A",
"ue 	c #622726",
"ve 	c #62282A",
"we 	c #642C2F",
"xe 	c #672E30",
"ye 	c #652D2E",
"ze 	c #662F2E",
"Ae 	c #673032",
"Be 	c #66312C",
"Ce 	c #642F2F",
"De 	c #653029",
"Ee 	c #643031",
"Fe 	c #622D2E",
"Ge 	c #602E2D",
"He 	c #5C2B2F",
"Ie 	c #572826",
"Je 	c #552727",
"Ke 	c #522523",
"Le 	c #4A201E",
"Me 	c #451E1E",
"Ne 	c #3B1517",
"Oe 	c #290508",
"Pe 	c #160205",
"Qe 	c #0B0103",
"Re 	c #090303",
"Se 	c #0B0805",
"Te 	c #0B0802",
"Ue 	c #080901",
"Ve 	c #050901",
"We 	c #030A01",
"Xe 	c #010900",
"Ye 	c #010A00",
"Ze 	c #010C00",
"`e 	c #010D01",
" f 	c #010F01",
".f 	c #001000",
"+f 	c #011100",
"@f 	c #001101",
"#f 	c #021202",
"$f 	c #021102",
"%f 	c #010F02",
"&f 	c #020B01",
"*f 	c #030200",
"=f 	c #040201",
"-f 	c #0E0001",
";f 	c #170508",
">f 	c #1C0509",
",f 	c #110301",
"'f 	c #0E0802",
")f 	c #110C02",
"!f 	c #181801",
"~f 	c #1A2303",
"{f 	c #17290B",
"]f 	c #143607",
"^f 	c #4B8C21",
"/f 	c #82E043",
"(f 	c #76E531",
"_f 	c #7CE324",
":f 	c #85EA26",
"<f 	c #ADE57A",
"[f 	c #F4F6DC",
"}f 	c #F0F5E1",
"|f 	c #A2BE89",
"1f 	c #3E6C16",
"2f 	c #374305",
"3f 	c #332B01",
"4f 	c #8F282E",
"5f 	c #EAACB7",
"6f 	c #FEE3DF",
"7f 	c #F3CEC5",
"8f 	c #D68785",
"9f 	c #AF282F",
"0f 	c #900906",
"af 	c #6E1406",
"bf 	c #5A1E06",
"cf 	c #4F3F01",
"df 	c #699119",
"ef 	c #75C22F",
"ff 	c #66BB23",
"gf 	c #98D165",
"hf 	c #E9F8BF",
"if 	c #F4F9D2",
"jf 	c #BAD698",
"kf 	c #4E8043",
"lf 	c #1F5B1D",
"mf 	c #1F4914",
"nf 	c #0D2C00",
"of 	c #0F3301",
"pf 	c #174C02",
"qf 	c #4A8D0E",
"rf 	c #84C638",
"sf 	c #B2E276",
"tf 	c #DAF7AD",
"uf 	c #EFFDDA",
"vf 	c #EDFADF",
"wf 	c #C5E2A7",
"xf 	c #79AD6B",
"yf 	c #60965A",
"zf 	c #47763F",
"Af 	c #395C31",
"Bf 	c #405134",
"Cf 	c #2E3421",
"Df 	c #251810",
"Ef 	c #32221F",
"Ff 	c #382324",
"Gf 	c #3E2323",
"Hf 	c #432524",
"If 	c #462322",
"Jf 	c #4A2525",
"Kf 	c #4F2627",
"Lf 	c #562929",
"Mf 	c #542629",
"Nf 	c #562727",
"Of 	c #582729",
"Pf 	c #582627",
"Qf 	c #5A262C",
"Rf 	c #5C262A",
"Sf 	c #5D272B",
"Tf 	c #5E272E",
"Uf 	c #602729",
"Vf 	c #64292E",
"Wf 	c #63272D",
"Xf 	c #652830",
"Yf 	c #66292C",
"Zf 	c #652931",
"`f 	c #64282B",
" g 	c #642732",
".g 	c #642730",
"+g 	c #65282A",
"@g 	c #662830",
"#g 	c #66272E",
"$g 	c #63252D",
"%g 	c #61232B",
"&g 	c #602228",
"*g 	c #65262F",
"=g 	c #67282E",
"-g 	c #682A2F",
";g 	c #672A2D",
">g 	c #64262C",
",g 	c #63242A",
"'g 	c #63232A",
")g 	c #64242B",
"!g 	c #642529",
"~g 	c #67272D",
"{g 	c #67272B",
"]g 	c #6A282E",
"^g 	c #69282C",
"/g 	c #68292C",
"(g 	c #692C33",
"_g 	c #682E2D",
":g 	c #6C2F33",
"<g 	c #6B2E2D",
"[g 	c #682C2D",
"}g 	c #662A25",
"|g 	c #672B2E",
"1g 	c #672A29",
"2g 	c #6C2F2F",
"3g 	c #692B2F",
"4g 	c #682A26",
"5g 	c #6C2E2F",
"6g 	c #6B2929",
"7g 	c #702F2F",
"8g 	c #702C2E",
"9g 	c #722D26",
"0g 	c #722A2E",
"ag 	c #71292A",
"bg 	c #71272A",
"cg 	c #7A2C2C",
"dg 	c #7B282D",
"eg 	c #7E2B2A",
"fg 	c #8E3035",
"gg 	c #C54944",
"hg 	c #DE805B",
"ig 	c #F4C29C",
"jg 	c #E08D44",
"kg 	c #B74644",
"lg 	c #8F2730",
"mg 	c #631D25",
"ng 	c #3D1113",
"og 	c #572D30",
"pg 	c #361719",
"qg 	c #36211E",
"rg 	c #483233",
"sg 	c #382D2D",
"tg 	c #261A1A",
"ug 	c #2A1F1F",
"vg 	c #21191A",
"wg 	c #180C12",
"xg 	c #211817",
"yg 	c #271B1B",
"zg 	c #281A19",
"Ag 	c #423737",
"Bg 	c #493235",
"Cg 	c #3E1E20",
"Dg 	c #3D1717",
"Eg 	c #5C3634",
"Fg 	c #411113",
"Gg 	c #732129",
"Hg 	c #A93A40",
"Ig 	c #B22633",
"Jg 	c #ED9B68",
"Kg 	c #FAF4E9",
"Lg 	c #F3FBFB",
"Mg 	c #F6D1AE",
"Ng 	c #D54244",
"Og 	c #AD3C40",
"Pg 	c #9B4B42",
"Qg 	c #A3544E",
"Rg 	c #A55C4C",
"Sg 	c #A45D52",
"Tg 	c #AA664A",
"Ug 	c #A4634E",
"Vg 	c #A56650",
"Wg 	c #A46549",
"Xg 	c #A66648",
"Yg 	c #A26254",
"Zg 	c #A56549",
"`g 	c #AC6B45",
" h 	c #A96655",
".h 	c #AC6953",
"+h 	c #A7644A",
"@h 	c #A96758",
"#h 	c #A8674D",
"$h 	c #A3624A",
"%h 	c #A46455",
"&h 	c #A3644C",
"*h 	c #A2625C",
"=h 	c #A86852",
"-h 	c #A4634B",
";h 	c #A26153",
">h 	c #A05E4C",
",h 	c #A1615A",
"'h 	c #A2614B",
")h 	c #9B594A",
"!h 	c #995A4B",
"~h 	c #9D5C4E",
"{h 	c #9E5D4F",
"]h 	c #A0624C",
"^h 	c #9F6151",
"/h 	c #A2644E",
"(h 	c #A5674F",
"_h 	c #A4654F",
":h 	c #9F6147",
"<h 	c #9E614F",
"[h 	c #A46643",
"}h 	c #A26559",
"|h 	c #9E6045",
"1h 	c #9B5E45",
"2h 	c #9C6254",
"3h 	c #9E664C",
"4h 	c #9A624C",
"5h 	c #9B644E",
"6h 	c #9B6653",
"7h 	c #976545",
"8h 	c #84554B",
"9h 	c #683C36",
"0h 	c #32191B",
"ah 	c #140604",
"bh 	c #20170E",
"ch 	c #201A0D",
"dh 	c #1D1A0A",
"eh 	c #151909",
"fh 	c #0E1606",
"gh 	c #091403",
"hh 	c #041402",
"ih 	c #021201",
"jh 	c #031402",
"kh 	c #041503",
"lh 	c #031603",
"mh 	c #041804",
"nh 	c #041A04",
"oh 	c #001A00",
"ph 	c #011B00",
"qh 	c #031D01",
"rh 	c #041E01",
"sh 	c #021C02",
"th 	c #041D03",
"uh 	c #021A01",
"vh 	c #031902",
"wh 	c #031803",
"xh 	c #031602",
"yh 	c #051503",
"zh 	c #031303",
"Ah 	c #031005",
"Bh 	c #020F05",
"Ch 	c #020C03",
"Dh 	c #000800",
"Eh 	c #030102",
"Fh 	c #130203",
"Gh 	c #1A0306",
"Hh 	c #150203",
"Ih 	c #110502",
"Jh 	c #130802",
"Kh 	c #171102",
"Lh 	c #1A1B02",
"Mh 	c #1E2803",
"Nh 	c #192D05",
"Oh 	c #28560C",
"Ph 	c #6DBA31",
"Qh 	c #83E73E",
"Rh 	c #6ED72C",
"Sh 	c #82EB29",
"Th 	c #95DD55",
"Uh 	c #E3F4C7",
"Vh 	c #F0FBE0",
"Wh 	c #C8DAA7",
"Xh 	c #567D37",
"Yh 	c #414105",
"Zh 	c #6F2207",
"`h 	c #A0232E",
" i 	c #C9626F",
".i 	c #EFB9BD",
"+i 	c #FEE2E4",
"@i 	c #F7C8C8",
"#i 	c #C67E7F",
"$i 	c #961621",
"%i 	c #7B1001",
"&i 	c #661902",
"*i 	c #4F2C04",
"=i 	c #526713",
"-i 	c #70AD27",
";i 	c #77BE2C",
">i 	c #7FC745",
",i 	c #CEF29D",
"'i 	c #F5FCCC",
")i 	c #CFE6AF",
"!i 	c #568948",
"~i 	c #155511",
"{i 	c #103B0A",
"]i 	c #103003",
"^i 	c #1B3504",
"/i 	c #283507",
"(i 	c #324C06",
"_i 	c #54840F",
":i 	c #79B924",
"<i 	c #A9DB62",
"[i 	c #DFF3AD",
"}i 	c #F5FCDC",
"|i 	c #E8F7D6",
"1i 	c #A4D195",
"2i 	c #5F9D54",
"3i 	c #4E884B",
"4i 	c #386435",
"5i 	c #395431",
"6i 	c #3F4734",
"7i 	c #3A352C",
"8i 	c #645449",
"9i 	c #765D4D",
"0i 	c #7F5F4D",
"ai 	c #8F644A",
"bi 	c #976A50",
"ci 	c #97674D",
"di 	c #94604E",
"ei 	c #97614C",
"fi 	c #9B6347",
"gi 	c #9B6150",
"hi 	c #A06443",
"ii 	c #A2655A",
"ji 	c #A26445",
"ki 	c #A26245",
"li 	c #A26055",
"mi 	c #A6634C",
"ni 	c #A6624D",
"oi 	c #A45E4E",
"pi 	c #A66053",
"qi 	c #A66046",
"ri 	c #A76252",
"si 	c #A76144",
"ti 	c #A86158",
"ui 	c #A86057",
"vi 	c #A86044",
"wi 	c #A55D55",
"xi 	c #A65F48",
"yi 	c #A8605B",
"zi 	c #AB6355",
"Ai 	c #AB6346",
"Bi 	c #AA6253",
"Ci 	c #AF674D",
"Di 	c #AC6453",
"Ei 	c #AA6249",
"Fi 	c #AB6359",
"Gi 	c #AD634A",
"Hi 	c #AD6555",
"Ii 	c #AC6347",
"Ji 	c #AD6349",
"Ki 	c #A65C52",
"Li 	c #A45A41",
"Mi 	c #A35A51",
"Ni 	c #A25947",
"Oi 	c #A86147",
"Pi 	c #AC6650",
"Qi 	c #AB6750",
"Ri 	c #AD6B55",
"Si 	c #A6664C",
"Ti 	c #A96959",
"Ui 	c #A96847",
"Vi 	c #AA684E",
"Wi 	c #A7674D",
"Xi 	c #A76757",
"Yi 	c #A76762",
"Zi 	c #AD6D42",
"`i 	c #AB6B58",
" j 	c #AE6A49",
".j 	c #B46E5A",
"+j 	c #B16A5F",
"@j 	c #AF6641",
"#j 	c #A95E57",
"$j 	c #B36049",
"%j 	c #B76157",
"&j 	c #B25C44",
"*j 	c #AC5655",
"=j 	c #B6604A",
"-j 	c #CD5B57",
";j 	c #E06743",
">j 	c #F8E3C7",
",j 	c #F6FCF3",
"'j 	c #FBC287",
")j 	c #D06846",
"!j 	c #B63F42",
"~j 	c #822A30",
"{j 	c #3D1314",
"]j 	c #542E30",
"^j 	c #38181A",
"/j 	c #37211F",
"(j 	c #4A3334",
"_j 	c #190B0F",
":j 	c #0C0203",
"<j 	c #392E2E",
"[j 	c #251919",
"}j 	c #0D080E",
"|j 	c #2A1419",
"1j 	c #170204",
"2j 	c #201515",
"3j 	c #231918",
"4j 	c #271A1A",
"5j 	c #2A1C1C",
"6j 	c #291A1A",
"7j 	c #403535",
"8j 	c #0E0304",
"9j 	c #4B3035",
"0j 	c #401E21",
"aj 	c #3F1519",
"bj 	c #5C3234",
"cj 	c #411215",
"dj 	c #570814",
"ej 	c #9C1D31",
"fj 	c #B31029",
"gj 	c #E08A66",
"hj 	c #FAF2E0",
"ij 	c #FBF9F3",
"jj 	c #F8CEAD",
"kj 	c #E24544",
"lj 	c #AF1D2B",
"mj 	c #9E2A34",
"nj 	c #923337",
"oj 	c #9B303C",
"pj 	c #932937",
"qj 	c #8F2B35",
"rj 	c #8C2A35",
"sj 	c #862731",
"tj 	c #862831",
"uj 	c #8A2C36",
"vj 	c #8A2C39",
"wj 	c #832433",
"xj 	c #842634",
"yj 	c #832733",
"zj 	c #7F2330",
"Aj 	c #822631",
"Bj 	c #822632",
"Cj 	c #802631",
"Dj 	c #812833",
"Ej 	c #802934",
"Fj 	c #802C35",
"Gj 	c #7B2834",
"Hj 	c #7D2A31",
"Ij 	c #7C2B30",
"Jj 	c #802730",
"Kj 	c #802531",
"Lj 	c #782A33",
"Mj 	c #7A3037",
"Nj 	c #852B30",
"Oj 	c #733431",
"Pj 	c #802930",
"Qj 	c #7A2B2B",
"Rj 	c #812A32",
"Sj 	c #812831",
"Tj 	c #862C35",
"Uj 	c #832731",
"Vj 	c #842730",
"Wj 	c #80292E",
"Xj 	c #7F282C",
"Yj 	c #7D272B",
"Zj 	c #7A2427",
"`j 	c #7D282C",
" k 	c #7A262B",
".k 	c #75262D",
"+k 	c #74262F",
"@k 	c #772432",
"#k 	c #671D28",
"$k 	c #531D20",
"%k 	c #451718",
"&k 	c #3E1114",
"*k 	c #300D10",
"=k 	c #2C1C13",
"-k 	c #322B1D",
";k 	c #2A281A",
">k 	c #1E2213",
",k 	c #161E0D",
"'k 	c #0F1907",
")k 	c #0A1703",
"!k 	c #061802",
"~k 	c #041B02",
"{k 	c #061F04",
"]k 	c #072607",
"^k 	c #082805",
"/k 	c #0B2B07",
"(k 	c #0F300B",
"_k 	c #103409",
":k 	c #113609",
"<k 	c #113709",
"[k 	c #0E3606",
"}k 	c #0D3708",
"|k 	c #0A3509",
"1k 	c #093206",
"2k 	c #0D3406",
"3k 	c #0D3204",
"4k 	c #0F2E07",
"5k 	c #0D2A07",
"6k 	c #0C2905",
"7k 	c #0A2606",
"8k 	c #072308",
"9k 	c #071D05",
"0k 	c #051501",
"ak 	c #041200",
"bk 	c #061000",
"ck 	c #070F00",
"dk 	c #020A01",
"ek 	c #020303",
"fk 	c #020203",
"gk 	c #020101",
"hk 	c #0B0003",
"ik 	c #1B0504",
"jk 	c #220402",
"kk 	c #1B0402",
"lk 	c #1E0204",
"mk 	c #1A0503",
"nk 	c #1D0902",
"ok 	c #1E1402",
"pk 	c #211C08",
"qk 	c #1B1F09",
"rk 	c #1C3401",
"sk 	c #5B9933",
"tk 	c #88E44A",
"uk 	c #65D320",
"vk 	c #73E629",
"wk 	c #80D832",
"xk 	c #C9E8A3",
"yk 	c #F5FADB",
"zk 	c #D9EEBB",
"Ak 	c #7B965C",
"Bk 	c #443808",
"Ck 	c #641A05",
"Dk 	c #830C09",
"Ek 	c #A21018",
"Fk 	c #CC5552",
"Gk 	c #EDB2AB",
"Hk 	c #FDE6EC",
"Ik 	c #F0C5CB",
"Jk 	c #B56869",
"Kk 	c #89150C",
"Lk 	c #731704",
"Mk 	c #5A1904",
"Nk 	c #4B4605",
"Ok 	c #729C1F",
"Pk 	c #6EBD26",
"Qk 	c #61B027",
"Rk 	c #BEE18A",
"Sk 	c #F2FDCA",
"Tk 	c #DDECB5",
"Uk 	c #588645",
"Vk 	c #11470B",
"Wk 	c #163005",
"Xk 	c #203302",
"Yk 	c #44260E",
"Zk 	c #5E2210",
"`k 	c #513205",
" l 	c #475805",
".l 	c #6A9712",
"+l 	c #79BB21",
"@l 	c #AAD76A",
"#l 	c #E5F7BD",
"$l 	c #F1FEDB",
"%l 	c #C2E4B0",
"&l 	c #619B59",
"*l 	c #4F8551",
"=l 	c #3B6136",
"-l 	c #364F29",
";l 	c #474833",
">l 	c #3B251E",
",l 	c #432422",
"'l 	c #452623",
")l 	c #562026",
"!l 	c #591C23",
"~l 	c #611F26",
"{l 	c #692329",
"]l 	c #6F262D",
"^l 	c #75242F",
"/l 	c #77242E",
"(l 	c #7B252E",
"_l 	c #7D252E",
":l 	c #7F2730",
"<l 	c #7E2631",
"[l 	c #7D252F",
"}l 	c #802830",
"|l 	c #812931",
"1l 	c #822934",
"2l 	c #802932",
"3l 	c #822D34",
"4l 	c #822E32",
"5l 	c #842B32",
"6l 	c #842932",
"7l 	c #822831",
"8l 	c #832830",
"9l 	c #882A37",
"0l 	c #882935",
"al 	c #8A2A33",
"bl 	c #8A2931",
"cl 	c #88282F",
"dl 	c #802B2B",
"el 	c #852933",
"fl 	c #8C2735",
"gl 	c #812E2E",
"hl 	c #812F34",
"il 	c #832D36",
"jl 	c #842834",
"kl 	c #882833",
"ll 	c #872C2F",
"ml 	c #852A2F",
"nl 	c #8B2F36",
"ol 	c #882C35",
"pl 	c #832C34",
"ql 	c #822E33",
"rl 	c #832D34",
"sl 	c #862F36",
"tl 	c #872C35",
"ul 	c #88303A",
"vl 	c #842C37",
"wl 	c #832932",
"xl 	c #842A32",
"yl 	c #85292F",
"zl 	c #882F31",
"Al 	c #862D2F",
"Bl 	c #893033",
"Cl 	c #893132",
"Dl 	c #862E31",
"El 	c #892A2F",
"Fl 	c #972631",
"Gl 	c #932832",
"Hl 	c #8F2831",
"Il 	c #952430",
"Jl 	c #BB2038",
"Kl 	c #E86447",
"Ll 	c #FCE9D9",
"Ml 	c #FDE8D9",
"Nl 	c #F6C6A5",
"Ol 	c #BC3739",
"Pl 	c #A41A2F",
"Ql 	c #6C091B",
"Rl 	c #361717",
"Sl 	c #512E2F",
"Tl 	c #361917",
"Ul 	c #39221D",
"Vl 	c #4C3334",
"Wl 	c #1A0B0E",
"Xl 	c #2D2222",
"Yl 	c #1F1717",
"Zl 	c #0B0104",
"`l 	c #201615",
" m 	c #221817",
".m 	c #251A19",
"+m 	c #291A1B",
"@m 	c #2A1A1A",
"#m 	c #3F3434",
"$m 	c #0D0204",
"%m 	c #4A2E33",
"&m 	c #3E1D1F",
"*m 	c #3E1519",
"=m 	c #5A2E31",
"-m 	c #48010A",
";m 	c #7A091D",
">m 	c #AA1029",
",m 	c #CC313E",
"'m 	c #EE8E73",
")m 	c #EE9E71",
"!m 	c #F15D48",
"~m 	c #D6212C",
"{m 	c #B81D25",
"]m 	c #AE1F2B",
"^m 	c #AE1F27",
"/m 	c #A12026",
"(m 	c #9D1E24",
"_m 	c #981D21",
":m 	c #961E21",
"<m 	c #911E20",
"[m 	c #8C2120",
"}m 	c #8A1F21",
"|m 	c #8D2125",
"1m 	c #8B2024",
"2m 	c #8A2124",
"3m 	c #8A2526",
"4m 	c #882324",
"5m 	c #862122",
"6m 	c #872322",
"7m 	c #882423",
"8m 	c #872223",
"9m 	c #882126",
"0m 	c #882025",
"am 	c #921F26",
"bm 	c #8C2327",
"cm 	c #8B2227",
"dm 	c #832428",
"em 	c #852127",
"fm 	c #841D28",
"gm 	c #7D131C",
"hm 	c #7F131B",
"im 	c #811A24",
"jm 	c #7E1924",
"km 	c #88191A",
"lm 	c #8B1C1D",
"mm 	c #8D1F20",
"nm 	c #8D2022",
"om 	c #8E2023",
"pm 	c #921F24",
"qm 	c #932024",
"rm 	c #921F22",
"sm 	c #8D1B1E",
"tm 	c #8C1C1F",
"um 	c #8A1B20",
"vm 	c #8B181F",
"wm 	c #851A1E",
"xm 	c #7C1D1D",
"ym 	c #76161D",
"zm 	c #5F1017",
"Am 	c #440E11",
"Bm 	c #401A1D",
"Cm 	c #402D2B",
"Dm 	c #413730",
"Em 	c #362F26",
"Fm 	c #27271B",
"Gm 	c #171E0F",
"Hm 	c #101E0C",
"Im 	c #072405",
"Jm 	c #0E2B09",
"Km 	c #16330D",
"Lm 	c #1B360D",
"Mm 	c #1B360A",
"Nm 	c #1B3908",
"Om 	c #1B3F0E",
"Pm 	c #1F4A15",
"Qm 	c #20531A",
"Rm 	c #235A1D",
"Sm 	c #275F1C",
"Tm 	c #29601E",
"Um 	c #2E6322",
"Vm 	c #306424",
"Wm 	c #356726",
"Xm 	c #346625",
"Ym 	c #336427",
"Zm 	c #2E6028",
"`m 	c #2A5C29",
" n 	c #245720",
".n 	c #1C4E12",
"+n 	c #154408",
"@n 	c #133F08",
"#n 	c #103807",
"$n 	c #142E05",
"%n 	c #112701",
"&n 	c #0D2301",
"*n 	c #071E01",
"=n 	c #011700",
"-n 	c #031302",
";n 	c #030E02",
">n 	c #030A02",
",n 	c #040603",
"'n 	c #020202",
")n 	c #090004",
"!n 	c #080102",
"~n 	c #0F0000",
"{n 	c #210202",
"]n 	c #3C0205",
"^n 	c #410402",
"/n 	c #360400",
"(n 	c #2A0401",
"_n 	c #260803",
":n 	c #241101",
"<n 	c #221704",
"[n 	c #231E03",
"}n 	c #223305",
"|n 	c #467C17",
"1n 	c #84D63D",
"2n 	c #6DD722",
"3n 	c #6AD81D",
"4n 	c #7ADC22",
"5n 	c #A4E370",
"6n 	c #EAF7C1",
"7n 	c #EEF6CE",
"8n 	c #A7C58B",
"9n 	c #4A5023",
"0n 	c #541702",
"an 	c #6C0E0B",
"bn 	c #8C070A",
"cn 	c #A41719",
"dn 	c #CA696D",
"en 	c #F1C4CF",
"fn 	c #FDE0E4",
"gn 	c #E1A6AD",
"hn 	c #A43A3B",
"in 	c #831502",
"jn 	c #661807",
"kn 	c #463609",
"ln 	c #61841D",
"mn 	c #72B72C",
"nn 	c #6BB22F",
"on 	c #B4DD7A",
"pn 	c #EEFAC9",
"qn 	c #DEECBB",
"rn 	c #5A833D",
"sn 	c #144302",
"tn 	c #1D2F0B",
"un 	c #642116",
"vn 	c #C14649",
"wn 	c #8E2224",
"xn 	c #691F12",
"yn 	c #56370C",
"zn 	c #5C720F",
"An 	c #6FB022",
"Bn 	c #90CA39",
"Cn 	c #D1ED91",
"Dn 	c #F6F8CB",
"En 	c #E4F1C3",
"Fn 	c #7BAA71",
"Gn 	c #3E7644",
"Hn 	c #3C5A2D",
"In 	c #3D4425",
"Jn 	c #4D392C",
"Kn 	c #4B2220",
"Ln 	c #532122",
"Mn 	c #5F1F1F",
"Nn 	c #6F1A20",
"On 	c #7A151E",
"Pn 	c #7D171E",
"Qn 	c #7E1A20",
"Rn 	c #821A23",
"Sn 	c #821B22",
"Tn 	c #841B22",
"Un 	c #841920",
"Vn 	c #831A21",
"Wn 	c #811A21",
"Xn 	c #821B21",
"Yn 	c #821C20",
"Zn 	c #841D20",
"`n 	c #851C21",
" o 	c #861B22",
".o 	c #851C20",
"+o 	c #841E20",
"@o 	c #811C1D",
"#o 	c #82191C",
"$o 	c #84191D",
"%o 	c #851A1D",
"&o 	c #861A1E",
"*o 	c #861B1E",
"=o 	c #861D21",
"-o 	c #871D21",
";o 	c #881B21",
">o 	c #8A1D22",
",o 	c #8C1D24",
"'o 	c #871E24",
")o 	c #891E21",
"!o 	c #8A1A26",
"~o 	c #821E25",
"{o 	c #7D1A16",
"]o 	c #7F1216",
"^o 	c #741717",
"/o 	c #84181E",
"(o 	c #871722",
"_o 	c #8A1821",
":o 	c #891F20",
"<o 	c #871D1D",
"[o 	c #861D1B",
"}o 	c #89201E",
"|o 	c #861F1E",
"1o 	c #84221F",
"2o 	c #811F1C",
"3o 	c #82211E",
"4o 	c #82221E",
"5o 	c #832022",
"6o 	c #831D22",
"7o 	c #862020",
"8o 	c #8A231F",
"9o 	c #89221D",
"0o 	c #8E2525",
"ao 	c #912627",
"bo 	c #96282B",
"co 	c #98282C",
"do 	c #972629",
"eo 	c #982827",
"fo 	c #9D2728",
"go 	c #9F2D2D",
"ho 	c #A3292C",
"io 	c #B1232D",
"jo 	c #C42030",
"ko 	c #D52834",
"lo 	c #EF8C69",
"mo 	c #F49D69",
"no 	c #D9583A",
"oo 	c #B32433",
"po 	c #8E1123",
"qo 	c #54010E",
"ro 	c #361314",
"so 	c #51282B",
"to 	c #361916",
"uo 	c #38201B",
"vo 	c #0B0202",
"wo 	c #392D2D",
"xo 	c #1D1516",
"yo 	c #0E090F",
"zo 	c #2B1519",
"Ao 	c #211615",
"Bo 	c #211716",
"Co 	c #231817",
"Do 	c #2B1C1C",
"Eo 	c #281919",
"Fo 	c #462B2F",
"Go 	c #3D1C1F",
"Ho 	c #572C2E",
"Io 	c #380F10",
"Jo 	c #3B0004",
"Ko 	c #540712",
"Lo 	c #74141D",
"Mo 	c #AE1929",
"No 	c #DF1D34",
"Oo 	c #E41C32",
"Po 	c #E9172F",
"Qo 	c #C42729",
"Ro 	c #E69568",
"So 	c #E9BAA2",
"To 	c #EBC2AA",
"Uo 	c #EBB296",
"Vo 	c #ECB293",
"Wo 	c #E9B191",
"Xo 	c #EAB293",
"Yo 	c #EBB28E",
"Zo 	c #EBBDAA",
"`o 	c #EAB492",
" p 	c #E8B497",
".p 	c #E9B292",
"+p 	c #E8BAA5",
"@p 	c #E9C4B8",
"#p 	c #E9C3B6",
"$p 	c #E7C2BA",
"%p 	c #E9B79B",
"&p 	c #E9C2B2",
"*p 	c #EBC3B4",
"=p 	c #EAB79A",
"-p 	c #E8B091",
";p 	c #EAAF89",
">p 	c #E9C1AA",
",p 	c #E6C3AC",
"'p 	c #EAB397",
")p 	c #E6B49F",
"!p 	c #EB9B74",
"~p 	c #E27658",
"{p 	c #D65340",
"]p 	c #CD523E",
"^p 	c #C44C3E",
"/p 	c #DEA380",
"(p 	c #EBB396",
"_p 	c #EB9E58",
":p 	c #F09D4A",
"<p 	c #ECAB7A",
"[p 	c #EEBBA1",
"}p 	c #EDCAB7",
"|p 	c #EDCAB9",
"1p 	c #EEC9B6",
"2p 	c #EEC8B8",
"3p 	c #EFBFA7",
"4p 	c #EFB99C",
"5p 	c #EBCBBB",
"6p 	c #EDC9B6",
"7p 	c #EBA76E",
"8p 	c #D37140",
"9p 	c #78141E",
"0p 	c #62272B",
"ap 	c #5A3636",
"bp 	c #453A30",
"cp 	c #333327",
"dp 	c #222718",
"ep 	c #17250E",
"fp 	c #1E3417",
"gp 	c #23401D",
"hp 	c #214916",
"ip 	c #1A460F",
"jp 	c #184A10",
"kp 	c #275C21",
"lp 	c #2F692A",
"mp 	c #39722A",
"np 	c #427832",
"op 	c #487B36",
"pp 	c #4D8037",
"qp 	c #54863C",
"rp 	c #659552",
"sp 	c #74A160",
"tp 	c #84AE6E",
"up 	c #8CB376",
"vp 	c #8DB578",
"wp 	c #89B477",
"xp 	c #81AF6E",
"yp 	c #75A660",
"zp 	c #669C51",
"Ap 	c #5C9347",
"Bp 	c #4F873A",
"Cp 	c #497D33",
"Dp 	c #47752F",
"Ep 	c #3C6623",
"Fp 	c #26571B",
"Gp 	c #12460C",
"Hp 	c #0C3A01",
"Ip 	c #0B3101",
"Jp 	c #0B2B03",
"Kp 	c #082203",
"Lp 	c #041A01",
"Mp 	c #041301",
"Np 	c #030C01",
"Op 	c #060602",
"Pp 	c #080303",
"Qp 	c #050302",
"Rp 	c #2B0202",
"Sp 	c #5B090C",
"Tp 	c #902B2F",
"Up 	c #790208",
"Vp 	c #4B0103",
"Wp 	c #370209",
"Xp 	c #270409",
"Yp 	c #200C03",
"Zp 	c #281305",
"`p 	c #271B08",
" q 	c #23270E",
".q 	c #274A0D",
"+q 	c #6AB234",
"@q 	c #7CE539",
"#q 	c #64DF20",
"$q 	c #69DD1D",
"%q 	c #7BCD40",
"&q 	c #CEEBA4",
"*q 	c #F6FBDB",
"=q 	c #D3E3B8",
"-q 	c #607846",
";q 	c #3B2404",
">q 	c #561406",
",q 	c #750F04",
"'q 	c #9D090F",
")q 	c #B9212D",
"!q 	c #D8818F",
"~q 	c #F9D6DD",
"{q 	c #F7D5D5",
"]q 	c #C47880",
"^q 	c #8D1312",
"/q 	c #6E120B",
"(q 	c #4C2804",
"_q 	c #6B6E18",
":q 	c #7DBA37",
"<q 	c #74BA26",
"[q 	c #9FD860",
"}q 	c #DAE9C1",
"|q 	c #516F32",
"1q 	c #323405",
"2q 	c #972D1D",
"3q 	c #F9B1B4",
"4q 	c #EAB6BB",
"5q 	c #AE403F",
"6q 	c #701904",
"7q 	c #572603",
"8q 	c #575A0A",
"9q 	c #75A428",
"0q 	c #81C826",
"aq 	c #AEE36C",
"bq 	c #F0FDD1",
"cq 	c #EAF4CD",
"dq 	c #7CA468",
"eq 	c #346B2D",
"fq 	c #365827",
"gq 	c #444124",
"hq 	c #6C3733",
"iq 	c #79232A",
"jq 	c #D48547",
"kq 	c #DB974F",
"lq 	c #E1B595",
"mq 	c #E3B797",
"nq 	c #E8B086",
"oq 	c #E6B693",
"pq 	c #E7B99A",
"qq 	c #E7B694",
"rq 	c #E8BA9A",
"sq 	c #E7A052",
"tq 	c #E8B792",
"uq 	c #EABFA5",
"vq 	c #EAC2A5",
"wq 	c #EDCDBD",
"xq 	c #EDC6B1",
"yq 	c #ECBE9B",
"zq 	c #EBC8B4",
"Aq 	c #EACDBE",
"Bq 	c #E9CBBA",
"Cq 	c #E9C7B8",
"Dq 	c #E9C6B9",
"Eq 	c #EAC7B7",
"Fq 	c #EBC9BA",
"Gq 	c #EBC7B7",
"Hq 	c #E8C9BB",
"Iq 	c #E7C7B9",
"Jq 	c #E8C6B7",
"Kq 	c #E8B99A",
"Lq 	c #EBB794",
"Mq 	c #ECC0A6",
"Nq 	c #EBC3AA",
"Oq 	c #EAB695",
"Pq 	c #E3A274",
"Qq 	c #DD624B",
"Rq 	c #D9603E",
"Sq 	c #D35C3D",
"Tq 	c #E45C4D",
"Uq 	c #E6AE95",
"Vq 	c #EAB08F",
"Wq 	c #EBB290",
"Xq 	c #EAB18E",
"Yq 	c #EDBDAA",
"Zq 	c #EDC2B2",
"`q 	c #ECC3B4",
" r 	c #EDC5B5",
".r 	c #EDC8B7",
"+r 	c #EBC9B7",
"@r 	c #EBCAB7",
"#r 	c #E8BCA1",
"$r 	c #E9B592",
"%r 	c #E9C0AC",
"&r 	c #EAC5B2",
"*r 	c #E9C3B0",
"=r 	c #E6C1AF",
"-r 	c #E6BFB0",
";r 	c #E6BDB0",
">r 	c #E5BAAA",
",r 	c #E3B6AB",
"'r 	c #E7B69D",
")r 	c #E9BFB2",
"!r 	c #EABAA5",
"~r 	c #ECB192",
"{r 	c #EAAA8C",
"]r 	c #E4876B",
"^r 	c #CE252F",
"/r 	c #DB2035",
"(r 	c #D12A3D",
"_r 	c #C12635",
":r 	c #9A1322",
"<r 	c #770B1A",
"[r 	c #430109",
"}r 	c #330F10",
"|r 	c #54272A",
"1r 	c #3A221D",
"2r 	c #4D3435",
"3r 	c #1A0C0E",
"4r 	c #0C0303",
"5r 	c #2B2120",
"6r 	c #1E1516",
"7r 	c #0E0910",
"8r 	c #201514",
"9r 	c #231818",
"0r 	c #3F3535",
"ar 	c #0E0204",
"br 	c #45292E",
"cr 	c #3B1B1D",
"dr 	c #582D2F",
"er 	c #340E0F",
"fr 	c #330103",
"gr 	c #54010D",
"hr 	c #610D16",
"ir 	c #7F1921",
"jr 	c #9F121F",
"kr 	c #C21D2D",
"lr 	c #D72B3C",
"mr 	c #CA3E3C",
"nr 	c #FBCDAC",
"or 	c #FAD6B7",
"pr 	c #FAD6B5",
"qr 	c #FBD9C5",
"rr 	c #FDDCC9",
"sr 	c #FDDBC8",
"tr 	c #FCDAC7",
"ur 	c #FCDAC8",
"vr 	c #FDDCCB",
"wr 	c #FCDCCC",
"xr 	c #FBDAC8",
"yr 	c #FCDBC9",
"zr 	c #FCDCC9",
"Ar 	c #FDDEC9",
"Br 	c #FDDECC",
"Cr 	c #FBDECA",
"Dr 	c #FDDEC4",
"Er 	c #FDE0CD",
"Fr 	c #FDDFD0",
"Gr 	c #FDDED1",
"Hr 	c #FDDBC6",
"Ir 	c #F9E0BD",
"Jr 	c #FADFBA",
"Kr 	c #FCD3B9",
"Lr 	c #FCECD5",
"Mr 	c #FECEA4",
"Nr 	c #F16A54",
"Or 	c #F7564C",
"Pr 	c #FB7458",
"Qr 	c #F0704E",
"Rr 	c #FBD0A4",
"Sr 	c #FBE1D3",
"Tr 	c #F9D8C6",
"Ur 	c #FCD7C1",
"Vr 	c #FAD8C2",
"Wr 	c #FBD9C1",
"Xr 	c #F9D5B8",
"Yr 	c #F9D6B9",
"Zr 	c #FCD7BA",
"`r 	c #FCD8BD",
" s 	c #FBD7BA",
".s 	c #FAD9BD",
"+s 	c #F9D9BF",
"@s 	c #F4BC9C",
"#s 	c #D57B4A",
"$s 	c #982A2C",
"%s 	c #823237",
"&s 	c #683C3A",
"*s 	c #48352C",
"=s 	c #292F16",
"-s 	c #253D1A",
";s 	c #2D4B23",
">s 	c #284D1C",
",s 	c #225016",
"'s 	c #255818",
")s 	c #35692E",
"!s 	c #497D40",
"~s 	c #578C48",
"{s 	c #699B55",
"]s 	c #83B26C",
"^s 	c #A2CB8A",
"/s 	c #BADDAA",
"(s 	c #CEE8C6",
"_s 	c #DFF4D8",
":s 	c #EEFDE6",
"<s 	c #F8FDF3",
"[s 	c #F7FCF0",
"}s 	c #F8FCEE",
"|s 	c #F9FCEC",
"1s 	c #F9FCED",
"2s 	c #FAFCF0",
"3s 	c #F7FBE8",
"4s 	c #F7FBE7",
"5s 	c #F6F9E8",
"6s 	c #F3F8E6",
"7s 	c #DBECD0",
"8s 	c #BEDEB2",
"9s 	c #A1CB91",
"0s 	c #8AB978",
"as 	c #63924F",
"bs 	c #4A7835",
"cs 	c #39632D",
"ds 	c #224821",
"es 	c #0E3607",
"fs 	c #062C01",
"gs 	c #062201",
"hs 	c #061A01",
"is 	c #051300",
"js 	c #0A0E00",
"ks 	c #0A0800",
"ls 	c #090701",
"ms 	c #170401",
"ns 	c #400204",
"os 	c #9A1F2A",
"ps 	c #FAC6BE",
"qs 	c #CC6468",
"rs 	c #870713",
"ss 	c #530207",
"ts 	c #3D000C",
"us 	c #290203",
"vs 	c #2A0802",
"ws 	c #2B1000",
"xs 	c #281900",
"ys 	c #282305",
"zs 	c #1F3204",
"As 	c #49871B",
"Bs 	c #81DD3B",
"Cs 	c #78DF2D",
"Ds 	c #60D20F",
"Es 	c #5BCE16",
"Fs 	c #A4E27B",
"Gs 	c #EDF7CA",
"Hs 	c #F0F0BF",
"Is 	c #949E77",
"Js 	c #3C2E0F",
"Ks 	c #561502",
"Ls 	c #640E0D",
"Ms 	c #800C10",
"Ns 	c #A30D09",
"Os 	c #C53C39",
"Ps 	c #EFABB5",
"Qs 	c #FDE2F0",
"Rs 	c #DDAAA2",
"Ss 	c #9F282C",
"Ts 	c #6A0F0A",
"Us 	c #562002",
"Vs 	c #685F0C",
"Ws 	c #83AE35",
"Xs 	c #62B41A",
"Ys 	c #A3DB69",
"Zs 	c #EBFBC9",
"`s 	c #C3D8A8",
" t 	c #3D4918",
".t 	c #7C230E",
"+t 	c #C97164",
"@t 	c #FBDCD7",
"#t 	c #F7D6D1",
"$t 	c #BE646B",
"%t 	c #781210",
"&t 	c #632202",
"*t 	c #584704",
"=t 	c #639A1C",
"-t 	c #6BCE2B",
";t 	c #9FE059",
">t 	c #F4FCC1",
",t 	c #E0F1CA",
"'t 	c #649A5A",
")t 	c #26611F",
"!t 	c #395524",
"~t 	c #543324",
"{t 	c #853438",
"]t 	c #B46138",
"^t 	c #F3B073",
"/t 	c #F7D6BF",
"(t 	c #F7D3BD",
"_t 	c #FBCEBC",
":t 	c #FACFBA",
"<t 	c #F9CFBC",
"[t 	c #FACFBC",
"}t 	c #F9D1C1",
"|t 	c #F9D1BD",
"1t 	c #FAD2BD",
"2t 	c #FBD2BE",
"3t 	c #F9D1BA",
"4t 	c #FAD2BB",
"5t 	c #FBD3BD",
"6t 	c #FBD3C0",
"7t 	c #FAD5BF",
"8t 	c #FBD6BF",
"9t 	c #F9D8BE",
"0t 	c #FBD4BC",
"at 	c #FAD3BB",
"bt 	c #FBD3BA",
"ct 	c #FAD3B8",
"dt 	c #FBD6BE",
"et 	c #FAD5BE",
"ft 	c #FCD4BC",
"gt 	c #FAD3BE",
"ht 	c #FCD5C0",
"it 	c #F8DBC1",
"jt 	c #FADEBD",
"kt 	c #F7DEC3",
"lt 	c #F7E1CA",
"mt 	c #E46A51",
"nt 	c #F8604F",
"ot 	c #F96449",
"pt 	c #F44941",
"qt 	c #F7D5BB",
"rt 	c #FDD3B3",
"st 	c #FBD4BF",
"tt 	c #FBD5BF",
"ut 	c #FDD7C0",
"vt 	c #FBD7BF",
"wt 	c #FDD8C1",
"xt 	c #FBD8BF",
"yt 	c #FAD7C1",
"zt 	c #FAD9C0",
"At 	c #FBDCC3",
"Bt 	c #FBDDC1",
"Ct 	c #FCDEC2",
"Dt 	c #FBDABB",
"Et 	c #FDDBBD",
"Ft 	c #FCDCBF",
"Gt 	c #FCDBBB",
"Ht 	c #FBDABE",
"It 	c #FBDCC1",
"Jt 	c #FDDABF",
"Kt 	c #FCDCC3",
"Lt 	c #FBEEDC",
"Mt 	c #F6B99E",
"Nt 	c #E32A3E",
"Ot 	c #C32B39",
"Pt 	c #AC2233",
"Qt 	c #921221",
"Rt 	c #800F1B",
"St 	c #640714",
"Tt 	c #3B0107",
"Ut 	c #2F0E0E",
"Vt 	c #522729",
"Wt 	c #351916",
"Xt 	c #38211C",
"Yt 	c #4C3233",
"Zt 	c #1C1314",
"`t 	c #2A1418",
" u 	c #160203",
".u 	c #1F1414",
"+u 	c #201616",
"@u 	c #281D1C",
"#u 	c #281B1B",
"$u 	c #281A1A",
"%u 	c #29191A",
"&u 	c #3D3333",
"*u 	c #452A2E",
"=u 	c #3C1B1E",
"-u 	c #3C1216",
";u 	c #562B2E",
">u 	c #320D0D",
",u 	c #2C0102",
"'u 	c #3E0508",
")u 	c #570511",
"!u 	c #6F111D",
"~u 	c #710E18",
"{u 	c #7E0813",
"]u 	c #A50F1A",
"^u 	c #C03531",
"/u 	c #FBCFAC",
"(u 	c #DB7E3E",
"_u 	c #C52F2B",
":u 	c #C3322A",
"<u 	c #C13229",
"[u 	c #C4322B",
"}u 	c #C4322D",
"|u 	c #C1312C",
"1u 	c #BE2F29",
"2u 	c #BE2D29",
"3u 	c #C2302F",
"4u 	c #C2312E",
"5u 	c #C3332A",
"6u 	c #C3342D",
"7u 	c #C1312F",
"8u 	c #BF302C",
"9u 	c #C03130",
"0u 	c #C13227",
"au 	c #C13331",
"bu 	c #C4352B",
"cu 	c #C63738",
"du 	c #CC3535",
"eu 	c #CD3333",
"fu 	c #CB2D34",
"gu 	c #E3A990",
"hu 	c #F9BB9B",
"iu 	c #C11F1D",
"ju 	c #C81721",
"ku 	c #DE392D",
"lu 	c #DD6547",
"mu 	c #F9B34D",
"nu 	c #CE5D3A",
"ou 	c #B52D2D",
"pu 	c #B52827",
"qu 	c #B12727",
"ru 	c #AB2425",
"su 	c #A91F26",
"tu 	c #A82026",
"uu 	c #A82226",
"vu 	c #A9242A",
"wu 	c #AA2628",
"xu 	c #AD252A",
"yu 	c #AD202D",
"zu 	c #961324",
"Au 	c #89232D",
"Bu 	c #823736",
"Cu 	c #5A302C",
"Du 	c #303020",
"Eu 	c #314622",
"Fu 	c #335122",
"Gu 	c #295419",
"Hu 	c #326720",
"Iu 	c #3C7929",
"Ju 	c #488A34",
"Ku 	c #599A42",
"Lu 	c #7BB558",
"Mu 	c #A5D086",
"Nu 	c #CFE8B9",
"Ou 	c #EAF5DA",
"Pu 	c #F9FBE3",
"Qu 	c #F7FCDE",
"Ru 	c #F2FDD4",
"Su 	c #DFF7B0",
"Tu 	c #CFF2A0",
"Uu 	c #C4EA95",
"Vu 	c #C1E890",
"Wu 	c #BEE88A",
"Xu 	c #BDE989",
"Yu 	c #BDE98C",
"Zu 	c #C2EA94",
"`u 	c #C6EC9D",
" v 	c #CEF0A8",
".v 	c #D7F5B6",
"+v 	c #E1F8C4",
"@v 	c #EAFBD3",
"#v 	c #F4FBE0",
"$v 	c #F9F8E8",
"%v 	c #F8FAEE",
"&v 	c #EEF7DE",
"*v 	c #D6E9BB",
"=v 	c #AFCF93",
"-v 	c #7DA768",
";v 	c #487C39",
">v 	c #295A1A",
",v 	c #1B450C",
"'v 	c #15350B",
")v 	c #0D1700",
"!v 	c #0E1002",
"~v 	c #0F0C03",
"{v 	c #1F0601",
"]v 	c #3D0302",
"^v 	c #970819",
"/v 	c #E9AFAB",
"(v 	c #F5DAD1",
"_v 	c #BD575D",
":v 	c #8E0408",
"<v 	c #640304",
"[v 	c #460103",
"}v 	c #350205",
"|v 	c #2D0400",
"1v 	c #2A0905",
"2v 	c #2B1304",
"3v 	c #2A1F04",
"4v 	c #1F270B",
"5v 	c #254D03",
"6v 	c #5AAC2B",
"7v 	c #7EDE41",
"8v 	c #6ADA23",
"9v 	c #5BD618",
"0v 	c #72CD43",
"av 	c #C7EAAA",
"bv 	c #EEFAD0",
"cv 	c #C6CDA5",
"dv 	c #536036",
"ev 	c #362B08",
"fv 	c #491407",
"gv 	c #6C0809",
"hv 	c #980A11",
"iv 	c #AC211E",
"jv 	c #DB827A",
"kv 	c #FBDDDD",
"lv 	c #EFCBCF",
"mv 	c #AF565D",
"nv 	c #6F1102",
"ov 	c #592006",
"pv 	c #62601C",
"qv 	c #7AAB34",
"rv 	c #66B71D",
"sv 	c #A8DD77",
"tv 	c #E7FAD1",
"uv 	c #96B484",
"vv 	c #483406",
"wv 	c #8D1E10",
"xv 	c #C95A57",
"yv 	c #F6BEC0",
"zv 	c #FDDCDA",
"Av 	c #D38B8B",
"Bv 	c #871912",
"Cv 	c #5F230C",
"Dv 	c #54440D",
"Ev 	c #649726",
"Fv 	c #66C328",
"Gv 	c #AAE36B",
"Hv 	c #F0FECF",
"Iv 	c #D1EABA",
"Jv 	c #518543",
"Kv 	c #2D6223",
"Lv 	c #3E4A27",
"Mv 	c #5E3328",
"Nv 	c #873230",
"Ov 	c #8C1E23",
"Pv 	c #A22929",
"Qv 	c #A2282B",
"Rv 	c #A42629",
"Sv 	c #AD2526",
"Tv 	c #A92427",
"Uv 	c #A72425",
"Vv 	c #A5222A",
"Wv 	c #A71F26",
"Xv 	c #A91E26",
"Yv 	c #A51921",
"Zv 	c #A61A20",
"`v 	c #A51A25",
" w 	c #A41A26",
".w 	c #A21A25",
"+w 	c #A01B23",
"@w 	c #9E1B22",
"#w 	c #A11C23",
"$w 	c #A21D24",
"%w 	c #A31C24",
"&w 	c #A31D24",
"*w 	c #A41D26",
"=w 	c #A51D28",
"-w 	c #A61D28",
";w 	c #A91E27",
">w 	c #AB1F28",
",w 	c #AF202A",
"'w 	c #B6232F",
")w 	c #C7272B",
"!w 	c #E36653",
"~w 	c #F7BA93",
"{w 	c #C34637",
"]w 	c #CD2E2F",
"^w 	c #D53F34",
"/w 	c #E23932",
"(w 	c #F7CEB8",
"_w 	c #DC7C48",
":w 	c #C7312D",
"<w 	c #C22D2C",
"[w 	c #BF2B2D",
"}w 	c #C12C2E",
"|w 	c #C22C33",
"1w 	c #C22A28",
"2w 	c #C2282D",
"3w 	c #C3272B",
"4w 	c #C6282C",
"5w 	c #C92B2F",
"6w 	c #C92C2F",
"7w 	c #C72B34",
"8w 	c #C32A2B",
"9w 	c #C02934",
"0w 	c #C82D2D",
"aw 	c #C92F30",
"bw 	c #C9323A",
"cw 	c #C83430",
"dw 	c #C7363A",
"ew 	c #C33330",
"fw 	c #C13032",
"gw 	c #C82C28",
"hw 	c #BC3732",
"iw 	c #EDAE97",
"jw 	c #F2AE9A",
"kw 	c #C12832",
"lw 	c #831B1E",
"mw 	c #77131F",
"nw 	c #780D1A",
"ow 	c #6C1019",
"pw 	c #590613",
"qw 	c #380107",
"rw 	c #2B0D0C",
"sw 	c #4F2829",
"tw 	c #361A17",
"uw 	c #39211D",
"vw 	c #4B3132",
"ww 	c #190B0D",
"xw 	c #2A1E1F",
"yw 	c #2A1C1D",
"zw 	c #180B11",
"Aw 	c #0E090D",
"Bw 	c #2B1619",
"Cw 	c #170203",
"Dw 	c #23191B",
"Ew 	c #251A1B",
"Fw 	c #291B1A",
"Gw 	c #482C31",
"Hw 	c #401A1E",
"Iw 	c #3A1115",
"Jw 	c #542B2F",
"Kw 	c #330B0F",
"Lw 	c #2B0104",
"Mw 	c #40040B",
"Nw 	c #4E030E",
"Ow 	c #5B1117",
"Pw 	c #621418",
"Qw 	c #730F16",
"Rw 	c #9E1420",
"Sw 	c #B9372F",
"Tw 	c #FCB556",
"Uw 	c #E47E3F",
"Vw 	c #D02B32",
"Ww 	c #CC2831",
"Xw 	c #C62B32",
"Yw 	c #C82833",
"Zw 	c #C82836",
"`w 	c #C42D38",
" x 	c #C73039",
".x 	c #C8313B",
"+x 	c #CA333E",
"@x 	c #C9333F",
"#x 	c #C9323D",
"$x 	c #C8303B",
"%x 	c #C93139",
"&x 	c #CB333C",
"*x 	c #CC343B",
"=x 	c #CC333C",
"-x 	c #CB3239",
";x 	c #CA323C",
">x 	c #CF323E",
",x 	c #D42F42",
"'x 	c #D52A40",
")x 	c #DC253C",
"!x 	c #DC2D42",
"~x 	c #E9A994",
"{x 	c #FBBD9F",
"]x 	c #D5423D",
"^x 	c #D5383E",
"/x 	c #AB0D15",
"(x 	c #D65C40",
"_x 	c #FEC78D",
":x 	c #E3633E",
"<x 	c #BB1327",
"[x 	c #AA0718",
"}x 	c #9F0612",
"|x 	c #990411",
"1x 	c #940313",
"2x 	c #8E0312",
"3x 	c #8D0716",
"4x 	c #8A0715",
"5x 	c #840513",
"6x 	c #7B0312",
"7x 	c #7F1C26",
"8x 	c #7D3233",
"9x 	c #66342A",
"0x 	c #413017",
"ax 	c #3E491E",
"bx 	c #435D2B",
"cx 	c #346320",
"dx 	c #35751F",
"ex 	c #448929",
"fx 	c #5EA042",
"gx 	c #94C97A",
"hx 	c #C3E3AE",
"ix 	c #E2F2D3",
"jx 	c #F1FDDB",
"kx 	c #F4FEDA",
"lx 	c #F1FCD0",
"mx 	c #E3FAB9",
"nx 	c #D0F4A0",
"ox 	c #B8E97F",
"px 	c #A2DD60",
"qx 	c #89D43F",
"rx 	c #76CF24",
"sx 	c #73D31C",
"tx 	c #76D715",
"ux 	c #76D713",
"vx 	c #7BDC18",
"wx 	c #7DDE1A",
"xx 	c #7DE01D",
"yx 	c #79DD1F",
"zx 	c #75D91A",
"Ax 	c #6FD315",
"Bx 	c #6ED115",
"Cx 	c #6FCB17",
"Dx 	c #73CB20",
"Ex 	c #81D439",
"Fx 	c #96DC5A",
"Gx 	c #B1E87C",
"Hx 	c #C3F297",
"Ix 	c #D7F8AF",
"Jx 	c #EDFBD0",
"Kx 	c #F7F9E5",
"Lx 	c #F5F5E6",
"Mx 	c #DFEDD7",
"Nx 	c #ADC9A7",
"Ox 	c #5B8953",
"Px 	c #2C5B1B",
"Qx 	c #214410",
"Rx 	c #153209",
"Sx 	c #0F1E05",
"Tx 	c #171303",
"Ux 	c #230F01",
"Vx 	c #2F0C04",
"Wx 	c #6B0506",
"Xx 	c #B6333C",
"Yx 	c #F2BFC0",
"Zx 	c #F7D5D3",
"`x 	c #BC5A5F",
" y 	c #88080C",
".y 	c #710307",
"+y 	c #520203",
"@y 	c #3D0301",
"#y 	c #320303",
"$y 	c #2F0604",
"%y 	c #300F01",
"&y 	c #301A04",
"*y 	c #2D1F07",
"=y 	c #232A03",
"-y 	c #376C14",
";y 	c #71CB37",
">y 	c #70DA2C",
",y 	c #4DC512",
"'y 	c #57B91D",
")y 	c #99CA76",
"!y 	c #E5F7CB",
"~y 	c #E0EACA",
"{y 	c #739459",
"]y 	c #2A2D02",
"^y 	c #40150B",
"/y 	c #4E0E08",
"(y 	c #790D01",
"_y 	c #AD150C",
":y 	c #D25B59",
"<y 	c #F8D1D2",
"[y 	c #FAD8DD",
"}y 	c #B76B73",
"|y 	c #730A05",
"1y 	c #632307",
"2y 	c #626710",
"3y 	c #71A625",
"4y 	c #5EB828",
"5y 	c #BCE488",
"6y 	c #DEF9CA",
"7y 	c #698455",
"8y 	c #551D02",
"9y 	c #8B0D0D",
"0y 	c #BC2929",
"ay 	c #E29AA0",
"by 	c #FEE0E1",
"cy 	c #DC9898",
"dy 	c #7D1412",
"ey 	c #652307",
"fy 	c #5B4F10",
"gy 	c #5AA921",
"hy 	c #5DC319",
"iy 	c #B9E189",
"jy 	c #F6FDD7",
"ky 	c #ACD39D",
"ly 	c #35722A",
"my 	c #3F6034",
"ny 	c #3C3F21",
"oy 	c #683633",
"py 	c #671621",
"qy 	c #74091D",
"ry 	c #80091E",
"sy 	c #89081D",
"ty 	c #88071A",
"uy 	c #810617",
"vy 	c #810818",
"wy 	c #830517",
"xy 	c #840215",
"yy 	c #850013",
"zy 	c #830012",
"Ay 	c #830011",
"By 	c #830211",
"Cy 	c #850311",
"Dy 	c #870312",
"Ey 	c #890313",
"Fy 	c #8B0314",
"Gy 	c #8E0215",
"Hy 	c #8D0215",
"Iy 	c #8F0316",
"Jy 	c #940318",
"Ky 	c #980318",
"Ly 	c #A10418",
"My 	c #AC0713",
"Ny 	c #E36F50",
"Oy 	c #F8AE4B",
"Py 	c #C64C37",
"Qy 	c #C43838",
"Ry 	c #BB282C",
"Sy 	c #DD3D36",
"Ty 	c #FDBF95",
"Uy 	c #E87F4A",
"Vy 	c #D9333C",
"Wy 	c #D03340",
"Xy 	c #C72F3D",
"Yy 	c #C3293A",
"Zy 	c #C22B35",
"`y 	c #C43136",
" z 	c #C33037",
".z 	c #C33139",
"+z 	c #C33039",
"@z 	c #C43038",
"#z 	c #C43139",
"$z 	c #C5313B",
"%z 	c #C4303B",
"&z 	c #C5303E",
"*z 	c #CB2F3B",
"=z 	c #CD2F3B",
"-z 	c #CE2C3D",
";z 	c #D02A3C",
">z 	c #D1293F",
",z 	c #D2243B",
"'z 	c #CF1E35",
")z 	c #D3172E",
"!z 	c #CC1A2B",
"~z 	c #EFAC9D",
"{z 	c #F0B6AB",
"]z 	c #A01C23",
"^z 	c #740B16",
"/z 	c #70141F",
"(z 	c #640D17",
"_z 	c #5F0A15",
":z 	c #4F0612",
"<z 	c #310207",
"[z 	c #300B0B",
"}z 	c #4D2627",
"|z 	c #341716",
"1z 	c #361E1B",
"2z 	c #4B3233",
"3z 	c #190B0E",
"4z 	c #372C2E",
"5z 	c #281C1E",
"6z 	c #2A1E20",
"7z 	c #25191B",
"8z 	c #0C0104",
"9z 	c #190A11",
"0z 	c #211616",
"az 	c #241717",
"bz 	c #3E3434",
"cz 	c #0D0203",
"dz 	c #472B30",
"ez 	c #3E181D",
"fz 	c #51282C",
"gz 	c #320A0E",
"hz 	c #290003",
"iz 	c #3F050B",
"jz 	c #4C060E",
"kz 	c #571116",
"lz 	c #641A1E",
"mz 	c #6B0B12",
"nz 	c #900F1B",
"oz 	c #B3392D",
"pz 	c #FBBE87",
"qz 	c #E1803E",
"rz 	c #B72326",
"sz 	c #9B1D1F",
"tz 	c #880E11",
"uz 	c #920A12",
"vz 	c #970814",
"wz 	c #940C15",
"xz 	c #940E14",
"yz 	c #930E14",
"zz 	c #930D15",
"Az 	c #940D17",
"Bz 	c #930F17",
"Cz 	c #910F16",
"Dz 	c #900F15",
"Ez 	c #8F0D14",
"Fz 	c #910E16",
"Gz 	c #910F18",
"Hz 	c #8F1119",
"Iz 	c #8D0E18",
"Jz 	c #900B19",
"Kz 	c #960C1A",
"Lz 	c #9F0E17",
"Mz 	c #AA1A24",
"Nz 	c #E8AE96",
"Oz 	c #F6BEA3",
"Pz 	c #D33F39",
"Qz 	c #DF4048",
"Rz 	c #AC151B",
"Sz 	c #D86242",
"Tz 	c #FBBD70",
"Uz 	c #DE683D",
"Vz 	c #AF1625",
"Wz 	c #910813",
"Xz 	c #760104",
"Yz 	c #6A0105",
"Zz 	c #63010C",
"`z 	c #60000A",
" A 	c #5E0008",
".A 	c #5C0107",
"+A 	c #611117",
"@A 	c #6F2B2F",
"#A 	c #6C3632",
"$A 	c #513321",
"%A 	c #3D3C14",
"&A 	c #47591E",
"*A 	c #426717",
"=A 	c #3F7A1C",
"-A 	c #448D2B",
";A 	c #66AB4A",
">A 	c #B3DA90",
",A 	c #E1F6CB",
"'A 	c #F5FBEB",
")A 	c #F9FDE3",
"!A 	c #F2FDC7",
"~A 	c #E1FAAE",
"{A 	c #BDEA7C",
"]A 	c #97E144",
"^A 	c #7BD623",
"/A 	c #73D21E",
"(A 	c #7EDC32",
"_A 	c #8CE837",
":A 	c #97F139",
"<A 	c #9CF437",
"[A 	c #9FF43D",
"}A 	c #98EC43",
"|A 	c #92E43E",
"1A 	c #90E141",
"2A 	c #8DDE3F",
"3A 	c #8DDA40",
"4A 	c #8FDA42",
"5A 	c #8EDE41",
"6A 	c #90E443",
"7A 	c #94EB47",
"8A 	c #91F048",
"9A 	c #88F141",
"0A 	c #7CE935",
"aA 	c #72DF28",
"bA 	c #6BD71D",
"cA 	c #6BCB14",
"dA 	c #6EC818",
"eA 	c #85D13F",
"fA 	c #ACDF78",
"gA 	c #D5F4AD",
"hA 	c #F4F6D6",
"iA 	c #F7F8EC",
"jA 	c #ECF6F0",
"kA 	c #C1D3BB",
"lA 	c #6F8E59",
"mA 	c #30621B",
"nA 	c #1F4203",
"oA 	c #1C2404",
"pA 	c #1D150B",
"qA 	c #241404",
"rA 	c #3E0E01",
"sA 	c #760804",
"tA 	c #B83849",
"uA 	c #F6B3BD",
"vA 	c #FADADA",
"wA 	c #CC7785",
"xA 	c #9F1820",
"yA 	c #820206",
"zA 	c #600106",
"AA 	c #4C0005",
"BA 	c #440004",
"CA 	c #3D0103",
"DA 	c #340701",
"EA 	c #2E1100",
"FA 	c #331701",
"GA 	c #302307",
"HA 	c #273904",
"IA 	c #52891B",
"JA 	c #69C028",
"KA 	c #4FBB18",
"LA 	c #55BE18",
"MA 	c #6DBA45",
"NA 	c #C3EB9E",
"OA 	c #E6FBCA",
"PA 	c #A9C695",
"QA 	c #34501B",
"RA 	c #361F05",
"SA 	c #401305",
"TA 	c #5B1401",
"UA 	c #A20F0A",
"VA 	c #CB3E38",
"WA 	c #F0B8B4",
"XA 	c #FBDBDE",
"YA 	c #BA7478",
"ZA 	c #7A0804",
"`A 	c #532205",
" B 	c #5C700D",
".B 	c #54A90F",
"+B 	c #66B02E",
"@B 	c #D1F1B8",
"#B 	c #CAEAB3",
"$B 	c #4D5B2A",
"%B 	c #481405",
"&B 	c #860D0E",
"*B 	c #B31B1E",
"=B 	c #DC8A91",
"-B 	c #FDE1EF",
";B 	c #E09D99",
">B 	c #862014",
",B 	c #5F2215",
"'B 	c #4E6604",
")B 	c #56B31D",
"!B 	c #6FB81E",
"~B 	c #D6EFA7",
"{B 	c #E7F8D1",
"]B 	c #79A95B",
"^B 	c #22601E",
"/B 	c #405D35",
"(B 	c #433425",
"_B 	c #5C2125",
":B 	c #600617",
"<B 	c #660616",
"[B 	c #670413",
"}B 	c #630510",
"|B 	c #5E050E",
"1B 	c #58040C",
"2B 	c #560209",
"3B 	c #540107",
"4B 	c #540007",
"5B 	c #530107",
"6B 	c #550006",
"7B 	c #570006",
"8B 	c #560006",
"9B 	c #550004",
"0B 	c #570005",
"aB 	c #590005",
"bB 	c #5A0005",
"cB 	c #5C0006",
"dB 	c #5E0006",
"eB 	c #5F0006",
"fB 	c #650007",
"gB 	c #6D0009",
"hB 	c #7F010C",
"iB 	c #910309",
"jB 	c #DC7652",
"kB 	c #F8AF4F",
"lB 	c #CF513C",
"mB 	c #DE4345",
"nB 	c #B01C20",
"oB 	c #DB3F37",
"pB 	c #FED2C5",
"qB 	c #E8864D",
"rB 	c #CB383D",
"sB 	c #9D1A21",
"tB 	c #8A0E16",
"uB 	c #8C0F16",
"vB 	c #8D0E12",
"wB 	c #8C0D0F",
"xB 	c #8F0F13",
"yB 	c #911116",
"zB 	c #911117",
"AB 	c #900E16",
"BB 	c #900D16",
"CB 	c #910E19",
"DB 	c #910E1A",
"EB 	c #920F19",
"FB 	c #940F1C",
"GB 	c #950F1D",
"HB 	c #930D1C",
"IB 	c #930D19",
"JB 	c #950D18",
"KB 	c #A40C19",
"LB 	c #BF242D",
"MB 	c #F1B5A3",
"NB 	c #F0BCAF",
"OB 	c #9B1C22",
"PB 	c #700C16",
"QB 	c #6F1821",
"RB 	c #5C0A12",
"SB 	c #580710",
"TB 	c #49040F",
"UB 	c #2F0206",
"VB 	c #2F0B0A",
"WB 	c #4D2728",
"XB 	c #371F1B",
"YB 	c #190C0E",
"ZB 	c #0A0203",
"`B 	c #382D2F",
" C 	c #291D1F",
".C 	c #271B1D",
"+C 	c #2B1C1D",
"@C 	c #281D1D",
"#C 	c #1D1415",
"$C 	c #0F0A0E",
"%C 	c #2B1518",
"&C 	c #180304",
"*C 	c #1F1514",
"=C 	c #221719",
"-C 	c #261919",
";C 	c #2B1D1C",
">C 	c #462A2F",
",C 	c #3D181C",
"'C 	c #391215",
")C 	c #4F282B",
"!C 	c #2F080B",
"~C 	c #290104",
"{C 	c #3D070C",
"]C 	c #4A070F",
"^C 	c #561316",
"/C 	c #651F21",
"(C 	c #670C12",
"_C 	c #8A1320",
":C 	c #B03D33",
"<C 	c #FBD2BD",
"[C 	c #DB813B",
"}C 	c #AC2325",
"|C 	c #9D232A",
"1C 	c #8F151C",
"2C 	c #A21622",
"3C 	c #AE1826",
"4C 	c #AA1B25",
"5C 	c #A81D23",
"6C 	c #A91C24",
"7C 	c #AB1C27",
"8C 	c #AC1B28",
"9C 	c #AA1D28",
"0C 	c #A51D27",
"aC 	c #A31B25",
"bC 	c #A11A23",
"cC 	c #A11A24",
"dC 	c #A21925",
"eC 	c #A01A27",
"fC 	c #9E1C27",
"gC 	c #9C1A25",
"hC 	c #9B1621",
"iC 	c #96131C",
"jC 	c #941515",
"kC 	c #A21921",
"lC 	c #EAA687",
"mC 	c #F7B598",
"nC 	c #D13932",
"oC 	c #E34349",
"pC 	c #B31D20",
"qC 	c #D56948",
"rC 	c #FFDCC7",
"sC 	c #D5673D",
"tC 	c #A31823",
"uC 	c #7C0A12",
"vC 	c #560102",
"wC 	c #470103",
"xC 	c #430108",
"yC 	c #460007",
"zC 	c #490609",
"AC 	c #551C1A",
"BC 	c #63322E",
"CC 	c #55352B",
"DC 	c #3C3017",
"EC 	c #3D4A18",
"FC 	c #3C5A15",
"GC 	c #3B6E1D",
"HC 	c #4B8C33",
"IC 	c #7BBA5B",
"JC 	c #BCE495",
"KC 	c #EEF9D4",
"LC 	c #F9FCE6",
"MC 	c #F3FCD0",
"NC 	c #DCF3A5",
"OC 	c #ACE26B",
"PC 	c #85DB37",
"QC 	c #83DD24",
"RC 	c #80E12B",
"SC 	c #89F03D",
"TC 	c #90F244",
"UC 	c #8EE73D",
"VC 	c #80D538",
"WC 	c #6FB930",
"XC 	c #609B28",
"YC 	c #4E7E19",
"ZC 	c #396006",
"`C 	c #2C4A01",
" D 	c #264101",
".D 	c #263F04",
"+D 	c #263E06",
"@D 	c #273A07",
"#D 	c #283706",
"$D 	c #263A05",
"%D 	c #264104",
"&D 	c #254503",
"*D 	c #2C5104",
"=D 	c #41711A",
"-D 	c #5B9830",
";D 	c #6BB835",
">D 	c #7BD73C",
",D 	c #89E945",
"'D 	c #86EF3F",
")D 	c #78E929",
"!D 	c #70DE17",
"~D 	c #6ECF0C",
"{D 	c #7FD534",
"]D 	c #B4E37E",
"^D 	c #E6F7C4",
"/D 	c #F3FAE1",
"(D 	c #ECF9E1",
"_D 	c #BCD6AA",
":D 	c #5C864A",
"<D 	c #1E500A",
"[D 	c #1A2A0A",
"}D 	c #251607",
"|D 	c #31120B",
"1D 	c #461107",
"2D 	c #710505",
"3D 	c #A62132",
"4D 	c #EA90A2",
"5D 	c #FED6E3",
"6D 	c #E7BFC0",
"7D 	c #BB5C65",
"8D 	c #9C0D14",
"9D 	c #800402",
"0D 	c #670200",
"aD 	c #480301",
"bD 	c #3A0404",
"cD 	c #3D0305",
"dD 	c #380606",
"eD 	c #321101",
"fD 	c #391D05",
"gD 	c #2F2103",
"hD 	c #304F06",
"iD 	c #57A326",
"jD 	c #62C528",
"kD 	c #4BC70B",
"lD 	c #44B211",
"mD 	c #96C977",
"nD 	c #DFF9C7",
"oD 	c #BFDFA7",
"pD 	c #456C3D",
"qD 	c #222403",
"rD 	c #391005",
"sD 	c #471603",
"tD 	c #8B170D",
"uD 	c #CA2C2A",
"vD 	c #E6AA9C",
"wD 	c #FCE1DC",
"xD 	c #B87775",
"yD 	c #631008",
"zD 	c #452D07",
"AD 	c #5B8110",
"BD 	c #469C11",
"CD 	c #71BE50",
"DD 	c #E1FBC5",
"ED 	c #ABC98D",
"FD 	c #323209",
"GD 	c #480908",
"HD 	c #7C0E08",
"ID 	c #C0101D",
"JD 	c #D5868D",
"KD 	c #FCE2DD",
"LD 	c #DA9992",
"MD 	c #791D0E",
"ND 	c #4D2908",
"OD 	c #598920",
"PD 	c #58B619",
"QD 	c #89C353",
"RD 	c #EEFBC8",
"SD 	c #C5E9A3",
"TD 	c #3B7F34",
"UD 	c #25612A",
"VD 	c #2E5733",
"WD 	c #474234",
"XD 	c #57423C",
"YD 	c #534139",
"ZD 	c #59453D",
"`D 	c #593D37",
" E 	c #482724",
".E 	c #380B0A",
"+E 	c #360203",
"@E 	c #360102",
"#E 	c #350102",
"$E 	c #340001",
"%E 	c #360000",
"&E 	c #370000",
"*E 	c #380001",
"=E 	c #390000",
"-E 	c #3A0000",
";E 	c #3C0000",
">E 	c #3D0000",
",E 	c #3E0001",
"'E 	c #420101",
")E 	c #430202",
"!E 	c #460203",
"~E 	c #4D0105",
"{E 	c #570308",
"]E 	c #680209",
"^E 	c #82070A",
"/E 	c #D88161",
"(E 	c #FDC493",
"_E 	c #CB4D3A",
":E 	c #DF3F45",
"<E 	c #B41E22",
"[E 	c #D53E32",
"}E 	c #FCD4CA",
"|E 	c #E48348",
"1E 	c #C43336",
"2E 	c #9F232A",
"3E 	c #851119",
"4E 	c #8D161A",
"5E 	c #9B1A1F",
"6E 	c #A11922",
"7E 	c #A11722",
"8E 	c #A51725",
"9E 	c #A61726",
"0E 	c #A11A27",
"aE 	c #9F1B27",
"bE 	c #A01D27",
"cE 	c #A01E28",
"dE 	c #A11F29",
"eE 	c #A41D2A",
"fE 	c #A21B28",
"gE 	c #A31D29",
"hE 	c #A11C27",
"iE 	c #9D1A24",
"jE 	c #91171B",
"kE 	c #861317",
"lE 	c #8E0A12",
"mE 	c #B8252D",
"nE 	c #F1B6A0",
"oE 	c #F2C3B4",
"pE 	c #961D21",
"qE 	c #6C1017",
"rE 	c #6C1C23",
"sE 	c #580D13",
"tE 	c #52080F",
"uE 	c #4C0C15",
"vE 	c #2E0407",
"wE 	c #2E0B0A",
"xE 	c #351918",
"yE 	c #492F30",
"zE 	c #392E30",
"AE 	c #2C1D1E",
"BE 	c #1A0B12",
"CE 	c #2A1518",
"DE 	c #23181A",
"EE 	c #2C1E1D",
"FE 	c #281818",
"GE 	c #3E3333",
"HE 	c #0E0305",
"IE 	c #3A171A",
"JE 	c #381416",
"KE 	c #4C282A",
"LE 	c #2C070A",
"ME 	c #260203",
"NE 	c #3D0A0E",
"OE 	c #490910",
"PE 	c #531416",
"QE 	c #632021",
"RE 	c #670F14",
"SE 	c #891625",
"TE 	c #B04037",
"UE 	c #FCDBCD",
"VE 	c #D8813A",
"WE 	c #A52021",
"XE 	c #9E232A",
"YE 	c #8F181D",
"ZE 	c #9A151D",
"`E 	c #9F141D",
" F 	c #9E171C",
".F 	c #A3171E",
"+F 	c #A71922",
"@F 	c #AC1925",
"#F 	c #AD1725",
"$F 	c #A81823",
"%F 	c #A41B22",
"&F 	c #A51D24",
"*F 	c #A71E25",
"=F 	c #A82027",
"-F 	c #A82029",
";F 	c #A72229",
">F 	c #A7252A",
",F 	c #AB262A",
"'F 	c #AC2125",
")F 	c #9E1E1F",
"!F 	c #A31922",
"~F 	c #EAA175",
"{F 	c #F8BAA5",
"]F 	c #D93937",
"^F 	c #E53F4B",
"/F 	c #B71E21",
"(F 	c #D96E4C",
"_F 	c #FFE6D5",
":F 	c #D56748",
"<F 	c #A11924",
"[F 	c #730911",
"}F 	c #4B0104",
"|F 	c #3C0103",
"1F 	c #3C0204",
"2F 	c #420C08",
"3F 	c #53281E",
"4F 	c #523524",
"5F 	c #42361A",
"6F 	c #40401A",
"7F 	c #3B5018",
"8F 	c #3E6719",
"9F 	c #497F1D",
"0F 	c #74B24C",
"aF 	c #BFEA99",
"bF 	c #EFFBD7",
"cF 	c #F8FCE3",
"dF 	c #E2F7B5",
"eF 	c #B5EA7F",
"fF 	c #8DD24A",
"gF 	c #83D52D",
"hF 	c #8FE638",
"iF 	c #9BF645",
"jF 	c #96EC54",
"kF 	c #84D03F",
"lF 	c #69A722",
"mF 	c #4D7715",
"nF 	c #394E09",
"oF 	c #313401",
"pF 	c #312B04",
"qF 	c #342508",
"rF 	c #372307",
"sF 	c #351F02",
"tF 	c #321F01",
"uF 	c #311E03",
"vF 	c #2F1C02",
"wF 	c #2F1C03",
"xF 	c #2F1B04",
"yF 	c #2F1A04",
"zF 	c #2F1D04",
"AF 	c #302003",
"BF 	c #302103",
"CF 	c #2E2402",
"DF 	c #2E2504",
"EF 	c #302709",
"FF 	c #2E2B0A",
"GF 	c #2B3206",
"HF 	c #314C06",
"IF 	c #518122",
"JF 	c #6EB534",
"KF 	c #82E046",
"LF 	c #7DEC41",
"MF 	c #67DB29",
"NF 	c #5CD60A",
"OF 	c #70D824",
"PF 	c #A9E06F",
"QF 	c #DFF2B7",
"RF 	c #EFFDE3",
"SF 	c #DAF5D8",
"TF 	c #9ABB87",
"UF 	c #40651A",
"VF 	c #233403",
"WF 	c #2B1A06",
"XF 	c #35130D",
"YF 	c #510E04",
"ZF 	c #6E0A04",
"`F 	c #970E1A",
" G 	c #CA6772",
".G 	c #F7C2D5",
"+G 	c #FEDDEA",
"@G 	c #E6B5AF",
"#G 	c #C16263",
"$G 	c #A91924",
"%G 	c #93050A",
"&G 	c #760305",
"*G 	c #550206",
"=G 	c #460302",
"-G 	c #3B0404",
";G 	c #390804",
">G 	c #391001",
",G 	c #331A10",
"'G 	c #2A2B08",
")G 	c #407814",
"!G 	c #5AB523",
"~G 	c #56C021",
"{G 	c #46B81A",
"]G 	c #69B94A",
"^G 	c #D0ECB6",
"/G 	c #D2EABB",
"(G 	c #638B59",
"_G 	c #212102",
":G 	c #271503",
"<G 	c #4B0E07",
"[G 	c #8E1106",
"}G 	c #BB251F",
"|G 	c #ECA399",
"1G 	c #FAD8CF",
"2G 	c #AB5960",
"3G 	c #550F0B",
"4G 	c #3E3E05",
"5G 	c #3B8616",
"6G 	c #419B0B",
"7G 	c #96CE72",
"8G 	c #E0F8BA",
"9G 	c #748F4B",
"0G 	c #2A1B04",
"aG 	c #3E0B05",
"bG 	c #780C08",
"cG 	c #A91014",
"dG 	c #D58E93",
"eG 	c #FCD8D7",
"fG 	c #C76D66",
"gG 	c #651D0B",
"hG 	c #3D4807",
"iG 	c #5BA428",
"jG 	c #51B11C",
"kG 	c #C0E593",
"lG 	c #ECFED3",
"mG 	c #8FBD7E",
"nG 	c #146724",
"oG 	c #206538",
"pG 	c #306443",
"qG 	c #2D5F44",
"rG 	c #2B5F44",
"sG 	c #305E43",
"tG 	c #32563E",
"uG 	c #3D4838",
"vG 	c #453A32",
"wG 	c #331A18",
"xG 	c #290305",
"yG 	c #280002",
"zG 	c #290001",
"AG 	c #290000",
"BG 	c #2D0001",
"CG 	c #2D0000",
"DG 	c #2F0001",
"EG 	c #310001",
"FG 	c #310000",
"GG 	c #320100",
"HG 	c #400002",
"IG 	c #4B0206",
"JG 	c #5F010A",
"KG 	c #7E090C",
"LG 	c #D78360",
"MG 	c #FED1B6",
"NG 	c #CC4D38",
"OG 	c #DC3D43",
"PG 	c #AF1D1F",
"QG 	c #D23E34",
"RG 	c #FDD5CC",
"SG 	c #E4844A",
"TG 	c #C33235",
"UG 	c #A1262E",
"VG 	c #89131E",
"WG 	c #96171D",
"XG 	c #9F1B21",
"YG 	c #9E1A24",
"ZG 	c #A11926",
"`G 	c #A11525",
" H 	c #A31325",
".H 	c #A11323",
"+H 	c #A21522",
"@H 	c #A21621",
"#H 	c #A51922",
"$H 	c #A61B23",
"%H 	c #A52026",
"&H 	c #A52025",
"*H 	c #A62023",
"=H 	c #A61F21",
"-H 	c #A41C1D",
";H 	c #9D161D",
">H 	c #931E25",
",H 	c #8B111A",
"'H 	c #B3242A",
")H 	c #F2B7A5",
"!H 	c #F2C6B5",
"~H 	c #901F20",
"{H 	c #6A1519",
"]H 	c #6B2227",
"^H 	c #551014",
"/H 	c #520D13",
"(H 	c #4B0E16",
"_H 	c #2C0507",
":H 	c #2B0908",
"<H 	c #371A19",
"[H 	c #381F1C",
"}H 	c #462D2E",
"|H 	c #190A0E",
"1H 	c #392E2F",
"2H 	c #1B0C13",
"3H 	c #190305",
"4H 	c #231819",
"5H 	c #25191A",
"6H 	c #4D2A2D",
"7H 	c #2B070A",
"8H 	c #3F0D11",
"9H 	c #4F1117",
"0H 	c #54171A",
"aH 	c #642324",
"bH 	c #6A1318",
"cH 	c #8C1B29",
"dH 	c #B03F32",
"eH 	c #FBDAC9",
"fH 	c #D8823B",
"gH 	c #A42325",
"hH 	c #9D2B2C",
"iH 	c #8E1E1F",
"jH 	c #AB4732",
"kH 	c #E39960",
"lH 	c #E7B4A2",
"mH 	c #E6B495",
"nH 	c #E8B595",
"oH 	c #E8B89A",
"pH 	c #E5B496",
"qH 	c #E5AF95",
"rH 	c #E8AB92",
"sH 	c #E5AC93",
"tH 	c #E4AA92",
"uH 	c #E4AB91",
"vH 	c #E5AE96",
"wH 	c #EAB195",
"xH 	c #EAB192",
"yH 	c #E79F7F",
"zH 	c #B83934",
"AH 	c #A12122",
"BH 	c #A61C29",
"CH 	c #E9A080",
"DH 	c #F9B48D",
"EH 	c #DD373A",
"FH 	c #E53D4B",
"GH 	c #BD1F23",
"HH 	c #DB714E",
"IH 	c #FFE6D3",
"JH 	c #D76A47",
"KH 	c #A71B27",
"LH 	c #6E0B11",
"MH 	c #480105",
"NH 	c #3D0306",
"OH 	c #40150A",
"PH 	c #583625",
"QH 	c #4B3920",
"RH 	c #393B17",
"SH 	c #3C4A18",
"TH 	c #456225",
"UH 	c #457A26",
"VH 	c #5D9931",
"WH 	c #B1DA8E",
"XH 	c #EDF9D7",
"YH 	c #F7FDE0",
"ZH 	c #E3F9BB",
"`H 	c #B9EA77",
" I 	c #84CD2D",
".I 	c #88DA24",
"+I 	c #99F03A",
"@I 	c #98F148",
"#I 	c #7FCD3C",
"$I 	c #5D9C24",
"%I 	c #3E6308",
"&I 	c #363F01",
"*I 	c #3D2704",
"=I 	c #422206",
"-I 	c #3E1F02",
";I 	c #381902",
">I 	c #351303",
",I 	c #320D03",
"'I 	c #300801",
")I 	c #2F0801",
"!I 	c #2D0801",
"~I 	c #2D0700",
"{I 	c #2C0700",
"]I 	c #2B0600",
"^I 	c #2B0700",
"/I 	c #2B0800",
"(I 	c #2C0801",
"_I 	c #2D0901",
":I 	c #2F0D03",
"<I 	c #2F1303",
"[I 	c #2C1901",
"}I 	c #2B2304",
"|I 	c #2C2906",
"1I 	c #2B2F03",
"2I 	c #284304",
"3I 	c #467D25",
"4I 	c #6BC437",
"5I 	c #7FE63F",
"6I 	c #6ADD18",
"7I 	c #69D612",
"8I 	c #71CE23",
"9I 	c #A0CE6F",
"0I 	c #E5F3D8",
"aI 	c #CFE6B7",
"bI 	c #66934D",
"cI 	c #1E4803",
"dI 	c #29230A",
"eI 	c #291A05",
"fI 	c #471008",
"gI 	c #68090E",
"hI 	c #860710",
"iI 	c #AE2530",
"jI 	c #D37E83",
"kI 	c #F6C6D4",
"lI 	c #FEE4F0",
"mI 	c #F3C9CF",
"nI 	c #E4929A",
"oI 	c #C65056",
"pI 	c #9E1114",
"qI 	c #820205",
"rI 	c #5F0102",
"sI 	c #450209",
"tI 	c #390208",
"uI 	c #330F01",
"vI 	c #381703",
"wI 	c #2D1E08",
"xI 	c #1E3B04",
"yI 	c #448A20",
"zI 	c #5BBC2E",
"AI 	c #49B919",
"BI 	c #4AA71E",
"CI 	c #A9DC87",
"DI 	c #DFF7CA",
"EI 	c #77966F",
"FI 	c #182803",
"GI 	c #1F1B01",
"HI 	c #410E03",
"II 	c #8D0F0D",
"JI 	c #C22A21",
"KI 	c #F1B0B0",
"LI 	c #F3D1D0",
"MI 	c #7F4239",
"NI 	c #431507",
"OI 	c #2D4C0C",
"PI 	c #449409",
"QI 	c #44A115",
"RI 	c #B9E391",
"SI 	c #C2E099",
"TI 	c #31530F",
"UI 	c #281404",
"VI 	c #400609",
"WI 	c #880614",
"XI 	c #B2171D",
"YI 	c #E69EAA",
"ZI 	c #F8C9C6",
"`I 	c #9D392D",
" J 	c #4C2D07",
".J 	c #407713",
"+J 	c #47B61E",
"@J 	c #72BA46",
"#J 	c #EEF9DE",
"$J 	c #DAF1BE",
"%J 	c #328031",
"&J 	c #165D2C",
"*J 	c #267147",
"=J 	c #1B774D",
"-J 	c #1E7450",
";J 	c #257F58",
">J 	c #1F7F53",
",J 	c #236944",
"'J 	c #2D4935",
")J 	c #291914",
"!J 	c #240202",
"~J 	c #210102",
"{J 	c #220202",
"]J 	c #230202",
"^J 	c #220102",
"/J 	c #230102",
"(J 	c #240002",
"_J 	c #250000",
":J 	c #270001",
"<J 	c #2B0102",
"[J 	c #2A0000",
"}J 	c #2E0100",
"|J 	c #450104",
"1J 	c #5E020B",
"2J 	c #7D0C10",
"3J 	c #D57F59",
"4J 	c #FED3B5",
"5J 	c #D1513B",
"6J 	c #DA3E43",
"7J 	c #AF1F21",
"8J 	c #D24139",
"9J 	c #FDC8B1",
"0J 	c #E3864D",
"aJ 	c #C03434",
"bJ 	c #A42B33",
"cJ 	c #901B24",
"dJ 	c #A9312B",
"eJ 	c #E58A45",
"fJ 	c #E49D69",
"gJ 	c #E9AF94",
"hJ 	c #E49E74",
"iJ 	c #EAA581",
"jJ 	c #E8AF97",
"kJ 	c #E8AF8F",
"lJ 	c #E7B096",
"mJ 	c #E3AD91",
"nJ 	c #E4AD91",
"oJ 	c #E3AC8E",
"pJ 	c #E3AE8E",
"qJ 	c #E3AF98",
"rJ 	c #E8A790",
"sJ 	c #E18C4F",
"tJ 	c #B6472D",
"uJ 	c #9C232B",
"vJ 	c #97212A",
"wJ 	c #B2282C",
"xJ 	c #F2BAA9",
"yJ 	c #F1C6B3",
"zJ 	c #912122",
"AJ 	c #6C191D",
"BJ 	c #722B31",
"CJ 	c #57171A",
"DJ 	c #500F13",
"EJ 	c #4C1219",
"FJ 	c #2A0508",
"GJ 	c #2A0A09",
"HJ 	c #4B2628",
"IJ 	c #361A1A",
"JJ 	c #39211E",
"KJ 	c #462C2D",
"LJ 	c #180A0D",
"MJ 	c #261A1C",
"NJ 	c #2B1D1E",
"OJ 	c #291E1E",
"PJ 	c #0C0105",
"QJ 	c #1B0D14",
"RJ 	c #100A0D",
"SJ 	c #2C1519",
"TJ 	c #201415",
"UJ 	c #231717",
"VJ 	c #28191A",
"WJ 	c #0F0305",
"XJ 	c #3C191B",
"YJ 	c #391518",
"ZJ 	c #4B272D",
"`J 	c #2C070D",
" K 	c #3F0D12",
".K 	c #571E20",
"+K 	c #652728",
"@K 	c #6A1419",
"#K 	c #8F1C2A",
"$K 	c #B13F37",
"%K 	c #FBD7C6",
"&K 	c #D7833B",
"*K 	c #A1262C",
"=K 	c #A03131",
"-K 	c #951E24",
";K 	c #BD5F3C",
">K 	c #F7BF7A",
",K 	c #F2C8B0",
"'K 	c #F6BA97",
")K 	c #F7C0AC",
"!K 	c #F7C1AF",
"~K 	c #F7BDA1",
"{K 	c #F6BEA8",
"]K 	c #F5C2AF",
"^K 	c #F4C4AF",
"/K 	c #F2C3AE",
"(K 	c #F2C4AE",
"_K 	c #F5C0AB",
":K 	c #F3C6AB",
"<K 	c #F4B797",
"[K 	c #F6D5C1",
"}K 	c #FCDAC0",
"|K 	c #CB4E44",
"1K 	c #AB252B",
"2K 	c #B01F34",
"3K 	c #EC9D7F",
"4K 	c #FCAE73",
"5K 	c #D73A38",
"6K 	c #DE474D",
"7K 	c #C02227",
"8K 	c #D97250",
"9K 	c #FFE5D8",
"0K 	c #D36C46",
"aK 	c #B11F2A",
"bK 	c #681310",
"cK 	c #420603",
"dK 	c #471B12",
"eK 	c #543B23",
"fK 	c #46421E",
"gK 	c #314411",
"hK 	c #345312",
"iK 	c #446919",
"jK 	c #568421",
"kK 	c #98BE69",
"lK 	c #DAF5BB",
"mK 	c #F5FDDD",
"nK 	c #EBF7C7",
"oK 	c #BBE082",
"pK 	c #84CE2F",
"qK 	c #7DD526",
"rK 	c #9AEB44",
"sK 	c #95E142",
"tK 	c #71B32D",
"uK 	c #44700F",
"vK 	c #343E02",
"wK 	c #3B2703",
"xK 	c #441904",
"yK 	c #4C1505",
"zK 	c #4E1206",
"AK 	c #450E03",
"BK 	c #390900",
"CK 	c #350302",
"DK 	c #340302",
"EK 	c #330302",
"FK 	c #320204",
"GK 	c #350104",
"HK 	c #2E0304",
"IK 	c #2D0102",
"JK 	c #300101",
"KK 	c #2E0300",
"LK 	c #2D0501",
"MK 	c #2D0701",
"NK 	c #2D0B00",
"OK 	c #2D0F00",
"PK 	c #2C1500",
"QK 	c #2E1C00",
"RK 	c #2F2301",
"SK 	c #233302",
"TK 	c #3C7016",
"UK 	c #74CA39",
"VK 	c #7DE339",
"WK 	c #68D317",
"XK 	c #6DD612",
"YK 	c #6EBF30",
"ZK 	c #B7E194",
"`K 	c #E7FBCA",
" L 	c #E8F5CF",
".L 	c #92B077",
"+L 	c #2C4710",
"@L 	c #2C210C",
"#L 	c #301605",
"$L 	c #351301",
"%L 	c #4C0B06",
"&L 	c #73070E",
"*L 	c #9A0216",
"=L 	c #A8202B",
"-L 	c #CC6B74",
";L 	c #EDAEB8",
">L 	c #FBDFDF",
",L 	c #FEE8E3",
"'L 	c #F7CCC5",
")L 	c #D58B95",
"!L 	c #B03A46",
"~L 	c #920509",
"{L 	c #660102",
"]L 	c #480107",
"^L 	c #390501",
"/L 	c #2B0F05",
"(L 	c #291709",
"_L 	c #212601",
":L 	c #33641B",
"<L 	c #54A730",
"[L 	c #41A610",
"}L 	c #409B08",
"|L 	c #8BC569",
"1L 	c #D1F2B8",
"2L 	c #70905F",
"3L 	c #152202",
"4L 	c #1B1301",
"5L 	c #4A0A01",
"6L 	c #91100A",
"7L 	c #D1383E",
"8L 	c #F8C5BC",
"9L 	c #DCAEA3",
"0L 	c #650F0D",
"aL 	c #2E1E03",
"bL 	c #2C6603",
"cL 	c #39A110",
"dL 	c #62A141",
"eL 	c #CCF6A2",
"fL 	c #7CA65A",
"gL 	c #232203",
"hL 	c #230B03",
"iL 	c #480604",
"jL 	c #8C0610",
"kL 	c #B62E3A",
"lL 	c #F4C3C5",
"mL 	c #E0A396",
"nL 	c #71280F",
"oL 	c #293E02",
"pL 	c #4CAB25",
"qL 	c #3DAA0E",
"rL 	c #C1DD9B",
"sL 	c #F5FCD7",
"tL 	c #7AB86F",
"uL 	c #0E672B",
"vL 	c #1A6839",
"wL 	c #088955",
"xL 	c #27A67E",
"yL 	c #29AE89",
"zL 	c #0C976A",
"AL 	c #167E53",
"BL 	c #296547",
"CL 	c #2D4330",
"DL 	c #35291E",
"EL 	c #270F0D",
"FL 	c #1E0202",
"GL 	c #1D0302",
"HL 	c #1F0302",
"IL 	c #1F0101",
"JL 	c #220001",
"KL 	c #240101",
"LL 	c #250101",
"ML 	c #260001",
"NL 	c #290102",
"OL 	c #2C0002",
"PL 	c #2D0203",
"QL 	c #300303",
"RL 	c #360101",
"SL 	c #430203",
"TL 	c #560309",
"UL 	c #790B13",
"VL 	c #D67E58",
"WL 	c #FDE1D0",
"XL 	c #D75543",
"YL 	c #D94245",
"ZL 	c #B52326",
"`L 	c #D0443B",
" M 	c #FCD3C7",
".M 	c #E49177",
"+M 	c #C63436",
"@M 	c #AD2D34",
"#M 	c #961F21",
"$M 	c #BC4836",
"%M 	c #FBC9A7",
"&M 	c #F7C5AB",
"*M 	c #F6C9B5",
"=M 	c #F7C4AD",
"-M 	c #F9C9AD",
";M 	c #F8D1BC",
">M 	c #F6CBB7",
",M 	c #F4CAB6",
"'M 	c #F5CCB8",
")M 	c #F3C8B2",
"!M 	c #F8C8AC",
"~M 	c #F6CBAD",
"{M 	c #F6CDB9",
"]M 	c #F9D2AD",
"^M 	c #CD763A",
"/M 	c #AA2633",
"(M 	c #A1252E",
"_M 	c #BA292E",
":M 	c #F4BDAC",
"<M 	c #F0C4B3",
"[M 	c #952325",
"}M 	c #6D191F",
"|M 	c #742D35",
"1M 	c #5A191E",
"2M 	c #521014",
"3M 	c #4D131B",
"4M 	c #290408",
"5M 	c #28090B",
"6M 	c #472529",
"7M 	c #321718",
"8M 	c #452D2E",
"9M 	c #180B0B",
"0M 	c #090202",
"aM 	c #362B2D",
"bM 	c #24181A",
"cM 	c #271A1C",
"dM 	c #281D1E",
"eM 	c #1D1417",
"fM 	c #0C0206",
"gM 	c #1C0F16",
"hM 	c #2B1418",
"iM 	c #190205",
"jM 	c #2A1A1B",
"kM 	c #100306",
"lM 	c #472C30",
"mM 	c #3B191A",
"nM 	c #381417",
"oM 	c #4A252C",
"pM 	c #4F141A",
"qM 	c #5B2124",
"rM 	c #692B2C",
"sM 	c #6C161B",
"tM 	c #B13F36",
"uM 	c #FBD7C5",
"vM 	c #DC863C",
"wM 	c #A3272E",
"xM 	c #A0373A",
"yM 	c #92252A",
"zM 	c #C36446",
"AM 	c #F9B653",
"BM 	c #D05E38",
"CM 	c #DA3A32",
"DM 	c #D43830",
"EM 	c #D4352F",
"FM 	c #D6302B",
"GM 	c #D52E2B",
"HM 	c #D32E2D",
"IM 	c #D32F2D",
"JM 	c #D22F2D",
"KM 	c #D12E2C",
"LM 	c #D12C2F",
"MM 	c #CE342A",
"NM 	c #D03033",
"OM 	c #DE9583",
"PM 	c #FDD5BC",
"QM 	c #D04D45",
"RM 	c #B02A2F",
"SM 	c #B11E33",
"TM 	c #EB9D77",
"UM 	c #FCB67B",
"VM 	c #D0433C",
"WM 	c #E85559",
"XM 	c #DD453F",
"YM 	c #DF7A5E",
"ZM 	c #FFE5D4",
"`M 	c #D36A46",
" N 	c #B5252E",
".N 	c #8A362F",
"+N 	c #5C2E1B",
"@N 	c #58452D",
"#N 	c #444220",
"$N 	c #304A03",
"%N 	c #345F1A",
"&N 	c #3D721B",
"*N 	c #6CA03D",
"=N 	c #C9E39F",
"-N 	c #FAF8E0",
";N 	c #FAF8E3",
">N 	c #CCEE91",
",N 	c #86D22C",
"'N 	c #78D118",
")N 	c #93E93D",
"!N 	c #99DF4F",
"~N 	c #6EA12E",
"{N 	c #425C09",
"]N 	c #3B3602",
"^N 	c #452106",
"/N 	c #4D140C",
"(N 	c #500F0F",
"_N 	c #50090A",
":N 	c #460503",
"<N 	c #3B0300",
"[N 	c #360201",
"}N 	c #390106",
"|N 	c #3A0206",
"1N 	c #3B0203",
"2N 	c #3C0202",
"3N 	c #3D0202",
"4N 	c #3B0003",
"5N 	c #3A0103",
"6N 	c #3C0105",
"7N 	c #3C0104",
"8N 	c #3B0103",
"9N 	c #390002",
"0N 	c #350001",
"aN 	c #2F0100",
"bN 	c #290200",
"cN 	c #290501",
"dN 	c #2B0702",
"eN 	c #2C0802",
"fN 	c #2B0901",
"gN 	c #2D0C02",
"hN 	c #2F1403",
"iN 	c #2E1D0A",
"jN 	c #273308",
"kN 	c #467F21",
"lN 	c #72C93A",
"mN 	c #6BDA32",
"nN 	c #67D925",
"oN 	c #6CD417",
"pN 	c #8BCF50",
"qN 	c #D6F3B1",
"rN 	c #F1FAD2",
"sN 	c #B7D39E",
"tN 	c #485A2C",
"uN 	c #2B2206",
"vN 	c #2F1805",
"wN 	c #350C06",
"xN 	c #340C05",
"yN 	c #510407",
"zN 	c #790110",
"AN 	c #8A0311",
"BN 	c #9C0A14",
"CN 	c #BD3A40",
"DN 	c #D87C7F",
"EN 	c #EEB8B4",
"FN 	c #FADADE",
"GN 	c #F8DAD5",
"HN 	c #E0A6A1",
"IN 	c #AF424A",
"JN 	c #77050B",
"KN 	c #520303",
"LN 	c #3F0203",
"MN 	c #320205",
"NN 	c #2B0E0A",
"ON 	c #201A08",
"PN 	c #1E3E03",
"QN 	c #44891D",
"RN 	c #3E9F13",
"SN 	c #3B9D0B",
"TN 	c #75B750",
"UN 	c #BCE996",
"VN 	c #628953",
"WN 	c #121D05",
"XN 	c #1F0D02",
"YN 	c #430B03",
"ZN 	c #9D0A09",
"`N 	c #DF5B60",
" O 	c #FBDDD6",
".O 	c #B5746D",
"+O 	c #361601",
"@O 	c #1A2A05",
"#O 	c #338116",
"$O 	c #288D12",
"%O 	c #96D178",
"&O 	c #B9E7A0",
"*O 	c #31571B",
"=O 	c #211106",
"-O 	c #290701",
";O 	c #57060B",
">O 	c #9A0919",
",O 	c #C7726E",
"'O 	c #FCD6CE",
")O 	c #AC5E57",
"!O 	c #332C03",
"~O 	c #3B7510",
"{O 	c #4BB31E",
"]O 	c #6DB435",
"^O 	c #E3F9C5",
"/O 	c #C5E6B0",
"(O 	c #19782E",
"_O 	c #0C8755",
":O 	c #61DFC3",
"<O 	c #A0FCEF",
"[O 	c #AEFDF6",
"}O 	c #74E3CF",
"|O 	c #189C7C",
"1O 	c #1B6E50",
"2O 	c #1F5430",
"3O 	c #2E3826",
"4O 	c #2A261F",
"5O 	c #4C3D38",
"6O 	c #5C4945",
"7O 	c #60514D",
"8O 	c #635652",
"9O 	c #635451",
"0O 	c #64544E",
"aO 	c #655344",
"bO 	c #63503F",
"cO 	c #614B33",
"dO 	c #614846",
"eO 	c #654A37",
"fO 	c #634740",
"gO 	c #654835",
"hO 	c #674740",
"iO 	c #664639",
"jO 	c #67423F",
"kO 	c #673F38",
"lO 	c #683C31",
"mO 	c #571218",
"nO 	c #810618",
"oO 	c #D58150",
"pO 	c #FEDFC7",
"qO 	c #DF5843",
"rO 	c #EF5856",
"sO 	c #D8483A",
"tO 	c #D6453C",
"uO 	c #FDC6B3",
"vO 	c #E68441",
"wO 	c #C73637",
"xO 	c #B02F35",
"yO 	c #982124",
"zO 	c #C14D3A",
"AO 	c #FCD4C2",
"BO 	c #DC7955",
"CO 	c #CD312B",
"DO 	c #C9322D",
"EO 	c #CC2B27",
"FO 	c #CA2B26",
"GO 	c #CE2D2A",
"HO 	c #D02E2B",
"IO 	c #D2302D",
"JO 	c #D02E2C",
"KO 	c #C8352F",
"LO 	c #D72B2C",
"MO 	c #D82B27",
"NO 	c #D57466",
"OO 	c #FFE7D5",
"PO 	c #CC7738",
"QO 	c #AE2835",
"RO 	c #A62630",
"SO 	c #C12E32",
"TO 	c #F7C0AE",
"UO 	c #F1C5B3",
"VO 	c #982728",
"WO 	c #701C22",
"XO 	c #773038",
"YO 	c #521115",
"ZO 	c #280408",
"`O 	c #472528",
" P 	c #35201D",
".P 	c #462E2E",
"+P 	c #180B0C",
"@P 	c #090102",
"#P 	c #281A1D",
"$P 	c #271C1E",
"%P 	c #1C1417",
"&P 	c #1A0205",
"*P 	c #201516",
"=P 	c #241818",
"-P 	c #291C1C",
";P 	c #271717",
">P 	c #3D1B1C",
",P 	c #48242A",
"'P 	c #2C080E",
")P 	c #410F14",
"!P 	c #4E131A",
"~P 	c #6D2F31",
"{P 	c #691418",
"]P 	c #901E2B",
"^P 	c #B24038",
"/P 	c #FBD9C7",
"(P 	c #DE8641",
"_P 	c #A5242E",
":P 	c #AA363D",
"<P 	c #95242B",
"[P 	c #C16645",
"}P 	c #F7B550",
"|P 	c #CF512E",
"1P 	c #C21D22",
"2P 	c #A81518",
"3P 	c #9B1515",
"4P 	c #9A1510",
"5P 	c #991210",
"6P 	c #971113",
"7P 	c #981113",
"8P 	c #9A1314",
"9P 	c #A21115",
"0P 	c #A7140B",
"aP 	c #B61317",
"bP 	c #D88C7C",
"cP 	c #FCD9C0",
"dP 	c #D04E42",
"eP 	c #B02D2E",
"fP 	c #B82338",
"gP 	c #EA9061",
"hP 	c #FCB56D",
"iP 	c #D53C39",
"jP 	c #F35858",
"kP 	c #F86B4A",
"lP 	c #ED8365",
"mP 	c #FFD5BB",
"nP 	c #CD6146",
"oP 	c #A12126",
"pP 	c #7A3929",
"qP 	c #715733",
"rP 	c #414919",
"sP 	c #2B490A",
"tP 	c #3B6717",
"uP 	c #43771B",
"vP 	c #8EBB66",
"wP 	c #DCF5C0",
"xP 	c #F2FCE4",
"yP 	c #E0FAB9",
"zP 	c #A8DF5D",
"AP 	c #78CA1E",
"BP 	c #88E13E",
"CP 	c #8BDB42",
"DP 	c #6AA129",
"EP 	c #3F5607",
"FP 	c #3A3001",
"GP 	c #4E1E03",
"HP 	c #551302",
"IP 	c #580B04",
"JP 	c #530904",
"KP 	c #4A0801",
"LP 	c #400301",
"MP 	c #3E0301",
"NP 	c #410201",
"OP 	c #4B0102",
"PP 	c #520003",
"QP 	c #4E0201",
"RP 	c #530101",
"SP 	c #5C0202",
"TP 	c #640102",
"UP 	c #680202",
"VP 	c #650102",
"WP 	c #660103",
"XP 	c #660203",
"YP 	c #6A0003",
"ZP 	c #700005",
"`P 	c #6A0104",
" Q 	c #630304",
".Q 	c #5E0503",
"+Q 	c #560506",
"@Q 	c #510206",
"#Q 	c #4E0204",
"$Q 	c #440001",
"%Q 	c #3A0100",
"&Q 	c #340101",
"*Q 	c #320202",
"=Q 	c #2F0203",
"-Q 	c #350902",
";Q 	c #381304",
">Q 	c #2B2003",
",Q 	c #1C3505",
"'Q 	c #4D8F25",
")Q 	c #83DB35",
"!Q 	c #6BD91A",
"~Q 	c #5CCF18",
"{Q 	c #5CC025",
"]Q 	c #B7DE93",
"^Q 	c #F4FBE2",
"/Q 	c #D5E7AD",
"(Q 	c #5B7139",
"_Q 	c #2B290E",
":Q 	c #2F1402",
"<Q 	c #320A04",
"[Q 	c #350506",
"}Q 	c #3F0305",
"|Q 	c #56010C",
"1Q 	c #67020B",
"2Q 	c #750803",
"3Q 	c #880702",
"4Q 	c #9E0E14",
"5Q 	c #C24040",
"6Q 	c #E89496",
"7Q 	c #FBDAE1",
"8Q 	c #F8DEDC",
"9Q 	c #CE8A89",
"0Q 	c #8E131D",
"aQ 	c #400501",
"bQ 	c #230501",
"cQ 	c #24090A",
"dQ 	c #221204",
"eQ 	c #162C01",
"fQ 	c #2F7911",
"gQ 	c #3F9817",
"hQ 	c #369702",
"iQ 	c #5EA23D",
"jQ 	c #A9E692",
"kQ 	c #52763F",
"lQ 	c #161902",
"mQ 	c #160E02",
"nQ 	c #4D0703",
"oQ 	c #A61B1F",
"pQ 	c #E68891",
"qQ 	c #E8AAB5",
"rQ 	c #4A1607",
"sQ 	c #231803",
"tQ 	c #124304",
"uQ 	c #27910E",
"vQ 	c #3F9028",
"wQ 	c #C0F49D",
"xQ 	c #6E9F4E",
"yQ 	c #1E1E03",
"zQ 	c #310306",
"AQ 	c #76090F",
"BQ 	c #A5161D",
"CQ 	c #EDB6BA",
"DQ 	c #E2AFA3",
"EQ 	c #55250F",
"FQ 	c #253B02",
"GQ 	c #4CA61E",
"HQ 	c #3DAA0F",
"IQ 	c #B6E883",
"JQ 	c #ECFBC6",
"KQ 	c #5F9E4B",
"LQ 	c #25C295",
"MQ 	c #6AFCF4",
"NQ 	c #B1FBF9",
"OQ 	c #E9FBFA",
"PQ 	c #DEF9FD",
"QQ 	c #63D0C2",
"RQ 	c #10765B",
"SQ 	c #24583E",
"TQ 	c #415945",
"UQ 	c #46563D",
"VQ 	c #40442E",
"WQ 	c #3A3022",
"XQ 	c #44312F",
"YQ 	c #46302E",
"ZQ 	c #48312E",
"`Q 	c #4A3227",
" R 	c #4A302A",
".R 	c #4D2F2A",
"+R 	c #4D2C2E",
"@R 	c #52302D",
"#R 	c #502C2C",
"$R 	c #512C2A",
"%R 	c #502E2B",
"&R 	c #512D2B",
"*R 	c #542C2C",
"=R 	c #582E2B",
"-R 	c #613731",
";R 	c #561319",
">R 	c #7E0216",
",R 	c #D07A46",
"'R 	c #FDCCA1",
")R 	c #D94F3B",
"!R 	c #E5514C",
"~R 	c #E5563D",
"{R 	c #D44138",
"]R 	c #FBB998",
"^R 	c #E88440",
"/R 	c #C83738",
"(R 	c #B13138",
"_R 	c #951F21",
":R 	c #BF4B39",
"<R 	c #FCC090",
"[R 	c #E27644",
"}R 	c #C2091D",
"|R 	c #AF111E",
"1R 	c #B10E1A",
"2R 	c #A51017",
"3R 	c #A11319",
"4R 	c #A1131A",
"5R 	c #A1141A",
"6R 	c #A4151B",
"7R 	c #AC1619",
"8R 	c #BC181D",
"9R 	c #C71F1F",
"0R 	c #D76B47",
"aR 	c #FFE2D5",
"bR 	c #CF7A4F",
"cR 	c #B52C37",
"dR 	c #AB2631",
"eR 	c #C52F35",
"fR 	c #F6BEAC",
"gR 	c #F2C7B5",
"hR 	c #992829",
"iR 	c #711D24",
"jR 	c #762F37",
"kR 	c #5E1D22",
"lR 	c #561418",
"mR 	c #280407",
"nR 	c #280A0C",
"oR 	c #49272B",
"pR 	c #351A1B",
"qR 	c #341E1C",
"rR 	c #190C0C",
"sR 	c #2A1C1F",
"tR 	c #1B1215",
"uR 	c #1D1017",
"vR 	c #261718",
"wR 	c #3B191B",
"xR 	c #3A1619",
"yR 	c #472229",
"zR 	c #2B070C",
"AR 	c #270203",
"BR 	c #3D0B10",
"CR 	c #5A2123",
"DR 	c #6D2F30",
"ER 	c #6B151A",
"FR 	c #901D2A",
"GR 	c #B03E37",
"HR 	c #DE8742",
"IR 	c #A5262E",
"JR 	c #A73D3C",
"KR 	c #942428",
"LR 	c #C46946",
"MR 	c #F7B453",
"NR 	c #D15131",
"OR 	c #C1212D",
"PR 	c #9D1320",
"QR 	c #8D0F1A",
"RR 	c #8A0F10",
"SR 	c #8F0D10",
"TR 	c #910C13",
"UR 	c #960F16",
"VR 	c #980E16",
"WR 	c #980D1A",
"XR 	c #9A110E",
"YR 	c #AD0F15",
"ZR 	c #D68779",
"`R 	c #FDD5B9",
" S 	c #D04A3E",
".S 	c #AC2F2D",
"+S 	c #B61F36",
"@S 	c #E88045",
"#S 	c #FDB25F",
"$S 	c #C82D2B",
"%S 	c #CD283C",
"&S 	c #D4383E",
"*S 	c #D74845",
"=S 	c #F08748",
"-S 	c #BC433B",
";S 	c #8D2A29",
">S 	c #63452A",
",S 	c #4A471A",
"'S 	c #30550B",
")S 	c #356611",
"!S 	c #507D2F",
"~S 	c #B7D88C",
"{S 	c #ECFDC0",
"]S 	c #F2FEC8",
"^S 	c #CBF28E",
"/S 	c #86D63B",
"(S 	c #7AD731",
"_S 	c #91E24C",
":S 	c #73AB34",
"<S 	c #445D07",
"[S 	c #432F0A",
"}S 	c #521B0D",
"|S 	c #5E1407",
"1S 	c #640F05",
"2S 	c #610B05",
"3S 	c #590503",
"4S 	c #570201",
"5S 	c #5A0201",
"6S 	c #620103",
"7S 	c #710105",
"8S 	c #800109",
"9S 	c #88030C",
"0S 	c #8D070F",
"aS 	c #990617",
"bS 	c #9B0F1D",
"cS 	c #9C1B26",
"dS 	c #9C242C",
"eS 	c #A02D34",
"fS 	c #A6343B",
"gS 	c #AB3940",
"hS 	c #AD3D44",
"iS 	c #AD3C43",
"jS 	c #A9373F",
"kS 	c #A43038",
"lS 	c #A02731",
"mS 	c #991B27",
"nS 	c #930F1D",
"oS 	c #880914",
"pS 	c #84070F",
"qS 	c #81020A",
"rS 	c #7C0208",
"sS 	c #700204",
"tS 	c #5A0001",
"uS 	c #4F0000",
"vS 	c #420001",
"wS 	c #390001",
"xS 	c #310203",
"yS 	c #360601",
"zS 	c #310D03",
"AS 	c #2D150F",
"BS 	c #2B1C14",
"CS 	c #2F5805",
"DS 	c #63B92C",
"ES 	c #68CE2B",
"FS 	c #56C50D",
"GS 	c #52C10C",
"HS 	c #9AC970",
"IS 	c #E9F5CB",
"JS 	c #DDEDB9",
"KS 	c #718C52",
"LS 	c #203403",
"MS 	c #2B1501",
"NS 	c #2E0B05",
"OS 	c #300604",
"PS 	c #380201",
"QS 	c #3C0101",
"RS 	c #460101",
"SS 	c #580205",
"TS 	c #6B020E",
"US 	c #7C040E",
"VS 	c #9A0511",
"WS 	c #BE3C44",
"XS 	c #E9A5A7",
"YS 	c #FEDBE1",
"ZS 	c #E4ACB6",
"`S 	c #8F363E",
" T 	c #670203",
".T 	c #440400",
"+T 	c #2A0102",
"@T 	c #1D0205",
"#T 	c #191005",
"$T 	c #151B04",
"%T 	c #28670B",
"&T 	c #338013",
"*T 	c #2E870D",
"=T 	c #4F9D2F",
"-T 	c #8CD870",
";T 	c #316124",
">T 	c #121101",
",T 	c #280404",
"'T 	c #550807",
")T 	c #A91122",
"!T 	c #CA5668",
"~T 	c #4E1512",
"{T 	c #1C0F01",
"]T 	c #071902",
"^T 	c #1E6511",
"/T 	c #278813",
"(T 	c #86C460",
"_T 	c #A7D97C",
":T 	c #294B0F",
"<T 	c #191008",
"[T 	c #490B05",
"}T 	c #8A0B18",
"|T 	c #CA636D",
"1T 	c #FAD4D0",
"2T 	c #915F51",
"3T 	c #232801",
"4T 	c #317513",
"5T 	c #43B21F",
"6T 	c #76C13F",
"7T 	c #E9FEB8",
"8T 	c #97CB85",
"9T 	c #18B173",
"0T 	c #14CFA4",
"aT 	c #2FD4AF",
"bT 	c #94F7E3",
"cT 	c #C5FCFE",
"dT 	c #68E1DC",
"eT 	c #0B735B",
"fT 	c #185E35",
"gT 	c #375937",
"hT 	c #3E6C35",
"iT 	c #426F37",
"jT 	c #3B562C",
"kT 	c #383524",
"lT 	c #351A19",
"mT 	c #3C1C1D",
"nT 	c #3B1A1B",
"oT 	c #3C191A",
"pT 	c #3C181A",
"qT 	c #3F1A1C",
"rT 	c #3F191A",
"sT 	c #3D1618",
"tT 	c #41171A",
"uT 	c #401618",
"vT 	c #411518",
"wT 	c #49181B",
"xT 	c #4B161A",
"yT 	c #521F20",
"zT 	c #52211F",
"AT 	c #550D14",
"BT 	c #72010F",
"CT 	c #C85D37",
"DT 	c #F99B59",
"ET 	c #C9382E",
"FT 	c #BD2E24",
"GT 	c #B92726",
"HT 	c #CE3F30",
"IT 	c #F9C4B2",
"JT 	c #E7833F",
"KT 	c #CA393B",
"LT 	c #B5343E",
"MT 	c #90191C",
"NT 	c #BE4939",
"OT 	c #FBBD8A",
"PT 	c #D77B44",
"QT 	c #A40818",
"RT 	c #9B0B1D",
"ST 	c #950C1A",
"TT 	c #930D18",
"UT 	c #960D1A",
"VT 	c #98101D",
"WT 	c #98111D",
"XT 	c #96121D",
"YT 	c #921217",
"ZT 	c #A31A17",
"`T 	c #CF6A44",
" U 	c #FFE1D6",
".U 	c #D2836F",
"+U 	c #BD323D",
"@U 	c #B02932",
"#U 	c #C32D33",
"$U 	c #F4BDAB",
"%U 	c #F2C5B3",
"&U 	c #9B292A",
"*U 	c #721E25",
"=U 	c #5D1C21",
"-U 	c #571519",
";U 	c #51171E",
">U 	c #462428",
",U 	c #35191A",
"'U 	c #331E1B",
")U 	c #180A0B",
"!U 	c #372C2D",
"~U 	c #251A1C",
"{U 	c #26181B",
"]U 	c #261B1D",
"^U 	c #1A1214",
"/U 	c #120B10",
"(U 	c #2C1618",
"_U 	c #190204",
":U 	c #1F1416",
"<U 	c #251818",
"[U 	c #251717",
"}U 	c #271818",
"|U 	c #432A2E",
"1U 	c #38191B",
"2U 	c #49262B",
"3U 	c #29080C",
"4U 	c #441014",
"5U 	c #561F22",
"6U 	c #6A2D2F",
"7U 	c #6D171D",
"8U 	c #B13C36",
"9U 	c #FACBAA",
"0U 	c #DE895F",
"aU 	c #A4282F",
"bU 	c #A2413C",
"cU 	c #932527",
"dU 	c #C86A46",
"eU 	c #FABB6A",
"fU 	c #D15435",
"gU 	c #BB292E",
"hU 	c #A01F24",
"iU 	c #9E272A",
"jU 	c #C1493C",
"kU 	c #C25040",
"lU 	c #C75445",
"mU 	c #C6543B",
"nU 	c #C75443",
"oU 	c #C75538",
"pU 	c #C9564C",
"qU 	c #C96B51",
"rU 	c #BA4F3B",
"sU 	c #D38877",
"tU 	c #FDD7B3",
"uU 	c #CC4B3D",
"vU 	c #AE2A2E",
"wU 	c #B31E33",
"xU 	c #DD7649",
"yU 	c #FECBA1",
"zU 	c #E69872",
"AU 	c #EFA27F",
"BU 	c #EE9862",
"CU 	c #EF7C50",
"DU 	c #D73B40",
"EU 	c #A62C30",
"FU 	c #73402B",
"GU 	c #4B4C21",
"HU 	c #3B4F13",
"IU 	c #31631A",
"JU 	c #588E29",
"KU 	c #C6E48C",
"LU 	c #F3FCDE",
"MU 	c #F0FCCB",
"NU 	c #BBE576",
"OU 	c #7CCE29",
"PU 	c #8EE73B",
"QU 	c #82D138",
"RU 	c #528217",
"SU 	c #414100",
"TU 	c #4B2801",
"UU 	c #5B1B04",
"VU 	c #690D09",
"WU 	c #6D040D",
"XU 	c #600406",
"YU 	c #650203",
"ZU 	c #7A030B",
"`U 	c #8B0811",
" V 	c #920E15",
".V 	c #B6353E",
"+V 	c #C85862",
"@V 	c #D58088",
"#V 	c #E2A3A6",
"$V 	c #EDB6B7",
"%V 	c #F3C1C2",
"&V 	c #F5CBCA",
"*V 	c #F5D2CF",
"=V 	c #F7DAD5",
"-V 	c #F9DFD7",
";V 	c #FBE2DA",
">V 	c #FCE2DA",
",V 	c #FCE1D9",
"'V 	c #FBDFD9",
")V 	c #F8DBD8",
"!V 	c #F7D7D5",
"~V 	c #F4D1CF",
"{V 	c #F0CCCA",
"]V 	c #ECBEBE",
"^V 	c #E4ACAD",
"/V 	c #D69394",
"(V 	c #C57174",
"_V 	c #B14A51",
":V 	c #A0232B",
"<V 	c #8F0811",
"[V 	c #7E030A",
"}V 	c #6E0105",
"|V 	c #620104",
"1V 	c #4E0107",
"2V 	c #460008",
"3V 	c #390206",
"4V 	c #2A0601",
"5V 	c #280C00",
"6V 	c #2D1701",
"7V 	c #251D0A",
"8V 	c #262D02",
"9V 	c #4F8823",
"0V 	c #68CA3D",
"aV 	c #55C118",
"bV 	c #53C70A",
"cV 	c #6DBD44",
"dV 	c #CDE7AC",
"eV 	c #EBF5CA",
"fV 	c #94AB7D",
"gV 	c #2B3C0D",
"hV 	c #1E1C05",
"iV 	c #220E04",
"jV 	c #2D0305",
"kV 	c #2F030A",
"lV 	c #2E0506",
"mV 	c #3F0101",
"nV 	c #520103",
"oV 	c #640003",
"pV 	c #830206",
"qV 	c #9C0F1B",
"rV 	c #C56470",
"sV 	c #EEC0C5",
"tV 	c #F1C7D1",
"uV 	c #AE555F",
"vV 	c #710501",
"wV 	c #490309",
"xV 	c #1A020C",
"yV 	c #150D07",
"zV 	c #101A01",
"AV 	c #225A0F",
"BV 	c #2B7D11",
"CV 	c #2C8402",
"DV 	c #3C9F28",
"EV 	c #5DAD53",
"FV 	c #11350E",
"GV 	c #100B05",
"HV 	c #290705",
"IV 	c #500803",
"JV 	c #5A0704",
"KV 	c #3C0508",
"LV 	c #160903",
"MV 	c #0D0E04",
"NV 	c #062B07",
"OV 	c #298417",
"PV 	c #3B901C",
"QV 	c #AAEC7F",
"RV 	c #568D31",
"SV 	c #0F1905",
"TV 	c #190B03",
"UV 	c #2F0A09",
"VV 	c #5D0A10",
"WV 	c #B1192E",
"XV 	c #F4BEBD",
"YV 	c #CCA68C",
"ZV 	c #2F2B03",
"`V 	c #124104",
" W 	c #42A61D",
".W 	c #44AD1B",
"+W 	c #CBF195",
"@W 	c #C7E9B5",
"#W 	c #158D3D",
"$W 	c #049B54",
"%W 	c #07BA8C",
"&W 	c #28D8B6",
"*W 	c #56F4E4",
"=W 	c #23C4BA",
"-W 	c #155D4A",
";W 	c #155A1F",
">W 	c #4E7E43",
",W 	c #9BC18D",
"'W 	c #5F9B50",
")W 	c #2F662E",
"!W 	c #3B4728",
"~W 	c #372D24",
"{W 	c #301917",
"]W 	c #371C1D",
"^W 	c #3B1D1D",
"/W 	c #3B1A1A",
"(W 	c #3B1818",
"_W 	c #3D1819",
":W 	c #3C1617",
"<W 	c #401819",
"[W 	c #421517",
"}W 	c #481519",
"|W 	c #4C161A",
"1W 	c #501A1D",
"2W 	c #4E191B",
"3W 	c #510A11",
"4W 	c #6C030C",
"5W 	c #B94231",
"6W 	c #F59372",
"7W 	c #F4AD8C",
"8W 	c #F2B299",
"9W 	c #F3B39D",
"0W 	c #F8B89F",
"aW 	c #FEC9A8",
"bW 	c #DE753D",
"cW 	c #C73636",
"dW 	c #B5353E",
"eW 	c #90151D",
"fW 	c #BF493A",
"gW 	c #FBDCCA",
"hW 	c #D97E4E",
"iW 	c #C83337",
"jW 	c #CB3F41",
"kW 	c #D04641",
"lW 	c #BC5443",
"mW 	c #BF5243",
"nW 	c #C0514B",
"oW 	c #BF5546",
"pW 	c #C45446",
"qW 	c #C74C45",
"rW 	c #AB2F30",
"sW 	c #A81D21",
"tW 	c #D36643",
"uW 	c #FEE1D0",
"vW 	c #D3836C",
"wW 	c #C0333C",
"xW 	c #B12A33",
"yW 	c #C02D33",
"zW 	c #F2B9A7",
"AW 	c #F1C4B2",
"BW 	c #9C2C2B",
"CW 	c #761F24",
"DW 	c #7A323A",
"EW 	c #5F2125",
"FW 	c #58191C",
"GW 	c #4E161D",
"HW 	c #290609",
"IW 	c #27080A",
"JW 	c #4A282A",
"KW 	c #351B1A",
"LW 	c #35201C",
"MW 	c #462E2F",
"NW 	c #352A2C",
"OW 	c #221618",
"PW 	c #26191C",
"QW 	c #1C1216",
"RW 	c #1C1017",
"SW 	c #130C14",
"TW 	c #2C1616",
"UW 	c #201318",
"VW 	c #241616",
"WW 	c #271919",
"XW 	c #432C2F",
"YW 	c #341A1C",
"ZW 	c #361317",
"`W 	c #48262A",
" X 	c #27090B",
".X 	c #280105",
"+X 	c #420B0E",
"@X 	c #4F1319",
"#X 	c #562024",
"$X 	c #682D2F",
"%X 	c #6E171E",
"&X 	c #8E1E2A",
"*X 	c #B13A30",
"=X 	c #F5B153",
"-X 	c #DE8C7F",
";X 	c #A32930",
">X 	c #A83D3E",
",X 	c #962328",
"'X 	c #C86D4C",
")X 	c #F9B652",
"!X 	c #CF5737",
"~X 	c #BD282F",
"{X 	c #9F2225",
"]X 	c #A22026",
"^X 	c #BB2B32",
"/X 	c #BD3032",
"(X 	c #C1393A",
"_X 	c #C23B37",
":X 	c #C43E3C",
"<X 	c #C03A36",
"[X 	c #C03A39",
"}X 	c #BC362E",
"|X 	c #B92727",
"1X 	c #E1835D",
"2X 	c #FDDABB",
"3X 	c #C9493D",
"4X 	c #AF2632",
"5X 	c #A71C2B",
"6X 	c #BF4C3D",
"7X 	c #EAA37E",
"8X 	c #EEB097",
"9X 	c #F2AB85",
"0X 	c #EE9C5C",
"aX 	c #E58B50",
"bX 	c #A63931",
"cX 	c #783A22",
"dX 	c #4D4518",
"eX 	c #3D5519",
"fX 	c #396411",
"gX 	c #609231",
"hX 	c #CFEAA9",
"iX 	c #F2FECC",
"jX 	c #E3FAAC",
"kX 	c #9FDB5F",
"lX 	c #76D12A",
"mX 	c #91E645",
"nX 	c #67AA29",
"oX 	c #386303",
"pX 	c #3B3700",
"qX 	c #4F2508",
"rX 	c #601307",
"sX 	c #6D0505",
"tX 	c #6F0304",
"uX 	c #7B0304",
"vX 	c #8E0512",
"wX 	c #A72734",
"xX 	c #C65C66",
"yX 	c #DD8A94",
"zX 	c #E8A9B2",
"AX 	c #F3CCCD",
"BX 	c #FDDFDC",
"CX 	c #FFE6E1",
"DX 	c #FFE3E1",
"EX 	c #FFD9DA",
"FX 	c #FCD7CC",
"GX 	c #F6C9C0",
"HX 	c #EFB7B2",
"IX 	c #ECA9A8",
"JX 	c #E89E9F",
"KX 	c #E39396",
"LX 	c #DF8E91",
"MX 	c #DD8B8E",
"NX 	c #E19599",
"OX 	c #E29FA2",
"PX 	c #E7A8A9",
"QX 	c #EBB0B0",
"RX 	c #F3B9B7",
"SX 	c #F9C6C7",
"TX 	c #FFD5D8",
"UX 	c #FFE3E4",
"VX 	c #FFE8EB",
"WX 	c #FDE5EB",
"XX 	c #F7D4DD",
"YX 	c #E9B9C4",
"ZX 	c #D998A0",
"`X 	c #B75E66",
" Y 	c #94232E",
".Y 	c #87040D",
"+Y 	c #5C0203",
"@Y 	c #4F0103",
"#Y 	c #3F0103",
"$Y 	c #320601",
"%Y 	c #2A0F02",
"&Y 	c #271809",
"*Y 	c #222908",
"=Y 	c #386917",
"-Y 	c #6DBE36",
";Y 	c #52B71C",
">Y 	c #53BD18",
",Y 	c #61B22D",
"'Y 	c #B4D691",
")Y 	c #E8FAC4",
"!Y 	c #A5C78B",
"~Y 	c #305119",
"{Y 	c #251B02",
"]Y 	c #230804",
"^Y 	c #230403",
"/Y 	c #240302",
"(Y 	c #320102",
"_Y 	c #390103",
":Y 	c #3D0001",
"<Y 	c #4E0101",
"[Y 	c #6D0103",
"}Y 	c #8D0109",
"|Y 	c #BA2A35",
"1Y 	c #EDA8B8",
"2Y 	c #F7D9DC",
"3Y 	c #AC6063",
"4Y 	c #6E050B",
"5Y 	c #430309",
"6Y 	c #1A0103",
"7Y 	c #101E05",
"8Y 	c #2B631A",
"9Y 	c #2B7014",
"0Y 	c #29730D",
"aY 	c #2A681E",
"bY 	c #163F0F",
"cY 	c #101502",
"dY 	c #141101",
"eY 	c #1B1009",
"fY 	c #1C0F15",
"gY 	c #160F10",
"hY 	c #0F0F04",
"iY 	c #0A1405",
"jY 	c #1A580C",
"kY 	c #2C8A11",
"lY 	c #79C755",
"mY 	c #84C94E",
"nY 	c #133202",
"oY 	c #0F0D03",
"pY 	c #23070B",
"qY 	c #420905",
"rY 	c #85091B",
"sY 	c #D78285",
"tY 	c #EDC0AC",
"uY 	c #503318",
"vY 	c #143505",
"wY 	c #2A750E",
"xY 	c #4CBA24",
"yY 	c #94D166",
"zY 	c #E7FCC4",
"AY 	c #4C9251",
"BY 	c #016E31",
"CY 	c #048A5E",
"DY 	c #04A279",
"EY 	c #0A9D81",
"FY 	c #03745C",
"GY 	c #10532E",
"HY 	c #16560B",
"IY 	c #9BD779",
"JY 	c #EFFED1",
"KY 	c #C9ECAF",
"LY 	c #418142",
"MY 	c #325527",
"NY 	c #353B26",
"OY 	c #32261B",
"PY 	c #301916",
"QY 	c #381A18",
"RY 	c #371918",
"SY 	c #361718",
"TY 	c #381819",
"UY 	c #3A1719",
"VY 	c #3B1616",
"WY 	c #3A1314",
"XY 	c #43181A",
"YY 	c #45161A",
"ZY 	c #48171B",
"`Y 	c #450B11",
" Z 	c #600107",
".Z 	c #A12B26",
"+Z 	c #EB8D6D",
"@Z 	c #EBB399",
"#Z 	c #F1B7A3",
"$Z 	c #F2B89C",
"%Z 	c #EDBAA6",
"&Z 	c #E99A70",
"*Z 	c #C74234",
"=Z 	c #B4282A",
"-Z 	c #A52831",
";Z 	c #8B111E",
">Z 	c #BD4839",
",Z 	c #FBDBC9",
"'Z 	c #DE774B",
")Z 	c #D8343F",
"!Z 	c #CD3841",
"~Z 	c #D3373D",
"{Z 	c #C93F3D",
"]Z 	c #D03A3B",
"^Z 	c #CD3940",
"/Z 	c #C43A3E",
"(Z 	c #C7323B",
"_Z 	c #B6333A",
":Z 	c #B33431",
"<Z 	c #A11D23",
"[Z 	c #D86652",
"}Z 	c #F9D5B9",
"|Z 	c #D57A3A",
"1Z 	c #C0323C",
"2Z 	c #B02A32",
"3Z 	c #BC2E32",
"4Z 	c #F2B59F",
"5Z 	c #F1C4B3",
"6Z 	c #9C2C28",
"7Z 	c #771C21",
"8Z 	c #7C323A",
"9Z 	c #5B2024",
"0Z 	c #521518",
"aZ 	c #4D161D",
"bZ 	c #280508",
"cZ 	c #28080A",
"dZ 	c #472627",
"eZ 	c #37221D",
"fZ 	c #472F30",
"gZ 	c #201418",
"hZ 	c #0D0206",
"iZ 	c #1B0F16",
"jZ 	c #2D1717",
"kZ 	c #1A0304",
"lZ 	c #211419",
"mZ 	c #231515",
"nZ 	c #0D0305",
"oZ 	c #412A2D",
"pZ 	c #34191B",
"qZ 	c #371418",
"rZ 	c #472428",
"sZ 	c #270A0C",
"tZ 	c #290206",
"uZ 	c #52171D",
"vZ 	c #5A2328",
"wZ 	c #692E30",
"xZ 	c #6C161D",
"yZ 	c #8F202C",
"zZ 	c #B23C35",
"AZ 	c #F5B154",
"BZ 	c #DD8D80",
"CZ 	c #A2292F",
"DZ 	c #A53C3D",
"EZ 	c #942327",
"FZ 	c #F8B44E",
"GZ 	c #CF5731",
"HZ 	c #BE2A2E",
"IZ 	c #A52528",
"JZ 	c #A61E29",
"KZ 	c #BD4C41",
"LZ 	c #CB5A3B",
"MZ 	c #CF5F3B",
"NZ 	c #CC5A33",
"OZ 	c #D06044",
"PZ 	c #D8654A",
"QZ 	c #D46752",
"RZ 	c #D85A38",
"SZ 	c #D65C45",
"TZ 	c #E49F8B",
"UZ 	c #FDD6B1",
"VZ 	c #C53F3E",
"WZ 	c #A52530",
"XZ 	c #87171E",
"YZ 	c #921619",
"ZZ 	c #961D23",
"`Z 	c #92241F",
" ` 	c #9D2125",
".` 	c #971E21",
"+` 	c #7A2C1C",
"@` 	c #684621",
"#` 	c #3E400E",
"$` 	c #3F5514",
"%` 	c #33670F",
"&` 	c #63933B",
"*` 	c #D9EFA0",
"=` 	c #F9FED7",
"-` 	c #D8F7AF",
";` 	c #90DB38",
">` 	c #7ADD27",
",` 	c #80E13D",
"'` 	c #458713",
")` 	c #334902",
"!` 	c #392C06",
"~` 	c #451802",
"{` 	c #530B04",
"]` 	c #6B0507",
"^` 	c #840204",
"/` 	c #982022",
"(` 	c #C96365",
"_` 	c #EEAEAD",
":` 	c #FDD8D4",
"<` 	c #FBEDE7",
"[` 	c #FEE7E9",
"}` 	c #F9D1DE",
"|` 	c #F2B2C1",
"1` 	c #E598A4",
"2` 	c #D57882",
"3` 	c #C3565F",
"4` 	c #B03741",
"5` 	c #B2202B",
"6` 	c #AD121F",
"7` 	c #AB0718",
"8` 	c #AD0316",
"9` 	c #AC0315",
"0` 	c #A40213",
"a` 	c #A40212",
"b` 	c #A50314",
"c` 	c #A50313",
"d` 	c #A80314",
"e` 	c #AC0314",
"f` 	c #AD0414",
"g` 	c #AD0314",
"h` 	c #B10718",
"i` 	c #B50D1A",
"j` 	c #B51B26",
"k` 	c #B4343F",
"l` 	c #BF5762",
"m` 	c #D77986",
"n` 	c #E49DA5",
"o` 	c #F3C8C9",
"p` 	c #FCE2E1",
"q` 	c #FEE5EE",
"r` 	c #F9CFE1",
"s` 	c #DBADA8",
"t` 	c #BC6166",
"u` 	c #9B1927",
"v` 	c #78030C",
"w` 	c #5C0101",
"x` 	c #450101",
"y` 	c #320406",
"z` 	c #25150B",
"A` 	c #28200A",
"B` 	c #243E06",
"C` 	c #5C9F1F",
"D` 	c #58B721",
"E` 	c #4BBA18",
"F` 	c #56C618",
"G` 	c #94C96B",
"H` 	c #E9F9BE",
"I` 	c #C9DEAA",
"J` 	c #516E3C",
"K` 	c #202600",
"L` 	c #1B1101",
"M` 	c #210309",
"N` 	c #260009",
"O` 	c #240201",
"P` 	c #260302",
"Q` 	c #310202",
"R` 	c #440202",
"S` 	c #580003",
"T` 	c #760504",
"U` 	c #A7212D",
"V` 	c #E2ACB5",
"W` 	c #F6D7DD",
"X` 	c #A14448",
"Y` 	c #63050E",
"Z` 	c #240501",
"`` 	c #0A0C02",
"  .	c #0E1305",
". .	c #0B1B05",
"+ .	c #102D0E",
"@ .	c #153713",
"# .	c #0E300F",
"$ .	c #0F2A10",
"% .	c #112813",
"& .	c #102D15",
"* .	c #082A0F",
"= .	c #072109",
"- .	c #0E1806",
"; .	c #121207",
"> .	c #0E0F05",
", .	c #0B0A08",
"' .	c #0A100B",
") .	c #042D03",
"! .	c #257C10",
"~ .	c #36901F",
"{ .	c #8FE949",
"] .	c #35650B",
"^ .	c #100F06",
"/ .	c #180C04",
"( .	c #320704",
"_ .	c #560E12",
": .	c #A62B3E",
"< .	c #F39A9B",
"[ .	c #7B3F2B",
"} .	c #142F06",
"| .	c #124402",
"1 .	c #4DA722",
"2 .	c #5FC039",
"3 .	c #E8FABC",
"4 .	c #8DC281",
"5 .	c #065823",
"6 .	c #015428",
"7 .	c #064D31",
"8 .	c #034222",
"9 .	c #00401A",
"0 .	c #11541B",
"a .	c #0E5502",
"b .	c #7ABA44",
"c .	c #EDFAC6",
"d .	c #F5FBDE",
"e .	c #6BA865",
"f .	c #356934",
"g .	c #3A4B2D",
"h .	c #323223",
"i .	c #33231E",
"j .	c #35181A",
"k .	c #361C1B",
"l .	c #351818",
"m .	c #381615",
"n .	c #3E1A1A",
"o .	c #3B1415",
"p .	c #431519",
"q .	c #3C0610",
"r .	c #4C0007",
"s .	c #75020C",
"t .	c #8A0812",
"u .	c #880F12",
"v .	c #90110F",
"w .	c #9A0F11",
"x .	c #931011",
"y .	c #970A0E",
"z .	c #9E0610",
"A .	c #8A0D12",
"B .	c #8A1820",
"C .	c #82151D",
"D .	c #BD483A",
"E .	c #FCD6C1",
"F .	c #DC8462",
"G .	c #CD5F3B",
"H .	c #CD623C",
"I .	c #D3623B",
"J .	c #D36753",
"K .	c #D4674E",
"L .	c #CE6855",
"M .	c #CC664F",
"N .	c #CF5B4C",
"O .	c #B33337",
"P .	c #B4322C",
"Q .	c #A82327",
"R .	c #D96559",
"S .	c #FEE7DA",
"T .	c #D58471",
"U .	c #C0313B",
"V .	c #AF2A32",
"W .	c #BD2F33",
"X .	c #F3B69F",
"Y .	c #F1C6B5",
"Z .	c #9A2A27",
"` .	c #7A1F23",
" ..	c #80363E",
"...	c #56191C",
"+..	c #4E181E",
"@..	c #2A070A",
"#..	c #29080B",
"$..	c #321917",
"%..	c #341F1A",
"&..	c #472E2F",
"*..	c #1A0B0F",
"=..	c #362A2C",
"-..	c #1F1317",
";..	c #0D0106",
">..	c #2E1818",
",..	c #1A0305",
"'..	c #211318",
")..	c #261818",
"!..	c #0C0708",
"~..	c #3E272A",
"{..	c #341A1B",
"]..	c #39161A",
"^..	c #452226",
"/..	c #290207",
"(..	c #420C0F",
"_..	c #572125",
":..	c #6A2F31",
"<..	c #6A151B",
"[..	c #8D202C",
"}..	c #B13D36",
"|..	c #FAC088",
"1..	c #DD9082",
"2..	c #A22B30",
"3..	c #A13B3B",
"4..	c #952428",
"5..	c #CB6D3F",
"6..	c #F8B24A",
"7..	c #CC5636",
"8..	c #BC292F",
"9..	c #AF242E",
"0..	c #AE2E38",
"a..	c #F6CBA9",
"b..	c #FDE1CA",
"c..	c #FFE9DB",
"d..	c #FFECDF",
"e..	c #FFE8DB",
"f..	c #FED2AE",
"g..	c #FEE5D1",
"h..	c #FDEBDB",
"i..	c #FAD0B6",
"j..	c #B93339",
"k..	c #971D29",
"l..	c #640E10",
"m..	c #5F0B05",
"n..	c #6A0A0C",
"o..	c #690A0E",
"p..	c #600A0A",
"q..	c #5F2115",
"r..	c #603D22",
"s..	c #423A10",
"t..	c #395311",
"u..	c #326510",
"v..	c #599633",
"w..	c #D2EBA5",
"x..	c #FBFCDA",
"y..	c #D0F69C",
"z..	c #85CF3B",
"A..	c #82DD33",
"B..	c #7FD233",
"C..	c #357605",
"D..	c #264701",
"E..	c #2E2207",
"F..	c #4A0205",
"G..	c #5F0301",
"H..	c #902828",
"I..	c #CF8580",
"J..	c #F2CFC2",
"K..	c #FEE6DD",
"L..	c #FCD5D2",
"M..	c #EBABAD",
"N..	c #D67580",
"O..	c #C24554",
"P..	c #A81F31",
"Q..	c #960915",
"R..	c #92030E",
"S..	c #910212",
"T..	c #8B0112",
"U..	c #830111",
"V..	c #81010F",
"W..	c #7A010C",
"X..	c #6E0107",
"Y..	c #650105",
"Z..	c #610104",
"`..	c #640106",
" +.	c #620003",
".+.	c #610003",
"++.	c #610002",
"@+.	c #610102",
"#+.	c #640103",
"$+.	c #690104",
"%+.	c #6C0105",
"&+.	c #740109",
"*+.	c #7D000A",
"=+.	c #840108",
"-+.	c #8F0108",
";+.	c #9B0208",
">+.	c #A1040D",
",+.	c #AF0F1C",
"'+.	c #C43142",
")+.	c #D36A79",
"!+.	c #E8A3AB",
"~+.	c #F9D0D6",
"{+.	c #FFE5E9",
"]+.	c #F1CACB",
"^+.	c #C98185",
"/+.	c #9E252F",
"(+.	c #7E020B",
"_+.	c #520400",
":+.	c #3C0601",
"<+.	c #390203",
"[+.	c #380C05",
"}+.	c #2C160A",
"|+.	c #1A2908",
"1+.	c #488817",
"2+.	c #5FBE27",
"3+.	c #47B513",
"4+.	c #51C51A",
"5+.	c #6FB84D",
"6+.	c #DDF2B4",
"7+.	c #DBEFB3",
"8+.	c #6B8652",
"9+.	c #1B2501",
"0+.	c #1C1106",
"a+.	c #1E0909",
"b+.	c #1A0703",
"c+.	c #1E0201",
"d+.	c #200102",
"e+.	c #2D0002",
"f+.	c #3C0208",
"g+.	c #4E010D",
"h+.	c #740101",
"i+.	c #A01A26",
"j+.	c #DC969F",
"k+.	c #D7A1A1",
"l+.	c #56160C",
"m+.	c #242E08",
"n+.	c #15420F",
"o+.	c #1D5117",
"p+.	c #2C6326",
"q+.	c #4E7E41",
"r+.	c #5B8B55",
"s+.	c #649565",
"t+.	c #6A9A6D",
"u+.	c #6C9A6D",
"v+.	c #699269",
"w+.	c #548259",
"x+.	c #33683D",
"y+.	c #1C4F24",
"z+.	c #194723",
"A+.	c #0C3819",
"B+.	c #072309",
"C+.	c #0E1209",
"D+.	c #20610F",
"E+.	c #278019",
"F+.	c #71D22E",
"G+.	c #559A1E",
"H+.	c #0E1A06",
"I+.	c #0C1401",
"J+.	c #220904",
"K+.	c #460F0E",
"L+.	c #750F15",
"M+.	c #B33745",
"N+.	c #702F1B",
"O+.	c #0F2C03",
"P+.	c #193B0B",
"Q+.	c #2B750B",
"R+.	c #4FC12E",
"S+.	c #BCEA8F",
"T+.	c #B7EA9A",
"U+.	c #095E20",
"V+.	c #043F15",
"W+.	c #09331A",
"X+.	c #063015",
"Y+.	c #043817",
"Z+.	c #094E1A",
"`+.	c #094D0A",
" @.	c #448B17",
".@.	c #CBF39F",
"+@.	c #FCFDE5",
"@@.	c #A7CD97",
"#@.	c #356731",
"$@.	c #3E5C39",
"%@.	c #375038",
"&@.	c #353E32",
"*@.	c #2C181A",
"=@.	c #321919",
"-@.	c #361919",
";@.	c #371819",
">@.	c #371717",
",@.	c #391414",
"'@.	c #3C1516",
")@.	c #401517",
"!@.	c #411316",
"~@.	c #400F15",
"{@.	c #3B0611",
"]@.	c #380106",
"^@.	c #4E0207",
"/@.	c #5F020A",
"(@.	c #620207",
"_@.	c #6A0108",
":@.	c #6C0209",
"<@.	c #6B0309",
"[@.	c #6B0208",
"}@.	c #670107",
"|@.	c #78151B",
"1@.	c #751418",
"2@.	c #BE4338",
"3@.	c #FDBA76",
"4@.	c #FCC78D",
"5@.	c #FFD8BB",
"6@.	c #FBCC9B",
"7@.	c #FEDBBF",
"8@.	c #FEE8D8",
"9@.	c #FEE8D3",
"0@.	c #FFEAD2",
"a@.	c #FEE2C8",
"b@.	c #C45B49",
"c@.	c #B6312D",
"d@.	c #AB2428",
"e@.	c #D86458",
"f@.	c #FFE8DC",
"g@.	c #D5846E",
"h@.	c #AB262F",
"i@.	c #BA2D30",
"j@.	c #F4BAA1",
"k@.	c #F3C8B7",
"l@.	c #982825",
"m@.	c #781D21",
"n@.	c #5B1F24",
"o@.	c #571A1D",
"p@.	c #29060A",
"q@.	c #2A090C",
"r@.	c #472526",
"s@.	c #331E19",
"t@.	c #452C2D",
"u@.	c #1A0C0F",
"v@.	c #382C2E",
"w@.	c #1D1216",
"x@.	c #0B0707",
"y@.	c #381519",
"z@.	c #280B0D",
"A@.	c #280206",
"B@.	c #4C1016",
"C@.	c #551E23",
"D@.	c #8C212C",
"E@.	c #AE3C35",
"F@.	c #FBC695",
"G@.	c #DD9183",
"H@.	c #A22C31",
"I@.	c #A03B3B",
"J@.	c #CB6E3D",
"K@.	c #FBB550",
"L@.	c #CE5635",
"M@.	c #BC2A35",
"N@.	c #A72B32",
"O@.	c #B12D3A",
"P@.	c #F8BD9B",
"Q@.	c #DC7763",
"R@.	c #E36F60",
"S@.	c #E1715D",
"T@.	c #E07263",
"U@.	c #E37565",
"V@.	c #DE7556",
"W@.	c #D97A5D",
"X@.	c #DC7E6B",
"Y@.	c #DF7865",
"Z@.	c #CE6456",
"`@.	c #9F1F22",
" #.	c #8C1624",
".#.	c #5D060D",
"+#.	c #460704",
"@#.	c #440507",
"##.	c #4C0710",
"$#.	c #491B13",
"%#.	c #513A20",
"&#.	c #3C3910",
"*#.	c #31440B",
"=#.	c #32690F",
"-#.	c #508F22",
";#.	c #D2EBA9",
">#.	c #F5FECD",
",#.	c #D1F49D",
"'#.	c #83D532",
")#.	c #87E432",
"!#.	c #6FC22F",
"~#.	c #2F6805",
"{#.	c #1D3A04",
"]#.	c #1D1D01",
"^#.	c #250D03",
"/#.	c #2C0302",
"(#.	c #78181A",
"_#.	c #EAB7B2",
":#.	c #FEE6E3",
"<#.	c #F8C4C7",
"[#.	c #DD7D86",
"}#.	c #C53041",
"|#.	c #AE071C",
"1#.	c #9B0312",
"2#.	c #87040C",
"3#.	c #770306",
"4#.	c #6B0203",
"5#.	c #5F0202",
"6#.	c #550101",
"7#.	c #550103",
"8#.	c #570106",
"9#.	c #480103",
"0#.	c #460002",
"a#.	c #460003",
"b#.	c #440002",
"c#.	c #3F0102",
"d#.	c #430103",
"e#.	c #490104",
"f#.	c #4C0105",
"g#.	c #4F0106",
"h#.	c #520107",
"i#.	c #53010A",
"j#.	c #56020C",
"k#.	c #5B030A",
"l#.	c #5F0306",
"m#.	c #630405",
"n#.	c #69040C",
"o#.	c #6F020B",
"p#.	c #7E030B",
"q#.	c #8B0208",
"r#.	c #9A080C",
"s#.	c #B62436",
"t#.	c #CF6977",
"u#.	c #EDB4BE",
"v#.	c #FED9E3",
"w#.	c #F3C2CD",
"x#.	c #C96C74",
"y#.	c #680304",
"z#.	c #3E0602",
"A#.	c #2D0601",
"B#.	c #280904",
"C#.	c #26120B",
"D#.	c #1C2507",
"E#.	c #3A6A18",
"F#.	c #59AA2A",
"G#.	c #48AF1F",
"H#.	c #51C41C",
"I#.	c #59B734",
"J#.	c #BDE391",
"K#.	c #DFF5B4",
"L#.	c #94A875",
"M#.	c #1E3104",
"N#.	c #131500",
"O#.	c #180A04",
"P#.	c #1A0502",
"Q#.	c #180300",
"R#.	c #270105",
"S#.	c #2B0106",
"T#.	c #450204",
"U#.	c #650606",
"V#.	c #801414",
"W#.	c #92473E",
"X#.	c #423E0A",
"Y#.	c #557C40",
"Z#.	c #91B582",
"`#.	c #C2DBB1",
" $.	c #D5F2CC",
".$.	c #E6F9D6",
"+$.	c #E7FCD3",
"@$.	c #E2FDCE",
"#$.	c #DAFECA",
"$$.	c #DCFECD",
"%$.	c #E6FED5",
"&$.	c #E7F9D9",
"*$.	c #DEF2D4",
"=$.	c #C5DCBE",
"-$.	c #9CB99C",
";$.	c #567A57",
">$.	c #184417",
",$.	c #21371A",
"'$.	c #1A2E12",
")$.	c #113A07",
"!$.	c #277313",
"~$.	c #43A515",
"{$.	c #5CAF26",
"]$.	c #0A2801",
"^$.	c #111401",
"/$.	c #170E08",
"($.	c #2C1908",
"_$.	c #521E08",
":$.	c #5A1E0F",
"<$.	c #3E320B",
"[$.	c #113704",
"}$.	c #193A09",
"|$.	c #125503",
"1$.	c #4EB130",
"2$.	c #85D353",
"3$.	c #D6FCA9",
"4$.	c #398344",
"5$.	c #104221",
"6$.	c #0B3B1D",
"7$.	c #133624",
"8$.	c #123620",
"9$.	c #054519",
"0$.	c #0D5417",
"a$.	c #226406",
"b$.	c #A0DD66",
"c$.	c #F4FDDA",
"d$.	c #D7EDC4",
"e$.	c #4A894C",
"f$.	c #4B8550",
"g$.	c #2D6431",
"h$.	c #305330",
"i$.	c #41533B",
"j$.	c #3E4C34",
"k$.	c #2F2B20",
"l$.	c #2D1F1A",
"m$.	c #261611",
"n$.	c #22110C",
"o$.	c #230F0D",
"p$.	c #250B08",
"q$.	c #2C0C0B",
"r$.	c #2B0808",
"s$.	c #2C0607",
"t$.	c #2F050A",
"u$.	c #2B0403",
"v$.	c #380303",
"w$.	c #420409",
"x$.	c #4F010A",
"y$.	c #4F0209",
"z$.	c #550209",
"A$.	c #590106",
"B$.	c #530106",
"C$.	c #510207",
"D$.	c #6F181C",
"E$.	c #681010",
"F$.	c #A41F27",
"G$.	c #D25E40",
"H$.	c #CF6A4A",
"I$.	c #CF7261",
"J$.	c #D46B46",
"K$.	c #D47360",
"L$.	c #D96E52",
"M$.	c #D96A47",
"N$.	c #DC6D5C",
"O$.	c #DE6E44",
"P$.	c #F8A65C",
"Q$.	c #D05C4D",
"R$.	c #B82E2F",
"S$.	c #AC232B",
"T$.	c #D66254",
"U$.	c #FDE2D4",
"V$.	c #D67A3D",
"W$.	c #C2333F",
"X$.	c #BB2D31",
"Y$.	c #F4B9A0",
"Z$.	c #982925",
"`$.	c #7D323A",
" %.	c #5A1F23",
".%.	c #581B1E",
"+%.	c #521B22",
"@%.	c #2A070B",
"#%.	c #452324",
"$%.	c #341F1B",
"%%.	c #1A0C10",
"&%.	c #271C1D",
"*%.	c #1E1216",
"=%.	c #130B13",
"-%.	c #1A0506",
";%.	c #201419",
">%.	c #261717",
",%.	c #3C3231",
"'%.	c #3D2629",
")%.	c #34181A",
"!%.	c #36171A",
"~%.	c #452427",
"{%.	c #2B0A0E",
"]%.	c #451014",
"^%.	c #50161C",
"/%.	c #541D22",
"(%.	c #6A2E2F",
"_%.	c #6C151A",
":%.	c #8E1F2B",
"<%.	c #AD3A32",
"[%.	c #FABE76",
"}%.	c #D88761",
"|%.	c #A42D2F",
"1%.	c #9F403D",
"2%.	c #912728",
"3%.	c #CF6C3E",
"4%.	c #F8B34D",
"5%.	c #CF5434",
"6%.	c #B72B33",
"7%.	c #A22C32",
"8%.	c #AA2430",
"9%.	c #ED714E",
"0%.	c #B21820",
"a%.	c #AF0615",
"b%.	c #B00815",
"c%.	c #AB0615",
"d%.	c #A50516",
"e%.	c #A10813",
"f%.	c #A00A12",
"g%.	c #A20715",
"h%.	c #9D0416",
"i%.	c #880913",
"j%.	c #780F14",
"k%.	c #6A0A12",
"l%.	c #823737",
"m%.	c #804538",
"n%.	c #653430",
"o%.	c #461C1A",
"p%.	c #4A3220",
"q%.	c #403517",
"r%.	c #273A06",
"s%.	c #2C6717",
"t%.	c #4D9729",
"u%.	c #C7E390",
"v%.	c #F6FDD6",
"w%.	c #7FD531",
"x%.	c #8AEB32",
"y%.	c #6FC12A",
"z%.	c #266103",
"A%.	c #163505",
"B%.	c #131C00",
"C%.	c #190B01",
"D%.	c #1E0300",
"E%.	c #3A0002",
"F%.	c #6D090F",
"G%.	c #C2777A",
"H%.	c #B9646D",
"I%.	c #A8172F",
"J%.	c #960614",
"K%.	c #780708",
"L%.	c #6D0305",
"M%.	c #570002",
"N%.	c #4E0104",
"O%.	c #430004",
"P%.	c #430005",
"Q%.	c #400104",
"R%.	c #380302",
"S%.	c #310301",
"T%.	c #350002",
"U%.	c #340002",
"V%.	c #330001",
"W%.	c #310101",
"X%.	c #320101",
"Y%.	c #380101",
"Z%.	c #3D0101",
"`%.	c #3A0201",
" &.	c #3E0202",
".&.	c #450103",
"+&.	c #530102",
"@&.	c #5D0103",
"#&.	c #5D0302",
"$&.	c #630200",
"%&.	c #5E0300",
"&&.	c #5A0102",
"*&.	c #510102",
"=&.	c #500103",
"-&.	c #690007",
";&.	c #720102",
">&.	c #88010E",
",&.	c #A3102B",
"'&.	c #C4566B",
")&.	c #F3B1B8",
"!&.	c #FDE5E8",
"~&.	c #E8AAB4",
"{&.	c #A43035",
"]&.	c #6E0302",
"^&.	c #4C0108",
"/&.	c #310106",
"(&.	c #270602",
"_&.	c #1F1503",
":&.	c #1C1D02",
"<&.	c #224103",
"[&.	c #51A132",
"}&.	c #56BE2C",
"|&.	c #45B913",
"1&.	c #42A41B",
"2&.	c #98C670",
"3&.	c #DEF9B2",
"4&.	c #AACB8D",
"5&.	c #2F491C",
"6&.	c #1B1B08",
"7&.	c #130D03",
"8&.	c #140900",
"9&.	c #120605",
"0&.	c #130306",
"a&.	c #240203",
"b&.	c #2A0506",
"c&.	c #361205",
"d&.	c #4B3B13",
"e&.	c #849859",
"f&.	c #C4DEA8",
"g&.	c #E4F9CD",
"h&.	c #EEFDD3",
"i&.	c #DEF7B8",
"j&.	c #C1EC9B",
"k&.	c #A3DC80",
"l&.	c #93CE6A",
"m&.	c #84C256",
"n&.	c #7EBF4E",
"o&.	c #7FC252",
"p&.	c #87CA61",
"q&.	c #99D87E",
"r&.	c #B2E59F",
"s&.	c #D0F2BD",
"t&.	c #E9FCD7",
"u&.	c #EBFAD7",
"v&.	c #BFD7AE",
"w&.	c #5D815E",
"x&.	c #0D350F",
"y&.	c #153912",
"z&.	c #1A4811",
"A&.	c #217315",
"B&.	c #277011",
"C&.	c #0E3407",
"D&.	c #0C2203",
"E&.	c #102706",
"F&.	c #123101",
"G&.	c #324706",
"H&.	c #314C09",
"I&.	c #28570E",
"J&.	c #1E5A0E",
"K&.	c #1B550A",
"L&.	c #0E5902",
"M&.	c #489D31",
"N&.	c #5FBE30",
"O&.	c #BBF87E",
"P&.	c #6DB55B",
"Q&.	c #0E4822",
"R&.	c #132D1D",
"S&.	c #10261A",
"T&.	c #0F391E",
"U&.	c #13541F",
"V&.	c #0E5607",
"W&.	c #6FB32C",
"X&.	c #E4FDB7",
"Y&.	c #F2F9EA",
"Z&.	c #B6D5AA",
"`&.	c #A2CD96",
" *.	c #64A55A",
".*.	c #438E37",
"+*.	c #467B3E",
"@*.	c #386833",
"#*.	c #466344",
"$*.	c #4B5D43",
"%*.	c #6A6D58",
"&*.	c #736E60",
"**.	c #787169",
"=*.	c #736F62",
"-*.	c #726E60",
";*.	c #71695D",
">*.	c #73685D",
",*.	c #77695E",
"'*.	c #715C52",
")*.	c #755F55",
"!*.	c #80655B",
"~*.	c #82645B",
"{*.	c #80645C",
"]*.	c #7B6258",
"^*.	c #775C52",
"/*.	c #7B594C",
"(*.	c #815837",
"_*.	c #84544A",
":*.	c #884E45",
"<*.	c #732F2F",
"[*.	c #5B080B",
"}*.	c #7B0513",
"|*.	c #8B0212",
"1*.	c #91030E",
"2*.	c #96020E",
"3*.	c #9E0011",
"4*.	c #9F0112",
"5*.	c #A60518",
"6*.	c #A80B1B",
"7*.	c #A90D1C",
"8*.	c #A9161F",
"9*.	c #DA6048",
"0*.	c #B62C2F",
"a*.	c #A7202E",
"b*.	c #CF6042",
"c*.	c #F9C386",
"d*.	c #D5793B",
"e*.	c #C23540",
"f*.	c #B02933",
"g*.	c #C02C31",
"h*.	c #F3B8A8",
"i*.	c #F2C6B4",
"j*.	c #9B2726",
"k*.	c #791F23",
"l*.	c #7E353D",
"m*.	c #5E2025",
"n*.	c #4E171E",
"o*.	c #2B080B",
"p*.	c #28080B",
"q*.	c #472427",
"r*.	c #331919",
"s*.	c #36211D",
"t*.	c #442B2C",
"u*.	c #372B2D",
"v*.	c #2A1D1F",
"w*.	c #26191B",
"x*.	c #1B1115",
"y*.	c #0C0106",
"z*.	c #1C0E16",
"A*.	c #130A13",
"B*.	c #2D1718",
"C*.	c #201519",
"D*.	c #211313",
"E*.	c #251616",
"F*.	c #3B3131",
"G*.	c #0F0406",
"H*.	c #3C2528",
"I*.	c #452428",
"J*.	c #2C090D",
"K*.	c #420E12",
"L*.	c #4B1117",
"M*.	c #582225",
"N*.	c #6C2F30",
"O*.	c #6D1519",
"P*.	c #AF3C31",
"Q*.	c #FAB75B",
"R*.	c #D48139",
"S*.	c #A42D2D",
"T*.	c #9F413D",
"U*.	c #8D2626",
"V*.	c #D16B3D",
"W*.	c #FAB857",
"X*.	c #CF543E",
"Y*.	c #B72C35",
"Z*.	c #A22B34",
"`*.	c #9A1D29",
" =.	c #B42D33",
".=.	c #AC282F",
"+=.	c #AC2932",
"@=.	c #AD282F",
"#=.	c #AA272F",
"$=.	c #A42330",
"%=.	c #9A2830",
"&=.	c #8E2226",
"*=.	c #821C1F",
"==.	c #76191B",
"-=.	c #651312",
";=.	c #52080B",
">=.	c #470506",
",=.	c #440D08",
"'=.	c #3F130A",
")=.	c #3C170B",
"!=.	c #45281A",
"~=.	c #383317",
"{=.	c #253006",
"]=.	c #284E06",
"^=.	c #50962B",
"/=.	c #B0DB87",
"(=.	c #F0FDD5",
"_=.	c #DBF7A6",
":=.	c #8DD941",
"<=.	c #87E533",
"[=.	c #6ABF2B",
"}=.	c #205E01",
"|=.	c #113102",
"1=.	c #0F1704",
"2=.	c #120A01",
"3=.	c #180600",
"4=.	c #210504",
"5=.	c #2B0306",
"6=.	c #310003",
"7=.	c #490202",
"8=.	c #5F0203",
"9=.	c #700108",
"0=.	c #6C0006",
"a=.	c #5D0102",
"b=.	c #530003",
"c=.	c #4D0003",
"d=.	c #450002",
"e=.	c #370002",
"f=.	c #360002",
"g=.	c #330002",
"h=.	c #2F0000",
"i=.	c #2C0000",
"j=.	c #2A0002",
"k=.	c #2A0101",
"l=.	c #2E0002",
"m=.	c #370201",
"n=.	c #3E0101",
"o=.	c #500409",
"p=.	c #620305",
"q=.	c #820202",
"r=.	c #932022",
"s=.	c #871824",
"t=.	c #66010B",
"u=.	c #420102",
"v=.	c #490001",
"w=.	c #4C0100",
"x=.	c #510001",
"y=.	c #5F0003",
"z=.	c #710006",
"A=.	c #85030C",
"B=.	c #9E1C24",
"C=.	c #DA8288",
"D=.	c #FCD4D7",
"E=.	c #EFB9C2",
"F=.	c #A03545",
"G=.	c #6D0504",
"H=.	c #440502",
"I=.	c #2C0100",
"J=.	c #2A0303",
"K=.	c #260D02",
"L=.	c #1E1905",
"M=.	c #1B3502",
"N=.	c #499025",
"O=.	c #5DC039",
"P=.	c #37AA16",
"Q=.	c #32A10B",
"R=.	c #76B353",
"S=.	c #DAEFA3",
"T=.	c #BEDD93",
"U=.	c #446430",
"V=.	c #121D0A",
"W=.	c #120D06",
"X=.	c #140401",
"Y=.	c #110402",
"Z=.	c #180500",
"`=.	c #181402",
" -.	c #272F03",
".-.	c #6D8743",
"+-.	c #C4DE9B",
"@-.	c #F3FADB",
"#-.	c #E1F3CB",
"$-.	c #A7D485",
"%-.	c #67AF3D",
"&-.	c #419117",
"*-.	c #3C850E",
"=-.	c #398D0B",
"--.	c #419515",
";-.	c #41971A",
">-.	c #3F951C",
",-.	c #419820",
"'-.	c #439A22",
")-.	c #3D911C",
"!-.	c #378810",
"~-.	c #418E18",
"{-.	c #5FAA38",
"]-.	c #98D081",
"^-.	c #D1F0C7",
"/-.	c #EAF8E1",
"(-.	c #B2C8AC",
"_-.	c #435F43",
":-.	c #0E2F04",
"<-.	c #192707",
"[-.	c #082B02",
"}-.	c #092B04",
"|-.	c #0D590A",
"1-.	c #3F8B37",
"2-.	c #50A048",
"3-.	c #49AB43",
"4-.	c #49B23E",
"5-.	c #4AB53F",
"6-.	c #47AB3E",
"7-.	c #3E9A35",
"8-.	c #318A29",
"9-.	c #3A9730",
"0-.	c #48B230",
"a-.	c #66C037",
"b-.	c #59A847",
"c-.	c #145728",
"d-.	c #154F27",
"e-.	c #0D4C1C",
"f-.	c #0F4119",
"g-.	c #0C3D0D",
"h-.	c #145409",
"i-.	c #135E0D",
"j-.	c #398911",
"k-.	c #B8E886",
"l-.	c #F3FAD4",
"m-.	c #F8F9E6",
"n-.	c #F6FAE8",
"o-.	c #EDF9DE",
"p-.	c #B5DEAA",
"q-.	c #5DAA54",
"r-.	c #3E8437",
"s-.	c #3C7B3C",
"t-.	c #3E6F38",
"u-.	c #344E29",
"v-.	c #282A18",
"w-.	c #2E261D",
"x-.	c #35281F",
"y-.	c #322219",
"z-.	c #36251C",
"A-.	c #37211A",
"B-.	c #381F19",
"C-.	c #3E1F19",
"D-.	c #42201B",
"E-.	c #411F1A",
"F-.	c #421F1A",
"G-.	c #46221D",
"H-.	c #441F1B",
"I-.	c #441C1A",
"J-.	c #471A19",
"K-.	c #4B1B1B",
"L-.	c #4F1B1C",
"M-.	c #511A1A",
"N-.	c #4D1113",
"O-.	c #490308",
"P-.	c #55010B",
"Q-.	c #620710",
"R-.	c #6F1017",
"S-.	c #8F1F25",
"T-.	c #942025",
"U-.	c #9A2227",
"V-.	c #9B232B",
"W-.	c #9C252E",
"X-.	c #A1272D",
"Y-.	c #A32327",
"Z-.	c #AB1F29",
"`-.	c #B4292D",
" ;.	c #A61F2E",
".;.	c #CA6041",
"+;.	c #F8C086",
"@;.	c #D57A3D",
"#;.	c #C33842",
"$;.	c #AF2732",
"%;.	c #C32B31",
"&;.	c #F2B7A7",
"*;.	c #F3C7B5",
"=;.	c #9C2625",
"-;.	c #771E22",
";;.	c #7B323A",
">;.	c #5B1C22",
",;.	c #561A1C",
"';.	c #482529",
");.	c #311617",
"!;.	c #351F1C",
"~;.	c #442C2C",
"{;.	c #190C0D",
"];.	c #070102",
"^;.	c #2A1A1D",
"/;.	c #291A1D",
"(;.	c #271D1E",
"_;.	c #1C1316",
":;.	c #1C0E15",
"<;.	c #190405",
"[;.	c #211414",
"};.	c #3C3131",
"|;.	c #0F0506",
"1;.	c #452528",
"2;.	c #2C090E",
"3;.	c #400C10",
"4;.	c #4E151B",
"5;.	c #5A2427",
"6;.	c #6E3132",
"7;.	c #6C1418",
"8;.	c #8E1D2A",
"9;.	c #B03D32",
"0;.	c #FBB75C",
"a;.	c #A42C2D",
"b;.	c #A0433E",
"c;.	c #8D2726",
"d;.	c #D16A3B",
"e;.	c #FBB856",
"f;.	c #D15639",
"g;.	c #BC313B",
"h;.	c #A12E39",
"i;.	c #931F2E",
"j;.	c #981F29",
"k;.	c #A63237",
"l;.	c #AF3A3D",
"m;.	c #B03838",
"n;.	c #AE3639",
"o;.	c #A6323B",
"p;.	c #9D3039",
"q;.	c #831D25",
"r;.	c #6B1016",
"s;.	c #580A0D",
"t;.	c #490606",
"u;.	c #3E0505",
"v;.	c #3B0608",
"w;.	c #350706",
"x;.	c #310F05",
"y;.	c #3E2513",
"z;.	c #382E0F",
"A;.	c #27340E",
"B;.	c #1A4602",
"C;.	c #42811D",
"D;.	c #93CC65",
"E;.	c #EFFCC9",
"F;.	c #E1FAC6",
"G;.	c #97DC43",
"H;.	c #87E130",
"I;.	c #6EC12B",
"J;.	c #225D04",
"K;.	c #0F3300",
"L;.	c #120603",
"M;.	c #1A0603",
"N;.	c #1C0501",
"O;.	c #1D0102",
"P;.	c #220003",
"Q;.	c #2E0200",
"R;.	c #390100",
"S;.	c #420002",
"T;.	c #3B0201",
"U;.	c #340000",
"V;.	c #2E0000",
"W;.	c #290100",
"X;.	c #270101",
"Y;.	c #2B0001",
"Z;.	c #2E0102",
"`;.	c #340003",
" >.	c #3C0003",
".>.	c #5D0109",
"+>.	c #720107",
"@>.	c #8B0410",
"#>.	c #BE5C64",
"$>.	c #F2BEBC",
"%>.	c #E48891",
"&>.	c #770413",
"*>.	c #460001",
"=>.	c #410002",
"->.	c #410101",
";>.	c #490101",
">>.	c #600104",
",>.	c #780008",
"'>.	c #9F090E",
")>.	c #C96061",
"!>.	c #F7C8D3",
"~>.	c #EEB6C6",
"{>.	c #9A343B",
"]>.	c #400403",
"^>.	c #350108",
"/>.	c #2C0303",
"(>.	c #1F0C05",
"_>.	c #24140A",
":>.	c #1B2801",
"<>.	c #346C1F",
"[>.	c #5EB941",
"}>.	c #43B222",
"|>.	c #369D09",
"1>.	c #4F9D2C",
"2>.	c #AEDB7E",
"3>.	c #C6EA92",
"4>.	c #547F38",
"5>.	c #0D2102",
"6>.	c #140C08",
"7>.	c #101307",
"8>.	c #121F05",
"9>.	c #335220",
"0>.	c #9CBC7F",
"a>.	c #DFF8B6",
"b>.	c #DAF4B0",
"c>.	c #9ECB7E",
"d>.	c #5F9F32",
"e>.	c #4B9309",
"f>.	c #4B970A",
"g>.	c #449016",
"h>.	c #40851F",
"i>.	c #43771C",
"j>.	c #376F16",
"k>.	c #2D6A13",
"l>.	c #256511",
"m>.	c #256513",
"n>.	c #31721E",
"o>.	c #3C8328",
"p>.	c #47932C",
"q>.	c #53A12B",
"r>.	c #4CA921",
"s>.	c #429B12",
"t>.	c #4D9428",
"u>.	c #90C680",
"v>.	c #DEF6C8",
"w>.	c #DDEDD0",
"x>.	c #6E9876",
"y>.	c #113615",
"z>.	c #132905",
"A>.	c #084911",
"B>.	c #6EA764",
"C>.	c #D4F5C1",
"D>.	c #E9FBDD",
"E>.	c #E1FBE1",
"F>.	c #DBFBDC",
"G>.	c #DDF8D9",
"H>.	c #D8F3D2",
"I>.	c #C7EABE",
"J>.	c #ABDBA0",
"K>.	c #85BE7B",
"L>.	c #69AA62",
"M>.	c #559541",
"N>.	c #3D8532",
"O>.	c #2C762D",
"P>.	c #256B20",
"Q>.	c #21681A",
"R>.	c #235D1F",
"S>.	c #225620",
"T>.	c #1A5319",
"U>.	c #24631D",
"V>.	c #2B7803",
"W>.	c #67BB18",
"X>.	c #A5E945",
"Y>.	c #B6F367",
"Z>.	c #CAF98F",
"`>.	c #EDFCC0",
" ,.	c #DEF7CF",
".,.	c #9ACE8C",
"+,.	c #459139",
"@,.	c #337A2D",
"#,.	c #386634",
"$,.	c #384B30",
"%,.	c #2D2A1C",
"&,.	c #2A1612",
"*,.	c #29100E",
"=,.	c #280C0B",
"-,.	c #2B0A0B",
";,.	c #2C0A0B",
">,.	c #330B0C",
",,.	c #350B0D",
"',.	c #360B0D",
"),.	c #370A0D",
"!,.	c #3B0C10",
"~,.	c #3B070D",
"{,.	c #3A070C",
"],.	c #3A080D",
"^,.	c #3C080D",
"/,.	c #3D080C",
"(,.	c #3E090D",
"_,.	c #3E080D",
":,.	c #3A0308",
"<,.	c #430208",
"[,.	c #5A0913",
"},.	c #791A21",
"|,.	c #96282E",
"1,.	c #A93134",
"2,.	c #AA2E31",
"3,.	c #A92C31",
"4,.	c #AB2B34",
"5,.	c #AE2A36",
"6,.	c #AD2733",
"7,.	c #B02B38",
"8,.	c #B32E31",
"9,.	c #A5202C",
"0,.	c #CB6043",
"a,.	c #D57A3B",
"b,.	c #C53A43",
"c,.	c #C62D34",
"d,.	c #F3B9A8",
"e,.	c #F3C8B6",
"f,.	c #9B2524",
"g,.	c #7A2124",
"h,.	c #7D353D",
"i,.	c #5C1D22",
"j,.	c #5A1C1F",
"k,.	c #4F181F",
"l,.	c #2B0A0D",
"m,.	c #2F1415",
"n,.	c #321D1A",
"o,.	c #190D0D",
"p,.	c #29191C",
"q,.	c #2B1D1F",
"r,.	c #281B1D",
"s,.	c #281E1F",
"t,.	c #0B0106",
"u,.	c #140B14",
"v,.	c #180404",
"w,.	c #1E1317",
"x,.	c #0C0304",
"y,.	c #331619",
"z,.	c #341618",
"A,.	c #462629",
"B,.	c #2D090E",
"C,.	c #410D11",
"D,.	c #4A1117",
"E,.	c #5A2428",
"F,.	c #6C2E30",
"G,.	c #6D151A",
"H,.	c #8D1D29",
"I,.	c #B14031",
"J,.	c #FCB75A",
"K,.	c #A22A2B",
"L,.	c #A0433D",
"M,.	c #8E2727",
"N,.	c #D16A39",
"O,.	c #F9B854",
"P,.	c #D45838",
"Q,.	c #C1363F",
"R,.	c #90212B",
"S,.	c #8A1C2A",
"T,.	c #901E28",
"U,.	c #8A171E",
"V,.	c #8E161C",
"W,.	c #8D1518",
"X,.	c #8A161A",
"Y,.	c #7E1017",
"Z,.	c #680910",
"`,.	c #570509",
" '.	c #470203",
".'.	c #3D0503",
"+'.	c #380603",
"@'.	c #3A0403",
"#'.	c #370608",
"$'.	c #371B0D",
"%'.	c #3B2C11",
"&'.	c #2E360B",
"*'.	c #193B02",
"='.	c #2D6E0C",
"-'.	c #74B447",
";'.	c #D7F5AF",
">'.	c #F0FBCC",
",'.	c #A1DF61",
"''.	c #82DD25",
")'.	c #7ACB32",
"!'.	c #276504",
"~'.	c #153701",
"{'.	c #0F1B00",
"]'.	c #140A01",
"^'.	c #180601",
"/'.	c #1B0103",
"('.	c #1D0003",
"_'.	c #260100",
":'.	c #2C0001",
"<'.	c #300002",
"['.	c #310002",
"}'.	c #2B0100",
"|'.	c #270000",
"1'.	c #260000",
"2'.	c #240000",
"3'.	c #2E0001",
"4'.	c #320003",
"5'.	c #380105",
"6'.	c #410105",
"7'.	c #4F0006",
"8'.	c #620107",
"9'.	c #730209",
"0'.	c #901115",
"a'.	c #D58084",
"b'.	c #FADDE2",
"c'.	c #F1BAC5",
"d'.	c #AD4249",
"e'.	c #670608",
"f'.	c #320104",
"g'.	c #2F0102",
"h'.	c #320004",
"i'.	c #320200",
"j'.	c #410001",
"k'.	c #540005",
"l'.	c #970605",
"m'.	c #C5545A",
"n'.	c #FCCFD7",
"o'.	c #E5AAB8",
"p'.	c #921A21",
"q'.	c #620506",
"r'.	c #450505",
"s'.	c #330101",
"t'.	c #280301",
"u'.	c #220A01",
"v'.	c #221403",
"w'.	c #1B1E07",
"x'.	c #294D17",
"y'.	c #63B24A",
"z'.	c #4EB233",
"A'.	c #348E04",
"B'.	c #3A850F",
"C'.	c #85B95B",
"D'.	c #A5E372",
"E'.	c #3F6526",
"F'.	c #091410",
"G'.	c #072007",
"H'.	c #446636",
"I'.	c #C1DCA0",
"J'.	c #DEFAC1",
"K'.	c #A6D08A",
"L'.	c #5A9C2F",
"M'.	c #4D9003",
"N'.	c #529D14",
"O'.	c #508C1B",
"P'.	c #315F0A",
"Q'.	c #0D3A07",
"R'.	c #043D0C",
"S'.	c #035521",
"T'.	c #086630",
"U'.	c #157640",
"V'.	c #1C7844",
"W'.	c #1C7542",
"X'.	c #136738",
"Y'.	c #0A5028",
"Z'.	c #074017",
"`'.	c #094606",
" ).	c #22650C",
".).	c #478F1F",
"+).	c #50AB1D",
"@).	c #459F19",
"#).	c #609B3C",
"$).	c #C9E6A3",
"%).	c #8FB088",
"&).	c #10320A",
"*).	c #1B500C",
"=).	c #7AB961",
"-).	c #CFF2A8",
";).	c #F0FCC9",
">).	c #F7FEDB",
",).	c #FAFDE1",
"').	c #F5FCE7",
")).	c #F7FCEB",
"!).	c #FAFDEE",
"~).	c #F7FEEA",
"{).	c #F2FEE9",
"]).	c #EFF7EE",
"^).	c #ECF7E5",
"/).	c #DBF6D8",
"().	c #CCF2CC",
"_).	c #C4EAC0",
":).	c #B1DFAD",
"<).	c #9FCC98",
"[).	c #88BA7D",
"}).	c #69A659",
"|).	c #499036",
"1).	c #2C821C",
"2).	c #36950A",
"3).	c #5FBB18",
"4).	c #6AC81C",
"5).	c #73D01A",
"6).	c #87DE3C",
"7).	c #C2F488",
"8).	c #F4FCCD",
"9).	c #F4FBD9",
"0).	c #C7E6B1",
"a).	c #639455",
"b).	c #2F6A27",
"c).	c #365E2C",
"d).	c #354327",
"e).	c #2F2A21",
"f).	c #312A23",
"g).	c #39302A",
"h).	c #3D312C",
"i).	c #41322E",
"j).	c #43302C",
"k).	c #432F2B",
"l).	c #4B3733",
"m).	c #4C3734",
"n).	c #49312D",
"o).	c #492D29",
"p).	c #492E29",
"q).	c #462C28",
"r).	c #472D29",
"s).	c #462726",
"t).	c #3A0B0E",
"u).	c #35070A",
"v).	c #2E0305",
"w).	c #2E0205",
"x).	c #5C0A08",
"y).	c #741210",
"z).	c #7C1311",
"A).	c #841917",
"B).	c #831515",
"C).	c #83151A",
"D).	c #84171F",
"E).	c #8C1E28",
"F).	c #96211F",
"G).	c #A3232B",
"H).	c #CC623F",
"I).	c #F9C188",
"J).	c #C63A44",
"K).	c #AE2731",
"L).	c #C82E36",
"M).	c #F4C8B5",
"N).	c #9A2423",
"O).	c #7B2226",
"P).	c #7D353C",
"Q).	c #5C1E23",
"R).	c #591B1E",
"S).	c #2B080C",
"T).	c #432024",
"U).	c #311516",
"V).	c #301B18",
"W).	c #26171A",
"X).	c #261B1C",
"Y).	c #0B0105",
"Z).	c #2F1819",
"`).	c #3A2F2F",
" !.	c #462528",
".!.	c #280205",
"+!.	c #4B1218",
"@!.	c #6F3133",
"#!.	c #8D1C29",
"$!.	c #B14232",
"%!.	c #FCB85C",
"&!.	c #9E403C",
"*!.	c #CF6838",
"=!.	c #F9B753",
"-!.	c #D85C39",
";!.	c #C73F3F",
">!.	c #8D2025",
",!.	c #7D101B",
"'!.	c #86161E",
")!.	c #A03132",
"!!.	c #B5463F",
"~!.	c #B04439",
"{!.	c #AF4F35",
"]!.	c #B36334",
"^!.	c #721E1F",
"/!.	c #5B0A0D",
"(!.	c #4C0808",
"_!.	c #440605",
":!.	c #410504",
"<!.	c #390502",
"[!.	c #360403",
"}!.	c #330D08",
"|!.	c #382712",
"1!.	c #363B13",
"2!.	c #1C3303",
"3!.	c #2A540E",
"4!.	c #5FA52F",
"5!.	c #BEEC8C",
"6!.	c #F6FBCD",
"7!.	c #BCE783",
"8!.	c #75D529",
"9!.	c #77D039",
"0!.	c #2E6908",
"a!.	c #0F3902",
"b!.	c #101C02",
"c!.	c #120D02",
"d!.	c #170604",
"e!.	c #140402",
"f!.	c #130500",
"g!.	c #1B0003",
"h!.	c #230000",
"i!.	c #280001",
"j!.	c #280000",
"k!.	c #290002",
"l!.	c #3A0006",
"m!.	c #430106",
"n!.	c #510005",
"o!.	c #620005",
"p!.	c #7A030A",
"q!.	c #9C242B",
"r!.	c #E095A1",
"s!.	c #FEDADE",
"t!.	c #E29EA2",
"u!.	c #A12634",
"v!.	c #7A010A",
"w!.	c #5A0105",
"x!.	c #2F0005",
"y!.	c #2C0003",
"z!.	c #2C0007",
"A!.	c #2D0006",
"B!.	c #2F0003",
"C!.	c #390101",
"D!.	c #4A0107",
"E!.	c #600109",
"F!.	c #99040D",
"G!.	c #CF6D76",
"H!.	c #FBDAE2",
"I!.	c #DAA0A2",
"J!.	c #94181E",
"K!.	c #4B0203",
"L!.	c #3C0009",
"M!.	c #210700",
"N!.	c #1D1009",
"O!.	c #1C1B07",
"P!.	c #192E07",
"Q!.	c #459332",
"R!.	c #45AC21",
"S!.	c #398811",
"T!.	c #276A09",
"U!.	c #26560F",
"V!.	c #203815",
"W!.	c #051704",
"X!.	c #3B5827",
"Y!.	c #B4DB9B",
"Z!.	c #D1F5B1",
"`!.	c #78B451",
" ~.	c #3E8A07",
".~.	c #448814",
"+~.	c #408119",
"@~.	c #28570B",
"#~.	c #053E0D",
"$~.	c #065F2F",
"%~.	c #117F4F",
"&~.	c #168F5E",
"*~.	c #1E9066",
"=~.	c #1A8F64",
"-~.	c #18895D",
";~.	c #147C51",
">~.	c #14754E",
",~.	c #137D57",
"'~.	c #158560",
")~.	c #1C825B",
"!~.	c #227149",
"~~.	c #195B2F",
"{~.	c #06400D",
"]~.	c #165B04",
"^~.	c #459919",
"/~.	c #4EAA1B",
"(~.	c #43981C",
"_~.	c #B5DB8A",
":~.	c #E9FACA",
"<~.	c #9AB38F",
"[~.	c #163809",
"}~.	c #336B05",
"|~.	c #609419",
"1~.	c #81B62B",
"2~.	c #96CF40",
"3~.	c #ADDB56",
"4~.	c #B6E36D",
"5~.	c #C3E880",
"6~.	c #CEEC8F",
"7~.	c #D3F099",
"8~.	c #D9F5A2",
"9~.	c #E4F8B6",
"0~.	c #EDF7C2",
"a~.	c #EFFCCC",
"b~.	c #F4FAD2",
"c~.	c #F2FED6",
"d~.	c #F6FFDC",
"e~.	c #F7FEE2",
"f~.	c #F5FEE2",
"g~.	c #E8F9DB",
"h~.	c #CEEDCC",
"i~.	c #B0D298",
"j~.	c #87AF71",
"k~.	c #589F40",
"l~.	c #50AF19",
"m~.	c #59C318",
"n~.	c #5ECA0D",
"o~.	c #97DC53",
"p~.	c #E4FAAB",
"q~.	c #FAFBDE",
"r~.	c #E2F3C9",
"s~.	c #75A35F",
"t~.	c #2F661D",
"u~.	c #34572B",
"v~.	c #313727",
"w~.	c #323226",
"x~.	c #545146",
"y~.	c #504840",
"z~.	c #584E46",
"A~.	c #5B4E46",
"B~.	c #5F5149",
"C~.	c #6B5B54",
"D~.	c #6D5C56",
"E~.	c #6A5851",
"F~.	c #6A5852",
"G~.	c #6E5A54",
"H~.	c #6C5852",
"I~.	c #6D5953",
"J~.	c #654A44",
"K~.	c #411D1C",
"L~.	c #390B0C",
"M~.	c #330608",
"N~.	c #370A0B",
"O~.	c #410B0B",
"P~.	c #581111",
"Q~.	c #903C2F",
"R~.	c #A9483B",
"S~.	c #B9533F",
"T~.	c #B85348",
"U~.	c #AB4A3B",
"V~.	c #882F2E",
"W~.	c #721B1F",
"X~.	c #7D1913",
"Y~.	c #A73032",
"Z~.	c #D46842",
"`~.	c #FDC58A",
" {.	c #D1773B",
".{.	c #AD2631",
"+{.	c #C72D35",
"@{.	c #F4C6B4",
"#{.	c #7C2326",
"${.	c #7C343C",
"%{.	c #5B1D22",
"&{.	c #501A20",
"*{.	c #2A060A",
"={.	c #442125",
"-{.	c #150D15",
";{.	c #2F191A",
">{.	c #1A0405",
",{.	c #1E1217",
"'{.	c #231616",
"){.	c #281819",
"!{.	c #3C3232",
"~{.	c #3C2629",
"{{.	c #321518",
"]{.	c #341719",
"^{.	c #442527",
"/{.	c #29070B",
"({.	c #250205",
"_{.	c #572024",
":{.	c #703132",
"<{.	c #71151B",
"[{.	c #911D29",
"}{.	c #B44137",
"|{.	c #FCD2BD",
"1{.	c #D5803A",
"2{.	c #A62B29",
"3{.	c #A53C3E",
"4{.	c #912926",
"5{.	c #D5623A",
"6{.	c #FCCDA3",
"7{.	c #D76147",
"8{.	c #CF4240",
"9{.	c #C0454A",
"0{.	c #B94854",
"a{.	c #BD4C45",
"b{.	c #BE4742",
"c{.	c #A42C35",
"d{.	c #8B2326",
"e{.	c #CD643B",
"f{.	c #FEB24C",
"g{.	c #BE534A",
"h{.	c #8F282B",
"i{.	c #8B423D",
"j{.	c #88473B",
"k{.	c #864740",
"l{.	c #805043",
"m{.	c #55312A",
"n{.	c #39200E",
"o{.	c #39310B",
"p{.	c #27340A",
"q{.	c #1B4705",
"r{.	c #448A1C",
"s{.	c #ACD671",
"t{.	c #F2FEC3",
"u{.	c #D6F3A4",
"v{.	c #73CE27",
"w{.	c #79D53C",
"x{.	c #33760F",
"y{.	c #153603",
"z{.	c #121D04",
"A{.	c #130F03",
"B{.	c #120601",
"C{.	c #150302",
"D{.	c #130200",
"E{.	c #1A0101",
"F{.	c #1B0001",
"G{.	c #2B0002",
"H{.	c #290202",
"I{.	c #270202",
"J{.	c #240100",
"K{.	c #2C0006",
"L{.	c #2E0103",
"M{.	c #2F0101",
"N{.	c #320402",
"O{.	c #3A0203",
"P{.	c #4A0007",
"Q{.	c #59000C",
"R{.	c #690209",
"S{.	c #850409",
"T{.	c #B53D47",
"U{.	c #EFABB8",
"V{.	c #FCD1DB",
"W{.	c #CE7D86",
"X{.	c #96121E",
"Y{.	c #7B0007",
"Z{.	c #5E0108",
"`{.	c #490005",
" ].	c #350006",
".].	c #260304",
"+].	c #250401",
"@].	c #280302",
"#].	c #290307",
"$].	c #2C0208",
"%].	c #300105",
"&].	c #350103",
"*].	c #3C0102",
"=].	c #470108",
"-].	c #640207",
";].	c #8E0912",
">].	c #D1747C",
",].	c #FCD9DB",
"'].	c #E1B2AA",
")].	c #A03136",
"!].	c #780409",
"~].	c #580206",
"{].	c #260600",
"]].	c #210701",
"^].	c #221107",
"/].	c #1F1D0C",
"(].	c #101C03",
"_].	c #276414",
":].	c #419024",
"<].	c #2C670F",
"[].	c #0D2502",
"}].	c #02110D",
"|].	c #284A12",
"1].	c #B8D195",
"2].	c #D2F4AC",
"3].	c #68AE3D",
"4].	c #3F880B",
"5].	c #3C7C14",
"6].	c #285C0F",
"7].	c #043304",
"8].	c #0C642B",
"9].	c #149952",
"0].	c #0F944B",
"a].	c #0C7634",
"b].	c #036B28",
"c].	c #126B25",
"d].	c #2A7D35",
"e].	c #448D48",
"f].	c #569755",
"g].	c #599753",
"h].	c #44853C",
"i].	c #26662E",
"j].	c #13572E",
"k].	c #0F5C31",
"l].	c #166933",
"m].	c #166729",
"n].	c #0D4611",
"o].	c #0A3803",
"p].	c #348010",
"q].	c #45AB1E",
"r].	c #399D17",
"s].	c #A6D684",
"t].	c #88A578",
"u].	c #162C05",
"v].	c #313F10",
"w].	c #46580D",
"x].	c #5A7209",
"y].	c #697E0D",
"z].	c #768C0F",
"A].	c #7D9613",
"B].	c #86A017",
"C].	c #8DA719",
"D].	c #90AD1A",
"E].	c #91B71E",
"F].	c #9BBE2B",
"G].	c #A0C634",
"H].	c #A1CC3C",
"I].	c #ABD549",
"J].	c #B8E258",
"K].	c #BFEB6A",
"L].	c #CCF085",
"M].	c #E0F5A3",
"N].	c #EEFCC0",
"O].	c #F5FDD8",
"P].	c #FBFBE0",
"Q].	c #F6FDE9",
"R].	c #E0F9D8",
"S].	c #ADDEA6",
"T].	c #6BAA54",
"U].	c #4AAA11",
"V].	c #52C712",
"W].	c #84DC3A",
"X].	c #D0F69B",
"Y].	c #F1FBD8",
"Z].	c #E9F8D3",
"`].	c #749A4E",
" ^.	c #2C5921",
".^.	c #364D2F",
"+^.	c #27321A",
"@^.	c #272714",
"#^.	c #3B3C2A",
"$^.	c #3E4531",
"%^.	c #4A5033",
"&^.	c #4F5238",
"*^.	c #55543F",
"=^.	c #534D3D",
"-^.	c #504A39",
";^.	c #55553C",
">^.	c #52503A",
",^.	c #514E3B",
"'^.	c #4A4536",
")^.	c #483C2F",
"!^.	c #4C372A",
"~^.	c #482C27",
"{^.	c #55302E",
"]^.	c #5F302F",
"^^.	c #6A3131",
"/^.	c #70372F",
"(^.	c #8B3B36",
"_^.	c #AE3F3A",
":^.	c #F59B55",
"<^.	c #AA4240",
"[^.	c #AA3338",
"}^.	c #B63F45",
"|^.	c #BB483F",
"1^.	c #B64841",
"2^.	c #B44A43",
"3^.	c #B94C47",
"4^.	c #C14044",
"5^.	c #CF6845",
"6^.	c #FEC57E",
"7^.	c #D17F68",
"8^.	c #C93844",
"9^.	c #AC2833",
"0^.	c #C12D32",
"a^.	c #F4B8A6",
"b^.	c #F4C6B3",
"c^.	c #9B2723",
"d^.	c #792224",
"e^.	c #79343A",
"f^.	c #5A1E21",
"g^.	c #54191A",
"h^.	c #4E191F",
"i^.	c #2B060B",
"j^.	c #29070A",
"k^.	c #472224",
"l^.	c #331C18",
"m^.	c #251B1D",
"n^.	c #1D0F16",
"o^.	c #150E16",
"p^.	c #201414",
"q^.	c #241515",
"r^.	c #090606",
"s^.	c #311417",
"t^.	c #36181A",
"u^.	c #432527",
"v^.	c #28070A",
"w^.	c #431114",
"x^.	c #4C1218",
"y^.	c #5B2327",
"z^.	c #6E2E30",
"A^.	c #72141A",
"B^.	c #911C28",
"C^.	c #B54136",
"D^.	c #FCD8CC",
"E^.	c #DC8949",
"F^.	c #A92723",
"G^.	c #AC3739",
"H^.	c #8E291E",
"I^.	c #D06337",
"J^.	c #FED9C5",
"K^.	c #DA6149",
"L^.	c #CF3E3D",
"M^.	c #C94346",
"N^.	c #C14349",
"O^.	c #C24442",
"P^.	c #B53D3E",
"Q^.	c #BA373D",
"R^.	c #AF292B",
"S^.	c #CA5938",
"T^.	c #FEC49B",
"U^.	c #C54C49",
"V^.	c #8A1F23",
"W^.	c #5E1918",
"X^.	c #460C0B",
"Y^.	c #44100C",
"Z^.	c #421408",
"`^.	c #3C1C13",
" /.	c #3B2914",
"./.	c #38360C",
"+/.	c #1C3602",
"@/.	c #316D0F",
"#/.	c #7CB648",
"$/.	c #E7FCBE",
"%/.	c #8DD64B",
"&/.	c #7BDA36",
"*/.	c #418B17",
"=/.	c #124001",
"-/.	c #101F01",
";/.	c #130E01",
">/.	c #120600",
",/.	c #110200",
"'/.	c #1A0003",
")/.	c #120300",
"!/.	c #2C0204",
"~/.	c #2A0103",
"{/.	c #300103",
"]/.	c #2E0204",
"^/.	c #340402",
"//.	c #3D0205",
"(/.	c #490110",
"_/.	c #4D020D",
":/.	c #580207",
"</.	c #6A0206",
"[/.	c #7D0405",
"}/.	c #9C141E",
"|/.	c #D06D82",
"1/.	c #F9CCDC",
"2/.	c #F8D2D9",
"3/.	c #B96F75",
"4/.	c #890B17",
"5/.	c #790109",
"6/.	c #570104",
"7/.	c #3E0303",
"8/.	c #2F0400",
"9/.	c #280500",
"0/.	c #260501",
"a/.	c #280605",
"b/.	c #2A0509",
"c/.	c #2C0604",
"d/.	c #2B0603",
"e/.	c #290603",
"f/.	c #280506",
"g/.	c #290607",
"h/.	c #330305",
"i/.	c #3C0106",
"j/.	c #490205",
"k/.	c #690206",
"l/.	c #8E0811",
"m/.	c #C8676C",
"n/.	c #FDD3D7",
"o/.	c #F4C8D0",
"p/.	c #C15564",
"q/.	c #83070D",
"r/.	c #660300",
"s/.	c #4C0004",
"t/.	c #2A0404",
"u/.	c #240600",
"v/.	c #260D04",
"w/.	c #221314",
"x/.	c #111607",
"y/.	c #163904",
"z/.	c #1D3607",
"A/.	c #122C0E",
"B/.	c #92BB6E",
"C/.	c #D2F8A4",
"D/.	c #76B04F",
"E/.	c #3C8A12",
"F/.	c #337C16",
"G/.	c #1A4A07",
"H/.	c #023E0A",
"I/.	c #0E7935",
"J/.	c #1EA04E",
"K/.	c #158640",
"L/.	c #036914",
"M/.	c #388835",
"N/.	c #89C588",
"O/.	c #BBEBB6",
"P/.	c #CEF8CB",
"Q/.	c #DCF8DA",
"R/.	c #E9F8E7",
"S/.	c #EFF6ED",
"T/.	c #EAF5E5",
"U/.	c #D4F2D0",
"V/.	c #B2E1AC",
"W/.	c #7EB678",
"X/.	c #2A712C",
"Y/.	c #045712",
"Z/.	c #095A1A",
"`/.	c #164622",
" (.	c #0D2F0E",
".(.	c #276714",
"+(.	c #4DA52A",
"@(.	c #4B9E21",
"#(.	c #B1E28A",
"$(.	c #CBF3AA",
"%(.	c #577645",
"&(.	c #122202",
"*(.	c #242203",
"=(.	c #2E2D00",
"-(.	c #333704",
";(.	c #3E4008",
">(.	c #533F06",
",(.	c #5C4002",
"'(.	c #614101",
")(.	c #6E4304",
"!(.	c #6C4B09",
"~(.	c #74520E",
"{(.	c #7F5A14",
"](.	c #866219",
"^(.	c #8A6E1D",
"/(.	c #8B821C",
"((.	c #93921A",
"_(.	c #97A31A",
":(.	c #99AF20",
"<(.	c #9EC12D",
"[(.	c #A4CF43",
"}(.	c #BADC72",
"|(.	c #D7EDA6",
"1(.	c #EEF9D3",
"2(.	c #F5FBED",
"3(.	c #ECF9DB",
"4(.	c #B2DD97",
"5(.	c #51AC32",
"6(.	c #43A816",
"7(.	c #84D32F",
"8(.	c #CCF676",
"9(.	c #F3FCDA",
"0(.	c #CEE6B9",
"a(.	c #3B6521",
"b(.	c #2E531B",
"c(.	c #385327",
"d(.	c #3D5030",
"e(.	c #495F40",
"f(.	c #506C4A",
"g(.	c #4E644B",
"h(.	c #52664D",
"i(.	c #5A6B53",
"j(.	c #56634C",
"k(.	c #55624A",
"l(.	c #546349",
"m(.	c #546248",
"n(.	c #57634B",
"o(.	c #58624C",
"p(.	c #586249",
"q(.	c #606848",
"r(.	c #616245",
"s(.	c #635945",
"t(.	c #58473B",
"u(.	c #431B1B",
"v(.	c #421110",
"w(.	c #58100E",
"x(.	c #872626",
"y(.	c #EEA557",
"z(.	c #A94F40",
"A(.	c #A22730",
"B(.	c #B43240",
"C(.	c #C43B42",
"D(.	c #CC3F48",
"E(.	c #C33F41",
"F(.	c #CB3D42",
"G(.	c #D1373B",
"H(.	c #C76F57",
"I(.	c #FBECD8",
"J(.	c #D3816C",
"K(.	c #C83846",
"L(.	c #AB2A34",
"M(.	c #C02D32",
"N(.	c #F4B8A7",
"O(.	c #F4C8B4",
"P(.	c #9A2622",
"Q(.	c #782222",
"R(.	c #753135",
"S(.	c #5A1F22",
"T(.	c #591F20",
"U(.	c #4B171D",
"V(.	c #2B060A",
"W(.	c #451F22",
"X(.	c #301312",
"Y(.	c #351D19",
"Z(.	c #452B2C",
"`(.	c #291B1D",
" _.	c #221819",
"._.	c #281D1F",
"+_.	c #2F1919",
"@_.	c #442528",
"#_.	c #431013",
"$_.	c #571F24",
"%_.	c #6F2E31",
"&_.	c #76181E",
"*_.	c #941D29",
"=_.	c #B54138",
"-_.	c #E08B4B",
";_.	c #AC2621",
">_.	c #AB3D3B",
",_.	c #932525",
"'_.	c #CE653E",
")_.	c #FDDFC8",
"!_.	c #DC9B86",
"~_.	c #DB8357",
"{_.	c #D9855C",
"]_.	c #D5835E",
"^_.	c #D98056",
"/_.	c #DE815D",
"(_.	c #DF8667",
"__.	c #DEA490",
":_.	c #FDCEB1",
"<_.	c #BB4043",
"[_.	c #85161C",
"}_.	c #520E10",
"|_.	c #360306",
"1_.	c #2F0607",
"2_.	c #3B140C",
"3_.	c #392213",
"4_.	c #352F14",
"5_.	c #273305",
"6_.	c #225005",
"7_.	c #559822",
"8_.	c #CAEA9C",
"9_.	c #F0FDD6",
"0_.	c #B1E67B",
"a_.	c #76E02B",
"b_.	c #56A226",
"c_.	c #184C01",
"d_.	c #112506",
"e_.	c #151105",
"f_.	c #190901",
"g_.	c #170402",
"h_.	c #280104",
"i_.	c #3F0208",
"j_.	c #350206",
"k_.	c #2B0103",
"l_.	c #210201",
"m_.	c #230200",
"n_.	c #260200",
"o_.	c #2F0004",
"p_.	c #300004",
"q_.	c #340106",
"r_.	c #390408",
"s_.	c #3F060A",
"t_.	c #4E030A",
"u_.	c #4F050B",
"v_.	c #4F0407",
"w_.	c #570003",
"x_.	c #5E0104",
"y_.	c #620007",
"z_.	c #700109",
"A_.	c #84030F",
"B_.	c #9C1D26",
"C_.	c #C85C64",
"D_.	c #F3AFB3",
"E_.	c #FFDCE4",
"F_.	c #EEB2C3",
"G_.	c #BB455B",
"H_.	c #920415",
"I_.	c #730207",
"J_.	c #570303",
"K_.	c #390200",
"L_.	c #2B0201",
"M_.	c #210408",
"N_.	c #230C07",
"O_.	c #27160A",
"P_.	c #261E13",
"Q_.	c #212310",
"R_.	c #251D12",
"S_.	c #21160C",
"T_.	c #201103",
"U_.	c #240E00",
"V_.	c #280D00",
"W_.	c #2E0706",
"X_.	c #360509",
"Y_.	c #390407",
"Z_.	c #660004",
"`_.	c #88020B",
" :.	c #B64D5B",
".:.	c #F2C7CA",
"+:.	c #FBE2E2",
"@:.	c #D5929D",
"#:.	c #95272F",
"$:.	c #790406",
"%:.	c #570101",
"&:.	c #350101",
"*:.	c #280202",
"=:.	c #220308",
"-:.	c #1E0C0F",
";:.	c #140C04",
">:.	c #100404",
",:.	c #0E1003",
"':.	c #5E8742",
"):.	c #82BF56",
"!:.	c #3B8C09",
"~:.	c #30721A",
"{:.	c #124007",
"]:.	c #013F13",
"^:.	c #148A36",
"/:.	c #057926",
"(:.	c #267C20",
"_:.	c #8AC688",
"::.	c #D6F6D4",
"<:.	c #F1FBE0",
"[:.	c #F5FEDB",
"}:.	c #ECFDCD",
"|:.	c #DFF9BE",
"1:.	c #D5F8B5",
"2:.	c #D4F9B7",
"3:.	c #DEFBC7",
"4:.	c #F2FBDF",
"5:.	c #F9F7EC",
"6:.	c #F8F6EB",
"7:.	c #D8EFCD",
"8:.	c #7FB67F",
"9:.	c #226022",
"0:.	c #145014",
"a:.	c #124E0F",
"b:.	c #0B2E01",
"c:.	c #2D6913",
"d:.	c #4CAB20",
"e:.	c #4DA41F",
"f:.	c #B8EC88",
"g:.	c #A1D487",
"h:.	c #1D3712",
"i:.	c #21160A",
"j:.	c #291508",
"k:.	c #291A0B",
"l:.	c #381A0A",
"m:.	c #44220E",
"n:.	c #672516",
"o:.	c #842520",
"p:.	c #963A36",
"q:.	c #A33B34",
"r:.	c #A03129",
"s:.	c #9D2C22",
"t:.	c #97291B",
"u:.	c #8E2519",
"v:.	c #87221D",
"w:.	c #851D14",
"x:.	c #7A220E",
"y:.	c #692C09",
"z:.	c #693E0D",
"A:.	c #77600F",
"B:.	c #7D900E",
"C:.	c #7FB117",
"D:.	c #91CF3D",
"E:.	c #B9E582",
"F:.	c #E6F5D0",
"G:.	c #F4F8EF",
"H:.	c #D6F5BC",
"I:.	c #78BC51",
"J:.	c #2E8F0C",
"K:.	c #76BE26",
"L:.	c #C1EE79",
"M:.	c #D3FA99",
"N:.	c #57892B",
"O:.	c #20500E",
"P:.	c #26531A",
"Q:.	c #315E28",
"R:.	c #3B6B2E",
"S:.	c #437630",
"T:.	c #477B30",
"U:.	c #51823B",
"V:.	c #5D8C4A",
"W:.	c #5F8A4E",
"X:.	c #5F8A50",
"Y:.	c #608C4F",
"Z:.	c #638C4F",
"`:.	c #5F8749",
" <.	c #5E8547",
".<.	c #5D7F4B",
"+<.	c #647E57",
"@<.	c #5F7749",
"#<.	c #55673D",
"$<.	c #566241",
"%<.	c #656351",
"&<.	c #4B3D33",
"*<.	c #461311",
"=<.	c #CF7C52",
"-<.	c #E29453",
";<.	c #D6845D",
"><.	c #D98864",
",<.	c #DD8156",
"'<.	c #E1845C",
")<.	c #D98257",
"!<.	c #DC845F",
"~<.	c #DE8763",
"{<.	c #E0945D",
"]<.	c #FEC889",
"^<.	c #CE703B",
"/<.	c #CA3C48",
"(<.	c #AE2C34",
"_<.	c #C42E34",
":<.	c #F2B9A6",
"<<.	c #F5C9B6",
"[<.	c #992622",
"}<.	c #7B2525",
"|<.	c #793539",
"1<.	c #5C2225",
"2<.	c #581E1F",
"3<.	c #4D181E",
"4<.	c #2D070C",
"5<.	c #462023",
"6<.	c #321A16",
"7<.	c #452B2D",
"8<.	c #1F1318",
"9<.	c #3A302F",
"0<.	c #34171A",
"a<.	c #351719",
"b<.	c #412325",
"c<.	c #260206",
"d<.	c #431014",
"e<.	c #561E22",
"f<.	c #6C2B2D",
"g<.	c #75171D",
"h<.	c #951C2A",
"i<.	c #FBD9CD",
"j<.	c #E38C4C",
"k<.	c #B12723",
"l<.	c #AE413F",
"m<.	c #9B1C2B",
"n<.	c #D25839",
"o<.	c #FECAAE",
"p<.	c #FEDCC0",
"q<.	c #FEE2C9",
"r<.	c #FFE4CE",
"s<.	c #FDE2CF",
"t<.	c #FFE2D1",
"u<.	c #FEE3D3",
"v<.	c #FEE9D4",
"w<.	c #FFE4C7",
"x<.	c #FFBC8D",
"y<.	c #BB3440",
"z<.	c #85141C",
"A<.	c #5D1A1D",
"B<.	c #4E1E1F",
"C<.	c #37110F",
"D<.	c #37170B",
"E<.	c #34270D",
"F<.	c #2F3410",
"G<.	c #1B3A01",
"H<.	c #397913",
"I<.	c #9BC96C",
"J<.	c #EFFDCE",
"K<.	c #D0F2A8",
"L<.	c #7CD930",
"M<.	c #6ACA34",
"N<.	c #1E5302",
"O<.	c #162C02",
"P<.	c #181006",
"Q<.	c #1A0805",
"R<.	c #190400",
"S<.	c #200000",
"T<.	c #3C030A",
"U<.	c #410109",
"V<.	c #220200",
"W<.	c #310103",
"X<.	c #370204",
"Y<.	c #3C0307",
"Z<.	c #410309",
"`<.	c #44040B",
" [.	c #47060F",
".[.	c #4A040E",
"+[.	c #52050E",
"@[.	c #58050D",
"#[.	c #59040B",
"$[.	c #4E0905",
"%[.	c #5E0806",
"&[.	c #6F0307",
"*[.	c #7C010E",
"=[.	c #870A19",
"-[.	c #99282D",
";[.	c #C06060",
">[.	c #E29795",
",[.	c #F7C6C0",
"'[.	c #FEDEDF",
")[.	c #F8C7D2",
"![.	c #D27C81",
"~[.	c #A01B26",
"{[.	c #7D050B",
"][.	c #660A08",
"^[.	c #4C0902",
"/[.	c #330800",
"([.	c #2E0802",
"_[.	c #2A0A03",
":[.	c #211403",
"<[.	c #2D3A0A",
"[[.	c #698C51",
"}[.	c #65925E",
"|[.	c #45753A",
"1[.	c #335B23",
"2[.	c #2A501F",
"3[.	c #254321",
"4[.	c #253523",
"5[.	c #21221A",
"6[.	c #211A0C",
"7[.	c #271009",
"8[.	c #2A0B09",
"9[.	c #340908",
"0[.	c #48050A",
"a[.	c #57040C",
"b[.	c #710708",
"c[.	c #A3262F",
"d[.	c #DD909D",
"e[.	c #FDD6E6",
"f[.	c #F2C4C8",
"g[.	c #C66D6F",
"h[.	c #950F18",
"i[.	c #69020D",
"j[.	c #460106",
"k[.	c #210303",
"l[.	c #1B0607",
"m[.	c #0E0703",
"n[.	c #264214",
"o[.	c #A3D471",
"p[.	c #A9D17B",
"q[.	c #3B8E0D",
"r[.	c #2F700E",
"s[.	c #103D05",
"t[.	c #03340B",
"u[.	c #0C7335",
"v[.	c #088634",
"w[.	c #0D660D",
"x[.	c #46903A",
"y[.	c #B8E9AB",
"z[.	c #F1FAF0",
"A[.	c #F2F9E9",
"B[.	c #C5EC9E",
"C[.	c #96DA66",
"D[.	c #79CC3D",
"E[.	c #70D025",
"F[.	c #71D827",
"G[.	c #6CD52A",
"H[.	c #60CC25",
"I[.	c #70CF3E",
"J[.	c #9BE176",
"K[.	c #CAF2AD",
"L[.	c #EBFADD",
"M[.	c #ECF8EB",
"N[.	c #A1D9A7",
"O[.	c #2B7C33",
"P[.	c #104F10",
"Q[.	c #1A4318",
"R[.	c #073501",
"S[.	c #2D7A0E",
"T[.	c #4DAB1E",
"U[.	c #67AC38",
"V[.	c #B7F590",
"W[.	c #638A4F",
"X[.	c #201D06",
"Y[.	c #351B05",
"Z[.	c #482109",
"`[.	c #65230C",
" }.	c #792513",
".}.	c #A75146",
"+}.	c #E9B3A3",
"@}.	c #F8E2CC",
"#}.	c #F8E3D3",
"$}.	c #F6D7CC",
"%}.	c #F1CAC4",
"&}.	c #E7BDBA",
"*}.	c #DDB3B0",
"=}.	c #D7A2A1",
"-}.	c #D48B8C",
";}.	c #CA6A6E",
">}.	c #BD474C",
",}.	c #AE252A",
"'}.	c #A4191C",
")}.	c #921D17",
"!}.	c #713B04",
"~}.	c #77750C",
"{}.	c #82B121",
"]}.	c #91CC3D",
"^}.	c #C7E094",
"/}.	c #F0F9D8",
"(}.	c #DEFAC9",
"_}.	c #88C46E",
":}.	c #24750A",
"<}.	c #5C9E22",
"[}.	c #8BC350",
"}}.	c #2F670F",
"|}.	c #134D0A",
"1}.	c #225E15",
"2}.	c #2F6A1D",
"3}.	c #6A9852",
"4}.	c #B4D399",
"5}.	c #D9EBC6",
"6}.	c #E2F2D0",
"7}.	c #E6F7D8",
"8}.	c #E8F8DE",
"9}.	c #E7F7DF",
"0}.	c #E6F6D9",
"a}.	c #E7F6D9",
"b}.	c #E6F4DA",
"c}.	c #E5F0D7",
"d}.	c #DCEBCB",
"e}.	c #CFE4BC",
"f}.	c #BACCAA",
"g}.	c #8FA47E",
"h}.	c #5D7848",
"i}.	c #456431",
"j}.	c #4E5A35",
"k}.	c #513828",
"l}.	c #5C1113",
"m}.	c #932C2E",
"n}.	c #DFA589",
"o}.	c #FDDACC",
"p}.	c #FEDECE",
"q}.	c #FFE1D2",
"r}.	c #FFE0CD",
"s}.	c #FEE4CF",
"t}.	c #FDE5D0",
"u}.	c #FEDECA",
"v}.	c #FCB567",
"w}.	c #C95739",
"x}.	c #CB3C46",
"y}.	c #B42D34",
"z}.	c #CA2C34",
"A}.	c #F1B6A6",
"B}.	c #F4C9B5",
"C}.	c #9A2723",
"D}.	c #773337",
"E}.	c #5C2124",
"F}.	c #4B161C",
"G}.	c #2D080D",
"H}.	c #2C0A0D",
"I}.	c #451F21",
"J}.	c #331B17",
"K}.	c #382D2E",
"L}.	c #28191C",
"M}.	c #27191C",
"N}.	c #291E1F",
"O}.	c #1D1518",
"P}.	c #211515",
"Q}.	c #3B2427",
"R}.	c #402224",
"S}.	c #270307",
"T}.	c #421013",
"U}.	c #6D2C2E",
"V}.	c #B4413B",
"W}.	c #E38B4B",
"X}.	c #BB2624",
"Y}.	c #BD373A",
"Z}.	c #A71E2A",
"`}.	c #BB271B",
" |.	c #D34C39",
".|.	c #D75137",
"+|.	c #D95233",
"@|.	c #DC5338",
"#|.	c #D85238",
"$|.	c #D9523B",
"%|.	c #DF5035",
"&|.	c #D8574A",
"*|.	c #E75536",
"=|.	c #E7563B",
"-|.	c #ED6C55",
";|.	c #B52531",
">|.	c #84111B",
",|.	c #520B0E",
"'|.	c #3F0D0B",
")|.	c #380E07",
"!|.	c #3B1F0F",
"~|.	c #302B06",
"{|.	c #243206",
"]|.	c #28560B",
"^|.	c #5AA033",
"/|.	c #E1F7C1",
"(|.	c #EEFBC6",
"_|.	c #94D751",
":|.	c #73DC35",
"<|.	c #30750E",
"[|.	c #183501",
"}|.	c #1A1B00",
"||.	c #1E0A01",
"1|.	c #190302",
"2|.	c #1D0004",
"3|.	c #1A0002",
"4|.	c #340206",
"5|.	c #48070D",
"6|.	c #420206",
"7|.	c #1D0301",
"8|.	c #220204",
"9|.	c #300205",
"0|.	c #3A050B",
"a|.	c #44050F",
"b|.	c #4A0611",
"c|.	c #4B050E",
"d|.	c #4A030B",
"e|.	c #4C020B",
"f|.	c #4E010A",
"g|.	c #51010B",
"h|.	c #5E020D",
"i|.	c #6A020D",
"j|.	c #73010C",
"k|.	c #7D010D",
"l|.	c #930715",
"m|.	c #A7222C",
"n|.	c #C05357",
"o|.	c #D58C8B",
"p|.	c #EEB4B6",
"q|.	c #F9D1D9",
"r|.	c #FDE9E7",
"s|.	c #FBDCD8",
"t|.	c #F6B2B7",
"u|.	c #DE7782",
"v|.	c #B62B3C",
"w|.	c #970514",
"x|.	c #780A0C",
"y|.	c #5D0E05",
"z|.	c #4A0C02",
"A|.	c #340C01",
"B|.	c #230D02",
"C|.	c #250D02",
"D|.	c #1C1300",
"E|.	c #162604",
"F|.	c #4F7C3C",
"G|.	c #A6E9A6",
"H|.	c #B4F9D7",
"I|.	c #BBF7DA",
"J|.	c #AAE7C9",
"K|.	c #8BCBAC",
"L|.	c #63A87E",
"M|.	c #347E48",
"N|.	c #1E682D",
"O|.	c #1C4D27",
"P|.	c #1C3119",
"Q|.	c #1C2111",
"R|.	c #20170B",
"S|.	c #281106",
"T|.	c #330E06",
"U|.	c #51050A",
"V|.	c #6D020B",
"W|.	c #880714",
"X|.	c #B74D5C",
"Y|.	c #E6B1BA",
"Z|.	c #FCE0E8",
"`|.	c #EFAFBC",
" 1.	c #B95155",
".1.	c #7F080D",
"+1.	c #550108",
"@1.	c #330106",
"#1.	c #220309",
"$1.	c #101203",
"%1.	c #52853A",
"&1.	c #BEE785",
"*1.	c #549127",
"=1.	c #317310",
"-1.	c #174805",
";1.	c #02300C",
">1.	c #0A7131",
",1.	c #158939",
"'1.	c #05680F",
")1.	c #489847",
"!1.	c #C7F0BC",
"~1.	c #F5FAE7",
"{1.	c #DBF5BE",
"]1.	c #8ADA5F",
"^1.	c #67D01D",
"/1.	c #77E327",
"(1.	c #85F034",
"_1.	c #80E936",
":1.	c #79E03C",
"<1.	c #7AE04A",
"[1.	c #7EE54E",
"}1.	c #81E843",
"|1.	c #74D72C",
"11.	c #6DC920",
"21.	c #92D462",
"31.	c #D9F6B9",
"41.	c #EFF8E6",
"51.	c #BDDEC2",
"61.	c #2C7533",
"71.	c #0C560B",
"81.	c #113C0D",
"91.	c #144405",
"01.	c #368613",
"a1.	c #4CA419",
"b1.	c #87C855",
"c1.	c #9ACB73",
"d1.	c #1D2A03",
"e1.	c #3E200C",
"f1.	c #5D2213",
"g1.	c #742111",
"h1.	c #BD6A68",
"i1.	c #F7D8C7",
"j1.	c #FAEDDE",
"k1.	c #F9C7CC",
"l1.	c #F6B9BE",
"m1.	c #F6BFC3",
"n1.	c #F7CACD",
"o1.	c #FBDADA",
"p1.	c #FEE7E3",
"q1.	c #FAF2EA",
"r1.	c #FDF5ED",
"s1.	c #FEF0EB",
"t1.	c #FCE6E3",
"u1.	c #F2D3CD",
"v1.	c #DDA7A2",
"w1.	c #C1585F",
"x1.	c #A51B21",
"y1.	c #85170D",
"z1.	c #673907",
"A1.	c #7A952F",
"B1.	c #6FBC2A",
"C1.	c #9AD263",
"D1.	c #E7F8BD",
"E1.	c #E2FBBF",
"F1.	c #78AA50",
"G1.	c #10520A",
"H1.	c #1F5005",
"I1.	c #13450B",
"J1.	c #195A08",
"K1.	c #2B700E",
"L1.	c #89BC69",
"M1.	c #D8F7BD",
"N1.	c #EFFDDD",
"O1.	c #EDFBD7",
"P1.	c #EAF8CF",
"Q1.	c #E7F8C4",
"R1.	c #E4F7B8",
"S1.	c #E2F7B4",
"T1.	c #DEF7B2",
"U1.	c #E1F9B6",
"V1.	c #E4F9BB",
"W1.	c #E6FBBE",
"X1.	c #EDFDC5",
"Y1.	c #F5FDD3",
"Z1.	c #F8FDE3",
"`1.	c #EFFBDB",
" 2.	c #C9E4AA",
".2.	c #6F964D",
"+2.	c #466723",
"@2.	c #524F2D",
"#2.	c #502E21",
"$2.	c #5D120E",
"%2.	c #A12A23",
"&2.	c #D24F46",
"*2.	c #DD564B",
"=2.	c #E25849",
"-2.	c #E2554C",
";2.	c #D95437",
">2.	c #E05343",
",2.	c #E05744",
"'2.	c #DB5736",
")2.	c #D14641",
"!2.	c #C32E38",
"~2.	c #CD3A45",
"{2.	c #CD2732",
"]2.	c #F2B5A4",
"^2.	c #F3C7B4",
"/2.	c #9C2925",
"(2.	c #7A2324",
"_2.	c #783438",
":2.	c #591E21",
"<2.	c #551A1B",
"[2.	c #4C171D",
"}2.	c #2B090C",
"|2.	c #441E21",
"12.	c #321A17",
"22.	c #432A2B",
"32.	c #080202",
"42.	c #291C1F",
"52.	c #1B0405",
"62.	c #21141B",
"72.	c #221317",
"82.	c #221416",
"92.	c #0D0405",
"02.	c #392627",
"a2.	c #311719",
"b2.	c #321618",
"c2.	c #422426",
"d2.	c #2A090D",
"e2.	c #280307",
"f2.	c #400E12",
"g2.	c #4C1518",
"h2.	c #582121",
"i2.	c #703030",
"j2.	c #75151D",
"k2.	c #971B2D",
"l2.	c #B14239",
"m2.	c #FBD8CA",
"n2.	c #E18B4A",
"o2.	c #CE5E4E",
"p2.	c #E29385",
"q2.	c #DB8258",
"r2.	c #D97743",
"s2.	c #DA7744",
"t2.	c #D97A4A",
"u2.	c #D97A4C",
"v2.	c #DC7A4A",
"w2.	c #DE7B52",
"x2.	c #E17B4B",
"y2.	c #DE7A49",
"z2.	c #E07A50",
"A2.	c #E87D54",
"B2.	c #E37F49",
"C2.	c #EF7352",
"D2.	c #B11D29",
"E2.	c #7E0F18",
"F2.	c #43030A",
"G2.	c #310505",
"H2.	c #341205",
"I2.	c #3B290C",
"J2.	c #273405",
"K2.	c #1C3806",
"L2.	c #2F7A09",
"M2.	c #B0D984",
"N2.	c #F6F9DA",
"O2.	c #B9EA8B",
"P2.	c #75D526",
"Q2.	c #54A31C",
"R2.	c #144103",
"S2.	c #1C2504",
"T2.	c #1A1000",
"U2.	c #200501",
"V2.	c #1F0102",
"W2.	c #1E0002",
"X2.	c #1E0103",
"Y2.	c #47060C",
"Z2.	c #320103",
"`2.	c #270106",
" 3.	c #2A0109",
".3.	c #300106",
"+3.	c #3D0104",
"@3.	c #470307",
"#3.	c #49060B",
"$3.	c #4B080D",
"%3.	c #51060D",
"&3.	c #58020C",
"*3.	c #650009",
"=3.	c #6D020A",
"-3.	c #75010D",
";3.	c #860213",
">3.	c #950419",
",3.	c #9E1025",
"'3.	c #A32436",
")3.	c #AE4451",
"!3.	c #C77077",
"~3.	c #DF979D",
"{3.	c #F2B6C0",
"]3.	c #FBD8D9",
"^3.	c #FEEBE6",
"/3.	c #FEDFDC",
"(3.	c #F5C1C4",
"_3.	c #E393A0",
":3.	c #D66373",
"<3.	c #C23144",
"[3.	c #A61021",
"}3.	c #8E0A0F",
"|3.	c #780F05",
"13.	c #6C1408",
"23.	c #531305",
"33.	c #3F1505",
"43.	c #331602",
"53.	c #2B1801",
"63.	c #241901",
"73.	c #1E1901",
"83.	c #1A1C01",
"93.	c #132502",
"03.	c #163A03",
"a3.	c #1D5B19",
"b3.	c #26824B",
"c3.	c #39AE85",
"d3.	c #65D3B9",
"e3.	c #97EEE1",
"f3.	c #BCFBF3",
"g3.	c #B7F7EA",
"h3.	c #8AD9BA",
"i3.	c #439872",
"j3.	c #14673E",
"k3.	c #194727",
"l3.	c #1A2D13",
"m3.	c #162209",
"n3.	c #1A1906",
"o3.	c #2E0F0A",
"p3.	c #420C0A",
"q3.	c #600709",
"r3.	c #730507",
"s3.	c #93111F",
"t3.	c #C95D6C",
"u3.	c #EFC6C4",
"v3.	c #FDDBDB",
"w3.	c #E09A9A",
"x3.	c #982833",
"y3.	c #65070B",
"z3.	c #310402",
"A3.	c #1B2203",
"B3.	c #8ABD63",
"C3.	c #8AC45E",
"D3.	c #3A780A",
"E3.	c #2A540D",
"F3.	c #042C03",
"G3.	c #054E1C",
"H3.	c #1C8844",
"I3.	c #046310",
"J3.	c #2D912C",
"K3.	c #CCEDB1",
"L3.	c #F7FCE9",
"M3.	c #C9F1A8",
"N3.	c #75CC34",
"O3.	c #73DF29",
"P3.	c #75E832",
"Q3.	c #58BF2B",
"R3.	c #2F7E0E",
"S3.	c #155703",
"T3.	c #0D4D01",
"U3.	c #0F4F03",
"V3.	c #1F610B",
"W3.	c #489526",
"X3.	c #74CF40",
"Y3.	c #81E434",
"Z3.	c #7ADE17",
"`3.	c #6ED035",
" 4.	c #D4F2A8",
".4.	c #F5F8EF",
"+4.	c #96D29C",
"@4.	c #146718",
"#4.	c #12460E",
"$4.	c #0A2F03",
"%4.	c #235D0E",
"&4.	c #45951B",
"*4.	c #489316",
"=4.	c #88B850",
"-4.	c #3E440C",
";4.	c #501814",
">4.	c #771514",
",4.	c #B65357",
"'4.	c #FCD8DC",
")4.	c #FCDAD7",
"!4.	c #D76E70",
"~4.	c #CA182F",
"{4.	c #C70E24",
"]4.	c #BF1023",
"^4.	c #BB1826",
"/4.	c #C22732",
"(4.	c #CD3744",
"_4.	c #D64B5A",
":4.	c #DA6B74",
"<4.	c #DC898A",
"[4.	c #E7A8A0",
"}4.	c #F7C9C0",
"|4.	c #FDE3E3",
"14.	c #FDEBEE",
"24.	c #E5B4B8",
"34.	c #B4424A",
"44.	c #901414",
"54.	c #692106",
"64.	c #607F2C",
"74.	c #61B41A",
"84.	c #80BD4B",
"94.	c #E3FAB2",
"04.	c #D0ECAE",
"a4.	c #2A691D",
"b4.	c #153B05",
"c4.	c #124905",
"d4.	c #1D5F05",
"e4.	c #85C261",
"f4.	c #EFFBC9",
"g4.	c #E2FCC3",
"h4.	c #B4E681",
"i4.	c #7ACB3C",
"j4.	c #66C029",
"k4.	c #5EBF21",
"l4.	c #5AC11C",
"m4.	c #61C91E",
"n4.	c #68CA25",
"o4.	c #68CB25",
"p4.	c #6BCE28",
"q4.	c #6BCE27",
"r4.	c #6DCE2D",
"s4.	c #80D442",
"t4.	c #B1E56D",
"u4.	c #E2FBA4",
"v4.	c #F5FDC6",
"w4.	c #DEEDB6",
"x4.	c #558839",
"y4.	c #516226",
"z4.	c #5D4227",
"A4.	c #4D1E16",
"B4.	c #6D060D",
"C4.	c #BD5541",
"D4.	c #DB7A58",
"E4.	c #D57546",
"F4.	c #DC7451",
"G4.	c #DB784A",
"H4.	c #DE7D58",
"I4.	c #DF805A",
"J4.	c #E18048",
"K4.	c #E68B67",
"L4.	c #EA9580",
"M4.	c #E4927D",
"N4.	c #E17A48",
"O4.	c #CE4943",
"P4.	c #F0B29B",
"Q4.	c #F4C5AD",
"R4.	c #9E2C28",
"S4.	c #7F2327",
"T4.	c #7C3138",
"U4.	c #5A1E20",
"V4.	c #581B1D",
"W4.	c #4C161C",
"X4.	c #421E22",
"Y4.	c #301516",
"Z4.	c #311C19",
"`4.	c #412929",
" 5.	c #16090A",
".5.	c #060201",
"+5.	c #362C2B",
"@5.	c #2A1B1C",
"#5.	c #281E1D",
"$5.	c #0D0205",
"%5.	c #1D1015",
"&5.	c #1B0305",
"*5.	c #1E1118",
"=5.	c #231417",
"-5.	c #241518",
";5.	c #261515",
">5.	c #3C3030",
",5.	c #382627",
"'5.	c #301718",
")5.	c #432427",
"!5.	c #431115",
"~5.	c #4B1418",
"{5.	c #592222",
"]5.	c #713131",
"^5.	c #76161E",
"/5.	c #941E2D",
"(5.	c #B04334",
"_5.	c #FBD6C8",
":5.	c #E28A4A",
"<5.	c #EE9063",
"[5.	c #FCD6B9",
"}5.	c #FCD3B8",
"|5.	c #F7B362",
"15.	c #F8B153",
"25.	c #FBBD7E",
"35.	c #FAC28E",
"45.	c #FCC89D",
"55.	c #FACEAC",
"65.	c #FBD1B6",
"75.	c #FACEAF",
"85.	c #FAC392",
"95.	c #FBBF8C",
"05.	c #F3B275",
"a5.	c #E48454",
"b5.	c #9D182A",
"c5.	c #6C0A12",
"d5.	c #390104",
"e5.	c #2F0804",
"f5.	c #341908",
"g5.	c #302B0B",
"h5.	c #243005",
"i5.	c #214E04",
"j5.	c #60A241",
"k5.	c #E9F8C7",
"l5.	c #E4FBBE",
"m5.	c #7ED242",
"n5.	c #66CC24",
"o5.	c #276303",
"p5.	c #1A2C01",
"q5.	c #1D1501",
"r5.	c #1A0700",
"s5.	c #1D0304",
"t5.	c #510511",
"u5.	c #46050D",
"v5.	c #330201",
"w5.	c #320706",
"x5.	c #49050E",
"y5.	c #57010D",
"z5.	c #560207",
"A5.	c #5F0104",
"B5.	c #740106",
"C5.	c #991319",
"D5.	c #AB373D",
"E5.	c #C65C64",
"F5.	c #D87C86",
"G5.	c #DB9CA4",
"H5.	c #E4BCC1",
"I5.	c #F7D3D9",
"J5.	c #FFDCE5",
"K5.	c #FFE3EB",
"L5.	c #FFE5EC",
"M5.	c #FADFE1",
"N5.	c #F0C9C3",
"O5.	c #E99EA2",
"P5.	c #E16F7D",
"Q5.	c #C33C4F",
"R5.	c #A41A2D",
"S5.	c #950816",
"T5.	c #900310",
"U5.	c #7D0406",
"V5.	c #670F05",
"W5.	c #5B1A07",
"X5.	c #551E0B",
"Y5.	c #491F06",
"Z5.	c #3D2103",
"`5.	c #332401",
" 6.	c #282501",
".6.	c #212702",
"+6.	c #1D2801",
"@6.	c #192A00",
"#6.	c #182C01",
"$6.	c #182A01",
"%6.	c #1A2B05",
"&6.	c #1A330F",
"*6.	c #0F4212",
"=6.	c #08561A",
"-6.	c #096A32",
";6.	c #098654",
">6.	c #33AF8D",
",6.	c #76D7C7",
"'6.	c #A1F5EB",
")6.	c #B1FAF2",
"!6.	c #87D4C4",
"~6.	c #2F8466",
"{6.	c #145231",
"]6.	c #193219",
"^6.	c #162615",
"/6.	c #1F1C10",
"(6.	c #361201",
"_6.	c #4C0C00",
":6.	c #630A02",
"<6.	c #840708",
"[6.	c #A41D25",
"}6.	c #CF827A",
"|6.	c #F6D3C8",
"16.	c #F4C7D3",
"26.	c #A85A64",
"36.	c #55060A",
"46.	c #315218",
"56.	c #99D86F",
"66.	c #4F9025",
"76.	c #336908",
"86.	c #113402",
"96.	c #05300B",
"06.	c #116B32",
"a6.	c #0D7330",
"b6.	c #157009",
"c6.	c #98D684",
"d6.	c #EDFEDA",
"e6.	c #D5F4B4",
"f6.	c #78CC33",
"g6.	c #78E426",
"h6.	c #6BCA28",
"i6.	c #247107",
"j6.	c #0D4403",
"k6.	c #114C14",
"l6.	c #387D45",
"m6.	c #4A9D5D",
"n6.	c #479D5F",
"o6.	c #36804E",
"p6.	c #134F18",
"q6.	c #0A4901",
"r6.	c #3B8F16",
"s6.	c #70DC32",
"t6.	c #7DF023",
"u6.	c #83DA41",
"v6.	c #DDF9B9",
"w6.	c #E3FAD0",
"x6.	c #63A155",
"y6.	c #185F0E",
"z6.	c #0E3505",
"A6.	c #143F04",
"B6.	c #2E7307",
"C6.	c #4F9018",
"D6.	c #6C781F",
"E6.	c #573F0E",
"F6.	c #691511",
"G6.	c #A3252D",
"H6.	c #F4BFBC",
"I6.	c #FBE4DB",
"J6.	c #E1636E",
"K6.	c #B90718",
"L6.	c #9A0411",
"M6.	c #93010E",
"N6.	c #91010F",
"O6.	c #92020F",
"P6.	c #950110",
"Q6.	c #980311",
"R6.	c #99050F",
"S6.	c #A30311",
"T6.	c #B40418",
"U6.	c #C1031B",
"V6.	c #CA1026",
"W6.	c #CC4650",
"X6.	c #E79E9F",
"Y6.	c #FDE2DD",
"Z6.	c #F8D5D8",
"`6.	c #CB6C74",
" 7.	c #A8090F",
".7.	c #5A210A",
"+7.	c #62731A",
"@7.	c #64A717",
"#7.	c #98CC65",
"$7.	c #E0FEAC",
"%7.	c #80BA5F",
"&7.	c #0F3F06",
"*7.	c #174D03",
"=7.	c #529436",
"-7.	c #D8F7B5",
";7.	c #EFFACD",
">7.	c #94DB57",
",7.	c #66C31E",
"'7.	c #61B520",
")7.	c #57A71E",
"!7.	c #4A981A",
"~7.	c #459219",
"{7.	c #438F17",
"]7.	c #428D14",
"^7.	c #3F8A10",
"/7.	c #3F8912",
"(7.	c #428B14",
"_7.	c #478D15",
":7.	c #489114",
"<7.	c #439F0E",
"[7.	c #76C539",
"}7.	c #C5F389",
"|7.	c #EEFDC0",
"17.	c #B5D59C",
"27.	c #4E6C24",
"37.	c #525021",
"47.	c #4A2C18",
"57.	c #571411",
"67.	c #AA6540",
"77.	c #F9C39F",
"87.	c #FAD4BD",
"97.	c #FBD0B4",
"07.	c #FED3B6",
"a7.	c #FCD3B7",
"b7.	c #FCD0B2",
"c7.	c #FCD1B4",
"d7.	c #FCCBA4",
"e7.	c #F9CEB5",
"f7.	c #FBB98B",
"g7.	c #E37745",
"h7.	c #F0AF97",
"i7.	c #F4C7AD",
"j7.	c #9D2C27",
"k7.	c #7D3138",
"l7.	c #5C2022",
"m7.	c #5B1E20",
"n7.	c #421E23",
"o7.	c #050101",
"p7.	c #352B2A",
"q7.	c #160F17",
"r7.	c #1A0204",
"s7.	c #20131A",
"t7.	c #221316",
"u7.	c #241615",
"v7.	c #261616",
"w7.	c #392D2E",
"x7.	c #392628",
"y7.	c #301719",
"z7.	c #421014",
"A7.	c #4A1216",
"B7.	c #723232",
"C7.	c #771820",
"D7.	c #91212C",
"E7.	c #AE4540",
"F7.	c #FBCBAE",
"G7.	c #E18949",
"H7.	c #CF493C",
"I7.	c #C44F3D",
"J7.	c #B54337",
"K7.	c #B04031",
"L7.	c #B14237",
"M7.	c #AD4033",
"N7.	c #AA4031",
"O7.	c #AC4232",
"P7.	c #AD4338",
"Q7.	c #AC4231",
"R7.	c #AA3F30",
"S7.	c #AE3736",
"T7.	c #B12E30",
"U7.	c #A3282B",
"V7.	c #901721",
"W7.	c #7B0A15",
"X7.	c #56080D",
"Y7.	c #330504",
"Z7.	c #301106",
"`7.	c #31220A",
" 8.	c #252E0C",
".8.	c #1C3403",
"+8.	c #2E6A08",
"@8.	c #A8D788",
"#8.	c #F8FCE2",
"$8.	c #B1EA84",
"%8.	c #6CD81F",
"&8.	c #46A112",
"*8.	c #1E3B09",
"=8.	c #241701",
"-8.	c #220701",
";8.	c #1F0403",
">8.	c #1F0205",
",8.	c #230103",
"'8.	c #330204",
")8.	c #490A0C",
"!8.	c #420407",
"~8.	c #380204",
"{8.	c #390306",
"]8.	c #4B030A",
"^8.	c #5A0606",
"/8.	c #700408",
"(8.	c #8D0510",
"_8.	c #A31E28",
":8.	c #BD555B",
"<8.	c #D68F91",
"[8.	c #ECBCBA",
"}8.	c #F8D5DF",
"|8.	c #FEE3ED",
"18.	c #FEE6ED",
"28.	c #FDD9E5",
"38.	c #F8C3D5",
"48.	c #F2B7C1",
"58.	c #E6A2AD",
"68.	c #D78291",
"78.	c #C65A6E",
"88.	c #B6354A",
"98.	c #AB1828",
"08.	c #920816",
"a8.	c #7F070E",
"b8.	c #7A060C",
"c8.	c #760509",
"d8.	c #670805",
"e8.	c #5C0708",
"f8.	c #510C07",
"g8.	c #4B1604",
"h8.	c #462001",
"i8.	c #402801",
"j8.	c #362C01",
"k8.	c #2A3400",
"l8.	c #274004",
"m8.	c #275606",
"n8.	c #2F680C",
"o8.	c #397316",
"p8.	c #3D7818",
"q8.	c #387513",
"r8.	c #3A721E",
"s8.	c #376715",
"t8.	c #335B09",
"u8.	c #295207",
"v8.	c #1B4C06",
"w8.	c #13580E",
"x8.	c #096220",
"y8.	c #036535",
"z8.	c #027350",
"A8.	c #1A9A79",
"B8.	c #62D0BE",
"C8.	c #A3F8F1",
"D8.	c #A6F3E9",
"E8.	c #52A38A",
"F8.	c #0B5733",
"G8.	c #133C18",
"H8.	c #172C0E",
"I8.	c #19290B",
"J8.	c #1C2508",
"K8.	c #241D04",
"L8.	c #2F1200",
"M8.	c #450E02",
"N8.	c #6A0B09",
"O8.	c #A93741",
"P8.	c #D79FA6",
"Q8.	c #F0B3B5",
"R8.	c #671113",
"S8.	c #536B2B",
"T8.	c #8ECE61",
"U8.	c #367507",
"V8.	c #255004",
"W8.	c #0A2806",
"X8.	c #093F1B",
"Y8.	c #127539",
"Z8.	c #086315",
"`8.	c #56A635",
" 9.	c #E1F9BA",
".9.	c #E9FDD4",
"+9.	c #89D445",
"@9.	c #78E235",
"#9.	c #57BB1C",
"$9.	c #145A02",
"%9.	c #043D04",
"&9.	c #2D6536",
"*9.	c #4C9159",
"=9.	c #448E52",
"-9.	c #397E49",
";9.	c #34784D",
">9.	c #469364",
",9.	c #519A5D",
"'9.	c #25622E",
")9.	c #074005",
"!9.	c #2C7411",
"~9.	c #84DF25",
"{9.	c #7CF01D",
"]9.	c #9DE36B",
"^9.	c #F2FEDA",
"/9.	c #B3E69E",
"(9.	c #257311",
"_9.	c #164508",
":9.	c #0D2A02",
"<9.	c #2A6008",
"[9.	c #4F8518",
"}9.	c #6F631A",
"|9.	c #693711",
"19.	c #7D110C",
"29.	c #D6686D",
"39.	c #FFE5E5",
"49.	c #EB9598",
"59.	c #C3091C",
"69.	c #930208",
"79.	c #740005",
"89.	c #5E0004",
"99.	c #5B0104",
"09.	c #5D0105",
"a9.	c #620106",
"b9.	c #660106",
"c9.	c #690204",
"d9.	c #710208",
"e9.	c #77030A",
"f9.	c #8A020F",
"g9.	c #A70214",
"h9.	c #B70F1D",
"i9.	c #D06368",
"j9.	c #F9D6D3",
"k9.	c #F9E4DE",
"l9.	c #CF5E66",
"m9.	c #960F11",
"n9.	c #612406",
"o9.	c #63831D",
"p9.	c #5FA51C",
"q9.	c #C6E97F",
"r9.	c #B4EB7F",
"s9.	c #225A13",
"t9.	c #1D5002",
"u9.	c #90C06B",
"v9.	c #EEFED5",
"w9.	c #AEE886",
"x9.	c #61CF1A",
"y9.	c #448C10",
"z9.	c #2A5805",
"A9.	c #2B4A03",
"B9.	c #334302",
"C9.	c #353B01",
"D9.	c #393F03",
"E9.	c #394601",
"F9.	c #3B4703",
"G9.	c #3E4807",
"H9.	c #3C4306",
"I9.	c #3C3F03",
"J9.	c #323D04",
"K9.	c #2D5608",
"L9.	c #488A05",
"M9.	c #80C739",
"N9.	c #D8F99B",
"O9.	c #E7F6CF",
"P9.	c #6C9248",
"Q9.	c #425D1A",
"R9.	c #453C18",
"S9.	c #411E10",
"T9.	c #6D181B",
"U9.	c #9E2932",
"V9.	c #A5372D",
"W9.	c #A04238",
"X9.	c #AA4631",
"Y9.	c #B04738",
"Z9.	c #AF4538",
"`9.	c #B1432F",
" 0.	c #BD3430",
".0.	c #C03D3F",
"+0.	c #D5483F",
"@0.	c #CA2A32",
"#0.	c #F1AE96",
"$0.	c #F5C8AE",
"%0.	c #9C2B26",
"&0.	c #7E2126",
"*0.	c #7E3238",
"=0.	c #5D2123",
"-0.	c #571A1C",
";0.	c #4C151C",
">0.	c #411E22",
",0.	c #311B19",
"'0.	c #342B2A",
")0.	c #271718",
"!0.	c #1E1016",
"~0.	c #171018",
"{0.	c #1F1219",
"]0.	c #271616",
"^0.	c #372B2C",
"/0.	c #0A0607",
"(0.	c #3A2729",
"_0.	c #4B1317",
":0.	c #92212A",
"<0.	c #AE4542",
"[0.	c #FBCAAA",
"}0.	c #DF8340",
"|0.	c #AE202A",
"10.	c #880E1C",
"20.	c #74010F",
"30.	c #6A010D",
"40.	c #67000D",
"50.	c #66000E",
"60.	c #65000E",
"70.	c #64010C",
"80.	c #63010B",
"90.	c #64020E",
"00.	c #600511",
"a0.	c #5B0911",
"b0.	c #590610",
"c0.	c #59020D",
"d0.	c #53020B",
"e0.	c #400709",
"f0.	c #3A1712",
"g0.	c #2C1504",
"h0.	c #2F2B0D",
"i0.	c #1C2C05",
"j0.	c #1D4C02",
"k0.	c #539034",
"l0.	c #E0F5C1",
"m0.	c #E2FCC4",
"n0.	c #7BD640",
"o0.	c #69CB27",
"p0.	c #2A6302",
"q0.	c #242109",
"r0.	c #270B02",
"s0.	c #270302",
"t0.	c #230404",
"u0.	c #250202",
"v0.	c #540A10",
"w0.	c #4A0104",
"x0.	c #340300",
"y0.	c #530105",
"z0.	c #5A010A",
"A0.	c #63020C",
"B0.	c #7A020F",
"C0.	c #9E0C1F",
"D0.	c #C24955",
"E0.	c #E29599",
"F0.	c #F5C6C4",
"G0.	c #FEE5DE",
"H0.	c #FFDFDF",
"I0.	c #FAC2CB",
"J0.	c #EA9CA7",
"K0.	c #DA7481",
"L0.	c #CF5261",
"M0.	c #BB3642",
"N0.	c #A52029",
"O0.	c #A40C1D",
"P0.	c #980414",
"Q0.	c #88020C",
"R0.	c #7D0609",
"S0.	c #750808",
"T0.	c #6F080A",
"U0.	c #6B0608",
"V0.	c #630506",
"W0.	c #580504",
"X0.	c #4D0501",
"Y0.	c #430603",
"Z0.	c #360909",
"`0.	c #271606",
" a.	c #212C00",
".a.	c #2A4901",
"+a.	c #3B6A0C",
"@a.	c #4B8217",
"#a.	c #55961A",
"$a.	c #62AB23",
"%a.	c #73B837",
"&a.	c #83C14B",
"*a.	c #90CA5A",
"=a.	c #97CE64",
"-a.	c #98CE66",
";a.	c #94C964",
">a.	c #85BC50",
",a.	c #6FAA35",
"'a.	c #58971F",
")a.	c #4B8D1F",
"!a.	c #498323",
"~a.	c #33771C",
"{a.	c #1A5F14",
"]a.	c #0A5318",
"^a.	c #065D29",
"/a.	c #04714E",
"(a.	c #2FB18D",
"_a.	c #83EFDB",
":a.	c #A9F8F2",
"<a.	c #51A78F",
"[a.	c #0E5D2F",
"}a.	c #144616",
"|a.	c #163E05",
"1a.	c #1C4105",
"2a.	c #253D06",
"3a.	c #2B3D05",
"4a.	c #222E00",
"5a.	c #2C1B01",
"6a.	c #3C1105",
"7a.	c #560B03",
"8a.	c #6D0D13",
"9a.	c #82292A",
"0a.	c #461303",
"aa.	c #6D924B",
"ba.	c #6CA740",
"ca.	c #316706",
"da.	c #1C3904",
"ea.	c #08240D",
"fa.	c #0F5528",
"ga.	c #106B2D",
"ha.	c #18750F",
"ia.	c #94D36C",
"ja.	c #F4FCD5",
"ka.	c #C2F096",
"la.	c #79E027",
"ma.	c #60C22B",
"na.	c #0F5009",
"oa.	c #053503",
"pa.	c #265C29",
"qa.	c #398242",
"ra.	c #15561B",
"sa.	c #1A491A",
"ta.	c #264323",
"ua.	c #2E3C20",
"va.	c #3C4F24",
"wa.	c #255930",
"xa.	c #307551",
"ya.	c #185A28",
"za.	c #054700",
"Aa.	c #3E7B09",
"Ba.	c #8BED32",
"Ca.	c #71DD29",
"Da.	c #D1F5B8",
"Ea.	c #DDFCC9",
"Fa.	c #579440",
"Ga.	c #1E5C0C",
"Ha.	c #0A2701",
"Ia.	c #254C05",
"Ja.	c #47720E",
"Ka.	c #655616",
"La.	c #722A0F",
"Ma.	c #A11820",
"Na.	c #EEAEB1",
"Oa.	c #FECED9",
"Pa.	c #C93849",
"Qa.	c #9B0613",
"Ra.	c #73000A",
"Sa.	c #4F0201",
"Ta.	c #460303",
"Ua.	c #400102",
"Va.	c #440103",
"Wa.	c #410206",
"Xa.	c #440207",
"Ya.	c #4A0108",
"Za.	c #55010C",
"`a.	c #68000D",
" b.	c #83040D",
".b.	c #B60415",
"+b.	c #D45757",
"@b.	c #F6DED8",
"#b.	c #F5CBCD",
"$b.	c #B12A2A",
"%b.	c #7A1308",
"&b.	c #56410F",
"*b.	c #688B17",
"=b.	c #8DB642",
"-b.	c #BBFB7A",
";b.	c #538F32",
">b.	c #245C0B",
",b.	c #ADD783",
"'b.	c #DBF8B9",
")b.	c #73D63A",
"!b.	c #3E9010",
"~b.	c #363B0E",
"{b.	c #402E14",
"]b.	c #4B270B",
"^b.	c #5D2309",
"/b.	c #69220C",
"(b.	c #70230F",
"_b.	c #7B2110",
":b.	c #7D2011",
"<b.	c #801F12",
"[b.	c #801C0F",
"}b.	c #791D0F",
"|b.	c #6D1F13",
"1b.	c #632317",
"2b.	c #4C4309",
"3b.	c #619910",
"4b.	c #AFE463",
"5b.	c #F2FDD5",
"6b.	c #A0C375",
"7b.	c #3A6018",
"8b.	c #3F4313",
"9b.	c #3A2610",
"0b.	c #4E1A13",
"ab.	c #500709",
"bb.	c #56050B",
"cb.	c #5D010A",
"db.	c #5E0111",
"eb.	c #600314",
"fb.	c #620315",
"gb.	c #640215",
"hb.	c #650314",
"ib.	c #650306",
"jb.	c #79020F",
"kb.	c #A0091D",
"lb.	c #BE202A",
"mb.	c #EFB4A0",
"nb.	c #9B2925",
"ob.	c #7D1F24",
"pb.	c #591D1F",
"qb.	c #401D21",
"rb.	c #2F1414",
"sb.	c #301A18",
"tb.	c #170A0B",
"ub.	c #2C1C1D",
"vb.	c #1A1112",
"wb.	c #1E1117",
"xb.	c #201319",
"yb.	c #251619",
"zb.	c #251716",
"Ab.	c #0C0305",
"Bb.	c #3A2628",
"Cb.	c #311618",
"Db.	c #311517",
"Eb.	c #260105",
"Fb.	c #3F0E12",
"Gb.	c #4D1519",
"Hb.	c #74151C",
"Ib.	c #931F28",
"Jb.	c #B14641",
"Kb.	c #FBD0B8",
"Lb.	c #DA7E3A",
"Mb.	c #A21820",
"Nb.	c #810C18",
"Ob.	c #69010A",
"Pb.	c #5F0209",
"Qb.	c #5B0209",
"Rb.	c #5D0209",
"Sb.	c #5F030B",
"Tb.	c #60050C",
"Ub.	c #60090D",
"Vb.	c #620E0F",
"Wb.	c #651113",
"Xb.	c #671016",
"Yb.	c #680E16",
"Zb.	c #660F16",
"`b.	c #551312",
" c.	c #480F11",
".c.	c #390D0E",
"+c.	c #391D14",
"@c.	c #2F1E07",
"#c.	c #292B09",
"$c.	c #1B2F03",
"%c.	c #276908",
"&c.	c #F9FBE1",
"*c.	c #B7EF91",
"=c.	c #6FD92B",
"-c.	c #529C20",
";c.	c #243800",
">c.	c #281402",
",c.	c #250602",
"'c.	c #270402",
")c.	c #250201",
"!c.	c #380305",
"~c.	c #550D11",
"{c.	c #4A0203",
"]c.	c #3F0204",
"^c.	c #5D0206",
"/c.	c #650204",
"(c.	c #7A0508",
"_c.	c #9E272D",
":c.	c #CE6D6F",
"<c.	c #F2B9BA",
"[c.	c #FDDEE4",
"}c.	c #FBDDE6",
"|c.	c #EDB9C5",
"1c.	c #DB8490",
"2c.	c #C44653",
"3c.	c #B01929",
"4c.	c #A00415",
"5c.	c #91000C",
"6c.	c #84010A",
"7c.	c #7C040A",
"8c.	c #73070A",
"9c.	c #64090B",
"0c.	c #5B0909",
"ac.	c #550809",
"bc.	c #4A0303",
"cc.	c #400603",
"dc.	c #310702",
"ec.	c #290903",
"fc.	c #260C02",
"gc.	c #211001",
"hc.	c #201306",
"ic.	c #192402",
"jc.	c #285309",
"kc.	c #6A9D46",
"lc.	c #95C26E",
"mc.	c #B4D891",
"nc.	c #D2EDB3",
"oc.	c #E4F7C5",
"pc.	c #EFFED3",
"qc.	c #F4FEDC",
"rc.	c #F5FDDF",
"sc.	c #F7FCE5",
"tc.	c #FAFDE8",
"uc.	c #F5FDDA",
"vc.	c #F0FDD9",
"wc.	c #ECFCDC",
"xc.	c #DEF4C5",
"yc.	c #C7E09D",
"zc.	c #9ABF6C",
"Ac.	c #59943A",
"Bc.	c #2A7211",
"Cc.	c #175A10",
"Dc.	c #084D18",
"Ec.	c #045622",
"Fc.	c #046C42",
"Gc.	c #119673",
"Hc.	c #70DFCD",
"Ic.	c #9EF7F0",
"Jc.	c #41A187",
"Kc.	c #10642E",
"Lc.	c #4B8135",
"Mc.	c #A2CB76",
"Nc.	c #92BC69",
"Oc.	c #5B903A",
"Pc.	c #336A08",
"Qc.	c #2E560A",
"Rc.	c #2B3909",
"Sc.	c #252202",
"Tc.	c #330C0B",
"Uc.	c #340904",
"Vc.	c #261602",
"Wc.	c #699045",
"Xc.	c #3D7D14",
"Yc.	c #245101",
"Zc.	c #162A05",
"`c.	c #052612",
" d.	c #11612C",
".d.	c #065A15",
"+d.	c #21840E",
"@d.	c #BBF093",
"#d.	c #F2FCE3",
"$d.	c #A5EF5F",
"%d.	c #6DDA2D",
"&d.	c #348114",
"*d.	c #073302",
"=d.	c #08300A",
"-d.	c #2B6328",
";d.	c #21501F",
">d.	c #274624",
",d.	c #263D21",
"'d.	c #203A1B",
")d.	c #1F3D1C",
"!d.	c #274622",
"~d.	c #26451F",
"{d.	c #264727",
"]d.	c #335F38",
"^d.	c #0A430B",
"/d.	c #0A4E08",
"(d.	c #70B924",
"_d.	c #80EC24",
":d.	c #ADE882",
"<d.	c #F6FDDE",
"[d.	c #91BD78",
"}d.	c #256E11",
"|d.	c #0E3004",
"1d.	c #1F3B01",
"2d.	c #476106",
"3d.	c #644D17",
"4d.	c #791C0C",
"5d.	c #C02837",
"6d.	c #F9D3D4",
"7d.	c #F2B9BF",
"8d.	c #B80F27",
"9d.	c #8A0215",
"0d.	c #5A010D",
"ad.	c #3F0400",
"bd.	c #3C0100",
"cd.	c #380100",
"dd.	c #390201",
"ed.	c #380202",
"fd.	c #410003",
"gd.	c #450004",
"hd.	c #4C0006",
"id.	c #4C0407",
"jd.	c #650109",
"kd.	c #980110",
"ld.	c #BA0814",
"md.	c #ED8086",
"nd.	c #FDE9ED",
"od.	c #D2757D",
"pd.	c #85100E",
"qd.	c #621A05",
"rd.	c #686A0F",
"sd.	c #5C850A",
"td.	c #9FE65A",
"ud.	c #6AA63D",
"vd.	c #185706",
"wd.	c #A0DF78",
"xd.	c #B6E87C",
"yd.	c #60AC2B",
"zd.	c #354E02",
"Ad.	c #453108",
"Bd.	c #591D0B",
"Cd.	c #6F170A",
"Dd.	c #811E1D",
"Ed.	c #A8575C",
"Fd.	c #C87C83",
"Gd.	c #CE8B8E",
"Hd.	c #D18F90",
"Id.	c #D28D8D",
"Jd.	c #CF8785",
"Kd.	c #BF7076",
"Ld.	c #A63B40",
"Md.	c #821B04",
"Nd.	c #62320F",
"Od.	c #5B720A",
"Pd.	c #8ECC36",
"Qd.	c #EDFDC6",
"Rd.	c #C3E291",
"Sd.	c #3E6721",
"Td.	c #39460E",
"Ud.	c #313111",
"Vd.	c #3F1D10",
"Wd.	c #480B0B",
"Xd.	c #51070D",
"Yd.	c #57040E",
"Zd.	c #5C040E",
"`d.	c #5F060F",
" e.	c #5E040E",
".e.	c #5F050D",
"+e.	c #5A0509",
"@e.	c #5E050C",
"#e.	c #7F0815",
"$e.	c #B21B25",
"%e.	c #F2B29C",
"&e.	c #F4C6AE",
"*e.	c #9A2823",
"=e.	c #7A1D22",
"-e.	c #7C3036",
";e.	c #591C1F",
">e.	c #55181B",
",e.	c #280609",
"'e.	c #411E23",
")e.	c #2E1916",
"!e.	c #422A2A",
"~e.	c #060202",
"{e.	c #352B2B",
"]e.	c #1B1213",
"^e.	c #160F16",
"/e.	c #2F1917",
"(e.	c #1B0503",
"_e.	c #1F1214",
":e.	c #090505",
"<e.	c #321416",
"[e.	c #28070B",
"}e.	c #240104",
"|e.	c #401013",
"1e.	c #4C1418",
"2e.	c #5A2021",
"3e.	c #6E3030",
"4e.	c #6F171B",
"5e.	c #8B1D26",
"6e.	c #AF4637",
"7e.	c #FCDACA",
"8e.	c #D58039",
"9e.	c #9A141C",
"0e.	c #790D16",
"ae.	c #4E0006",
"be.	c #4A0002",
"ce.	c #4C0001",
"de.	c #4E0001",
"ee.	c #4D0001",
"fe.	c #4D0202",
"ge.	c #4D0302",
"he.	c #4C0305",
"ie.	c #4C0207",
"je.	c #4C0308",
"ke.	c #4B0509",
"le.	c #460407",
"me.	c #390605",
"ne.	c #2C130A",
"oe.	c #2C2703",
"pe.	c #202904",
"qe.	c #204106",
"re.	c #357C15",
"se.	c #C5EB9E",
"te.	c #EEFEDE",
"ue.	c #8BDB58",
"ve.	c #6DCD26",
"we.	c #395F04",
"xe.	c #292302",
"ye.	c #271201",
"ze.	c #2B0500",
"Ae.	c #2A0302",
"Be.	c #360302",
"Ce.	c #550D0F",
"De.	c #4F0307",
"Ee.	c #470202",
"Fe.	c #86010C",
"Ge.	c #A12B3A",
"He.	c #D48592",
"Ie.	c #F7C8CC",
"Je.	c #FEE5E1",
"Ke.	c #F9CCCB",
"Le.	c #E38F99",
"Me.	c #C34252",
"Ne.	c #A81121",
"Oe.	c #950311",
"Pe.	c #86010A",
"Qe.	c #7B0308",
"Re.	c #730408",
"Se.	c #6D040A",
"Te.	c #63030C",
"Ue.	c #5A0307",
"Ve.	c #530402",
"We.	c #4A0601",
"Xe.	c #430600",
"Ye.	c #3D0801",
"Ze.	c #360A01",
"`e.	c #310901",
" f.	c #300802",
".f.	c #280B02",
"+f.	c #211004",
"@f.	c #1D1205",
"#f.	c #1A1704",
"$f.	c #161B08",
"%f.	c #161D0A",
"&f.	c #113401",
"*f.	c #578B39",
"=f.	c #D2F7B3",
"-f.	c #F0FFDB",
";f.	c #EFFFDB",
">f.	c #E5FBCB",
",f.	c #DDF8BA",
"'f.	c #D3F4AE",
")f.	c #CBF0A8",
"!f.	c #C4EDA3",
"~f.	c #BEEA9E",
"{f.	c #BCEA9D",
"]f.	c #BCEB99",
"^f.	c #BFECA2",
"/f.	c #C9F1B2",
"(f.	c #D8F8C2",
"_f.	c #E6FCCE",
":f.	c #F2FEDD",
"<f.	c #E4FAD1",
"[f.	c #BAE1A7",
"}f.	c #639659",
"|f.	c #074E16",
"1f.	c #014E1C",
"2f.	c #035021",
"3f.	c #036237",
"4f.	c #16916F",
"5f.	c #6BE5D2",
"6f.	c #8DECE1",
"7f.	c #1B8655",
"8f.	c #7DC669",
"9f.	c #DBFCAF",
"0f.	c #EEFCCC",
"af.	c #EAFAC6",
"bf.	c #CBE6AE",
"cf.	c #9CBE7B",
"df.	c #558135",
"ef.	c #244C06",
"ff.	c #1F2806",
"gf.	c #171705",
"hf.	c #150F02",
"if.	c #3A5727",
"jf.	c #215207",
"kf.	c #1B3A04",
"lf.	c #0A2002",
"mf.	c #083415",
"nf.	c #135A2B",
"of.	c #086311",
"pf.	c #349313",
"qf.	c #CDF7A7",
"rf.	c #EEFECB",
"sf.	c #94EC50",
"tf.	c #5EC728",
"uf.	c #105602",
"vf.	c #042F03",
"wf.	c #0A390A",
"xf.	c #1C5425",
"yf.	c #1C441F",
"zf.	c #1B3A1B",
"Af.	c #1D3618",
"Bf.	c #1D3419",
"Cf.	c #243D22",
"Df.	c #1C3518",
"Ef.	c #293F21",
"Ff.	c #274423",
"Gf.	c #29542D",
"Hf.	c #144619",
"If.	c #094703",
"Jf.	c #357F15",
"Kf.	c #8CF439",
"Lf.	c #9AE55E",
"Mf.	c #EDFFD5",
"Nf.	c #ABD696",
"Of.	c #2E7619",
"Pf.	c #1D3F0B",
"Qf.	c #1D3502",
"Rf.	c #465808",
"Sf.	c #5D390F",
"Tf.	c #731307",
"Uf.	c #C14147",
"Vf.	c #FCDCDD",
"Wf.	c #EC9CA2",
"Xf.	c #B00720",
"Yf.	c #7C0210",
"Zf.	c #46070A",
"`f.	c #400302",
" g.	c #300100",
".g.	c #2D0101",
"+g.	c #2C0201",
"@g.	c #410303",
"#g.	c #4A0408",
"$g.	c #510209",
"%g.	c #76010C",
"&g.	c #B90213",
"*g.	c #DC2D38",
"=g.	c #E8A4A7",
"-g.	c #961315",
";g.	c #6B100A",
">g.	c #554908",
",g.	c #5C650E",
"'g.	c #70943B",
")g.	c #3C621C",
"!g.	c #0D3803",
"~g.	c #83C554",
"{g.	c #8DDE56",
"]g.	c #4C8C19",
"^g.	c #373802",
"/g.	c #4E250F",
"(g.	c #661D10",
"_g.	c #9E353A",
":g.	c #E4B8B6",
"<g.	c #FCE8EB",
"[g.	c #FFE3EA",
"}g.	c #FDE1E2",
"|g.	c #FCE2E3",
"1g.	c #FCE3E3",
"2g.	c #FDE8E5",
"3g.	c #FDEFF1",
"4g.	c #FAD9D5",
"5g.	c #C6787C",
"6g.	c #86210F",
"7g.	c #625202",
"8g.	c #7EB722",
"9g.	c #EDF8AB",
"0g.	c #DBF3B5",
"ag.	c #467E2C",
"bg.	c #2E4709",
"cg.	c #2F3509",
"dg.	c #33200D",
"eg.	c #3B0E0C",
"fg.	c #410108",
"gg.	c #470106",
"hg.	c #490103",
"ig.	c #4C0103",
"jg.	c #4E0102",
"kg.	c #500001",
"lg.	c #500000",
"mg.	c #520307",
"ng.	c #5E070D",
"og.	c #750B10",
"pg.	c #B31923",
"qg.	c #F2B69C",
"rg.	c #F4C6B6",
"sg.	c #9A2920",
"tg.	c #791A22",
"ug.	c #7F3133",
"vg.	c #5B1C23",
"wg.	c #561B1E",
"xg.	c #4B161E",
"yg.	c #28050B",
"zg.	c #27080B",
"Ag.	c #3F1D22",
"Bg.	c #2F1517",
"Cg.	c #2C1816",
"Dg.	c #3D2627",
"Eg.	c #15090A",
"Fg.	c #050204",
"Gg.	c #352D30",
"Hg.	c #26171B",
"Ig.	c #251517",
"Jg.	c #281718",
"Kg.	c #0B0204",
"Lg.	c #201416",
"Mg.	c #331618",
"Ng.	c #401114",
"Og.	c #4E161A",
"Pg.	c #592020",
"Qg.	c #6D161A",
"Rg.	c #891C25",
"Sg.	c #AF4437",
"Tg.	c #FCDACB",
"Ug.	c #D37F39",
"Vg.	c #97131B",
"Wg.	c #771017",
"Xg.	c #440003",
"Yg.	c #3F0001",
"Zg.	c #3F0000",
"`g.	c #3C0001",
" h.	c #3B0001",
".h.	c #380000",
"+h.	c #310100",
"@h.	c #260404",
"#h.	c #2B1608",
"$h.	c #2C2B07",
"%h.	c #1B2901",
"&h.	c #275207",
"*h.	c #569D30",
"=h.	c #ECFCC8",
"-h.	c #D3F8B7",
";h.	c #6FD32E",
">h.	c #60AA21",
",h.	c #363A00",
"'h.	c #341202",
")h.	c #2D0B02",
"!h.	c #2C0101",
"~h.	c #510A0B",
"{h.	c #4C0300",
"]h.	c #760304",
"^h.	c #90141C",
"/h.	c #C1737A",
"(h.	c #F5C9D8",
"_h.	c #FFE4F4",
":h.	c #F7C5CD",
"<h.	c #D47380",
"[h.	c #B62838",
"}h.	c #A50311",
"|h.	c #92020B",
"1h.	c #81010B",
"2h.	c #74010A",
"3h.	c #590105",
"4h.	c #4D0300",
"5h.	c #470400",
"6h.	c #3A0401",
"7h.	c #350602",
"8h.	c #2F0A05",
"9h.	c #2D0B05",
"0h.	c #2B0C05",
"ah.	c #280E04",
"bh.	c #260E04",
"ch.	c #211003",
"dh.	c #1B1800",
"eh.	c #142000",
"fh.	c #132A00",
"gh.	c #123600",
"hh.	c #134508",
"ih.	c #15420A",
"jh.	c #043B04",
"kh.	c #19560B",
"lh.	c #578E3F",
"mh.	c #80B962",
"nh.	c #80BF5A",
"oh.	c #70B540",
"ph.	c #5AA128",
"qh.	c #46911A",
"rh.	c #398813",
"sh.	c #2F810B",
"th.	c #2A7F08",
"uh.	c #277E08",
"vh.	c #247F0C",
"wh.	c #2A800C",
"xh.	c #398716",
"yh.	c #479628",
"zh.	c #58AD41",
"Ah.	c #80C96B",
"Bh.	c #B7E7A1",
"Ch.	c #DAFBBD",
"Dh.	c #BFEEA3",
"Eh.	c #2B6A21",
"Fh.	c #043D12",
"Gh.	c #084217",
"Hh.	c #024D21",
"Ih.	c #006B41",
"Jh.	c #229F7E",
"Kh.	c #7BF3EA",
"Lh.	c #5DB9A4",
"Mh.	c #1D7824",
"Nh.	c #459D38",
"Oh.	c #69B85B",
"Ph.	c #9DE08E",
"Qh.	c #D2F7C5",
"Rh.	c #EFFCDF",
"Sh.	c #E7F8C5",
"Th.	c #BBDA8F",
"Uh.	c #558437",
"Vh.	c #0A2603",
"Wh.	c #091002",
"Xh.	c #0E1F02",
"Yh.	c #0B1D00",
"Zh.	c #0C1C04",
"`h.	c #041B0A",
" i.	c #0D371A",
".i.	c #0D471A",
"+i.	c #07670B",
"@i.	c #41A018",
"#i.	c #D1FAA4",
"$i.	c #EDFECB",
"%i.	c #92ED4D",
"&i.	c #4DB61E",
"*i.	c #054D01",
"=i.	c #043005",
"-i.	c #0D3B0D",
";i.	c #184C1E",
">i.	c #183C18",
",i.	c #1B3819",
"'i.	c #1F381B",
")i.	c #243E22",
"!i.	c #223B1E",
"~i.	c #1F3619",
"{i.	c #1F3D1B",
"]i.	c #1E4921",
"^i.	c #103F13",
"/i.	c #063E02",
"(i.	c #156303",
"_i.	c #85E936",
":i.	c #A0EB58",
"<i.	c #E9FFD1",
"[i.	c #B1DF9C",
"}i.	c #337A14",
"|i.	c #27430D",
"1i.	c #192905",
"2i.	c #3D460D",
"3i.	c #4D2409",
"4i.	c #740707",
"5i.	c #BF414A",
"6i.	c #FCDEDF",
"7i.	c #E99AA3",
"8i.	c #B10B24",
"9i.	c #73020C",
"0i.	c #430606",
"ai.	c #350202",
"bi.	c #330102",
"ci.	c #2E0101",
"di.	c #2B0000",
"ei.	c #340100",
"fi.	c #3D0303",
"gi.	c #460607",
"hi.	c #6E0208",
"ii.	c #AF0110",
"ji.	c #D41620",
"ki.	c #EEB9BA",
"li.	c #A11824",
"mi.	c #630C09",
"ni.	c #472803",
"oi.	c #483A08",
"pi.	c #313202",
"qi.	c #232A04",
"ri.	c #121B02",
"si.	c #5E9B34",
"ti.	c #7ED046",
"ui.	c #407809",
"vi.	c #402E08",
"wi.	c #5C1D12",
"xi.	c #8D1722",
"yi.	c #E7AAB0",
"zi.	c #FDE5E1",
"Ai.	c #E98F98",
"Bi.	c #D65964",
"Ci.	c #D1454F",
"Di.	c #CB404A",
"Ei.	c #C73F48",
"Fi.	c #CC454D",
"Gi.	c #D56F77",
"Hi.	c #F4C8C6",
"Ii.	c #FCE8EE",
"Ji.	c #C85A5A",
"Ki.	c #6C3102",
"Li.	c #7CA220",
"Mi.	c #DEF19D",
"Ni.	c #E5FACF",
"Oi.	c #629638",
"Pi.	c #2A490C",
"Qi.	c #2C390B",
"Ri.	c #2E260D",
"Si.	c #33130D",
"Ti.	c #340105",
"Ui.	c #370001",
"Vi.	c #320000",
"Wi.	c #330000",
"Xi.	c #3D0201",
"Yi.	c #480204",
"Zi.	c #59080D",
"`i.	c #710E12",
" j.	c #B11A24",
".j.	c #F2B89D",
"+j.	c #F4C8B7",
"@j.	c #98281F",
"#j.	c #771A21",
"$j.	c #7F3334",
"%j.	c #5B1D24",
"&j.	c #55191D",
"*j.	c #27050A",
"=j.	c #26070A",
"-j.	c #3D1B21",
";j.	c #2E1417",
">j.	c #2E1B18",
",j.	c #352D2F",
"'j.	c #27181C",
")j.	c #28181A",
"!j.	c #261819",
"~j.	c #1C1213",
"{j.	c #150E15",
"]j.	c #2F1918",
"^j.	c #1C0503",
"/j.	c #3D3232",
"(j.	c #35181B",
"_j.	c #331517",
":j.	c #27060A",
"<j.	c #240204",
"[j.	c #3F1013",
"}j.	c #4D1518",
"|j.	c #6A2C2C",
"1j.	c #70191D",
"2j.	c #871C25",
"3j.	c #AF4434",
"4j.	c #FCD8C8",
"5j.	c #D27E38",
"6j.	c #95151B",
"7j.	c #771318",
"8j.	c #57060C",
"9j.	c #3D0003",
"0j.	c #250904",
"aj.	c #281A06",
"bj.	c #262907",
"cj.	c #1A3001",
"dj.	c #2F6206",
"ej.	c #87C35F",
"fj.	c #FBFCDD",
"gj.	c #B2EE88",
"hj.	c #6FD728",
"ij.	c #457811",
"jj.	c #362800",
"kj.	c #380D05",
"lj.	c #2A0501",
"mj.	c #52060A",
"nj.	c #5B0809",
"oj.	c #580200",
"pj.	c #700002",
"qj.	c #970211",
"rj.	c #B13443",
"sj.	c #E29EAF",
"tj.	c #FED8E8",
"uj.	c #FAC3CF",
"vj.	c #DB7281",
"wj.	c #AF1C31",
"xj.	c #950315",
"yj.	c #85020C",
"zj.	c #5F0304",
"Aj.	c #350306",
"Bj.	c #340507",
"Cj.	c #300806",
"Dj.	c #2C0C07",
"Ej.	c #280F06",
"Fj.	c #2C1402",
"Gj.	c #281901",
"Hj.	c #222201",
"Ij.	c #1E2C01",
"Jj.	c #1D3703",
"Kj.	c #1F4C04",
"Lj.	c #275F09",
"Mj.	c #2A6B0A",
"Nj.	c #2E740E",
"Oj.	c #2F730D",
"Pj.	c #558638",
"Qj.	c #8AB56A",
"Rj.	c #54803D",
"Sj.	c #184D05",
"Tj.	c #1B5904",
"Uj.	c #1C5E00",
"Vj.	c #185C02",
"Wj.	c #145A0C",
"Xj.	c #17590A",
"Yj.	c #165500",
"Zj.	c #135200",
"`j.	c #125202",
" k.	c #115A02",
".k.	c #126B03",
"+k.	c #107502",
"@k.	c #157201",
"#k.	c #246F05",
"$k.	c #1F770D",
"%k.	c #187F07",
"&k.	c #359622",
"*k.	c #418C33",
"=k.	c #0D4712",
"-k.	c #083B10",
";k.	c #073A10",
">k.	c #023D15",
",k.	c #005029",
"'k.	c #036E49",
")k.	c #36B599",
"!k.	c #59D4B9",
"~k.	c #02642B",
"{k.	c #055402",
"]k.	c #076002",
"^k.	c #0A7406",
"/k.	c #2A8C25",
"(k.	c #6BB564",
"_k.	c #ADD999",
":k.	c #C9EEA2",
"<k.	c #9FDB79",
"[k.	c #0E3707",
"}k.	c #001604",
"|k.	c #02260E",
"1k.	c #010B06",
"2k.	c #020E0B",
"3k.	c #031C16",
"4k.	c #022610",
"5k.	c #073508",
"6k.	c #096006",
"7k.	c #40A217",
"8k.	c #C6F58F",
"9k.	c #F0FFCF",
"0k.	c #9EED5C",
"ak.	c #4EB41C",
"bk.	c #064F01",
"ck.	c #073509",
"dk.	c #093607",
"ek.	c #144317",
"fk.	c #1F401D",
"gk.	c #193617",
"hk.	c #1C3619",
"ik.	c #1B371B",
"jk.	c #254226",
"kk.	c #213B1D",
"lk.	c #1F3F1D",
"mk.	c #153C16",
"nk.	c #0E370D",
"ok.	c #043902",
"pk.	c #0E5F02",
"qk.	c #83E439",
"rk.	c #B3F468",
"sk.	c #E8FFCD",
"tk.	c #A7DA8E",
"uk.	c #377B0D",
"vk.	c #2D3F0D",
"wk.	c #1C220C",
"xk.	c #2A2807",
"yk.	c #3D1209",
"zk.	c #6F0107",
"Ak.	c #B2313B",
"Bk.	c #FBD1D5",
"Ck.	c #F1B0BA",
"Dk.	c #B61A2F",
"Ek.	c #810F17",
"Fk.	c #4E0709",
"Gk.	c #4A0B0B",
"Hk.	c #360504",
"Ik.	c #310201",
"Jk.	c #2D0103",
"Kk.	c #300202",
"Lk.	c #330200",
"Mk.	c #350200",
"Nk.	c #3B0401",
"Ok.	c #440704",
"Pk.	c #510806",
"Qk.	c #72080A",
"Rk.	c #A90312",
"Sk.	c #D3282E",
"Tk.	c #FCD4D8",
"Uk.	c #EBB2B5",
"Vk.	c #A11626",
"Wk.	c #57090A",
"Xk.	c #310F01",
"Yk.	c #241001",
"Zk.	c #1D1301",
"`k.	c #191303",
" l.	c #161405",
".l.	c #366A15",
"+l.	c #74C23C",
"@l.	c #42740A",
"#l.	c #44290C",
"$l.	c #661813",
"%l.	c #A43945",
"&l.	c #F6E0E3",
"*l.	c #E39AA3",
"=l.	c #D00B28",
"-l.	c #A4050D",
";l.	c #98030A",
">l.	c #940208",
",l.	c #950209",
"'l.	c #9B030C",
")l.	c #A50510",
"!l.	c #DC3048",
"~l.	c #FCB7C8",
"{l.	c #E87A75",
"]l.	c #6F1F01",
"^l.	c #709723",
"/l.	c #C9E889",
"(l.	c #88B155",
"_l.	c #29520E",
":l.	c #273D09",
"<l.	c #27290B",
"[l.	c #2E190F",
"}l.	c #2C0506",
"|l.	c #340102",
"1l.	c #410305",
"2l.	c #580E12",
"3l.	c #6F1014",
"4l.	c #AF1B26",
"5l.	c #F1B79C",
"6l.	c #F2C8B7",
"7l.	c #982B21",
"8l.	c #771C22",
"9l.	c #7E3333",
"0l.	c #5B1E25",
"al.	c #54181C",
"bl.	c #4A161D",
"cl.	c #250609",
"dl.	c #411F24",
"el.	c #2E1517",
"fl.	c #2D1A17",
"gl.	c #3D2727",
"hl.	c #16090B",
"il.	c #060205",
"jl.	c #342C2F",
"kl.	c #291819",
"ll.	c #0C0205",
"ml.	c #1C1015",
"nl.	c #140D14",
"ol.	c #2F1A18",
"pl.	c #351819",
"ql.	c #422326",
"rl.	c #270609",
"sl.	c #390A0D",
"tl.	c #6A2C2B",
"ul.	c #851C25",
"vl.	c #AF4336",
"wl.	c #FCD5C7",
"xl.	c #7C141A",
"yl.	c #5C0910",
"zl.	c #3B0005",
"Al.	c #300003",
"Bl.	c #250002",
"Cl.	c #260002",
"Dl.	c #220107",
"El.	c #250E05",
"Fl.	c #292007",
"Gl.	c #1E2505",
"Hl.	c #1C3800",
"Il.	c #3B7408",
"Jl.	c #B7DB8C",
"Kl.	c #EFFED4",
"Ll.	c #97E15E",
"Ml.	c #6CC126",
"Nl.	c #364A01",
"Ol.	c #381D02",
"Pl.	c #340B04",
"Ql.	c #310501",
"Rl.	c #4D0108",
"Sl.	c #6F030B",
"Tl.	c #540401",
"Ul.	c #6A0204",
"Vl.	c #95111F",
"Wl.	c #CD6B77",
"Xl.	c #F9C6D1",
"Yl.	c #FCD4E0",
"Zl.	c #DE879D",
"`l.	c #B52A3B",
" m.	c #900509",
".m.	c #820306",
"+m.	c #6E0104",
"@m.	c #5D0608",
"#m.	c #460105",
"$m.	c #3A0102",
"%m.	c #310400",
"&m.	c #290900",
"*m.	c #261001",
"=m.	c #261304",
"-m.	c #261B04",
";m.	c #242D00",
">m.	c #304A09",
",m.	c #43681B",
"'m.	c #4C7C28",
")m.	c #4E8328",
"!m.	c #4A8824",
"~m.	c #428B1D",
"{m.	c #3F8C1A",
"]m.	c #488D11",
"^m.	c #4E921A",
"/m.	c #67A03D",
"(m.	c #90BB6D",
"_m.	c #BCDD9E",
":m.	c #E5F7D1",
"<m.	c #E3FEC7",
"[m.	c #B2E182",
"}m.	c #2C5E0C",
"|m.	c #0A3006",
"1m.	c #0D3303",
"2m.	c #0D3600",
"3m.	c #0C3901",
"4m.	c #0A3B00",
"5m.	c #063900",
"6m.	c #043800",
"7m.	c #073B02",
"8m.	c #083C01",
"9m.	c #114D04",
"0m.	c #448448",
"am.	c #6FB485",
"bm.	c #6BBA87",
"cm.	c #59B372",
"dm.	c #43AB47",
"em.	c #32932F",
"fm.	c #29801D",
"gm.	c #1D730B",
"hm.	c #126609",
"im.	c #0D5C04",
"jm.	c #0A4F03",
"km.	c #044208",
"lm.	c #014114",
"mm.	c #01491E",
"nm.	c #026338",
"om.	c #05714A",
"pm.	c #06511A",
"qm.	c #0E4B05",
"rm.	c #094D10",
"sm.	c #0C480D",
"tm.	c #0A4C07",
"um.	c #0A550C",
"vm.	c #0C650B",
"wm.	c #207115",
"xm.	c #25691C",
"ym.	c #012803",
"zm.	c #061207",
"Am.	c #14291A",
"Bm.	c #03210F",
"Cm.	c #021B13",
"Dm.	c #041E17",
"Em.	c #022210",
"Fm.	c #063008",
"Gm.	c #0D5108",
"Hm.	c #45A61D",
"Im.	c #AAE966",
"Jm.	c #F0FDCE",
"Km.	c #BBEF83",
"Lm.	c #5ABF1F",
"Mm.	c #0C5801",
"Nm.	c #073A08",
"Om.	c #063303",
"Pm.	c #123E15",
"Qm.	c #133814",
"Rm.	c #1D3C1C",
"Sm.	c #1D3619",
"Tm.	c #1B3419",
"Um.	c #152F13",
"Vm.	c #1A3417",
"Wm.	c #203D1E",
"Xm.	c #173916",
"Ym.	c #163B15",
"Zm.	c #0B3208",
"`m.	c #053C01",
" n.	c #146902",
".n.	c #8BE840",
"+n.	c #C8F688",
"@n.	c #EBFFC9",
"#n.	c #93CD6F",
"$n.	c #3D7D10",
"%n.	c #2B3409",
"&n.	c #211E08",
"*n.	c #221706",
"=n.	c #2A0B0A",
"-n.	c #620105",
";n.	c #A11520",
">n.	c #F7B4BC",
",n.	c #FAD7DA",
"'n.	c #BE3846",
")n.	c #A2222C",
"!n.	c #64050E",
"~n.	c #581616",
"{n.	c #44130E",
"]n.	c #340200",
"^n.	c #360301",
"/n.	c #360303",
"(n.	c #340204",
"_n.	c #310102",
":n.	c #340103",
"<n.	c #3A0101",
"[n.	c #410503",
"}n.	c #661612",
"|n.	c #841416",
"1n.	c #B3091B",
"2n.	c #D65D62",
"3n.	c #E38994",
"4n.	c #8F0F15",
"5n.	c #480609",
"6n.	c #240D03",
"7n.	c #1E0E04",
"8n.	c #190E05",
"9n.	c #151201",
"0n.	c #151901",
"an.	c #204807",
"bn.	c #65AE2F",
"cn.	c #437B11",
"dn.	c #3B2C0D",
"en.	c #5F1B0B",
"fn.	c #A62331",
"gn.	c #F797AF",
"hn.	c #E4556C",
"in.	c #9C040E",
"jn.	c #6F0108",
"kn.	c #5E0205",
"ln.	c #560303",
"mn.	c #530302",
"nn.	c #580202",
"on.	c #650205",
"pn.	c #AD0714",
"qn.	c #E43951",
"rn.	c #C82B2F",
"sn.	c #5B1603",
"tn.	c #677F1F",
"un.	c #B1DA6D",
"vn.	c #F2FECA",
"wn.	c #ABC881",
"xn.	c #2D610E",
"yn.	c #233F07",
"zn.	c #232B09",
"An.	c #2C1E11",
"Bn.	c #270908",
"Cn.	c #230201",
"Dn.	c #300001",
"En.	c #430509",
"Fn.	c #5C1319",
"Gn.	c #701017",
"Hn.	c #B01B28",
"In.	c #F1B69D",
"Jn.	c #F2C9B8",
"Kn.	c #962B21",
"Ln.	c #741A20",
"Mn.	c #7A3131",
"Nn.	c #591D23",
"On.	c #4B171E",
"Pn.	c #401E23",
"Qn.	c #2C1215",
"Rn.	c #2E1A17",
"Sn.	c #3C2627",
"Tn.	c #15090B",
"Un.	c #070306",
"Vn.	c #332B2E",
"Wn.	c #25171A",
"Xn.	c #2A1A1C",
"Yn.	c #291718",
"Zn.	c #1A0E14",
"`n.	c #150D14",
" o.	c #1C0504",
".o.	c #1F1315",
"+o.	c #221414",
"@o.	c #260609",
"#o.	c #240205",
"$o.	c #3C0D10",
"%o.	c #5B2224",
"&o.	c #6B2D2D",
"*o.	c #6C161A",
"=o.	c #AE423A",
"-o.	c #FCD6C8",
";o.	c #94161B",
">o.	c #7F151C",
",o.	c #5E0C14",
"'o.	c #390006",
")o.	c #260101",
"!o.	c #210101",
"~o.	c #1F0002",
"{o.	c #1E0207",
"]o.	c #241204",
"^o.	c #2A250A",
"/o.	c #182203",
"(o.	c #1F4302",
"_o.	c #498515",
":o.	c #D7ECAC",
"<o.	c #DBFBBF",
"[o.	c #85D83E",
"}o.	c #5B991F",
"|o.	c #382F00",
"1o.	c #3E1705",
"2o.	c #370701",
"3o.	c #6E0918",
"4o.	c #660303",
"5o.	c #790108",
"6o.	c #A71F31",
"7o.	c #DF909A",
"8o.	c #FDDCE3",
"9o.	c #F2B3C6",
"0o.	c #C74F5D",
"ao.	c #9C0812",
"bo.	c #83020D",
"co.	c #71010D",
"do.	c #5B0105",
"eo.	c #4F0002",
"fo.	c #2F0502",
"go.	c #2E1002",
"ho.	c #271A03",
"io.	c #242B01",
"jo.	c #305C0C",
"ko.	c #588E30",
"lo.	c #68A439",
"mo.	c #62A930",
"no.	c #4E9F1E",
"oo.	c #51971F",
"po.	c #6EA840",
"qo.	c #90C063",
"ro.	c #A6D078",
"so.	c #B9DE8B",
"to.	c #D1E8AA",
"uo.	c #DEF5B9",
"vo.	c #EBFCCC",
"wo.	c #F6FEE1",
"xo.	c #F8FDE6",
"yo.	c #E7F8B8",
"zo.	c #B7D770",
"Ao.	c #60932C",
"Bo.	c #235B0B",
"Co.	c #0C3701",
"Do.	c #052603",
"Eo.	c #012602",
"Fo.	c #032B0C",
"Go.	c #05360C",
"Ho.	c #034303",
"Io.	c #095207",
"Jo.	c #0D5D05",
"Ko.	c #0A5C03",
"Lo.	c #074601",
"Mo.	c #187C30",
"No.	c #92EDB6",
"Oo.	c #C8FFEB",
"Po.	c #D7FFEF",
"Qo.	c #D5FFE1",
"Ro.	c #D5FDE0",
"So.	c #D1F7D9",
"To.	c #C4EBBE",
"Uo.	c #B0DE9F",
"Vo.	c #95C685",
"Wo.	c #6BA951",
"Xo.	c #368719",
"Yo.	c #1E6F0B",
"Zo.	c #15590B",
"`o.	c #10480C",
" p.	c #0B3F12",
".p.	c #0D4615",
"+p.	c #085C03",
"@p.	c #096F00",
"#p.	c #0D7306",
"$p.	c #16740C",
"%p.	c #146407",
"&p.	c #125A06",
"*p.	c #034C03",
"=p.	c #024603",
"-p.	c #0B2D09",
";p.	c #041A03",
">p.	c #031606",
",p.	c #103C20",
"'p.	c #043F19",
")p.	c #012612",
"!p.	c #041E15",
"~p.	c #001606",
"{p.	c #032A07",
"]p.	c #0B4108",
"^p.	c #2E8B0D",
"/p.	c #89E33B",
"(p.	c #E9FDC4",
"_p.	c #DFF9B3",
":p.	c #74CF30",
"<p.	c #1A6A05",
"[p.	c #064204",
"}p.	c #083407",
"|p.	c #0E3810",
"1p.	c #143D17",
"2p.	c #133413",
"3p.	c #1F3A1C",
"4p.	c #1D361A",
"5p.	c #1E361C",
"6p.	c #10310D",
"7p.	c #133810",
"8p.	c #153A13",
"9p.	c #072F04",
"0p.	c #044400",
"ap.	c #2B8611",
"bp.	c #95EF4E",
"cp.	c #E1FEAB",
"dp.	c #E0FABA",
"ep.	c #71B242",
"fp.	c #386F0B",
"gp.	c #292E09",
"hp.	c #262009",
"ip.	c #211508",
"jp.	c #1F0907",
"kp.	c #520102",
"lp.	c #920610",
"mp.	c #E3828B",
"np.	c #FCEBE8",
"op.	c #E28489",
"pp.	c #BA2736",
"qp.	c #8D1E2B",
"rp.	c #601416",
"sp.	c #60241D",
"tp.	c #4B150E",
"up.	c #3F0B06",
"vp.	c #3B0704",
"wp.	c #3B0806",
"xp.	c #3C0B0A",
"yp.	c #400E0D",
"zp.	c #420E0B",
"Ap.	c #48120C",
"Bp.	c #541413",
"Cp.	c #681A1C",
"Dp.	c #7F2522",
"Ep.	c #A72028",
"Fp.	c #C2293D",
"Gp.	c #F8B6BF",
"Hp.	c #FEDAE4",
"Ip.	c #CF4352",
"Jp.	c #780A05",
"Kp.	c #3B0908",
"Lp.	c #220E03",
"Mp.	c #211207",
"Np.	c #24190D",
"Op.	c #212703",
"Pp.	c #1B3906",
"Qp.	c #46881B",
"Rp.	c #44811E",
"Sp.	c #2F330A",
"Tp.	c #4B1F05",
"Up.	c #851312",
"Vp.	c #CA334E",
"Wp.	c #BC2636",
"Xp.	c #760204",
"Yp.	c #54030D",
"Zp.	c #470705",
"`p.	c #3E0906",
" q.	c #390B05",
".q.	c #3A0A04",
"+q.	c #460709",
"@q.	c #6B0804",
"#q.	c #991312",
"$q.	c #740C05",
"%q.	c #401206",
"&q.	c #4F5D12",
"*q.	c #89C146",
"=q.	c #EAFEB4",
"-q.	c #E7F7C7",
";q.	c #84AF6A",
">q.	c #1E3D06",
",q.	c #1F2907",
"'q.	c #291D0F",
")q.	c #260B09",
"!q.	c #45070D",
"~q.	c #5D141A",
"{q.	c #74131A",
"]q.	c #B01E2B",
"^q.	c #F2B69E",
"/q.	c #F2CAB8",
"(q.	c #962C22",
"_q.	c #731B1F",
":q.	c #7A3234",
"<q.	c #591E24",
"[q.	c #561A1E",
"}q.	c #4B161D",
"|q.	c #2A070C",
"1q.	c #422127",
"2q.	c #2D1316",
"3q.	c #2D1816",
"4q.	c #3B2727",
"5q.	c #150A0B",
"6q.	c #352C2E",
"7q.	c #251516",
"8q.	c #261617",
"9q.	c #1B1112",
"0q.	c #1A0F14",
"aq.	c #180E15",
"bq.	c #351C1B",
"cq.	c #1C0505",
"dq.	c #1F1417",
"eq.	c #342A2A",
"fq.	c #3A2326",
"gq.	c #341619",
"hq.	c #311315",
"iq.	c #422527",
"jq.	c #250709",
"kq.	c #210304",
"lq.	c #3C0E10",
"mq.	c #4D141A",
"nq.	c #592125",
"oq.	c #692C2E",
"pq.	c #6B1719",
"qq.	c #881C26",
"rq.	c #AD4234",
"sq.	c #FBDACA",
"tq.	c #D17F38",
"uq.	c #92141A",
"vq.	c #7F151F",
"wq.	c #5F121B",
"xq.	c #350106",
"yq.	c #300102",
"zq.	c #3F1616",
"Aq.	c #4E2A2B",
"Bq.	c #4B2828",
"Cq.	c #2E0C0E",
"Dq.	c #2A0A0D",
"Eq.	c #2C1112",
"Fq.	c #2F1113",
"Gq.	c #2F1013",
"Hq.	c #23090A",
"Iq.	c #211602",
"Jq.	c #27250B",
"Kq.	c #172403",
"Lq.	c #225203",
"Mq.	c #5F9D31",
"Nq.	c #E8FAC7",
"Oq.	c #CBF5A7",
"Pq.	c #73D424",
"Qq.	c #4B7212",
"Rq.	c #3F2600",
"Sq.	c #3E1505",
"Tq.	c #650A0C",
"Uq.	c #7B0713",
"Vq.	c #7E0208",
"Wq.	c #B22B3F",
"Xq.	c #ECA7B3",
"Yq.	c #FEDBE5",
"Zq.	c #E294A6",
"`q.	c #AA1F2F",
" r.	c #8D010B",
".r.	c #790004",
"+r.	c #5E0102",
"@r.	c #4B0001",
"#r.	c #400000",
"$r.	c #2E0201",
"%r.	c #290401",
"&r.	c #2B0C03",
"*r.	c #2B1804",
"=r.	c #242D01",
"-r.	c #35660E",
";r.	c #67B232",
">r.	c #5FBD2B",
",r.	c #58A72E",
"'r.	c #84B363",
")r.	c #B6D898",
"!r.	c #CEF3B4",
"~r.	c #E8FAD4",
"{r.	c #F0FCDB",
"]r.	c #F4FDDC",
"^r.	c #F8FCDF",
"/r.	c #F7FADE",
"(r.	c #F2FCD8",
"_r.	c #EAFAC7",
":r.	c #DAF4AD",
"<r.	c #C8ED93",
"[r.	c #A5D36E",
"}r.	c #6AA826",
"|r.	c #428307",
"1r.	c #2E6A05",
"2r.	c #164801",
"3r.	c #072E01",
"4r.	c #052205",
"5r.	c #062803",
"6r.	c #033A06",
"7r.	c #055805",
"8r.	c #287F0C",
"9r.	c #83BA6C",
"0r.	c #B2DE9C",
"ar.	c #9EDF84",
"br.	c #458839",
"cr.	c #075A0F",
"dr.	c #2E914C",
"er.	c #3FAF71",
"fr.	c #4ABB7E",
"gr.	c #5EC588",
"hr.	c #77DBA1",
"ir.	c #89E6B1",
"jr.	c #A6F0C2",
"kr.	c #CCF9D4",
"lr.	c #E5FEDE",
"mr.	c #EBFDD6",
"nr.	c #E0F9CE",
"or.	c #C4E6A5",
"pr.	c #8EBD6B",
"qr.	c #468131",
"rr.	c #11590A",
"sr.	c #125C08",
"tr.	c #8BCD6F",
"ur.	c #BFF393",
"vr.	c #BDE691",
"wr.	c #9AD47B",
"xr.	c #74C763",
"yr.	c #4EAE40",
"zr.	c #359124",
"Ar.	c #1B750A",
"Br.	c #044D01",
"Cr.	c #042107",
"Dr.	c #021308",
"Er.	c #0A3F1F",
"Fr.	c #0F4B27",
"Gr.	c #012B17",
"Hr.	c #06211A",
"Ir.	c #011409",
"Jr.	c #072306",
"Kr.	c #053A02",
"Lr.	c #156004",
"Mr.	c #65D819",
"Nr.	c #CDF691",
"Or.	c #FAFED9",
"Pr.	c #AEE47F",
"Qr.	c #398B1A",
"Rr.	c #075504",
"Sr.	c #0B3B07",
"Tr.	c #093501",
"Ur.	c #103A0F",
"Vr.	c #163C13",
"Wr.	c #133710",
"Xr.	c #143411",
"Yr.	c #113410",
"Zr.	c #0D3911",
"`r.	c #0C3A0B",
" s.	c #0E3E0E",
".s.	c #063509",
"+s.	c #023906",
"@s.	c #066400",
"#s.	c #50B324",
"$s.	c #C2F289",
"%s.	c #F0FEC8",
"&s.	c #B4E78C",
"*s.	c #5FA227",
"=s.	c #325607",
"-s.	c #262E0A",
";s.	c #211C0A",
">s.	c #170F03",
",s.	c #220A05",
"'s.	c #3F0002",
")s.	c #77010D",
"!s.	c #B72938",
"~s.	c #F9C7D1",
"{s.	c #FAD8D5",
"]s.	c #C6515D",
"^s.	c #B93946",
"/s.	c #7D2629",
"(s.	c #6C2527",
"_s.	c #6C2C2D",
":s.	c #622627",
"<s.	c #5E2325",
"[s.	c #5F2427",
"}s.	c #5E2A29",
"|s.	c #5C292B",
"1s.	c #5E292B",
"2s.	c #622826",
"3s.	c #6C2625",
"4s.	c #8D2F33",
"5s.	c #B42E3A",
"6s.	c #C8364D",
"7s.	c #EBA2B2",
"8s.	c #FDE6EB",
"9s.	c #EB8D95",
"0s.	c #AD121E",
"as.	c #5F0B0D",
"bs.	c #351107",
"cs.	c #2E210B",
"ds.	c #292911",
"es.	c #222B13",
"fs.	c #1F2E10",
"gs.	c #263915",
"hs.	c #2A4512",
"is.	c #27560D",
"js.	c #396A1A",
"ks.	c #2C4006",
"ls.	c #342307",
"ms.	c #5A200B",
"ns.	c #831412",
"os.	c #7D0D10",
"ps.	c #4E0B07",
"qs.	c #370F07",
"rs.	c #301409",
"ss.	c #2D130B",
"ts.	c #281108",
"us.	c #261205",
"vs.	c #341506",
"ws.	c #42170A",
"xs.	c #401A0A",
"ys.	c #311D06",
"zs.	c #293605",
"As.	c #4B9D22",
"Bs.	c #B6EB78",
"Cs.	c #ECFDC7",
"Ds.	c #BCE1B0",
"Es.	c #193A08",
"Fs.	c #192506",
"Gs.	c #251D0F",
"Hs.	c #240B08",
"Is.	c #260707",
"Js.	c #3F2B2C",
"Ks.	c #553836",
"Ls.	c #3A1E21",
"Ms.	c #5A1519",
"Ns.	c #76161C",
"Os.	c #A9242B",
"Ps.	c #F1B19D",
"Qs.	c #F3CBB6",
"Rs.	c #972E28",
"Ss.	c #721C1E",
"Ts.	c #793239",
"Us.	c #581E24",
"Vs.	c #4B161B",
"Ws.	c #25060B",
"Xs.	c #3D1D23",
"Ys.	c #2D1114",
"Zs.	c #2F1816",
"`s.	c #3A2928",
" t.	c #130A0A",
".t.	c #070201",
"+t.	c #1C1113",
"@t.	c #181014",
"#t.	c #1D1215",
"$t.	c #342929",
"%t.	c #321417",
"&t.	c #3C0D0F",
"*t.	c #6C181A",
"=t.	c #AD4235",
"-t.	c #FBDBCB",
";t.	c #D18038",
">t.	c #911319",
",t.	c #801620",
"'t.	c #61141D",
")t.	c #350107",
"!t.	c #461C1C",
"~t.	c #401C1C",
"{t.	c #2D0D0C",
"]t.	c #2B0A0C",
"^t.	c #4C2F30",
"/t.	c #523334",
"(t.	c #563435",
"_t.	c #5B3A3A",
":t.	c #634642",
"<t.	c #3D2423",
"[t.	c #221803",
"}t.	c #222307",
"|t.	c #162701",
"1t.	c #285D05",
"2t.	c #7FB554",
"3t.	c #EFFECC",
"4t.	c #B6E98C",
"5t.	c #70BE20",
"6t.	c #415303",
"7t.	c #472001",
"8t.	c #400D05",
"9t.	c #530406",
"0t.	c #811210",
"at.	c #870106",
"bt.	c #AE374A",
"ct.	c #F4ACBD",
"dt.	c #FDD6E1",
"et.	c #DB7F8F",
"ft.	c #9D1025",
"gt.	c #7F010A",
"ht.	c #6F0004",
"it.	c #570001",
"jt.	c #320001",
"kt.	c #280103",
"lt.	c #250906",
"mt.	c #251406",
"nt.	c #252603",
"ot.	c #295007",
"pt.	c #4F9C1F",
"qt.	c #68C628",
"rt.	c #7AC554",
"st.	c #B7DE98",
"tt.	c #DFF7C8",
"ut.	c #F3FCE5",
"vt.	c #F9FEE4",
"wt.	c #F5FED3",
"xt.	c #E7FBC2",
"yt.	c #DAF3B2",
"zt.	c #C8EB97",
"At.	c #B1DC79",
"Bt.	c #9DD15F",
"Ct.	c #89CD49",
"Dt.	c #78BD39",
"Et.	c #65AB28",
"Ft.	c #4F9813",
"Gt.	c #3D8309",
"Ht.	c #316E0C",
"It.	c #1F5802",
"Jt.	c #114403",
"Kt.	c #073103",
"Lt.	c #012501",
"Mt.	c #062501",
"Nt.	c #033306",
"Ot.	c #046804",
"Pt.	c #389126",
"Qt.	c #B7E294",
"Rt.	c #ECFBCC",
"St.	c #EBFAC6",
"Tt.	c #C4F38F",
"Ut.	c #76BE5C",
"Vt.	c #034E00",
"Wt.	c #025003",
"Xt.	c #045C13",
"Yt.	c #03691A",
"Zt.	c #03731C",
"`t.	c #047C1A",
" u.	c #04861F",
".u.	c #0A942B",
"+u.	c #1EA33C",
"@u.	c #45BB5D",
"#u.	c #79D087",
"$u.	c #ABE6A2",
"%u.	c #D4F6BE",
"&u.	c #E9FED5",
"*u.	c #DFF7C5",
"=u.	c #8DBA70",
"-u.	c #116008",
";u.	c #63B55B",
">u.	c #A9F099",
",u.	c #CCFABC",
"'u.	c #E5FDD6",
")u.	c #E7FDD4",
"!u.	c #E4FCD0",
"~u.	c #D8F6CA",
"{u.	c #C3E7B4",
"]u.	c #85BB73",
"^u.	c #2B651E",
"/u.	c #011405",
"(u.	c #053818",
"_u.	c #12542D",
":u.	c #02341D",
"<u.	c #082920",
"[u.	c #051C13",
"}u.	c #021802",
"|u.	c #042F05",
"1u.	c #0F4304",
"2u.	c #4DB620",
"3u.	c #8DE146",
"4u.	c #F0FDBB",
"5u.	c #E9FDBC",
"6u.	c #94CA5C",
"7u.	c #276D12",
"8u.	c #0E4E07",
"9u.	c #0A4208",
"0u.	c #093702",
"au.	c #0A3405",
"bu.	c #0C3607",
"cu.	c #0F3C0B",
"du.	c #0B3A05",
"eu.	c #10370A",
"fu.	c #0A3606",
"gu.	c #074305",
"hu.	c #055907",
"iu.	c #349C15",
"ju.	c #A0E067",
"ku.	c #F7FCCA",
"lu.	c #DFF7BC",
"mu.	c #75C145",
"nu.	c #50911C",
"ou.	c #213F03",
"pu.	c #232509",
"qu.	c #1F1905",
"ru.	c #130C00",
"su.	c #8B0414",
"tu.	c #C35B6D",
"uu.	c #FBDBDB",
"vu.	c #F9D6D6",
"wu.	c #D17882",
"xu.	c #BB404A",
"yu.	c #A12932",
"zu.	c #94292D",
"Au.	c #8F3431",
"Bu.	c #8C3832",
"Cu.	c #873B31",
"Du.	c #864135",
"Eu.	c #8D3E3B",
"Fu.	c #9B393F",
"Gu.	c #A9363F",
"Hu.	c #B93D47",
"Iu.	c #C65460",
"Ju.	c #E88A9C",
"Ku.	c #FACED7",
"Lu.	c #FEE3EA",
"Mu.	c #F197A2",
"Nu.	c #B22831",
"Ou.	c #7D090F",
"Pu.	c #501512",
"Qu.	c #3A2817",
"Ru.	c #302F16",
"Su.	c #243810",
"Tu.	c #1B4712",
"Uu.	c #2D5D26",
"Vu.	c #365E2D",
"Wu.	c #2F5526",
"Xu.	c #264E16",
"Yu.	c #204709",
"Zu.	c #244010",
"`u.	c #223413",
" v.	c #293515",
".v.	c #3F3218",
"+v.	c #3C2C15",
"@v.	c #2A2815",
"#v.	c #1F2916",
"$v.	c #142D15",
"%v.	c #142C15",
"&v.	c #152E14",
"*v.	c #153010",
"=v.	c #16360F",
"-v.	c #1B3B13",
";v.	c #203F16",
">v.	c #213E16",
",v.	c #273E12",
"'v.	c #1C5208",
")v.	c #458E29",
"!v.	c #72B657",
"~v.	c #55823E",
"{v.	c #182005",
"]v.	c #22190D",
"^v.	c #1F0B08",
"/v.	c #180505",
"(v.	c #422427",
"_v.	c #3D1D20",
":v.	c #250102",
"<v.	c #481012",
"[v.	c #5C1A1D",
"}v.	c #77171D",
"|v.	c #A9232A",
"1v.	c #F1AE9D",
"2v.	c #731C1E",
"3v.	c #783138",
"4v.	c #561C22",
"5v.	c #54181D",
"6v.	c #290608",
"7v.	c #24050A",
"8v.	c #2E1215",
"9v.	c #3C2B2A",
"0v.	c #140B0B",
"av.	c #362D2C",
"bv.	c #221515",
"cv.	c #321818",
"dv.	c #1D1115",
"ev.	c #201212",
"fv.	c #392225",
"gv.	c #26080A",
"hv.	c #3B0C0E",
"iv.	c #531B20",
"jv.	c #6B1819",
"kv.	c #891E26",
"lv.	c #AE4138",
"mv.	c #FBDACB",
"nv.	c #D38138",
"ov.	c #911318",
"pv.	c #801821",
"qv.	c #5F141D",
"rv.	c #340107",
"sv.	c #421919",
"tv.	c #3A1717",
"uv.	c #240708",
"vv.	c #38191C",
"wv.	c #300E10",
"xv.	c #321010",
"yv.	c #320F0F",
"zv.	c #371817",
"Av.	c #28110B",
"Bv.	c #251D04",
"Cv.	c #1E2004",
"Dv.	c #182E04",
"Ev.	c #286303",
"Fv.	c #9BCA6F",
"Gv.	c #F4FFD0",
"Hv.	c #9DDD67",
"Iv.	c #6EA31C",
"Jv.	c #4A3F02",
"Kv.	c #471A02",
"Lv.	c #490502",
"Mv.	c #800810",
"Nv.	c #98050B",
"Ov.	c #A8333C",
"Pv.	c #EFB4C1",
"Qv.	c #FDD8E0",
"Rv.	c #D77085",
"Sv.	c #9E051E",
"Tv.	c #750306",
"Uv.	c #5E0002",
"Vv.	c #4B0000",
"Wv.	c #360001",
"Xv.	c #260706",
"Yv.	c #231703",
"Zv.	c #232D02",
"`v.	c #34650B",
" w.	c #4F9817",
".w.	c #7FC550",
"+w.	c #C5E9A7",
"@w.	c #F1FAD8",
"#w.	c #E0F6B9",
"$w.	c #BDE38D",
"%w.	c #9ACF5C",
"&w.	c #7EC42F",
"*w.	c #6BB11F",
"=w.	c #5A9E16",
"-w.	c #4B8D0E",
";w.	c #3F8108",
">w.	c #377404",
",w.	c #2E6702",
"'w.	c #275C04",
")w.	c #205205",
"!w.	c #184603",
"~w.	c #123A04",
"{w.	c #0C2F03",
"]w.	c #072502",
"^w.	c #051F01",
"/w.	c #072106",
"(w.	c #033101",
"_w.	c #056206",
":w.	c #278C14",
"<w.	c #BCE29B",
"[w.	c #F3FBDA",
"}w.	c #CBF2A8",
"|w.	c #7CD14E",
"1w.	c #51B520",
"2w.	c #2D830D",
"3w.	c #044C01",
"4w.	c #023C01",
"5w.	c #053B01",
"6w.	c #053E02",
"7w.	c #034502",
"8w.	c #024C02",
"9w.	c #015607",
"0w.	c #01620F",
"aw.	c #036F19",
"bw.	c #0A7A22",
"cw.	c #0C7E23",
"dw.	c #098C26",
"ew.	c #2CA435",
"fw.	c #6BC66B",
"gw.	c #96DB96",
"hw.	c #8FD491",
"iw.	c #18581D",
"jw.	c #0C5505",
"kw.	c #23771D",
"lw.	c #3F933B",
"mw.	c #63AC5D",
"nw.	c #81C27C",
"ow.	c #A3D69E",
"pw.	c #C5E5BA",
"qw.	c #DCF3CD",
"rw.	c #C0F5AE",
"sw.	c #4E913F",
"tw.	c #052D10",
"uw.	c #145530",
"vw.	c #074027",
"ww.	c #062E21",
"xw.	c #092319",
"yw.	c #001103",
"zw.	c #032804",
"Aw.	c #0B3B01",
"Bw.	c #217A0B",
"Cw.	c #5CD417",
"Dw.	c #B2E476",
"Ew.	c #F9FCD8",
"Fw.	c #E9F9C3",
"Gw.	c #98C862",
"Hw.	c #256F06",
"Iw.	c #0D560D",
"Jw.	c #124906",
"Kw.	c #0D4505",
"Lw.	c #0C4606",
"Mw.	c #054204",
"Nw.	c #084604",
"Ow.	c #0E4D03",
"Pw.	c #115204",
"Qw.	c #105F03",
"Rw.	c #0C7002",
"Sw.	c #3C9D28",
"Tw.	c #A2DA7E",
"Uw.	c #EAFCC0",
"Vw.	c #E1FCBD",
"Ww.	c #90D463",
"Xw.	c #5CB01B",
"Yw.	c #336909",
"Zw.	c #223209",
"`w.	c #26230A",
" x.	c #1A1303",
".x.	c #160E01",
"+x.	c #1D1004",
"@x.	c #66020A",
"#x.	c #910810",
"$x.	c #C46168",
"%x.	c #EFCECB",
"&x.	c #FEEAE7",
"*x.	c #F7E1D8",
"=x.	c #EDBEB8",
"-x.	c #DEACA7",
";x.	c #D49D98",
">x.	c #D3918E",
",x.	c #D68B8B",
"'x.	c #DB9090",
")x.	c #DB9B9B",
"!x.	c #E1ADAC",
"~x.	c #EAC0B9",
"{x.	c #F7D8D1",
"]x.	c #FCE4EA",
"^x.	c #FDEBF3",
"/x.	c #F4CFD7",
"(x.	c #DC7988",
"_x.	c #B12234",
":x.	c #7B1016",
"<x.	c #621F14",
"[x.	c #513717",
"}x.	c #2C541C",
"|x.	c #2D6921",
"1x.	c #3E7F35",
"2x.	c #71B47E",
"3x.	c #89C99F",
"4x.	c #8AC7A7",
"5x.	c #78B393",
"6x.	c #629D7F",
"7x.	c #43876C",
"8x.	c #2C765C",
"9x.	c #256F51",
"0x.	c #1F704D",
"ax.	c #1D6E4C",
"bx.	c #186C4E",
"cx.	c #136C4E",
"dx.	c #166C49",
"ex.	c #14694A",
"fx.	c #106547",
"gx.	c #116644",
"hx.	c #146844",
"ix.	c #126842",
"jx.	c #0E6A41",
"kx.	c #136E44",
"lx.	c #146841",
"mx.	c #116B3A",
"nx.	c #17633B",
"ox.	c #176238",
"px.	c #166328",
"qx.	c #164818",
"rx.	c #122603",
"sx.	c #191E05",
"tx.	c #1F180D",
"ux.	c #1B0A08",
"vx.	c #180605",
"wx.	c #100100",
"xx.	c #3D1D21",
"yx.	c #3D191E",
"zx.	c #491415",
"Ax.	c #601E21",
"Bx.	c #7B1B21",
"Cx.	c #AA2229",
"Dx.	c #F1AC9B",
"Ex.	c #F2CBB7",
"Fx.	c #952C27",
"Gx.	c #7B333B",
"Hx.	c #53171C",
"Ix.	c #280608",
"Jx.	c #24060A",
"Kx.	c #2F1316",
"Lx.	c #321B19",
"Mx.	c #251A1A",
"Nx.	c #1D1214",
"Ox.	c #1B1317",
"Px.	c #321918",
"Qx.	c #200303",
"Rx.	c #3E0F11",
"Sx.	c #4C1318",
"Tx.	c #541C21",
"Ux.	c #692D2E",
"Vx.	c #891D25",
"Wx.	c #AE4235",
"Xx.	c #DA843C",
"Yx.	c #7F1A22",
"Zx.	c #60171F",
"`x.	c #320207",
" y.	c #421A19",
".y.	c #3B1718",
"+y.	c #200707",
"@y.	c #391B1D",
"#y.	c #381516",
"$y.	c #351111",
"%y.	c #330F0F",
"&y.	c #402824",
"*y.	c #240F06",
"=y.	c #261F04",
"-y.	c #181E01",
";y.	c #1A3506",
">y.	c #2B6C03",
",y.	c #B1DA84",
"'y.	c #F5FCD1",
")y.	c #89D34B",
"!y.	c #6D8E1B",
"~y.	c #563304",
"{y.	c #4D1206",
"]y.	c #630904",
"^y.	c #980E0F",
"/y.	c #9F212A",
"(y.	c #EDAAB9",
"_y.	c #FDD4E1",
":y.	c #CE717F",
"<y.	c #9A0519",
"[y.	c #730208",
"}y.	c #590204",
"|y.	c #250103",
"1y.	c #240301",
"2y.	c #220802",
"3y.	c #1C1001",
"4y.	c #203301",
"5y.	c #396B0D",
"6y.	c #549223",
"7y.	c #AED688",
"8y.	c #ECFCD3",
"9y.	c #F6FDE0",
"0y.	c #EAFBBE",
"ay.	c #BEEA8A",
"by.	c #90C750",
"cy.	c #70A819",
"dy.	c #5D8E0B",
"ey.	c #49740E",
"fy.	c #385D0B",
"gy.	c #2C5005",
"hy.	c #244502",
"iy.	c #1D3B01",
"jy.	c #183500",
"ky.	c #153400",
"ly.	c #143200",
"my.	c #112D00",
"ny.	c #0C2500",
"oy.	c #072200",
"py.	c #011F00",
"qy.	c #021D01",
"ry.	c #062102",
"sy.	c #082803",
"ty.	c #042D01",
"uy.	c #055506",
"vy.	c #127A05",
"wy.	c #95C873",
"xy.	c #EDFDC3",
"yy.	c #C0ED96",
"zy.	c #5CC22A",
"Ay.	c #3BA510",
"By.	c #20720E",
"Cy.	c #064E03",
"Dy.	c #0A3303",
"Ey.	c #0C2C05",
"Fy.	c #073104",
"Gy.	c #063807",
"Hy.	c #053A07",
"Iy.	c #013B07",
"Jy.	c #013E09",
"Ky.	c #013C08",
"Ly.	c #033A08",
"My.	c #02410C",
"Ny.	c #024810",
"Oy.	c #02531C",
"Py.	c #05671C",
"Qy.	c #067210",
"Ry.	c #086A18",
"Sy.	c #024C13",
"Ty.	c #01410C",
"Uy.	c #014F14",
"Vy.	c #015D1A",
"Wy.	c #056414",
"Xy.	c #0F6212",
"Yy.	c #136712",
"Zy.	c #157418",
"`y.	c #248324",
" z.	c #237B24",
".z.	c #094112",
"+z.	c #03110D",
"@z.	c #022111",
"#z.	c #115133",
"$z.	c #0F4F34",
"%z.	c #043120",
"&z.	c #0D291F",
"*z.	c #03110A",
"=z.	c #071604",
"-z.	c #073001",
";z.	c #114605",
">z.	c #389C0F",
",z.	c #63C624",
"'z.	c #BFEC8C",
")z.	c #F4FADB",
"!z.	c #B8DE99",
"~z.	c #5B923A",
"{z.	c #2B6E0D",
"]z.	c #276F0D",
"^z.	c #1E6C0A",
"/z.	c #186B09",
"(z.	c #17710C",
"_z.	c #157907",
":z.	c #167D03",
"<z.	c #2F881B",
"[z.	c #75BC64",
"}z.	c #BFF0A7",
"|z.	c #E9FECB",
"1z.	c #E5FBC1",
"2z.	c #94D265",
"3z.	c #61BD1E",
"4z.	c #4E9415",
"5z.	c #242509",
"6z.	c #261C02",
"7z.	c #120903",
"8z.	c #171003",
"9z.	c #180F01",
"0z.	c #1E0C04",
"az.	c #300404",
"bz.	c #6D0507",
"cz.	c #A80119",
"dz.	c #B41F30",
"ez.	c #D26D77",
"fz.	c #EEB3B4",
"gz.	c #FAD9DB",
"hz.	c #FFE6E7",
"iz.	c #FFEFEC",
"jz.	c #FFF2EE",
"kz.	c #FFF1ED",
"lz.	c #FFEFEA",
"mz.	c #FFECEB",
"nz.	c #FEE5E6",
"oz.	c #FCDBDA",
"pz.	c #F7C7CA",
"qz.	c #EF9DAB",
"rz.	c #DB6479",
"sz.	c #B92C3F",
"tz.	c #9C131A",
"uz.	c #732106",
"vz.	c #6E451A",
"wz.	c #636821",
"xz.	c #617720",
"yz.	c #659246",
"zz.	c #8CC57C",
"Az.	c #BBE9B0",
"Bz.	c #D8FBDC",
"Cz.	c #DDFFEE",
"Dz.	c #D5FEEC",
"Ez.	c #D3FBE3",
"Fz.	c #D5FEEB",
"Gz.	c #D4FDF3",
"Hz.	c #D3FDF8",
"Iz.	c #CDFBF6",
"Jz.	c #BEFCF3",
"Kz.	c #B2FCEF",
"Lz.	c #B9FAEF",
"Mz.	c #BAF8EF",
"Nz.	c #B4F7EE",
"Oz.	c #C1F5ED",
"Pz.	c #C0F5EE",
"Qz.	c #BEF6EF",
"Rz.	c #BCF8EF",
"Sz.	c #BFF9F3",
"Tz.	c #C2F9F9",
"Uz.	c #C2F9F8",
"Vz.	c #BEF8F6",
"Wz.	c #B9F7F2",
"Xz.	c #BBF7EF",
"Yz.	c #C9F7F1",
"Zz.	c #B6FAEB",
"`z.	c #BAF9E0",
" A.	c #B3E9C4",
".A.	c #1C411D",
"+A.	c #161F07",
"@A.	c #1E180E",
"#A.	c #190606",
"$A.	c #3F1E22",
"%A.	c #401A1F",
"&A.	c #481516",
"*A.	c #5E1E20",
"=A.	c #7C1C22",
"-A.	c #AC222A",
";A.	c #F2AB94",
">A.	c #F1CBB7",
",A.	c #942B25",
"'A.	c #70191C",
")A.	c #783038",
"!A.	c #571C22",
"~A.	c #561A1F",
"{A.	c #4B171C",
"]A.	c #280507",
"^A.	c #3D1C22",
"/A.	c #301417",
"(A.	c #392827",
"_A.	c #241415",
":A.	c #1A0F11",
"<A.	c #0A0204",
"[A.	c #180F15",
"}A.	c #321A19",
"|A.	c #1B0505",
"1A.	c #1D1114",
"2A.	c #221413",
"3A.	c #352A2A",
"4A.	c #090507",
"5A.	c #200203",
"6A.	c #3B0E10",
"7A.	c #652A2C",
"8A.	c #6A171A",
"9A.	c #8A1D26",
"0A.	c #AE4133",
"aA.	c #FBDACD",
"bA.	c #DA8C61",
"cA.	c #91151B",
"dA.	c #7D1B24",
"eA.	c #5C171F",
"fA.	c #330107",
"gA.	c #441D1D",
"hA.	c #3C1B1A",
"iA.	c #200808",
"jA.	c #3B1D1E",
"kA.	c #361414",
"lA.	c #361413",
"mA.	c #3F2824",
"nA.	c #221105",
"oA.	c #221F05",
"pA.	c #151F01",
"qA.	c #183604",
"rA.	c #307206",
"sA.	c #C1E497",
"tA.	c #EAF8C2",
"uA.	c #7EC639",
"vA.	c #65750E",
"wA.	c #5B2E06",
"xA.	c #560F08",
"yA.	c #82110A",
"zA.	c #98181B",
"AA.	c #E09AA5",
"BA.	c #FED7E7",
"CA.	c #D2778C",
"DA.	c #9B0A1E",
"EA.	c #730403",
"FA.	c #420003",
"GA.	c #210104",
"HA.	c #1A1103",
"IA.	c #1A3401",
"JA.	c #3A6A10",
"KA.	c #7BA861",
"LA.	c #D4EEC0",
"MA.	c #F5FDE0",
"NA.	c #EFFACF",
"OA.	c #C6E690",
"PA.	c #78B63E",
"QA.	c #52890E",
"RA.	c #406B08",
"SA.	c #284D0A",
"TA.	c #1B3B04",
"UA.	c #153100",
"VA.	c #182800",
"WA.	c #142301",
"XA.	c #122607",
"YA.	c #0D2509",
"ZA.	c #072107",
"`A.	c #021906",
" B.	c #011B08",
".B.	c #012209",
"+B.	c #022708",
"@B.	c #032B07",
"#B.	c #052D06",
"$B.	c #023002",
"%B.	c #023E00",
"&B.	c #085202",
"*B.	c #066B09",
"=B.	c #559D34",
"-B.	c #E2F9B4",
";B.	c #D2F3AB",
">B.	c #5DBC2C",
",B.	c #319A10",
"'B.	c #126704",
")B.	c #0C3F00",
"!B.	c #062C03",
"~B.	c #043100",
"{B.	c #083A00",
"]B.	c #124202",
"^B.	c #1C4805",
"/B.	c #224A0B",
"(B.	c #1F4A0A",
"_B.	c #1C4808",
":B.	c #183C04",
"<B.	c #033302",
"[B.	c #033104",
"}B.	c #073505",
"|B.	c #073809",
"1B.	c #073C11",
"2B.	c #073D0B",
"3B.	c #023D13",
"4B.	c #044215",
"5B.	c #074515",
"6B.	c #09461A",
"7B.	c #074C1E",
"8B.	c #054E1E",
"9B.	c #06501E",
"0B.	c #084F1D",
"aB.	c #054D15",
"bB.	c #074013",
"cB.	c #08260E",
"dB.	c #031703",
"eB.	c #031203",
"fB.	c #0F4127",
"gB.	c #13583A",
"hB.	c #033321",
"iB.	c #092C20",
"jB.	c #041A11",
"kB.	c #090904",
"lB.	c #061E03",
"mB.	c #132907",
"nB.	c #115302",
"oB.	c #3EA011",
"pB.	c #5FC819",
"qB.	c #B6E177",
"rB.	c #EEFACB",
"sB.	c #F5FCDF",
"tB.	c #ECF6DC",
"uB.	c #C4E3AA",
"vB.	c #A8C891",
"wB.	c #8CB774",
"xB.	c #76AE5B",
"yB.	c #78B256",
"zB.	c #99C36F",
"AB.	c #B5DB96",
"BB.	c #D7F3BB",
"CB.	c #F3FDD5",
"DB.	c #F7FBD6",
"EB.	c #D6F5B3",
"FB.	c #80C555",
"GB.	c #59A01F",
"HB.	c #235101",
"IB.	c #202F05",
"JB.	c #241D08",
"KB.	c #1D1101",
"LB.	c #110903",
"MB.	c #181105",
"NB.	c #150F01",
"OB.	c #1C0E03",
"PB.	c #40020A",
"QB.	c #68010D",
"RB.	c #85050D",
"SB.	c #9B070F",
"TB.	c #AE0715",
"UB.	c #B91F2E",
"VB.	c #CB3D4A",
"WB.	c #D5505C",
"XB.	c #D95966",
"YB.	c #D85C67",
"ZB.	c #D3595E",
"`B.	c #CE4E56",
" C.	c #CA3E49",
".C.	c #C32630",
"+C.	c #B91921",
"@C.	c #A91418",
"#C.	c #990F0A",
"$C.	c #7D2F0B",
"%C.	c #876525",
"&C.	c #9A852B",
"*C.	c #899833",
"=C.	c #91B654",
"-C.	c #B2E08A",
";C.	c #D8F9C0",
">C.	c #E0FEE0",
",C.	c #CAFBDE",
"'C.	c #A2E8C7",
")C.	c #66CC97",
"!C.	c #2EBD6A",
"~C.	c #26BB63",
"{C.	c #31BE72",
"]C.	c #45C588",
"^C.	c #5DCC9D",
"/C.	c #70D1AC",
"(C.	c #72D2B3",
"_C.	c #70D4B4",
":C.	c #7ED1B7",
"<C.	c #84D0BA",
"[C.	c #7DD2BA",
"}C.	c #7AD2B8",
"|C.	c #77D0B8",
"1C.	c #74D0B9",
"2C.	c #71D0B7",
"3C.	c #70D0B8",
"4C.	c #70CEB8",
"5C.	c #73CCB9",
"6C.	c #6ECCB6",
"7C.	c #68D2B6",
"8C.	c #6BD2B6",
"9C.	c #6BD5BA",
"0C.	c #55D9BF",
"aC.	c #86DBBF",
"bC.	c #CFF3B3",
"cC.	c #2A4108",
"dC.	c #131F06",
"eC.	c #1D180D",
"fC.	c #1B0507",
"gC.	c #3F1D23",
"hC.	c #411B21",
"iC.	c #491619",
"jC.	c #5E1F22",
"kC.	c #7C1E24",
"lC.	c #AC232A",
"mC.	c #F2AB97",
"nC.	c #942923",
"oC.	c #731A1F",
"pC.	c #7B3438",
"qC.	c #581F26",
"rC.	c #541A1E",
"sC.	c #4A161B",
"tC.	c #270507",
"uC.	c #26070C",
"vC.	c #2F1317",
"wC.	c #090302",
"xC.	c #271617",
"yC.	c #251718",
"zC.	c #26191A",
"AC.	c #1C1012",
"BC.	c #171016",
"CC.	c #1D1013",
"DC.	c #1F1111",
"EC.	c #0D0306",
"FC.	c #392125",
"GC.	c #321517",
"HC.	c #2E1113",
"IC.	c #501D21",
"JC.	c #632A2C",
"KC.	c #67161B",
"LC.	c #8A1B26",
"MC.	c #AD422E",
"NC.	c #FBD6C0",
"OC.	c #DA957F",
"PC.	c #90161D",
"QC.	c #791B26",
"RC.	c #591A20",
"SC.	c #340007",
"TC.	c #300005",
"UC.	c #441F1F",
"VC.	c #3C1E1D",
"WC.	c #1A0000",
"XC.	c #220808",
"YC.	c #3F2120",
"ZC.	c #341413",
"`C.	c #331314",
" D.	c #311112",
".D.	c #3D2724",
"+D.	c #1F1205",
"@D.	c #1E1F06",
"#D.	c #132001",
"$D.	c #38770E",
"%D.	c #CFEDA9",
"&D.	c #DBF6AB",
"*D.	c #7DB532",
"=D.	c #636104",
"-D.	c #5E2903",
";D.	c #651509",
">D.	c #900F0A",
",D.	c #CA7B7F",
"'D.	c #FDD7E1",
")D.	c #E095A6",
"!D.	c #9F1222",
"~D.	c #780207",
"{D.	c #5C0000",
"]D.	c #470002",
"^D.	c #220002",
"/D.	c #1D0002",
"(D.	c #1B0900",
"_D.	c #21280A",
":D.	c #345E14",
"<D.	c #689B38",
"[D.	c #DCF5B9",
"}D.	c #F0FDD3",
"|D.	c #D1E8A6",
"1D.	c #8DB158",
"2D.	c #527817",
"3D.	c #345101",
"4D.	c #253B01",
"5D.	c #1A2E01",
"6D.	c #142405",
"7D.	c #111F06",
"8D.	c #0F1D02",
"9D.	c #0D1901",
"0D.	c #071501",
"aD.	c #031502",
"bD.	c #021A02",
"cD.	c #032103",
"dD.	c #032508",
"eD.	c #072D03",
"fD.	c #0A3103",
"gD.	c #063107",
"hD.	c #033C02",
"iD.	c #094507",
"jD.	c #0B5108",
"kD.	c #0E6208",
"lD.	c #117209",
"mD.	c #338A14",
"nD.	c #B8E68E",
"oD.	c #ECFDB7",
"pD.	c #91CB5B",
"qD.	c #329C06",
"rD.	c #136400",
"sD.	c #053704",
"tD.	c #063512",
"uD.	c #1A4D0F",
"vD.	c #2B6C0B",
"wD.	c #398315",
"xD.	c #419317",
"yD.	c #46A01A",
"zD.	c #47A51C",
"AD.	c #4DA41C",
"BD.	c #4A9D19",
"CD.	c #469015",
"DD.	c #408115",
"ED.	c #367213",
"FD.	c #2B5810",
"GD.	c #103C01",
"HD.	c #073406",
"ID.	c #01572C",
"JD.	c #0A7451",
"KD.	c #148468",
"LD.	c #228C73",
"MD.	c #289379",
"ND.	c #27967B",
"OD.	c #24967C",
"PD.	c #22947B",
"QD.	c #1B9277",
"RD.	c #188E73",
"SD.	c #188B71",
"TD.	c #17866D",
"UD.	c #0F7B64",
"VD.	c #096554",
"WD.	c #043C2F",
"XD.	c #021304",
"YD.	c #0B2D15",
"ZD.	c #105938",
"`D.	c #073F29",
" E.	c #032B1D",
".E.	c #032618",
"+E.	c #020F04",
"@E.	c #050F02",
"#E.	c #0B1D03",
"$E.	c #0A3101",
"%E.	c #134F01",
"&E.	c #3C9412",
"*E.	c #4CAB1D",
"=E.	c #79C150",
"-E.	c #C2E79C",
";E.	c #EBF8CB",
">E.	c #F7FCE4",
",E.	c #F9FBE7",
"'E.	c #F9FAE9",
")E.	c #F4FAE5",
"!E.	c #F2FDE3",
"~E.	c #F1FDE3",
"{E.	c #EFFDE4",
"]E.	c #D2F6AF",
"^E.	c #A9DF7B",
"/E.	c #60B32D",
"(E.	c #51B318",
"_E.	c #4E9D1B",
":E.	c #295105",
"<E.	c #222D02",
"[E.	c #242205",
"}E.	c #1F1405",
"|E.	c #180C02",
"1E.	c #171202",
"2E.	c #161404",
"3E.	c #141402",
"4E.	c #1A1807",
"5E.	c #1E1605",
"6E.	c #211002",
"7E.	c #320902",
"8E.	c #400506",
"9E.	c #6E0106",
"0E.	c #800308",
"aE.	c #8F0212",
"bE.	c #99030F",
"cE.	c #A0030B",
"dE.	c #A3060B",
"eE.	c #A2080E",
"fE.	c #A30A10",
"gE.	c #A10B0E",
"hE.	c #96110D",
"iE.	c #85190C",
"jE.	c #7C230A",
"kE.	c #804F10",
"lE.	c #8B7F1C",
"mE.	c #8F9626",
"nE.	c #92B13F",
"oE.	c #AFD574",
"pE.	c #D6EFA0",
"qE.	c #E9FCC4",
"rE.	c #C6FDC5",
"sE.	c #88F1AA",
"tE.	c #5DD38A",
"uE.	c #34B661",
"vE.	c #23C455",
"wE.	c #28D05C",
"xE.	c #2BC55C",
"yE.	c #21C252",
"zE.	c #19BB4C",
"AE.	c #17BA4F",
"BE.	c #13C054",
"CE.	c #0FC657",
"DE.	c #10C354",
"EE.	c #0EBF56",
"FE.	c #11C05D",
"GE.	c #10BF5E",
"HE.	c #0EBE5C",
"IE.	c #0ABF57",
"JE.	c #0AC057",
"KE.	c #0ABE58",
"LE.	c #0ABC5C",
"ME.	c #0CC061",
"NE.	c #0FC364",
"OE.	c #14C566",
"PE.	c #17C864",
"QE.	c #16CB60",
"RE.	c #17CA62",
"SE.	c #16CB5F",
"TE.	c #19D269",
"UE.	c #4DDD80",
"VE.	c #A0F194",
"WE.	c #1E3F05",
"XE.	c #101A03",
"YE.	c #1D170B",
"ZE.	c #1B0A06",
"`E.	c #1A0507",
" F.	c #0F0002",
".F.	c #3D1C23",
"+F.	c #3F1A21",
"@F.	c #48151A",
"#F.	c #791F25",
"$F.	c #F0AA9A",
"%F.	c #F2C7B7",
"&F.	c #982922",
"*F.	c #771A22",
"=F.	c #7A3333",
"-F.	c #582128",
";F.	c #51191D",
">F.	c #461418",
",F.	c #260607",
"'F.	c #27080D",
")F.	c #422027",
"!F.	c #301918",
"~F.	c #120909",
"{F.	c #0A0303",
"]F.	c #342928",
"^F.	c #2B1A1B",
"/F.	c #241517",
"(F.	c #0D0304",
"_F.	c #1D1014",
":F.	c #1E1010",
"<F.	c #231414",
"[F.	c #301214",
"}F.	c #390D0F",
"|F.	c #471218",
"1F.	c #532024",
"2F.	c #642B2D",
"3F.	c #661519",
"4F.	c #FBD7C0",
"5F.	c #DA9580",
"6F.	c #781B25",
"7F.	c #57191F",
"8F.	c #350208",
"9F.	c #2F0106",
"0F.	c #431F1F",
"aF.	c #3C1D1C",
"bF.	c #230909",
"cF.	c #422523",
"dF.	c #371615",
"eF.	c #321314",
"fF.	c #321213",
"gF.	c #3C2623",
"hF.	c #1E1005",
"iF.	c #1D1E07",
"jF.	c #142102",
"kF.	c #1B3B01",
"lF.	c #3F7D17",
"mF.	c #D9F4B2",
"nF.	c #D6F1A5",
"oF.	c #7FA72A",
"pF.	c #615303",
"qF.	c #692502",
"rF.	c #7C1504",
"sF.	c #A84749",
"tF.	c #FACECC",
"uF.	c #F1BABD",
"vF.	c #B42739",
"wF.	c #830108",
"xF.	c #5F0101",
"yF.	c #450000",
"zF.	c #330003",
"AF.	c #160101",
"BF.	c #140500",
"CF.	c #1B1A01",
"DF.	c #344017",
"EF.	c #42581D",
"FF.	c #6E893D",
"GF.	c #B0C684",
"HF.	c #8BA362",
"IF.	c #506D1E",
"JF.	c #2E4702",
"KF.	c #263100",
"LF.	c #252100",
"MF.	c #1B1D04",
"NF.	c #121805",
"OF.	c #0A1103",
"PF.	c #030E00",
"QF.	c #031504",
"RF.	c #051B0A",
"SF.	c #05240D",
"TF.	c #032907",
"UF.	c #032C03",
"VF.	c #032A03",
"WF.	c #063506",
"XF.	c #044108",
"YF.	c #044F05",
"ZF.	c #075C07",
"`F.	c #0E6B07",
" G.	c #1D7513",
".G.	c #2B8219",
"+G.	c #429A2A",
"@G.	c #76C562",
"#G.	c #BCE8A4",
"$G.	c #EFFDCA",
"%G.	c #C7EE9A",
"&G.	c #50A71F",
"*G.	c #1E7201",
"=G.	c #093805",
"-G.	c #0B3502",
";G.	c #1F5A03",
">G.	c #53961D",
",G.	c #7FC248",
"'G.	c #98D266",
")G.	c #B4E28D",
"!G.	c #D7F2C7",
"~G.	c #E7F7D0",
"{G.	c #DFF9C5",
"]G.	c #CDF2AD",
"^G.	c #B3DE90",
"/G.	c #90BD70",
"(G.	c #418330",
"_G.	c #0B5601",
":G.	c #093D08",
"<G.	c #26A781",
"[G.	c #65E9D9",
"}G.	c #8AF7EF",
"|G.	c #A2FBF7",
"1G.	c #ACFCF9",
"2G.	c #A3FCF5",
"3G.	c #94FCF4",
"4G.	c #87FCF5",
"5G.	c #82FBF2",
"6G.	c #82FCF4",
"7G.	c #83FCF3",
"8G.	c #7EFAF3",
"9G.	c #66F8ED",
"0G.	c #52F1DA",
"aG.	c #37A88F",
"bG.	c #081A0D",
"cG.	c #0C1506",
"dG.	c #0B4F2F",
"eG.	c #105337",
"fG.	c #07291B",
"gG.	c #022B1C",
"hG.	c #01170B",
"iG.	c #050B01",
"jG.	c #0C1C03",
"kG.	c #112B06",
"lG.	c #0E3F03",
"mG.	c #2C7F11",
"nG.	c #46B419",
"oG.	c #4EB61C",
"pG.	c #62B23B",
"qG.	c #87C76E",
"rG.	c #A5DA87",
"sG.	c #BAE893",
"tG.	c #C3EA96",
"uG.	c #C1EA91",
"vG.	c #B0E782",
"wG.	c #9ADA6C",
"xG.	c #74C344",
"yG.	c #50B219",
"zG.	c #47B517",
"AG.	c #4FB520",
"BG.	c #3D8612",
"CG.	c #264801",
"DG.	c #2B2B09",
"EG.	c #291E08",
"FG.	c #211102",
"GG.	c #1C0D02",
"HG.	c #141200",
"IG.	c #142101",
"JG.	c #102105",
"KG.	c #1A2704",
"LG.	c #282D05",
"MG.	c #332A07",
"NG.	c #37250B",
"OG.	c #312002",
"PG.	c #2E1700",
"QG.	c #300D01",
"RG.	c #370704",
"SG.	c #410706",
"TG.	c #550501",
"UG.	c #5A0605",
"VG.	c #600A0D",
"WG.	c #64110E",
"XG.	c #621708",
"YG.	c #5C1E02",
"ZG.	c #5C2405",
"`G.	c #5C4308",
" H.	c #6E781D",
".H.	c #7EA02C",
"+H.	c #80AE31",
"@H.	c #9ECA5F",
"#H.	c #CEED97",
"$H.	c #EDF8C8",
"%H.	c #EEFDDD",
"&H.	c #C0F8C3",
"*H.	c #75E390",
"=H.	c #37C964",
"-H.	c #2AC660",
";H.	c #39D268",
">H.	c #30C65A",
",H.	c #159932",
"'H.	c #0E7212",
")H.	c #0B6109",
"!H.	c #09560C",
"~H.	c #095009",
"{H.	c #075106",
"]H.	c #03580A",
"^H.	c #026110",
"/H.	c #036B14",
"(H.	c #046C1A",
"_H.	c #056D1E",
":H.	c #046F1F",
"<H.	c #04721F",
"[H.	c #07731E",
"}H.	c #07761C",
"|H.	c #05761C",
"1H.	c #03741D",
"2H.	c #047321",
"3H.	c #047320",
"4H.	c #03791A",
"5H.	c #047A12",
"6H.	c #097911",
"7H.	c #067915",
"8H.	c #047C17",
"9H.	c #05801E",
"0H.	c #19872B",
"aH.	c #439639",
"bH.	c #0D2F00",
"cH.	c #0F1302",
"dH.	c #1D160D",
"eH.	c #190907",
"fH.	c #180507",
"gH.	c #0D0001",
"hH.	c #3C1B22",
"iH.	c #4B181D",
"jH.	c #771D23",
"kH.	c #A82329",
"lH.	c #F0AB9A",
"mH.	c #982A22",
"nH.	c #761921",
"oH.	c #783131",
"pH.	c #531C24",
"qH.	c #4E171A",
"rH.	c #412027",
"sH.	c #2E1715",
"tH.	c #352929",
"uH.	c #281719",
"vH.	c #261516",
"wH.	c #251618",
"xH.	c #1A1319",
"yH.	c #311B1A",
"zH.	c #1C0F13",
"AH.	c #221313",
"BH.	c #362B2C",
"CH.	c #0A0609",
"DH.	c #0E0307",
"EH.	c #361F23",
"FH.	c #220304",
"GH.	c #380D0F",
"HH.	c #521E23",
"IH.	c #672F31",
"JH.	c #641317",
"KH.	c #8B1D28",
"LH.	c #AE412F",
"MH.	c #FBD8C1",
"NH.	c #DB9680",
"OH.	c #791E28",
"PH.	c #581A20",
"QH.	c #340308",
"RH.	c #2D0105",
"SH.	c #422120",
"TH.	c #3B1D1B",
"UH.	c #190000",
"VH.	c #200606",
"WH.	c #3E201F",
"XH.	c #351413",
"YH.	c #301514",
"ZH.	c #1F1208",
"`H.	c #1C1D07",
" I.	c #162303",
".I.	c #1C3C01",
"+I.	c #48851F",
"@I.	c #E1F7B9",
"#I.	c #CDED9E",
"$I.	c #829C24",
"%I.	c #5F4905",
"&I.	c #712003",
"*I.	c #8F190E",
"=I.	c #E2ABA6",
"-I.	c #FCDEDA",
";I.	c #BD525B",
">I.	c #660001",
",I.	c #470201",
"'I.	c #250005",
")I.	c #150002",
"!I.	c #120302",
"~I.	c #170D05",
"{I.	c #1A1604",
"]I.	c #201B04",
"^I.	c #251801",
"/I.	c #2C2101",
"(I.	c #2A2602",
"_I.	c #292801",
":I.	c #252501",
"<I.	c #1E2006",
"[I.	c #161A07",
"}I.	c #121405",
"|I.	c #0D0D05",
"1I.	c #080A05",
"2I.	c #050C04",
"3I.	c #041102",
"4I.	c #081A05",
"5I.	c #091F00",
"6I.	c #092503",
"7I.	c #022602",
"8I.	c #012F00",
"9I.	c #054105",
"0I.	c #065403",
"aI.	c #136507",
"bI.	c #21740A",
"cI.	c #38891A",
"dI.	c #5FA542",
"eI.	c #90C570",
"fI.	c #B2DE93",
"gI.	c #D1F2B7",
"hI.	c #E3FDD9",
"iI.	c #E9FDDA",
"jI.	c #ECFAD0",
"kI.	c #CCEF9F",
"lI.	c #6AC438",
"mI.	c #2D8C15",
"nI.	c #0A4B00",
"oI.	c #032F03",
"pI.	c #093306",
"qI.	c #619730",
"rI.	c #CBF8A7",
"sI.	c #EBFCDC",
"tI.	c #EFFBDC",
"uI.	c #EDFBD8",
"vI.	c #E9FAD1",
"wI.	c #E2F8C9",
"xI.	c #D0F8BD",
"yI.	c #CDF8BB",
"zI.	c #D7FAC4",
"AI.	c #E6FCD4",
"BI.	c #F0FDE1",
"CI.	c #CAF9BF",
"DI.	c #578F57",
"EI.	c #08390B",
"FI.	c #19A376",
"GI.	c #34CDB2",
"HI.	c #31CABA",
"II.	c #41C6BB",
"JI.	c #48C3B9",
"KI.	c #40C6B5",
"LI.	c #36C5AC",
"MI.	c #34BF9F",
"NI.	c #2CB998",
"OI.	c #2CB596",
"PI.	c #29AB8E",
"QI.	c #22A282",
"RI.	c #179472",
"SI.	c #117D5E",
"TI.	c #054B33",
"UI.	c #001A07",
"VI.	c #030A00",
"WI.	c #09341D",
"XI.	c #195C3E",
"YI.	c #083421",
"ZI.	c #022A1D",
"`I.	c #022114",
" J.	c #010E05",
".J.	c #040703",
"+J.	c #060601",
"@J.	c #0B1205",
"#J.	c #102D05",
"$J.	c #123004",
"%J.	c #1D4F05",
"&J.	c #459624",
"*J.	c #4DB825",
"=J.	c #4CB81C",
"-J.	c #47B518",
";J.	c #42B113",
">J.	c #3DAA10",
",J.	c #44AE1A",
"'J.	c #4AB324",
")J.	c #4FB628",
"!J.	c #56BA2B",
"~J.	c #51B125",
"{J.	c #3E8E18",
"]J.	c #255702",
"^J.	c #2B3A02",
"/J.	c #322806",
"(J.	c #2C1B04",
"_J.	c #200D00",
":J.	c #170F00",
"<J.	c #44552E",
"[J.	c #A3C789",
"}J.	c #AECF98",
"|J.	c #98B581",
"1J.	c #698950",
"2J.	c #34591F",
"3J.	c #1A4206",
"4J.	c #273B04",
"5J.	c #2C3905",
"6J.	c #2E3106",
"7J.	c #2F2708",
"8J.	c #2E2009",
"9J.	c #301D0E",
"0J.	c #2F1F06",
"aJ.	c #302602",
"bJ.	c #3D3704",
"cJ.	c #4F4E0F",
"dJ.	c #606D1D",
"eJ.	c #638B13",
"fJ.	c #78B22F",
"gJ.	c #9ACF69",
"hJ.	c #BBE798",
"iJ.	c #DEF9BD",
"jJ.	c #EEFDD5",
"kJ.	c #C8F6C0",
"lJ.	c #89EA8E",
"mJ.	c #48D55A",
"nJ.	c #20C543",
"oJ.	c #34D75E",
"pJ.	c #40D866",
"qJ.	c #32B347",
"rJ.	c #157819",
"sJ.	c #0E5704",
"tJ.	c #0F3D01",
"uJ.	c #0E2B03",
"vJ.	c #061B04",
"wJ.	c #081401",
"xJ.	c #091601",
"yJ.	c #091A00",
"zJ.	c #062001",
"AJ.	c #062601",
"BJ.	c #042600",
"CJ.	c #072A03",
"DJ.	c #043002",
"EJ.	c #013501",
"FJ.	c #053803",
"GJ.	c #0A3D03",
"HJ.	c #073A02",
"IJ.	c #083503",
"JJ.	c #083003",
"KJ.	c #043103",
"LJ.	c #013104",
"MJ.	c #033003",
"NJ.	c #0E3000",
"OJ.	c #113403",
"PJ.	c #0C3303",
"QJ.	c #0D2506",
"RJ.	c #0E1506",
"SJ.	c #0E0B03",
"TJ.	c #1B110D",
"UJ.	c #170708",
"VJ.	c #140406",
"WJ.	c #0C0001",
"XJ.	c #3A1820",
"YJ.	c #3E181F",
"ZJ.	c #4E1B20",
"`J.	c #5F2226",
" K.	c #A72128",
".K.	c #F0AB99",
"+K.	c #F1C6B7",
"@K.	c #982921",
"#K.	c #752E2E",
"$K.	c #4F181B",
"%K.	c #441216",
"&K.	c #250506",
"*K.	c #422128",
"=K.	c #392928",
"-K.	c #090201",
";K.	c #342828",
">K.	c #27181B",
",K.	c #1A0E10",
"'K.	c #1C1214",
")K.	c #1E1114",
"!K.	c #34292A",
"~K.	c #0A0608",
"{K.	c #331518",
"]K.	c #3B1012",
"^K.	c #4F1B20",
"/K.	c #662E30",
"(K.	c #8C1E29",
"_K.	c #AD4031",
":K.	c #91181E",
"<K.	c #7A202A",
"[K.	c #571C21",
"}K.	c #320208",
"|K.	c #2C0105",
"1K.	c #3B1C1B",
"2K.	c #3F2220",
"3K.	c #341313",
"4K.	c #351616",
"5K.	c #2F1413",
"6K.	c #3B2523",
"7K.	c #1F1109",
"8K.	c #1C1B08",
"9K.	c #142103",
"0K.	c #1E3E00",
"aK.	c #4C8823",
"bK.	c #E3F9BD",
"cK.	c #C6EC9B",
"dK.	c #80921D",
"eK.	c #5F470A",
"fK.	c #792004",
"gK.	c #B25C55",
"hK.	c #FCDFD7",
"iK.	c #E49EA3",
"jK.	c #9A0B18",
"kK.	c #700205",
"lK.	c #230003",
"mK.	c #150102",
"nK.	c #0F0402",
"oK.	c #120506",
"pK.	c #190505",
"qK.	c #1C0601",
"rK.	c #1E0803",
"sK.	c #1D0B05",
"tK.	c #1D0D02",
"uK.	c #1A0D01",
"vK.	c #150E02",
"wK.	c #0D0C05",
"xK.	c #070B05",
"yK.	c #081105",
"zK.	c #031D03",
"AK.	c #062507",
"BK.	c #042601",
"CK.	c #022F02",
"DK.	c #034101",
"EK.	c #0A5800",
"FK.	c #186E05",
"GK.	c #3B8B21",
"HK.	c #6FB053",
"IK.	c #A8D387",
"JK.	c #D6EEB5",
"KK.	c #EDFCCF",
"LK.	c #F2FED5",
"MK.	c #F1FEDD",
"NK.	c #E7FBCF",
"OK.	c #D4F3A7",
"PK.	c #B5E17E",
"QK.	c #8ECB55",
"RK.	c #62AF22",
"SK.	c #41970D",
"TK.	c #1C5E02",
"UK.	c #053002",
"VK.	c #052700",
"WK.	c #032F01",
"XK.	c #336911",
"YK.	c #85B953",
"ZK.	c #AAD575",
"`K.	c #A4D470",
" L.	c #8AC15D",
".L.	c #70B345",
"+L.	c #58A42D",
"@L.	c #4C9929",
"#L.	c #459325",
"$L.	c #42902B",
"%L.	c #529A46",
"&L.	c #70B16A",
"*L.	c #80B57B",
"=L.	c #3A6538",
"-L.	c #0A4823",
";L.	c #0A562F",
">L.	c #0C6333",
",L.	c #0E6536",
"'L.	c #106839",
")L.	c #106D3C",
"!L.	c #0E6D3C",
"~L.	c #0D693A",
"{L.	c #0E6637",
"]L.	c #115F34",
"^L.	c #145931",
"/L.	c #15512C",
"(L.	c #134B27",
"_L.	c #0F4322",
":L.	c #113019",
"<L.	c #0D1308",
"[L.	c #070701",
"}L.	c #0D1207",
"|L.	c #0E4A2C",
"1L.	c #0F5035",
"2L.	c #03251B",
"3L.	c #012414",
"4L.	c #011709",
"5L.	c #061102",
"6L.	c #151A09",
"7L.	c #182107",
"8L.	c #122C01",
"9L.	c #164003",
"0L.	c #2A590C",
"aL.	c #367115",
"bL.	c #3C8216",
"cL.	c #408B17",
"dL.	c #3F8C1C",
"eL.	c #37861F",
"fL.	c #297311",
"gL.	c #205D06",
"hL.	c #204B01",
"iL.	c #274003",
"jL.	c #2C3105",
"kL.	c #302406",
"lL.	c #2B1102",
"mL.	c #250700",
"nL.	c #250600",
"oL.	c #260A00",
"pL.	c #4A5A24",
"qL.	c #84A85F",
"rL.	c #C3DDA0",
"sL.	c #E4F7C9",
"tL.	c #EBFDDB",
"uL.	c #D7ECC0",
"vL.	c #AFC88F",
"wL.	c #719156",
"xL.	c #416523",
"yL.	c #335A14",
"zL.	c #2A5008",
"AL.	c #284E08",
"BL.	c #2C5710",
"CL.	c #376909",
"DL.	c #467B0C",
"EL.	c #63942C",
"FL.	c #7FB14F",
"GL.	c #9AD46E",
"HL.	c #C3E89A",
"IL.	c #DAFABC",
"JL.	c #D7FFC9",
"KL.	c #C9F9C1",
"LL.	c #9EEB9A",
"ML.	c #5ED15F",
"NL.	c #2FC841",
"OL.	c #2FCA4E",
"PL.	c #2FCC53",
"QL.	c #2DBE43",
"RL.	c #228E23",
"SL.	c #185F08",
"TL.	c #114208",
"UL.	c #0E3303",
"VL.	c #0B2300",
"WL.	c #0B1400",
"XL.	c #040D04",
"YL.	c #060A09",
"ZL.	c #0A0502",
"`L.	c #0B0702",
" M.	c #0F0B05",
".M.	c #0F0C05",
"+M.	c #0E0D04",
"@M.	c #110D06",
"#M.	c #071801",
"$M.	c #093107",
"%M.	c #225E20",
"&M.	c #2A6426",
"*M.	c #2A5D24",
"=M.	c #1E4C1A",
"-M.	c #052902",
";M.	c #091101",
">M.	c #081305",
",M.	c #1C3E0D",
"'M.	c #376425",
")M.	c #376129",
"!M.	c #3D642D",
"~M.	c #214411",
"{M.	c #081405",
"]M.	c #100804",
"^M.	c #1A0C0C",
"/M.	c #150608",
"(M.	c #120507",
"_M.	c #4C1A1E",
":M.	c #5D2024",
"<M.	c #A82229",
"[M.	c #F0AB98",
"}M.	c #F2C7B8",
"|M.	c #972820",
"1M.	c #762F2E",
"2M.	c #50181B",
"3M.	c #451317",
"4M.	c #250505",
"5M.	c #411F26",
"6M.	c #2E1716",
"7M.	c #352A29",
"8M.	c #27171A",
"9M.	c #191419",
"0M.	c #311C1A",
"aM.	c #1B0404",
"bM.	c #1F1215",
"cM.	c #090508",
"dM.	c #3F2123",
"eM.	c #240608",
"fM.	c #370D0F",
"gM.	c #461218",
"hM.	c #4F1C20",
"iM.	c #612A2B",
"jM.	c #67171B",
"kM.	c #881C27",
"lM.	c #FBD9CB",
"mM.	c #D28345",
"nM.	c #90191D",
"oM.	c #792029",
"pM.	c #56181E",
"qM.	c #2E0106",
"rM.	c #290204",
"sM.	c #431F20",
"tM.	c #210507",
"uM.	c #422222",
"vM.	c #341414",
"wM.	c #2C1311",
"xM.	c #372421",
"yM.	c #1B1206",
"zM.	c #191D07",
"AM.	c #122004",
"BM.	c #1D3E03",
"CM.	c #4A8725",
"DM.	c #E0F9C2",
"EM.	c #C8E999",
"FM.	c #768D12",
"GM.	c #63410B",
"HM.	c #7F1F09",
"IM.	c #E5A8A4",
"JM.	c #FBD7CF",
"KM.	c #B63D4C",
"LM.	c #7C0106",
"MM.	c #570301",
"NM.	c #3D0002",
"OM.	c #1F0204",
"PM.	c #180200",
"QM.	c #100200",
"RM.	c #0C0103",
"SM.	c #100301",
"TM.	c #0F0504",
"UM.	c #0B0401",
"VM.	c #0A0901",
"WM.	c #080E00",
"XM.	c #050E00",
"YM.	c #061703",
"ZM.	c #041F02",
"`M.	c #012401",
" N.	c #012B05",
".N.	c #044204",
"+N.	c #0C5704",
"@N.	c #1C6C07",
"#N.	c #61A343",
"$N.	c #A3D77D",
"%N.	c #D9F0B8",
"&N.	c #EDFBD5",
"*N.	c #ECFDDA",
"=N.	c #D5F3BD",
"-N.	c #B2E78F",
";N.	c #99D667",
">N.	c #7CC541",
",N.	c #62B429",
"'N.	c #4EA31D",
")N.	c #3A8D0F",
"!N.	c #2C6F04",
"~N.	c #1A4803",
"{N.	c #0A2F04",
"]N.	c #062403",
"^N.	c #072004",
"/N.	c #032505",
"(N.	c #05340F",
"_N.	c #195102",
":N.	c #287B0B",
"<N.	c #29841A",
"[N.	c #2C8327",
"}N.	c #338431",
"|N.	c #327D2E",
"1N.	c #2E7523",
"2N.	c #216D19",
"3N.	c #1A5D0F",
"4N.	c #1C4C08",
"5N.	c #1A3E04",
"6N.	c #203104",
"7N.	c #212806",
"8N.	c #242C10",
"9N.	c #273719",
"0N.	c #24411F",
"aN.	c #234624",
"bN.	c #224926",
"cN.	c #1E4926",
"dN.	c #1E4A29",
"eN.	c #1D4928",
"fN.	c #1E4526",
"gN.	c #233E22",
"hN.	c #23351D",
"iN.	c #232F1A",
"jN.	c #1E2B17",
"kN.	c #1C2716",
"lN.	c #201F12",
"mN.	c #1E160D",
"nN.	c #0E0602",
"oN.	c #062612",
"pN.	c #15573F",
"qN.	c #063B2E",
"rN.	c #032113",
"sN.	c #031C09",
"tN.	c #010801",
"uN.	c #000205",
"vN.	c #040204",
"wN.	c #040600",
"xN.	c #121203",
"yN.	c #171405",
"zN.	c #1B1F03",
"AN.	c #1C2505",
"BN.	c #1C2907",
"CN.	c #1E2F0B",
"DN.	c #1D350F",
"EN.	c #1D3E06",
"FN.	c #253D04",
"GN.	c #27390B",
"HN.	c #2B300D",
"IN.	c #282504",
"JN.	c #241903",
"KN.	c #270E00",
"LN.	c #290800",
"MN.	c #290503",
"NN.	c #300904",
"ON.	c #3A1303",
"PN.	c #431C03",
"QN.	c #493202",
"RN.	c #495007",
"SN.	c #4B6F09",
"TN.	c #5F9439",
"UN.	c #95C480",
"VN.	c #CAE8BB",
"WN.	c #EBFBE5",
"XN.	c #ECFBDA",
"YN.	c #D7E9C1",
"ZN.	c #B7D09E",
"`N.	c #96C27D",
" O.	c #89C171",
".O.	c #9DD182",
"+O.	c #B7E196",
"@O.	c #CDF0AC",
"#O.	c #D9FAC1",
"$O.	c #DDFED1",
"%O.	c #D8FED1",
"&O.	c #C5F6BD",
"*O.	c #9DE197",
"=O.	c #62C563",
"-O.	c #36C242",
";O.	c #3AD14A",
">O.	c #3BCD4F",
",O.	c #2EB444",
"'O.	c #1B8727",
")O.	c #16600E",
"!O.	c #184A08",
"~O.	c #163303",
"{O.	c #152102",
"]O.	c #111601",
"^O.	c #100D02",
"/O.	c #090901",
"(O.	c #060600",
"_O.	c #0C0200",
":O.	c #0A0300",
"<O.	c #0A0100",
"[O.	c #0F0604",
"}O.	c #0E0704",
"|O.	c #051B00",
"1O.	c #2B702C",
"2O.	c #B0ECA7",
"3O.	c #B7ED8D",
"4O.	c #A9E879",
"5O.	c #96DF76",
"6O.	c #367324",
"7O.	c #091701",
"8O.	c #0C0A01",
"9O.	c #729B51",
"0O.	c #D6F8B0",
"aO.	c #B4E98D",
"bO.	c #C5F38D",
"cO.	c #A6C373",
"dO.	c #152804",
"eO.	c #0D0B06",
"fO.	c #0E0503",
"gO.	c #180A0A",
"hO.	c #140606",
"iO.	c #110505",
"jO.	c #38181F",
"kO.	c #3D1920",
"lO.	c #230002",
"mO.	c #2B0203",
"nO.	c #48181B",
"oO.	c #5B2022",
"pO.	c #761D22",
"qO.	c #A62027",
"rO.	c #F3CAB6",
"sO.	c #942420",
"tO.	c #771A23",
"uO.	c #752E33",
"vO.	c #531C22",
"wO.	c #4E181B",
"xO.	c #250606",
"yO.	c #2C1114",
"zO.	c #392625",
"AO.	c #120808",
"BO.	c #241314",
"CO.	c #1D1315",
"DO.	c #181419",
"EO.	c #1A0303",
"FO.	c #201216",
"GO.	c #201111",
"HO.	c #240607",
"IO.	c #360C0D",
"JO.	c #410E13",
"KO.	c #5F2829",
"LO.	c #65171A",
"MO.	c #861C26",
"NO.	c #AE433E",
"OO.	c #FBD8C8",
"PO.	c #D08039",
"QO.	c #8E191C",
"RO.	c #59181F",
"SO.	c #2D0205",
"TO.	c #270204",
"UO.	c #431D1F",
"VO.	c #3D1C1D",
"WO.	c #422023",
"XO.	c #361716",
"YO.	c #301011",
"ZO.	c #2B1311",
"`O.	c #352420",
" P.	c #181103",
".P.	c #151C05",
"+P.	c #112106",
"@P.	c #1A3B04",
"#P.	c #478525",
"$P.	c #E2F8C0",
"%P.	c #CFE799",
"&P.	c #6D8C0C",
"*P.	c #683C09",
"=P.	c #983627",
"-P.	c #FBDBD5",
";P.	c #E69F9F",
">P.	c #980617",
",P.	c #5E0001",
"'P.	c #250104",
")P.	c #1C0305",
"!P.	c #150101",
"~P.	c #150605",
"{P.	c #100403",
"]P.	c #050500",
"^P.	c #050300",
"/P.	c #050200",
"(P.	c #060200",
"_P.	c #060300",
":P.	c #080404",
"<P.	c #080B04",
"[P.	c #020E00",
"}P.	c #011703",
"|P.	c #041C01",
"1P.	c #082204",
"2P.	c #043203",
"3P.	c #0C5001",
"4P.	c #236A0D",
"5P.	c #69A349",
"6P.	c #B5E48C",
"7P.	c #E6FDC2",
"8P.	c #F0FDDD",
"9P.	c #D6EDB4",
"0P.	c #ADD87B",
"aP.	c #7DBE40",
"bP.	c #66B126",
"cP.	c #59A11D",
"dP.	c #458810",
"eP.	c #346F07",
"fP.	c #245902",
"gP.	c #1B4A01",
"hP.	c #143E00",
"iP.	c #0F3200",
"jP.	c #0E2802",
"kP.	c #102303",
"lP.	c #0D2006",
"mP.	c #081F03",
"nP.	c #042300",
"oP.	c #013203",
"pP.	c #034918",
"qP.	c #08672C",
"rP.	c #0A7537",
"sP.	c #08733C",
"tP.	c #0E6C40",
"uP.	c #166544",
"vP.	c #186546",
"wP.	c #0E5837",
"xP.	c #0D3E1F",
"yP.	c #14230A",
"zP.	c #181903",
"AP.	c #211707",
"BP.	c #281B0D",
"CP.	c #2A1E10",
"DP.	c #241D0D",
"EP.	c #1F1B0B",
"FP.	c #231B0C",
"GP.	c #241C0E",
"HP.	c #241B0D",
"IP.	c #231C0D",
"JP.	c #1D190E",
"KP.	c #26120D",
"LP.	c #2E0D0C",
"MP.	c #300A0B",
"NP.	c #2B0A09",
"OP.	c #2E0608",
"PP.	c #370106",
"QP.	c #1D0402",
"RP.	c #133326",
"SP.	c #1C5545",
"TP.	c #032C1D",
"UP.	c #02200C",
"VP.	c #041704",
"WP.	c #020B02",
"XP.	c #010507",
"YP.	c #0B0600",
"ZP.	c #110C00",
"`P.	c #160F01",
" Q.	c #181203",
".Q.	c #171801",
"+Q.	c #171E02",
"@Q.	c #172201",
"#Q.	c #1D3601",
"$Q.	c #243903",
"%Q.	c #251E02",
"&Q.	c #2D0E06",
"*Q.	c #2B0706",
"=Q.	c #2C0600",
"-Q.	c #330805",
";Q.	c #49090E",
">Q.	c #4F0B0C",
",Q.	c #5A0F0D",
"'Q.	c #60100A",
")Q.	c #571505",
"!Q.	c #462B09",
"~Q.	c #46500B",
"{Q.	c #4A700B",
"]Q.	c #488112",
"^Q.	c #62A149",
"/Q.	c #A1D390",
"(Q.	c #CAF1B8",
"_Q.	c #E4FDD6",
":Q.	c #EDFFE6",
"<Q.	c #E9FEE8",
"[Q.	c #E1FDE5",
"}Q.	c #DAFCD5",
"|Q.	c #C6F9BC",
"1Q.	c #9CED9C",
"2Q.	c #6DD97B",
"3Q.	c #44BC5B",
"4Q.	c #21B035",
"5Q.	c #2BC33E",
"6Q.	c #31CC46",
"7Q.	c #31BC42",
"8Q.	c #218F24",
"9Q.	c #0D6607",
"0Q.	c #104A02",
"aQ.	c #133601",
"bQ.	c #162200",
"cQ.	c #1A1900",
"dQ.	c #191000",
"eQ.	c #160800",
"fQ.	c #150500",
"gQ.	c #110201",
"hQ.	c #0F0201",
"iQ.	c #230006",
"jQ.	c #240107",
"kQ.	c #180305",
"lQ.	c #1A0208",
"mQ.	c #0E1900",
"nQ.	c #286B1B",
"oQ.	c #C4F8A1",
"pQ.	c #BAE664",
"qQ.	c #9DDE21",
"rQ.	c #9AEB45",
"sQ.	c #327011",
"tQ.	c #081400",
"uQ.	c #0D0A02",
"vQ.	c #0B1204",
"wQ.	c #446B23",
"xQ.	c #CEF275",
"yQ.	c #C4F06E",
"zQ.	c #C4EB61",
"AQ.	c #A5CE4F",
"BQ.	c #163300",
"CQ.	c #0D0C04",
"DQ.	c #160807",
"EQ.	c #150706",
"FQ.	c #100504",
"GQ.	c #36171E",
"HQ.	c #3D1A20",
"IQ.	c #2A0304",
"JQ.	c #451719",
"KQ.	c #5B2223",
"LQ.	c #741D20",
"MQ.	c #A51E25",
"NQ.	c #EFAB98",
"OQ.	c #F4CBB5",
"PQ.	c #922220",
"QQ.	c #771B22",
"RQ.	c #752D35",
"SQ.	c #4F1A1E",
"TQ.	c #4D171A",
"UQ.	c #47171A",
"VQ.	c #240606",
"WQ.	c #23050A",
"XQ.	c #401E25",
"YQ.	c #2B1114",
"ZQ.	c #2D1916",
"`Q.	c #15080A",
" R.	c #372B2B",
".R.	c #251415",
"+R.	c #1E1416",
"@R.	c #1E1014",
"#R.	c #352A2B",
"$R.	c #372024",
"%R.	c #230507",
"&R.	c #360D0E",
"*R.	c #451217",
"=R.	c #522024",
"-R.	c #622B2C",
";R.	c #651719",
">R.	c #AE423E",
",R.	c #FBD8C7",
"'R.	c #8D181A",
")R.	c #781F28",
"!R.	c #5A1920",
"~R.	c #2E0206",
"{R.	c #260204",
"]R.	c #431E1F",
"^R.	c #210407",
"/R.	c #401F21",
"(R.	c #321313",
"_R.	c #2C1412",
":R.	c #34241F",
"<R.	c #181004",
"[R.	c #151A04",
"}R.	c #122006",
"|R.	c #183704",
"1R.	c #407B1F",
"2R.	c #E4F5B8",
"3R.	c #D1E89A",
"4R.	c #678C0F",
"5R.	c #633A04",
"6R.	c #B65048",
"7R.	c #FED5D9",
"8R.	c #C05962",
"9R.	c #740504",
"0R.	c #480201",
"aR.	c #370105",
"bR.	c #220103",
"cR.	c #150602",
"dR.	c #150E05",
"eR.	c #131805",
"fR.	c #0A1B02",
"gR.	c #071E03",
"hR.	c #052003",
"iR.	c #021C01",
"jR.	c #001402",
"kR.	c #010B03",
"lR.	c #040402",
"mR.	c #050706",
"nR.	c #051006",
"oR.	c #011401",
"pR.	c #021D02",
"qR.	c #032908",
"rR.	c #043905",
"sR.	c #175602",
"tR.	c #51892F",
"uR.	c #B1D582",
"vR.	c #E2FBBD",
"wR.	c #F3FFD4",
"xR.	c #F1FBC9",
"yR.	c #D1E4A0",
"zR.	c #95C953",
"AR.	c #6DB420",
"BR.	c #57A612",
"CR.	c #3A820E",
"DR.	c #2A630C",
"ER.	c #214B02",
"FR.	c #1B3E00",
"GR.	c #183301",
"HR.	c #162901",
"IR.	c #142602",
"JR.	c #132803",
"KR.	c #152806",
"LR.	c #152509",
"MR.	c #122007",
"NR.	c #0A1C04",
"OR.	c #072202",
"PR.	c #032F04",
"QR.	c #045028",
"RR.	c #046D4B",
"SR.	c #0A7C62",
"TR.	c #36A18C",
"UR.	c #5ACEBA",
"VR.	c #60DFD1",
"WR.	c #60E2DD",
"XR.	c #47E2DA",
"YR.	c #45D0C2",
"ZR.	c #227468",
"`R.	c #15241D",
" S.	c #1D0D05",
".S.	c #1F0B07",
"+S.	c #220A07",
"@S.	c #220906",
"#S.	c #200A06",
"$S.	c #1F0C07",
"%S.	c #260F0B",
"&S.	c #270E0B",
"*S.	c #260C09",
"=S.	c #280C09",
"-S.	c #280A09",
";S.	c #290A0A",
">S.	c #2C0D0C",
",S.	c #330A0B",
"'S.	c #390508",
")S.	c #3D0506",
"!S.	c #470205",
"~S.	c #4E0206",
"{S.	c #540308",
"]S.	c #3C0602",
"^S.	c #220500",
"/S.	c #0C1206",
"(S.	c #0D4431",
"_S.	c #114937",
":S.	c #002615",
"<S.	c #051A0A",
"[S.	c #051205",
"}S.	c #000901",
"|S.	c #010302",
"1S.	c #030302",
"2S.	c #030300",
"3S.	c #060301",
"4S.	c #0B0900",
"5S.	c #0E0F00",
"6S.	c #0F1C07",
"7S.	c #1D4406",
"8S.	c #8FB075",
"9S.	c #ACC97C",
"0S.	c #4C5A0F",
"aS.	c #2E1B00",
"bS.	c #2B0505",
"cS.	c #400605",
"dS.	c #550805",
"eS.	c #6C0704",
"fS.	c #7F0E09",
"gS.	c #A51016",
"hS.	c #9A1112",
"iS.	c #84150B",
"jS.	c #701608",
"kS.	c #4F2803",
"lS.	c #39770C",
"mS.	c #378512",
"nS.	c #3A881E",
"oS.	c #57A04A",
"pS.	c #6BB568",
"qS.	c #6BBE6C",
"rS.	c #56BA48",
"sS.	c #33B236",
"tS.	c #1FB634",
"uS.	c #2EC347",
"vS.	c #31C84B",
"wS.	c #37C647",
"xS.	c #2CB238",
"yS.	c #1C891D",
"zS.	c #1A6304",
"AS.	c #1D5004",
"BS.	c #1E3C03",
"CS.	c #1F2601",
"DS.	c #231601",
"ES.	c #210F04",
"FS.	c #200905",
"GS.	c #220403",
"HS.	c #1D0001",
"IS.	c #130001",
"JS.	c #0B0000",
"KS.	c #0C0102",
"LS.	c #140103",
"MS.	c #150103",
"NS.	c #190207",
"OS.	c #184602",
"PS.	c #ACDE95",
"QS.	c #D4FA9F",
"RS.	c #B3F352",
"SS.	c #8FD843",
"TS.	c #134203",
"US.	c #0A0F00",
"VS.	c #0B0705",
"WS.	c #020C06",
"XS.	c #194601",
"YS.	c #A1D456",
"ZS.	c #F2FDD6",
"`S.	c #EDFBC1",
" T.	c #75A83B",
".T.	c #102805",
"+T.	c #0F0607",
"@T.	c #0E0504",
"#T.	c #130505",
"$T.	c #160707",
"%T.	c #0F0403",
"&T.	c #36181E",
"*T.	c #47191B",
"=T.	c #5A2122",
"-T.	c #731C1F",
";T.	c #A51E24",
">T.	c #922221",
",T.	c #521C21",
"'T.	c #4D1619",
")T.	c #461619",
"!T.	c #250707",
"~T.	c #220509",
"{T.	c #140809",
"]T.	c #261719",
"^T.	c #1D1113",
"/T.	c #171217",
"(T.	c #1F1115",
"_T.	c #080507",
":T.	c #3A2327",
"<T.	c #3D2022",
"[T.	c #220406",
"}T.	c #1F0103",
"|T.	c #360C0E",
"1T.	c #420F14",
"2T.	c #501E22",
"3T.	c #652E2F",
"4T.	c #621417",
"5T.	c #861D26",
"6T.	c #AD413D",
"7T.	c #7A212A",
"8T.	c #57161D",
"9T.	c #452021",
"0T.	c #200206",
"aT.	c #331414",
"bT.	c #2F1011",
"cT.	c #34231E",
"dT.	c #180E05",
"eT.	c #171A07",
"fT.	c #101D04",
"gT.	c #143001",
"hT.	c #3A731B",
"iT.	c #DEF1AF",
"jT.	c #D4ECA1",
"kT.	c #668F1A",
"lT.	c #523D03",
"mT.	c #7C2922",
"nT.	c #C16A79",
"oT.	c #770C18",
"pT.	c #440800",
"qT.	c #220101",
"rT.	c #1B0501",
"sT.	c #161001",
"tT.	c #172006",
"uT.	c #112A05",
"vT.	c #0C3602",
"wT.	c #093E00",
"xT.	c #0B4202",
"yT.	c #104103",
"zT.	c #0E3A02",
"AT.	c #021A03",
"BT.	c #070F05",
"CT.	c #060804",
"DT.	c #030703",
"ET.	c #020C04",
"FT.	c #021503",
"GT.	c #011F01",
"HT.	c #0B2903",
"IT.	c #093F05",
"JT.	c #1C670A",
"KT.	c #7FB25B",
"LT.	c #DBF3B7",
"MT.	c #F9FDD6",
"NT.	c #F0FAC7",
"OT.	c #C3E097",
"PT.	c #88C252",
"QT.	c #63B020",
"RT.	c #4F9117",
"ST.	c #2F6A07",
"TT.	c #1B4B05",
"UT.	c #1A3502",
"VT.	c #1B2A01",
"WT.	c #132605",
"XT.	c #162204",
"YT.	c #1D2100",
"ZT.	c #222000",
"`T.	c #232104",
" U.	c #241F08",
".U.	c #2C1B08",
"+U.	c #261A08",
"@U.	c #14200B",
"#U.	c #052307",
"$U.	c #01320D",
"%U.	c #085A32",
"&U.	c #0A7757",
"*U.	c #3EB0A4",
"=U.	c #81E7E5",
"-U.	c #95FAF9",
";U.	c #8DF1EB",
">U.	c #72DBD5",
",U.	c #4DC2C0",
"'U.	c #2FA9A2",
")U.	c #1F877C",
"!U.	c #134A3F",
"~U.	c #1C2216",
"{U.	c #1F1303",
"]U.	c #290B07",
"^U.	c #2C0707",
"/U.	c #2A0504",
"(U.	c #280604",
"_U.	c #2A0804",
":U.	c #2C0805",
"<U.	c #2F0706",
"[U.	c #300705",
"}U.	c #330506",
"|U.	c #380405",
"1U.	c #490506",
"2U.	c #500405",
"3U.	c #570505",
"4U.	c #610406",
"5U.	c #760D15",
"6U.	c #8D353B",
"7U.	c #A96769",
"8U.	c #C38B86",
"9U.	c #833838",
"0U.	c #440303",
"aU.	c #0C0F08",
"bU.	c #163E31",
"cU.	c #184030",
"dU.	c #012311",
"eU.	c #001908",
"fU.	c #001002",
"gU.	c #020B04",
"hU.	c #000302",
"iU.	c #000202",
"jU.	c #010103",
"kU.	c #040202",
"lU.	c #060701",
"mU.	c #071400",
"nU.	c #052C0E",
"oU.	c #5A8C31",
"pU.	c #E0F3A5",
"qU.	c #6E8815",
"rU.	c #3B3503",
"sU.	c #431305",
"tU.	c #600805",
"uU.	c #7C0B0B",
"vU.	c #A32626",
"wU.	c #D77A3F",
"xU.	c #F1A055",
"yU.	c #F1AA78",
"zU.	c #EA9952",
"AU.	c #D27642",
"BU.	c #981E1D",
"CU.	c #6A080B",
"DU.	c #421904",
"EU.	c #342400",
"FU.	c #2D4104",
"GU.	c #345D0D",
"HU.	c #30770F",
"IU.	c #278D11",
"JU.	c #279D1B",
"KU.	c #2DA032",
"LU.	c #24A133",
"MU.	c #249D35",
"NU.	c #27892E",
"OU.	c #1F6917",
"PU.	c #184F02",
"QU.	c #194702",
"RU.	c #1A3300",
"SU.	c #251802",
"TU.	c #241102",
"UU.	c #270600",
"VU.	c #2A0204",
"WU.	c #250106",
"XU.	c #210003",
"YU.	c #200003",
"ZU.	c #170202",
"`U.	c #040101",
" V.	c #070002",
".V.	c #0C0003",
"+V.	c #110D03",
"@V.	c #123000",
"#V.	c #7AB16D",
"$V.	c #E0FECD",
"%V.	c #C8FC9A",
"&V.	c #5B9A35",
"*V.	c #0B2B04",
"=V.	c #0D0900",
"-V.	c #0A0304",
";V.	c #010606",
">V.	c #0A3200",
",V.	c #74AF3B",
"'V.	c #F2FCDA",
")V.	c #E1F3C1",
"!V.	c #467921",
"~V.	c #0C1803",
"{V.	c #0D0506",
"]V.	c #0F0606",
"^V.	c #110305",
"/V.	c #16070A",
"(V.	c #37181E",
"_V.	c #3E1B21",
":V.	c #280102",
"<V.	c #481A1B",
"[V.	c #5C2324",
"}V.	c #731C20",
"|V.	c #A61E25",
"1V.	c #EFAB99",
"2V.	c #F4CBB4",
"3V.	c #932221",
"4V.	c #732B34",
"5V.	c #551F24",
"6V.	c #4C1619",
"7V.	c #3F1D24",
"8V.	c #2B1714",
"9V.	c #130708",
"0V.	c #332827",
"aV.	c #211719",
"bV.	c #231514",
"cV.	c #080506",
"dV.	c #3B1D1F",
"eV.	c #230407",
"fV.	c #431015",
"gV.	c #4D1B1F",
"hV.	c #632D2E",
"iV.	c #AB403B",
"jV.	c #8C1619",
"kV.	c #781F27",
"lV.	c #58171E",
"mV.	c #3C1B1C",
"nV.	c #140000",
"oV.	c #432224",
"pV.	c #301110",
"qV.	c #301111",
"rV.	c #2A1110",
"sV.	c #32211D",
"tV.	c #160B03",
"uV.	c #141605",
"vV.	c #0E1A01",
"wV.	c #112B01",
"xV.	c #2D6512",
"yV.	c #CFE8A4",
"zV.	c #D8F2AB",
"AV.	c #628E21",
"BV.	c #393D01",
"CV.	c #391602",
"DV.	c #480702",
"EV.	c #350406",
"FV.	c #2F0002",
"GV.	c #1F0201",
"HV.	c #1F0502",
"IV.	c #1B0902",
"JV.	c #151702",
"KV.	c #132C04",
"LV.	c #0D3701",
"MV.	c #154A02",
"NV.	c #1B5B04",
"OV.	c #317215",
"PV.	c #558F35",
"QV.	c #7AAB58",
"RV.	c #85B469",
"SV.	c #4C753E",
"TV.	c #032601",
"UV.	c #051401",
"VV.	c #050D01",
"WV.	c #031202",
"XV.	c #001B00",
"YV.	c #032C02",
"ZV.	c #074406",
"`V.	c #3B770E",
" W.	c #ABD280",
".W.	c #ECFDD7",
"+W.	c #F7FFD7",
"@W.	c #D1EDA7",
"#W.	c #8CC054",
"$W.	c #65AA21",
"%W.	c #47890F",
"&W.	c #255D03",
"*W.	c #174101",
"=W.	c #163002",
"-W.	c #162104",
";W.	c #1A1F04",
">W.	c #1D2106",
",W.	c #221C08",
"'W.	c #241805",
")W.	c #291302",
"!W.	c #321304",
"~W.	c #3B1206",
"{W.	c #500D07",
"]W.	c #640709",
"^W.	c #5A0D0D",
"/W.	c #321A10",
"(W.	c #0F2F10",
"_W.	c #06542E",
":W.	c #0A7C5D",
"<W.	c #4FCFC0",
"[W.	c #7CF9F7",
"}W.	c #63E8E6",
"|W.	c #35BBAE",
"1W.	c #0C8F74",
"2W.	c #087156",
"3W.	c #15624E",
"4W.	c #22503E",
"5W.	c #254333",
"6W.	c #312A22",
"7W.	c #3C1311",
"8W.	c #3D0C0A",
"9W.	c #400705",
"0W.	c #430405",
"aW.	c #460405",
"bW.	c #460506",
"cW.	c #4B0405",
"dW.	c #4E0406",
"eW.	c #560308",
"fW.	c #5A050A",
"gW.	c #66070C",
"hW.	c #780710",
"iW.	c #86161B",
"jW.	c #993F3A",
"kW.	c #C1716F",
"lW.	c #E1A2A3",
"mW.	c #F2CCCB",
"nW.	c #FDDDE3",
"oW.	c #F7D2C9",
"pW.	c #C97474",
"qW.	c #5D0208",
"rW.	c #0F0204",
"sW.	c #031007",
"tW.	c #17392A",
"uW.	c #10402B",
"vW.	c #012613",
"wW.	c #021608",
"xW.	c #000A00",
"yW.	c #010601",
"zW.	c #010000",
"AW.	c #051A00",
"BW.	c #174005",
"CW.	c #9EC56F",
"DW.	c #F6FED0",
"EW.	c #C6DC74",
"FW.	c #54730E",
"GW.	c #463206",
"HW.	c #570B04",
"IW.	c #790E13",
"JW.	c #A9493B",
"KW.	c #EEA053",
"LW.	c #FFBC76",
"MW.	c #FCC896",
"NW.	c #FAC38B",
"OW.	c #FDCC9A",
"PW.	c #EB9358",
"QW.	c #8A101A",
"RW.	c #540701",
"SW.	c #310C02",
"TW.	c #261406",
"UW.	c #202302",
"VW.	c #1D2C05",
"WW.	c #1B3006",
"XW.	c #1F3201",
"YW.	c #212E02",
"ZW.	c #1E2A01",
"`W.	c #1B2502",
" X.	c #1C1A04",
".X.	c #231104",
"+X.	c #280B04",
"@X.	c #280B05",
"#X.	c #270604",
"$X.	c #180102",
"%X.	c #160002",
"&X.	c #150001",
"*X.	c #190102",
"=X.	c #1C0103",
"-X.	c #140603",
";X.	c #152001",
">X.	c #3F8027",
",X.	c #D4F6AA",
"'X.	c #BAEC8E",
")X.	c #24600D",
"!X.	c #031901",
"~X.	c #0C0202",
"{X.	c #0B0201",
"]X.	c #010204",
"^X.	c #457B29",
"/X.	c #D9F5AD",
"(X.	c #B3D98A",
"_X.	c #214C0E",
":X.	c #090E02",
"<X.	c #050301",
"[X.	c #0F0708",
"}X.	c #0E0102",
"|X.	c #18090D",
"1X.	c #35171D",
"2X.	c #3C191F",
"3X.	c #46191A",
"4X.	c #721B1E",
"5X.	c #732B33",
"6X.	c #531D22",
"7X.	c #4B1518",
"8X.	c #2B1214",
"9X.	c #322726",
"0X.	c #251518",
"aX.	c #211413",
"bX.	c #332A2B",
"cX.	c #070507",
"dX.	c #0B0306",
"eX.	c #362023",
"fX.	c #301315",
"gX.	c #230608",
"hX.	c #1F0203",
"iX.	c #4C1A1D",
"jX.	c #602A2B",
"kX.	c #831C24",
"lX.	c #AA3F37",
"mX.	c #FBD7C9",
"nX.	c #D07F38",
"oX.	c #8D181C",
"pX.	c #78212A",
"qX.	c #54151D",
"rX.	c #2D0207",
"sX.	c #270205",
"tX.	c #441D20",
"uX.	c #3B1B1B",
"vX.	c #1F0507",
"wX.	c #412022",
"xX.	c #311113",
"yX.	c #301013",
"zX.	c #2B1313",
"AX.	c #352421",
"BX.	c #140703",
"CX.	c #181207",
"DX.	c #101503",
"EX.	c #1D5105",
"FX.	c #C0DB90",
"GX.	c #E0F5C2",
"HX.	c #609120",
"IX.	c #2F3702",
"JX.	c #281A04",
"KX.	c #270802",
"LX.	c #2C0203",
"MX.	c #2A0104",
"NX.	c #220302",
"OX.	c #1B0601",
"PX.	c #171004",
"QX.	c #122406",
"RX.	c #183802",
"SX.	c #174C01",
"TX.	c #1F680B",
"UX.	c #56923D",
"VX.	c #A1C57D",
"WX.	c #D8EAAE",
"XX.	c #ECFBCD",
"YX.	c #EDFFD4",
"ZX.	c #DFFBBE",
"`X.	c #A0C281",
" Y.	c #1A3D03",
".Y.	c #081B03",
"+Y.	c #080D03",
"@Y.	c #042B00",
"#Y.	c #064604",
"$Y.	c #408227",
"%Y.	c #B5DD85",
"&Y.	c #F8FDDE",
"*Y.	c #ECF6D9",
"=Y.	c #A9D46E",
"-Y.	c #67AD25",
";Y.	c #489308",
">Y.	c #2E6C09",
",Y.	c #153D09",
"'Y.	c #112C01",
")Y.	c #1A360E",
"!Y.	c #273E13",
"~Y.	c #162700",
"{Y.	c #1E2002",
"]Y.	c #2C1305",
"^Y.	c #340E01",
"/Y.	c #371201",
"(Y.	c #491305",
"_Y.	c #5A0D09",
":Y.	c #760C13",
"<Y.	c #A63F49",
"[Y.	c #CB7E85",
"}Y.	c #C86C73",
"|Y.	c #682C25",
"1Y.	c #104224",
"2Y.	c #05744C",
"3Y.	c #52D4C2",
"4Y.	c #83FCF8",
"5Y.	c #47D5C8",
"6Y.	c #128B86",
"7Y.	c #126B5D",
"8Y.	c #21644C",
"9Y.	c #295C41",
"0Y.	c #2C4B36",
"aY.	c #3A3628",
"bY.	c #49221A",
"cY.	c #621211",
"dY.	c #760A10",
"eY.	c #7A040D",
"fY.	c #780408",
"gY.	c #770308",
"hY.	c #7A040C",
"iY.	c #7B060E",
"jY.	c #7F0611",
"kY.	c #860817",
"lY.	c #881520",
"mY.	c #8C2930",
"nY.	c #9F444B",
"oY.	c #BA646A",
"pY.	c #D38A8F",
"qY.	c #DEB0B1",
"rY.	c #F2D1D1",
"sY.	c #F4CCC9",
"tY.	c #E6ABAC",
"uY.	c #D27F86",
"vY.	c #B74858",
"wY.	c #800110",
"xY.	c #4B0107",
"yY.	c #120104",
"zY.	c #030F04",
"AY.	c #092E1E",
"BY.	c #133B28",
"CY.	c #062714",
"DY.	c #041406",
"EY.	c #020F03",
"FY.	c #010903",
"GY.	c #010802",
"HY.	c #030404",
"IY.	c #020301",
"JY.	c #021100",
"KY.	c #0A2B05",
"LY.	c #2F5F0D",
"MY.	c #CAE4A2",
"NY.	c #E8FEB3",
"OY.	c #8DB238",
"PY.	c #485407",
"QY.	c #482207",
"RY.	c #711411",
"SY.	c #A72F2B",
"TY.	c #F0B3A0",
"UY.	c #F5B76E",
"VY.	c #E67A45",
"WY.	c #D1353C",
"XY.	c #C92A31",
"YY.	c #CF503C",
"ZY.	c #DB7A47",
"`Y.	c #EC7D49",
" Z.	c #480400",
".Z.	c #300B03",
"+Z.	c #200502",
"@Z.	c #1E0601",
"#Z.	c #1D0A02",
"$Z.	c #1B0D01",
"%Z.	c #1A0F02",
"&Z.	c #1D0D03",
"*Z.	c #1E0B03",
"=Z.	c #210A03",
"-Z.	c #200802",
";Z.	c #200300",
">Z.	c #280101",
",Z.	c #240306",
"'Z.	c #2A0107",
")Z.	c #350105",
"!Z.	c #370101",
"~Z.	c #3D0005",
"{Z.	c #370004",
"]Z.	c #320005",
"^Z.	c #2A0004",
"/Z.	c #220004",
"(Z.	c #200006",
"_Z.	c #1C0004",
":Z.	c #1E0305",
"<Z.	c #290A0C",
"[Z.	c #36070E",
"}Z.	c #3A070F",
"|Z.	c #3A0710",
"1Z.	c #34070E",
"2Z.	c #270407",
"3Z.	c #0D0102",
"4Z.	c #090000",
"5Z.	c #090001",
"6Z.	c #130301",
"7Z.	c #1E1502",
"8Z.	c #205307",
"9Z.	c #A2E375",
"0Z.	c #89C962",
"aZ.	c #133D01",
"bZ.	c #030D02",
"cZ.	c #060203",
"dZ.	c #060104",
"eZ.	c #010E01",
"fZ.	c #2C5909",
"gZ.	c #A5E067",
"hZ.	c #6AA43D",
"iZ.	c #0A2407",
"jZ.	c #0B0609",
"kZ.	c #34141B",
"lZ.	c #3C171E",
"mZ.	c #47171B",
"nZ.	c #5A2225",
"oZ.	c #721C20",
"pZ.	c #A72025",
"qZ.	c #EEAA97",
"rZ.	c #F4CBB8",
"sZ.	c #8F221D",
"tZ.	c #751B25",
"uZ.	c #732C2E",
"vZ.	c #521D21",
"wZ.	c #4C1618",
"xZ.	c #45151B",
"yZ.	c #240509",
"zZ.	c #230609",
"AZ.	c #3E1C22",
"BZ.	c #2C1916",
"CZ.	c #3E2829",
"DZ.	c #14080A",
"EZ.	c #312626",
"FZ.	c #231213",
"GZ.	c #231517",
"HZ.	c #231719",
"IZ.	c #1C1112",
"JZ.	c #201312",
"KZ.	c #332A2A",
"LZ.	c #060406",
"MZ.	c #341F22",
"NZ.	c #301416",
"OZ.	c #3F2224",
"PZ.	c #240709",
"QZ.	c #1E0203",
"RZ.	c #340B0C",
"SZ.	c #511E22",
"TZ.	c #631618",
"UZ.	c #821D24",
"VZ.	c #AA4036",
"WZ.	c #FCD7C9",
"XZ.	c #CF7E38",
"YZ.	c #8C171C",
"ZZ.	c #77212A",
"`Z.	c #51131C",
" `.	c #2C0107",
".`.	c #451D20",
"+`.	c #1E0507",
"@`.	c #3F2021",
"#`.	c #341515",
"$`.	c #2D1515",
"%`.	c #372624",
"&`.	c #120402",
"*`.	c #160D05",
"=`.	c #0F0F02",
"-`.	c #0B2303",
";`.	c #114200",
">`.	c #9FC476",
",`.	c #EDFBC2",
"'`.	c #679526",
")`.	c #223A02",
"!`.	c #251605",
"~`.	c #200602",
"{`.	c #1B0701",
"]`.	c #151401",
"^`.	c #102B03",
"/`.	c #1A4208",
"(`.	c #1A6501",
"_`.	c #478D31",
":`.	c #ACCD92",
"<`.	c #E7F6D0",
"[`.	c #F3FEEB",
"}`.	c #EAFBE0",
"|`.	c #CCEDAF",
"1`.	c #A7CF7B",
"2`.	c #7EA050",
"3`.	c #3A561C",
"4`.	c #132806",
"5`.	c #081901",
"6`.	c #051604",
"7`.	c #011D02",
"8`.	c #002F06",
"9`.	c #054806",
"0`.	c #3E7D19",
"a`.	c #C1E09B",
"b`.	c #D3EE9E",
"c`.	c #8CBE49",
"d`.	c #579C1D",
"e`.	c #387806",
"f`.	c #1D4803",
"g`.	c #0F2B04",
"h`.	c #0C3501",
"i`.	c #336A24",
"j`.	c #6CA84D",
"k`.	c #415F2C",
"l`.	c #1B1C08",
"m`.	c #2D1407",
"n`.	c #390F02",
"o`.	c #430D06",
"p`.	c #580A05",
"q`.	c #720809",
"r`.	c #A43139",
"s`.	c #DC9596",
"t`.	c #F9DADD",
"u`.	c #FBD5DC",
"v`.	c #D27C87",
"w`.	c #683632",
"x`.	c #16593C",
"y`.	c #35B7A2",
"z`.	c #95FCF4",
"A`.	c #5CDBCF",
"B`.	c #12817A",
"C`.	c #27614F",
"D`.	c #365147",
"E`.	c #3A3736",
"F`.	c #462420",
"G`.	c #661211",
"H`.	c #7F0F11",
"I`.	c #951B20",
"J`.	c #B3424A",
"K`.	c #C16F76",
"L`.	c #CD9296",
"M`.	c #DE9EA7",
"N`.	c #E2A7B1",
"O`.	c #E1ACB4",
"P`.	c #E3B2BA",
"Q`.	c #E8BAC1",
"R`.	c #F0C6CB",
"S`.	c #F3CDD0",
"T`.	c #F6D6D9",
"U`.	c #FBDEE1",
"V`.	c #FFE1E3",
"W`.	c #FBD4D6",
"X`.	c #F5BFC4",
"Y`.	c #ECA6AA",
"Z`.	c #CF7C80",
"``.	c #BA4750",
"  +	c #AC1C2C",
". +	c #9D0517",
"+ +	c #88020A",
"@ +	c #710504",
"# +	c #650101",
"$ +	c #4D0101",
"% +	c #120303",
"& +	c #0A0402",
"* +	c #051004",
"= +	c #07200F",
"- +	c #14341E",
"; +	c #092E18",
"> +	c #001D09",
", +	c #011407",
"' +	c #040E05",
") +	c #040A03",
"! +	c #010C04",
"~ +	c #010404",
"{ +	c #010400",
"] +	c #031501",
"^ +	c #0C3208",
"/ +	c #457520",
"( +	c #DDF3B5",
"_ +	c #D9F3A0",
": +	c #6C921D",
"< +	c #4A4000",
"[ +	c #541808",
"} +	c #841214",
"| +	c #D9754E",
"1 +	c #FFD2CC",
"2 +	c #D97C4C",
"3 +	c #AE0A21",
"4 +	c #9A030F",
"5 +	c #99020B",
"6 +	c #A1020F",
"7 +	c #9D0615",
"8 +	c #960717",
"9 +	c #6A0106",
"0 +	c #410100",
"a +	c #380402",
"b +	c #260503",
"c +	c #180201",
"d +	c #170300",
"e +	c #1B0301",
"f +	c #1C0203",
"g +	c #390402",
"h +	c #470301",
"i +	c #5C0102",
"j +	c #6A0102",
"k +	c #690101",
"l +	c #640200",
"m +	c #5C0401",
"n +	c #4E0402",
"o +	c #2B0003",
"p +	c #130000",
"q +	c #0D0200",
"r +	c #090300",
"s +	c #040300",
"t +	c #1F0B01",
"u +	c #173800",
"v +	c #67AC48",
"w +	c #417F27",
"x +	c #0A2800",
"y +	c #020600",
"z +	c #020002",
"A +	c #020005",
"B +	c #000103",
"C +	c #143C02",
"D +	c #66A63F",
"E +	c #2A5D0B",
"F +	c #050305",
"G +	c #070403",
"H +	c #1E0F12",
"I +	c #0F0405",
"J +	c #33141A",
"K +	c #592124",
"L +	c #711C1F",
"M +	c #A72125",
"N +	c #EEA995",
"O +	c #F4C9B7",
"P +	c #8F231D",
"Q +	c #731B26",
"R +	c #732D2D",
"S +	c #48171E",
"T +	c #3E1C21",
"U +	c #2B1715",
"V +	c #3B2526",
"W +	c #312625",
"X +	c #1A0F10",
"Y +	c #171318",
"Z +	c #1F1114",
"` +	c #352023",
" .+	c #2F1416",
"..+	c #441116",
"+.+	c #601315",
"@.+	c #811D24",
"#.+	c #AA4134",
"$.+	c #FCD7C8",
"%.+	c #D38743",
"&.+	c #89161A",
"*.+	c #751F28",
"=.+	c #52141C",
"-.+	c #2C0207",
";.+	c #451D21",
">.+	c #1D0406",
",.+	c #331316",
"'.+	c #2F1012",
").+	c #2D1415",
"!.+	c #0F0302",
"~.+	c #0E0C02",
"{.+	c #081904",
"].+	c #093201",
"^.+	c #6FA152",
"/.+	c #EEFDB1",
"(.+	c #6E9B30",
"_.+	c #123D02",
":.+	c #1F1305",
"<.+	c #160802",
"[.+	c #170504",
"}.+	c #170705",
"|.+	c #121302",
"1.+	c #0F2603",
"2.+	c #134F07",
"3.+	c #237603",
"4.+	c #73B863",
"5.+	c #CFF2BC",
"6.+	c #F8FCD6",
"7.+	c #EEFBC9",
"8.+	c #BDDB91",
"9.+	c #81B04F",
"0.+	c #5C911C",
"a.+	c #497D09",
"b.+	c #325C04",
"c.+	c #1A2E03",
"d.+	c #061502",
"e.+	c #011903",
"f.+	c #022608",
"g.+	c #034403",
"h.+	c #236C0E",
"i.+	c #B5D88E",
"j.+	c #F0FDC5",
"k.+	c #C4E593",
"l.+	c #72B22C",
"m.+	c #4A8B10",
"n.+	c #265903",
"o.+	c #153503",
"p.+	c #0B2E09",
"q.+	c #083903",
"r.+	c #58953F",
"s.+	c #6FB457",
"t.+	c #326319",
"u.+	c #1D1F01",
"v.+	c #2F110C",
"w.+	c #3C0E09",
"x.+	c #470C02",
"y.+	c #560C04",
"z.+	c #820B18",
"A.+	c #C66A74",
"B.+	c #F3D0CD",
"C.+	c #FDE5E5",
"D.+	c #E9A6B9",
"E.+	c #BA4460",
"F.+	c #7A2A2D",
"G.+	c #2E4A32",
"H.+	c #169179",
"I.+	c #79F0E9",
"J.+	c #7EEFE8",
"K.+	c #188E7E",
"L.+	c #205D53",
"M.+	c #3B4B3C",
"N.+	c #3F2E21",
"O.+	c #53160D",
"P.+	c #751415",
"Q.+	c #A4444E",
"R.+	c #D59BA5",
"S.+	c #F4CED0",
"T.+	c #FDE6E3",
"U.+	c #FEE4EA",
"V.+	c #FFDAEA",
"W.+	c #FCD9DF",
"X.+	c #F8D1D9",
"Y.+	c #F6CAD6",
"Z.+	c #F5C3D3",
"`.+	c #F3BDCD",
" ++	c #F0B8C1",
".++	c #E8ABB5",
"+++	c #DD8F9C",
"@++	c #D07080",
"#++	c #BD5363",
"$++	c #A93343",
"%++	c #9E152B",
"&++	c #900315",
"*++	c #840206",
"=++	c #730301",
"-++	c #660401",
";++	c #5C0301",
">++	c #540303",
",++	c #2D0302",
"'++	c #1F0304",
")++	c #0F0703",
"!++	c #050B07",
"~++	c #040803",
"{++	c #060D03",
"]++	c #021407",
"^++	c #072913",
"/++	c #12311C",
"(++	c #082411",
"_++	c #011806",
":++	c #011504",
"<++	c #011005",
"[++	c #030705",
"}++	c #020701",
"|++	c #031701",
"1++	c #0B3306",
"2++	c #508028",
"3++	c #E2F7B7",
"4++	c #CEE699",
"5++	c #5B7F0F",
"6++	c #4E3A01",
"7++	c #581809",
"8++	c #9E1A23",
"9++	c #EE955F",
"0++	c #FCC0A8",
"a++	c #CA2E3C",
"b++	c #93020A",
"c++	c #6C0502",
"d++	c #720101",
"e++	c #740104",
"f++	c #790003",
"g++	c #6D0102",
"h++	c #530100",
"i++	c #3E0306",
"j++	c #2B0304",
"k++	c #200103",
"l++	c #170103",
"m++	c #190202",
"n++	c #1E0003",
"o++	c #470200",
"p++	c #530202",
"q++	c #73020B",
"r++	c #840712",
"s++	c #933032",
"t++	c #AB5E2E",
"u++	c #B36C38",
"v++	c #AC6434",
"w++	c #9A3E33",
"x++	c #850F1B",
"y++	c #75020F",
"z++	c #590104",
"A++	c #410202",
"B++	c #120000",
"C++	c #0B0002",
"D++	c #0A0002",
"E++	c #080002",
"F++	c #040001",
"G++	c #000200",
"H++	c #220602",
"I++	c #182400",
"J++	c #164406",
"K++	c #011300",
"L++	c #000001",
"M++	c #032901",
"N++	c #2C5B19",
"O++	c #0F2B00",
"P++	c #030606",
"Q++	c #020204",
"R++	c #231216",
"S++	c #33131A",
"T++	c #3B161D",
"U++	c #230101",
"V++	c #47151A",
"W++	c #5B2326",
"X++	c #721D20",
"Y++	c #EDA894",
"Z++	c #F4C8B6",
"`++	c #91251F",
" @+	c #741B26",
".@+	c #742F2F",
"+@+	c #541E22",
"@@+	c #4A1416",
"#@+	c #26060B",
"$@+	c #2A1013",
"%@+	c #2A1613",
"&@+	c #3A2425",
"*@+	c #322626",
"=@+	c #221112",
"-@+	c #241618",
";@+	c #190E10",
">@+	c #201818",
",@+	c #321C1B",
"'@+	c #1D0606",
")@+	c #1D0F13",
"!@+	c #322929",
"~@+	c #050406",
"{@+	c #362024",
"]@+	c #3C1F21",
"^@+	c #210506",
"/@+	c #1E0102",
"(@+	c #350C0D",
"_@+	c #622C2D",
":@+	c #611415",
"<@+	c #801F24",
"[@+	c #A84034",
"}@+	c #FBD8C9",
"|@+	c #D78C48",
"1@+	c #88171A",
"2@+	c #731E27",
"3@+	c #55161F",
"4@+	c #3F1F20",
"5@+	c #2B1212",
"6@+	c #32201F",
"7@+	c #0F0602",
"8@+	c #110B05",
"9@+	c #050F05",
"0@+	c #052202",
"a@+	c #45762D",
"b@+	c #DDF79E",
"c@+	c #77A447",
"d@+	c #150E03",
"e@+	c #100704",
"f@+	c #082600",
"g@+	c #104E03",
"h@+	c #30801D",
"i@+	c #A3D289",
"j@+	c #F2F8DF",
"k@+	c #F7F9DD",
"l@+	c #C1E496",
"m@+	c #7FAF4F",
"n@+	c #578713",
"o@+	c #4B7002",
"p@+	c #3A4D00",
"q@+	c #263404",
"r@+	c #142504",
"s@+	c #0F1A00",
"t@+	c #051305",
"u@+	c #033905",
"v@+	c #1E6309",
"w@+	c #9EC576",
"x@+	c #EEFCCB",
"y@+	c #C6E494",
"z@+	c #72A924",
"A@+	c #376F0D",
"B@+	c #184302",
"C@+	c #162D07",
"D@+	c #142907",
"E@+	c #215216",
"F@+	c #6DBA56",
"G@+	c #69AA47",
"H@+	c #1F3B0B",
"I@+	c #24120A",
"J@+	c #390C03",
"K@+	c #460C00",
"L@+	c #4F0804",
"M@+	c #65030A",
"N@+	c #9A303A",
"O@+	c #E0A3A4",
"P@+	c #FDE1E0",
"Q@+	c #FAC5D3",
"R@+	c #CF6780",
"S@+	c #94152F",
"T@+	c #68241D",
"U@+	c #3F4223",
"V@+	c #0C6C4F",
"W@+	c #4ED1C8",
"X@+	c #80FDF5",
"Y@+	c #36B8AF",
"Z@+	c #1A5D54",
"`@+	c #39503A",
" #+	c #482A28",
".#+	c #6F1518",
"+#+	c #B1514F",
"@#+	c #E8AEA4",
"##+	c #FEE1DF",
"$#+	c #FEDDDC",
"%#+	c #F1B7B7",
"&#+	c #DC8487",
"*#+	c #C3515B",
"=#+	c #B03242",
"-#+	c #A52027",
";#+	c #9D181F",
">#+	c #96111B",
",#+	c #920E1A",
"'#+	c #900918",
")#+	c #8F0315",
"!#+	c #870410",
"~#+	c #7F040C",
"{#+	c #7A0306",
"]#+	c #720202",
"^#+	c #5B0303",
"/#+	c #520204",
"(#+	c #500104",
"_#+	c #4F0104",
":#+	c #4B0004",
"<#+	c #3B0006",
"[#+	c #2A0105",
"}#+	c #1B0605",
"|#+	c #110C03",
"1#+	c #0F1202",
"2#+	c #061E00",
"3#+	c #062A04",
"4#+	c #042802",
"5#+	c #032001",
"6#+	c #021101",
"7#+	c #050E04",
"8#+	c #051608",
"9#+	c #0C2413",
"0#+	c #062410",
"a#+	c #011E09",
"b#+	c #031407",
"c#+	c #000602",
"d#+	c #011800",
"e#+	c #093304",
"f#+	c #4D8025",
"g#+	c #E1F7B8",
"h#+	c #C8E297",
"i#+	c #50760B",
"j#+	c #473702",
"k#+	c #541A07",
"l#+	c #A7232C",
"m#+	c #F3ACB2",
"n#+	c #F6BDB7",
"o#+	c #B81F2E",
"p#+	c #680101",
"q#+	c #690003",
"r#+	c #5F0000",
"s#+	c #560200",
"t#+	c #510203",
"u#+	c #430303",
"v#+	c #330605",
"w#+	c #170000",
"x#+	c #470402",
"y#+	c #640309",
"z#+	c #912829",
"A#+	c #CF7D59",
"B#+	c #EEBA9A",
"C#+	c #FECFA4",
"D#+	c #FBB865",
"E#+	c #F9B868",
"F#+	c #FFCBAD",
"G#+	c #F9B755",
"H#+	c #F9AD63",
"I#+	c #D2915F",
"J#+	c #8B4628",
"K#+	c #59090D",
"L#+	c #4A0405",
"M#+	c #000101",
"N#+	c #010002",
"O#+	c #230504",
"P#+	c #1C1101",
"Q#+	c #152F06",
"R#+	c #092506",
"S#+	c #000002",
"T#+	c #0A2105",
"U#+	c #060E01",
"V#+	c #010304",
"W#+	c #160607",
"X#+	c #271418",
"Y#+	c #32131A",
"Z#+	c #3A141B",
"`#+	c #731E21",
" $+	c #EDA693",
".$+	c #942821",
"+$+	c #751D28",
"@$+	c #752F2F",
"#$+	c #511C20",
"$$+	c #26070B",
"%$+	c #3B191E",
"&$+	c #382223",
"*$+	c #211517",
"=$+	c #1F1718",
"-$+	c #181418",
";$+	c #2F1315",
">$+	c #220507",
",$+	c #611416",
"'$+	c #7F1F24",
")$+	c #A74034",
"!$+	c #FBD9C9",
"~$+	c #D89377",
"{$+	c #89171B",
"]$+	c #3A1A1B",
"^$+	c #301114",
"/$+	c #2E0F12",
"($+	c #2A1212",
"_$+	c #2F1E1C",
":$+	c #0E0303",
"<$+	c #0C0301",
"[$+	c #120A07",
"}$+	c #060807",
"|$+	c #021604",
"1$+	c #1E4A0B",
"2$+	c #AFD67D",
"3$+	c #659543",
"4$+	c #152600",
"5$+	c #0D0C02",
"6$+	c #0B0803",
"7$+	c #0D0804",
"8$+	c #0A1801",
"9$+	c #0D4102",
"0$+	c #438234",
"a$+	c #BAE0A2",
"b$+	c #E1F2BB",
"c$+	c #9CBE6F",
"d$+	c #578028",
"e$+	c #3D510B",
"f$+	c #2D3302",
"g$+	c #262104",
"h$+	c #201A02",
"i$+	c #1F1701",
"j$+	c #1A1201",
"k$+	c #0C1203",
"l$+	c #072307",
"m$+	c #045A00",
"n$+	c #6BAC5E",
"o$+	c #EAFAC9",
"p$+	c #D6EB98",
"q$+	c #75A836",
"r$+	c #37630C",
"s$+	c #1C3901",
"t$+	c #142D02",
"u$+	c #092906",
"v$+	c #406B32",
"w$+	c #7FB95F",
"x$+	c #487B31",
"y$+	c #172904",
"z$+	c #271302",
"A$+	c #3E0A04",
"B$+	c #4C0803",
"C$+	c #570401",
"D$+	c #72060D",
"E$+	c #BA5668",
"F$+	c #F5C5D7",
"G$+	c #FEE6EC",
"H$+	c #E69DAA",
"I$+	c #B03246",
"J$+	c #7D0914",
"K$+	c #571913",
"L$+	c #462E15",
"M$+	c #2D4327",
"N$+	c #28A998",
"O$+	c #7AFAF7",
"P$+	c #4CE1D7",
"Q$+	c #1C7C76",
"R$+	c #3A5450",
"S$+	c #5D2A26",
"T$+	c #952A2B",
"U$+	c #D79798",
"V$+	c #FCDFE4",
"W$+	c #FADCDC",
"X$+	c #E2A4A1",
"Y$+	c #C24952",
"Z$+	c #A7101E",
"`$+	c #9C0310",
" %+	c #890009",
".%+	c #71020A",
"+%+	c #660008",
"@%+	c #620008",
"#%+	c #610108",
"$%+	c #4E0203",
"%%+	c #3B0305",
"&%+	c #310403",
"*%+	c #2D0304",
"=%+	c #1A0801",
"-%+	c #180B01",
";%+	c #121701",
">%+	c #0A2600",
",%+	c #0A3A00",
"'%+	c #0F5703",
")%+	c #3C7325",
"!%+	c #74AE61",
"~%+	c #407B35",
"{%+	c #062F02",
"]%+	c #060F00",
"^%+	c #020704",
"/%+	c #020902",
"(%+	c #040F04",
"_%+	c #051204",
":%+	c #041507",
"<%+	c #010A03",
"[%+	c #073402",
"}%+	c #3E7818",
"|%+	c #D6F1B2",
"1%+	c #CEECA3",
"2%+	c #517C13",
"3%+	c #493805",
"4%+	c #5B1505",
"5%+	c #A11F27",
"6%+	c #F0A0A8",
"7%+	c #F8BEAD",
"8%+	c #B33135",
"9%+	c #700104",
"0%+	c #670007",
"a%+	c #560205",
"b%+	c #5B0102",
"c%+	c #5B0103",
"d%+	c #791215",
"e%+	c #9B382B",
"f%+	c #5A0707",
"g%+	c #3A0803",
"h%+	c #250300",
"i%+	c #210100",
"j%+	c #350301",
"k%+	c #4E0302",
"l%+	c #75060F",
"m%+	c #B85F3F",
"n%+	c #F0A251",
"o%+	c #FDB874",
"p%+	c #F09F67",
"q%+	c #EA7956",
"r%+	c #E96043",
"s%+	c #E5564B",
"t%+	c #E95F49",
"u%+	c #E97053",
"v%+	c #F09D7A",
"w%+	c #FBB773",
"x%+	c #F3BD9A",
"y%+	c #C7834A",
"z%+	c #6B2120",
"A%+	c #010003",
"B%+	c #1F0303",
"C%+	c #230602",
"D%+	c #0F1803",
"E%+	c #020003",
"F%+	c #000004",
"G%+	c #000504",
"H%+	c #010303",
"I%+	c #1F0609",
"J%+	c #120608",
"K%+	c #2A161B",
"L%+	c #130407",
"M%+	c #0E0103",
"N%+	c #321219",
"O%+	c #39131A",
"P%+	c #461519",
"Q%+	c #5A2326",
"R%+	c #721D21",
"S%+	c #A92327",
"T%+	c #EFA692",
"U%+	c #F5C8B6",
"V%+	c #751D27",
"W%+	c #4B1517",
"X%+	c #45141A",
"Y%+	c #25060A",
"Z%+	c #3B191F",
"`%+	c #2D1315",
" &+	c #372122",
".&+	c #140709",
"+&+	c #211315",
"@&+	c #1D0605",
"#&+	c #341D21",
"$&+	c #301316",
"%&+	c #2F1214",
"&&+	c #371A1C",
"*&+	c #230607",
"=&+	c #200204",
"-&+	c #501E20",
";&+	c #622A2B",
">&+	c #641418",
",&+	c #811F26",
"'&+	c #A84236",
")&+	c #FBDAC7",
"!&+	c #D9937D",
"~&+	c #8E171D",
"{&+	c #771E25",
"]&+	c #55171F",
"^&+	c #2A0108",
"/&+	c #280305",
"(&+	c #441F20",
"_&+	c #391B1B",
":&+	c #1C0304",
"<&+	c #3D2021",
"[&+	c #2E1211",
"}&+	c #2D0F11",
"|&+	c #2E1012",
"1&+	c #2F1F1D",
"2&+	c #110607",
"3&+	c #052801",
"4&+	c #365C23",
"5&+	c #1E4310",
"6&+	c #051900",
"7&+	c #081003",
"8&+	c #062705",
"9&+	c #39622B",
"0&+	c #C6E9A8",
"a&+	c #E7F9CE",
"b&+	c #B7D28F",
"c&+	c #6C9034",
"d&+	c #3C5004",
"e&+	c #312904",
"f&+	c #2D1E02",
"g&+	c #211502",
"h&+	c #1B1402",
"i&+	c #161102",
"j&+	c #090E04",
"k&+	c #011900",
"l&+	c #032D0A",
"m&+	c #357A1D",
"n&+	c #CDEBBD",
"o&+	c #E2F4B7",
"p&+	c #7CA936",
"q&+	c #2A5B04",
"r&+	c #1B3901",
"s&+	c #192301",
"t&+	c #0E2702",
"u&+	c #588A4C",
"v&+	c #6EA85B",
"w&+	c #2B4C18",
"x&+	c #191D02",
"y&+	c #2B1003",
"z&+	c #3F0A01",
"A&+	c #520505",
"B&+	c #5D0104",
"C&+	c #790F11",
"D&+	c #C87B84",
"E&+	c #FBD6E4",
"F&+	c #F8D7DA",
"G&+	c #CB6F78",
"H&+	c #97101D",
"I&+	c #70070B",
"J&+	c #540E0E",
"K&+	c #441D08",
"L&+	c #2E3614",
"M&+	c #176653",
"N&+	c #4AE5D5",
"O&+	c #66F3F4",
"P&+	c #24A5A4",
"Q&+	c #3B5D58",
"R&+	c #5D3A37",
"S&+	c #9C373B",
"T&+	c #EAB0B9",
"U&+	c #FCE5E3",
"V&+	c #E4ADAB",
"W&+	c #B63F4B",
"X&+	c #900813",
"Y&+	c #6C0005",
"Z&+	c #510004",
"`&+	c #490003",
" *+	c #430100",
".*+	c #410000",
"+*+	c #360003",
"@*+	c #2E0003",
"#*+	c #2A0005",
"$*+	c #240004",
"%*+	c #210600",
"&*+	c #1B0F00",
"**+	c #141800",
"=*+	c #102400",
"-*+	c #0A3C00",
";*+	c #105C04",
">*+	c #347C1E",
",*+	c #8EBF6E",
"'*+	c #E3F3BE",
")*+	c #DFFFC2",
"!*+	c #98D181",
"~*+	c #20570A",
"{*+	c #072603",
"]*+	c #010A04",
"^*+	c #040400",
"/*+	c #020503",
"(*+	c #020707",
"_*+	c #040800",
":*+	c #030801",
"<*+	c #050604",
"[*+	c #021501",
"}*+	c #052B02",
"|*+	c #296D0B",
"1*+	c #B8DB8D",
"2*+	c #DFF5BF",
"3*+	c #608E27",
"4*+	c #443D08",
"5*+	c #541A04",
"6*+	c #980F1F",
"7*+	c #E27147",
"8*+	c #FFBB6F",
"9*+	c #DB6D50",
"0*+	c #85040F",
"a*+	c #6B0206",
"b*+	c #680004",
"c*+	c #620004",
"d*+	c #650107",
"e*+	c #6E0101",
"f*+	c #C15431",
"g*+	c #F9AC6B",
"h*+	c #922C2E",
"i*+	c #430605",
"j*+	c #270401",
"k*+	c #250003",
"l*+	c #440201",
"m*+	c #79050C",
"n*+	c #D0653C",
"o*+	c #FCCEC2",
"p*+	c #F4A489",
"q*+	c #DA5243",
"r*+	c #D6183C",
"s*+	c #D90B3C",
"t*+	c #D70B3A",
"u*+	c #CF0D37",
"v*+	c #D0113C",
"w*+	c #D61242",
"x*+	c #EB1A45",
"y*+	c #EB385D",
"z*+	c #ED875E",
"A*+	c #FFB85B",
"B*+	c #DDAA99",
"C*+	c #6F2121",
"D*+	c #4A0404",
"E*+	c #0A0003",
"F*+	c #000000",
"G*+	c #110300",
"H*+	c #020006",
"I*+	c #020206",
"J*+	c #190607",
"K*+	c #2D191B",
"L*+	c #150508",
"M*+	c #36131B",
"N*+	c #3C131B",
"O*+	c #250001",
"P*+	c #48171C",
"Q*+	c #5D2427",
"R*+	c #AA2227",
"S*+	c #F0A792",
"T*+	c #F5C9B4",
"U*+	c #98271F",
"V*+	c #791C26",
"W*+	c #74302F",
"X*+	c #532025",
"Y*+	c #491517",
"Z*+	c #46171A",
"`*+	c #3A181E",
" =+	c #2B1012",
".=+	c #2D1719",
"+=+	c #361D21",
"@=+	c #140608",
"#=+	c #080301",
"$=+	c #312525",
"%=+	c #241315",
"&=+	c #1D0604",
"*=+	c #1F1113",
"==+	c #211212",
"-=+	c #332929",
";=+	c #080406",
">=+	c #36191B",
",=+	c #200305",
"'=+	c #370B0F",
")=+	c #532023",
"!=+	c #642D2E",
"~=+	c #7E1B23",
"{=+	c #A94334",
"]=+	c #FCD9C5",
"^=+	c #D9917D",
"/=+	c #8F161D",
"(=+	c #771D24",
"_=+	c #2B0209",
":=+	c #391C1B",
"<=+	c #3E2122",
"[=+	c #2A0D0F",
"}=+	c #281010",
"|=+	c #2E1E1B",
"1=+	c #0C0302",
"2=+	c #000E01",
"3=+	c #021703",
"4=+	c #001401",
"5=+	c #000802",
"6=+	c #030007",
"7=+	c #0B1101",
"8=+	c #052000",
"9=+	c #66854F",
"0=+	c #BDD68F",
"a=+	c #7E9344",
"b=+	c #45560D",
"c=+	c #2B3205",
"d=+	c #241F07",
"e=+	c #1F1607",
"f=+	c #181202",
"g=+	c #130F02",
"h=+	c #0E0D02",
"i=+	c #0C0E05",
"j=+	c #0B0D04",
"k=+	c #070D03",
"l=+	c #011C01",
"m=+	c #013504",
"n=+	c #76A55B",
"o=+	c #DDF7AD",
"p=+	c #7EAE4C",
"q=+	c #2C5A07",
"r=+	c #243409",
"s=+	c #0B2D04",
"t=+	c #4D7738",
"u=+	c #497238",
"v=+	c #163102",
"w=+	c #221905",
"x=+	c #350A09",
"y=+	c #3F0708",
"z=+	c #430C04",
"A=+	c #5E0501",
"B=+	c #89252A",
"C=+	c #DE96AA",
"D=+	c #FFE1F1",
"E=+	c #EFBCC0",
"F=+	c #B44049",
"G=+	c #850512",
"H=+	c #610608",
"I=+	c #480B07",
"J=+	c #360F04",
"K=+	c #242702",
"L=+	c #1CA68D",
"M=+	c #6CF9F4",
"N=+	c #39D5CF",
"O=+	c #347175",
"P=+	c #5C3E3B",
"Q=+	c #A9394B",
"R=+	c #F5B7BC",
"S=+	c #FBE0D9",
"T=+	c #DA7681",
"U=+	c #A30E1F",
"V=+	c #820109",
"W=+	c #670206",
"X=+	c #440000",
"Y=+	c #380002",
"Z=+	c #250004",
"`=+	c #180802",
" -+	c #131607",
".-+	c #0B2404",
"+-+	c #083401",
"@-+	c #0C5204",
"#-+	c #2B7718",
"$-+	c #74B058",
"%-+	c #C6EDA8",
"&-+	c #E9F9D0",
"*-+	c #A7D27A",
"=-+	c #3F8514",
"--+	c #145305",
";-+	c #000B05",
">-+	c #010D04",
",-+	c #030E04",
"'-+	c #040B09",
")-+	c #040404",
"!-+	c #040302",
"~-+	c #060F01",
"{-+	c #0D2302",
"]-+	c #1C5B06",
"^-+	c #88BE5C",
"/-+	c #EAFEC4",
"(-+	c #8AAC61",
"_-+	c #3E4D03",
":-+	c #472303",
"<-+	c #7F0B13",
"[-+	c #CB2E36",
"}-+	c #F7A95A",
"|-+	c #F5CAA8",
"1-+	c #B95B35",
"2-+	c #9E0818",
"3-+	c #88040F",
"4-+	c #85010C",
"5-+	c #8E0306",
"6-+	c #AE2522",
"7-+	c #E6AF99",
"8-+	c #FBC7A7",
"9-+	c #9F252D",
"0-+	c #470406",
"a-+	c #290302",
"b-+	c #260004",
"c-+	c #400001",
"d-+	c #660206",
"e-+	c #BE513B",
"f-+	c #F8BC8D",
"g-+	c #EF9567",
"h-+	c #D6193F",
"i-+	c #C30531",
"j-+	c #B2062C",
"k-+	c #9A0523",
"l-+	c #820218",
"m-+	c #7C0216",
"n-+	c #7E0116",
"o-+	c #7C031C",
"p-+	c #8A0225",
"q-+	c #BA0E3E",
"r-+	c #E21F41",
"s-+	c #EA695C",
"t-+	c #FBC2A9",
"u-+	c #E3A8A0",
"v-+	c #741E25",
"w-+	c #430507",
"x-+	c #2A0003",
"y-+	c #0E0004",
"z-+	c #040003",
"A-+	c #210606",
"B-+	c #000201",
"C-+	c #290509",
"D-+	c #361213",
"E-+	c #120304",
"F-+	c #1C0709",
"G-+	c #3B121A",
"H-+	c #49181D",
"I-+	c #5C2327",
"J-+	c #731C21",
"K-+	c #A92126",
"L-+	c #F0A691",
"M-+	c #F6C9B3",
"N-+	c #982720",
"O-+	c #742F2E",
"P-+	c #481517",
"Q-+	c #21060A",
"R-+	c #39171C",
"S-+	c #2A0E10",
"T-+	c #2B1417",
"U-+	c #231314",
"V-+	c #201517",
"W-+	c #341F1C",
"X-+	c #1D0F12",
"Y-+	c #332829",
"Z-+	c #2F1215",
"`-+	c #200304",
" ;+	c #380C11",
".;+	c #4D1B1D",
"+;+	c #632B2C",
"@;+	c #641519",
"#;+	c #A84232",
"$;+	c #D8917C",
"%;+	c #8D151C",
"&;+	c #591A22",
"*;+	c #280405",
"=;+	c #391C1C",
"-;+	c #2F1312",
";;+	c #271010",
">;+	c #2E1D1B",
",;+	c #030103",
"';+	c #040005",
");+	c #050401",
"!;+	c #061301",
"~;+	c #172A04",
"{;+	c #2A3406",
"];+	c #252E08",
"^;+	c #241E07",
"/;+	c #241507",
"(;+	c #1A1003",
"_;+	c #100D01",
":;+	c #0B0703",
"<;+	c #080603",
"[;+	c #060503",
"};+	c #050C01",
"|;+	c #040D02",
"1;+	c #001100",
"2;+	c #001C01",
"3;+	c #032C00",
"4;+	c #3A6A2D",
"5;+	c #61853C",
"6;+	c #255604",
"7;+	c #0D4002",
"8;+	c #0E3603",
"9;+	c #0A2C07",
"0;+	c #203F0D",
"a;+	c #274409",
"b;+	c #152407",
"c;+	c #231606",
"d;+	c #3B0B07",
"e;+	c #4F0604",
"f;+	c #730204",
"g;+	c #9F3542",
"h;+	c #EDADC0",
"i;+	c #FEE2F1",
"j;+	c #E8A0B0",
"k;+	c #AD2934",
"l;+	c #870104",
"m;+	c #610106",
"n;+	c #3D0307",
"o;+	c #261206",
"p;+	c #1F210A",
"q;+	c #0E452A",
"r;+	c #45DACA",
"s;+	c #68F0F4",
"t;+	c #219D98",
"u;+	c #3D403E",
"v;+	c #942029",
"w;+	c #ECAAAB",
"x;+	c #F9DCDE",
"y;+	c #CB646E",
"z;+	c #910A14",
"A;+	c #700406",
"B;+	c #590203",
"C;+	c #290103",
"D;+	c #170400",
"E;+	c #131001",
"F;+	c #0F1F05",
"G;+	c #073105",
"H;+	c #084802",
"I;+	c #21670A",
"J;+	c #69A64F",
"K;+	c #BADF9F",
"L;+	c #F1FAD6",
"M;+	c #F0FCD6",
"N;+	c #C2E9AD",
"O;+	c #76B756",
"P;+	c #408C14",
"Q;+	c #266B0D",
"R;+	c #0F4106",
"S;+	c #011E03",
"T;+	c #01250C",
"U;+	c #023104",
"V;+	c #001700",
"W;+	c #060805",
"X;+	c #0A0105",
"Y;+	c #0C0802",
"Z;+	c #161804",
"`;+	c #154104",
" >+	c #489121",
".>+	c #D8F3AB",
"+>+	c #C3DBA0",
"@>+	c #3F690B",
"#>+	c #413003",
"$>+	c #5D0F08",
"%>+	c #A9071D",
"&>+	c #D24F45",
"*>+	c #F5AE89",
"=>+	c #FBC6B4",
"->+	c #DB9774",
";>+	c #C95D38",
">>+	c #C74E38",
",>+	c #CD6F40",
"'>+	c #F2A668",
")>+	c #FBD3B3",
"!>+	c #DD7554",
"~>+	c #8D0515",
"{>+	c #180400",
"]>+	c #280005",
"^>+	c #330004",
"/>+	c #540103",
"(>+	c #8A141C",
"_>+	c #F0A157",
":>+	c #F4AD8B",
"<>+	c #D62839",
"[>+	c #C20228",
"}>+	c #920122",
"|>+	c #750217",
"1>+	c #6E0416",
"2>+	c #6B0517",
"3>+	c #680213",
"4>+	c #61000E",
"5>+	c #5C0210",
"6>+	c #670419",
"7>+	c #80001D",
"8>+	c #A7042A",
"9>+	c #D31945",
"0>+	c #E66468",
"a>+	c #FDCED8",
"b>+	c #D08A6F",
"c>+	c #5F0C10",
"d>+	c #3D0408",
"e>+	c #150003",
"f>+	c #0A0202",
"g>+	c #140302",
"h>+	c #440D17",
"i>+	c #160306",
"j>+	c #1F070A",
"k>+	c #2A1618",
"l>+	c #15070A",
"m>+	c #36121B",
"n>+	c #3B111A",
"o>+	c #48161B",
"p>+	c #5B2125",
"q>+	c #EFA490",
"r>+	c #F5C7B2",
"s>+	c #96271F",
"t>+	c #781E27",
"u>+	c #742E2E",
"v>+	c #531E24",
"w>+	c #4B181A",
"x>+	c #220505",
"y>+	c #210609",
"z>+	c #2A0F11",
"A>+	c #2C1518",
"B>+	c #371E22",
"C>+	c #150709",
"D>+	c #302524",
"E>+	c #191519",
"F>+	c #1C0605",
"G>+	c #1E1012",
"H>+	c #332828",
"I>+	c #351E22",
"J>+	c #2D1013",
"K>+	c #2C0F11",
"L>+	c #3B1E20",
"M>+	c #380D11",
"N>+	c #4D1A1D",
"O>+	c #602728",
"P>+	c #67181C",
"Q>+	c #A74130",
"R>+	c #D8917D",
"S>+	c #571921",
"T>+	c #290406",
"U>+	c #441E1F",
"V>+	c #1B0203",
"W>+	c #3C1F20",
"X>+	c #311514",
"Y>+	c #2D1D1B",
"Z>+	c #0D0103",
"`>+	c #060001",
" ,+	c #040000",
".,+	c #030100",
"+,+	c #010105",
"@,+	c #080105",
"#,+	c #070805",
"$,+	c #0A1207",
"%,+	c #101006",
"&,+	c #0F0F0A",
"*,+	c #110A02",
"=,+	c #100501",
"-,+	c #09010A",
";,+	c #04020E",
">,+	c #020400",
",,+	c #020D01",
"',+	c #001200",
"),+	c #072101",
"!,+	c #013D02",
"~,+	c #0C3F02",
"{,+	c #15420C",
"],+	c #205C0C",
"^,+	c #6EA157",
"/,+	c #77A062",
"(,+	c #1D2E13",
"_,+	c #1F190E",
":,+	c #261601",
"<,+	c #340F02",
"[,+	c #430500",
"},+	c #510801",
"|,+	c #640606",
"1,+	c #AB484F",
"2,+	c #F2C2CC",
"3,+	c #FDE4F0",
"4,+	c #D78A95",
"5,+	c #951A1E",
"6,+	c #6E0404",
"7,+	c #480601",
"8,+	c #310004",
"9,+	c #270907",
"0,+	c #18160E",
"a,+	c #101F10",
"b,+	c #056545",
"c,+	c #56F0DE",
"d,+	c #36C7BA",
"e,+	c #155B51",
"f,+	c #382017",
"g,+	c #8D1E24",
"h,+	c #EC909C",
"i,+	c #C76674",
"j,+	c #920419",
"k,+	c #5E0203",
"l,+	c #320002",
"m,+	c #1A0202",
"n,+	c #170901",
"o,+	c #101300",
"p,+	c #0C3C01",
"q,+	c #155505",
"r,+	c #4E8538",
"s,+	c #AFD98E",
"t,+	c #EFF9D6",
"u,+	c #F3FDDC",
"v,+	c #D0F0B1",
"w,+	c #90CA68",
"x,+	c #56A61C",
"y,+	c #419808",
"z,+	c #276B14",
"A,+	c #093609",
"B,+	c #022002",
"C,+	c #031A04",
"D,+	c #084D02",
"E,+	c #376B28",
"F,+	c #90BB7A",
"G,+	c #78AE60",
"H,+	c #0F3907",
"I,+	c #051101",
"J,+	c #140E05",
"K,+	c #182603",
"L,+	c #286C0D",
"M,+	c #A2CD74",
"N,+	c #E4FABB",
"O,+	c #709B46",
"P,+	c #384201",
"Q,+	c #491D05",
"R,+	c #72100C",
"S,+	c #B7041B",
"T,+	c #CD3A38",
"U,+	c #F1966F",
"V,+	c #FCD8BA",
"W,+	c #FEE9D6",
"X,+	c #FEC999",
"Y,+	c #FCD2A9",
"Z,+	c #FAA95C",
"`,+	c #DB694B",
" '+	c #A9121F",
".'+	c #610404",
"+'+	c #220000",
"@'+	c #1C0300",
"#'+	c #290004",
"$'+	c #390005",
"%'+	c #690105",
"&'+	c #B84F3D",
"*'+	c #F8AE45",
"='+	c #E1614C",
"-'+	c #AE0B2E",
";'+	c #93021C",
">'+	c #690315",
",'+	c #5F0213",
"''+	c #6A0116",
")'+	c #8B0A29",
"!'+	c #A51437",
"~'+	c #B1173D",
"{'+	c #A51338",
"]'+	c #7D0725",
"^'+	c #610114",
"/'+	c #760116",
"('+	c #AC0328",
"_'+	c #D50D3D",
":'+	c #EC807A",
"<'+	c #FACAC7",
"['+	c #934E2D",
"}'+	c #570C15",
"|'+	c #2F0204",
"1'+	c #130102",
"2'+	c #080000",
"3'+	c #050002",
"4'+	c #010202",
"5'+	c #020402",
"6'+	c #170206",
"7'+	c #22080B",
"8'+	c #130709",
"9'+	c #35121A",
"0'+	c #47161B",
"a'+	c #592024",
"b'+	c #711B1F",
"c'+	c #EFA48F",
"d'+	c #F5C6B2",
"e'+	c #94271F",
"f'+	c #771F28",
"g'+	c #75302F",
"h'+	c #551E24",
"i'+	c #4A1618",
"j'+	c #411315",
"k'+	c #230606",
"l'+	c #22060A",
"m'+	c #38161C",
"n'+	c #2E171A",
"o'+	c #371E23",
"p'+	c #140708",
"q'+	c #302424",
"r'+	c #201214",
"s'+	c #180D0F",
"t'+	c #0B0303",
"u'+	c #1D0F11",
"v'+	c #2E1114",
"w'+	c #2B0E10",
"x'+	c #471217",
"y'+	c #4E1B1E",
"z'+	c #612829",
"A'+	c #801D25",
"B'+	c #A84233",
"C'+	c #FBD9C6",
"D'+	c #8D141B",
"E'+	c #5A1B23",
"F'+	c #2C020A",
"G'+	c #1C0405",
"H'+	c #3D2020",
"I'+	c #301313",
"J'+	c #281111",
"K'+	c #2C1C1A",
"L'+	c #020004",
"M'+	c #0A0400",
"N'+	c #070602",
"O'+	c #070500",
"P'+	c #030602",
"Q'+	c #050A03",
"R'+	c #0B1306",
"S'+	c #0A1A08",
"T'+	c #0B1B08",
"U'+	c #091805",
"V'+	c #091703",
"W'+	c #061403",
"X'+	c #040F03",
"Y'+	c #032305",
"Z'+	c #013001",
"`'+	c #0D4100",
" )+	c #2B7311",
".)+	c #9BCC7D",
"+)+	c #E7FBD4",
"@)+	c #D1F8A8",
"#)+	c #5F893A",
"$)+	c #191B06",
"%)+	c #340D06",
"&)+	c #440301",
"*)+	c #470C03",
"=)+	c #750309",
"-)+	c #B24F5A",
";)+	c #F4CED3",
">)+	c #FCDBE4",
",)+	c #D97079",
"')+	c #970A16",
"))+	c #68010A",
"!)+	c #500207",
"~)+	c #3E0209",
"{)+	c #270502",
"])+	c #2C100C",
"^)+	c #24130E",
"/)+	c #0D1008",
"()+	c #0D1806",
"_)+	c #054D2F",
":)+	c #249179",
"<)+	c #0D664F",
"[)+	c #1B2415",
"})+	c #271303",
"|)+	c #530706",
"1)+	c #7A0919",
"2)+	c #77060E",
"3)+	c #530103",
"4)+	c #3E0103",
"5)+	c #1A0601",
"6)+	c #141001",
"7)+	c #102503",
"8)+	c #114503",
"9)+	c #24650B",
"0)+	c #7BAE5C",
"a)+	c #D1F4B8",
"b)+	c #F3FCDF",
"c)+	c #E5FAC2",
"d)+	c #A7D876",
"e)+	c #64B525",
"f)+	c #4FA917",
"g)+	c #348011",
"h)+	c #134307",
"i)+	c #042500",
"j)+	c #041E03",
"k)+	c #012109",
"l)+	c #023103",
"m)+	c #0F5106",
"n)+	c #509839",
"o)+	c #BEE8A7",
"p)+	c #EDFED0",
"q)+	c #B9D88F",
"r)+	c #265817",
"s)+	c #051800",
"t)+	c #0F0003",
"u)+	c #191302",
"v)+	c #154304",
"w)+	c #458917",
"x)+	c #D3EFA8",
"y)+	c #BEE395",
"z)+	c #416A1C",
"A)+	c #462E0A",
"B)+	c #501A06",
"C)+	c #810709",
"D)+	c #920511",
"E)+	c #A70E20",
"F)+	c #BD3C39",
"G)+	c #D56E44",
"H)+	c #DB7A53",
"I)+	c #D05B3F",
"J)+	c #B5212D",
"K)+	c #97050E",
"L)+	c #7F0302",
"M)+	c #320606",
"N)+	c #760408",
"O)+	c #D8794B",
"P)+	c #F7B170",
"Q)+	c #CF283A",
"R)+	c #990429",
"S)+	c #72011A",
"T)+	c #550109",
"U)+	c #6B041A",
"V)+	c #940F2F",
"W)+	c #9F062E",
"X)+	c #9C052C",
"Y)+	c #A10B33",
"Z)+	c #C21344",
"`)+	c #D71B42",
" !+	c #B0183E",
".!+	c #72031A",
"+!+	c #790418",
"@!+	c #B90429",
"#!+	c #CF1A3D",
"$!+	c #F2ACB6",
"%!+	c #E3A087",
"&!+	c #6A1620",
"*!+	c #470F13",
"=!+	c #100203",
"-!+	c #000204",
";!+	c #0A0302",
">!+	c #0F0608",
",!+	c #110106",
"'!+	c #1A0207",
")!+	c #2A1517",
"!!+	c #49181C",
"~!+	c #592023",
"{!+	c #A82025",
"]!+	c #F0A591",
"^!+	c #F5C4B0",
"/!+	c #962920",
"(!+	c #741E26",
"_!+	c #752F30",
":!+	c #531C21",
"<!+	c #401215",
"[!+	c #2B1517",
"}!+	c #080201",
"|!+	c #2F2323",
"1!+	c #221113",
"2!+	c #211012",
"3!+	c #201719",
"4!+	c #1E1013",
"5!+	c #201313",
"6!+	c #2F2525",
"7!+	c #0C0306",
"8!+	c #390D11",
"9!+	c #4F1C1F",
"0!+	c #683031",
"a!+	c #801E25",
"b!+	c #FBDAC6",
"c!+	c #D38350",
"d!+	c #92141D",
"e!+	c #7B1E26",
"f!+	c #561B22",
"g!+	c #2C0109",
"h!+	c #412120",
"i!+	c #361B1A",
"j!+	c #180504",
"k!+	c #3C2221",
"l!+	c #2E1010",
"m!+	c #2D1012",
"n!+	c #2C1011",
"o!+	c #291414",
"p!+	c #2D1F1D",
"q!+	c #130105",
"r!+	c #000005",
"s!+	c #030504",
"t!+	c #050806",
"u!+	c #040902",
"v!+	c #091705",
"w!+	c #0E1F08",
"x!+	c #0F1F0A",
"y!+	c #0E1B09",
"z!+	c #0A1A07",
"A!+	c #081905",
"B!+	c #061804",
"C!+	c #041502",
"D!+	c #071704",
"E!+	c #041501",
"F!+	c #021900",
"G!+	c #012200",
"H!+	c #022E04",
"I!+	c #0C4C03",
"J!+	c #498829",
"K!+	c #B7DF95",
"L!+	c #E4FDC6",
"M!+	c #D5F0AB",
"N!+	c #85C95C",
"O!+	c #49701C",
"P!+	c #312408",
"Q!+	c #420E05",
"R!+	c #540601",
"S!+	c #6C070B",
"T!+	c #B8585F",
"U!+	c #F8CACC",
"V!+	c #F9D4E5",
"W!+	c #C3626C",
"X!+	c #910815",
"Y!+	c #3C0005",
"Z!+	c #2D1814",
"`!+	c #251C16",
" ~+	c #0F0A05",
".~+	c #0E0905",
"+~+	c #0C1008",
"@~+	c #071A0B",
"#~+	c #06200E",
"$~+	c #071806",
"%~+	c #110E01",
"&~+	c #1E0800",
"*~+	c #2F0201",
"=~+	c #3B0104",
"-~+	c #180000",
";~+	c #650207",
">~+	c #78141D",
",~+	c #771922",
"'~+	c #4E0506",
")~+	c #2E0500",
"!~+	c #220C01",
"~~+	c #141602",
"{~+	c #112606",
"]~+	c #144B07",
"^~+	c #3C7E27",
"/~+	c #A8D088",
"(~+	c #F2FDCD",
"_~+	c #F3FDDD",
":~+	c #BBE89D",
"<~+	c #71C838",
"[~+	c #61BC24",
"}~+	c #428D17",
"|~+	c #195303",
"1~+	c #012D00",
"2~+	c #061D02",
"3~+	c #031A00",
"4~+	c #051E04",
"5~+	c #012E01",
"6~+	c #0A5703",
"7~+	c #6AAA54",
"8~+	c #D7F3C2",
"9~+	c #E3F9C3",
"0~+	c #A9D375",
"a~+	c #47771B",
"b~+	c #153304",
"c~+	c #091200",
"d~+	c #0F0103",
"e~+	c #140902",
"f~+	c #132100",
"g~+	c #1C5607",
"h~+	c #679D47",
"i~+	c #D3F5A7",
"j~+	c #ADD487",
"k~+	c #376214",
"l~+	c #372A02",
"m~+	c #551306",
"n~+	c #710C0F",
"o~+	c #870813",
"p~+	c #990413",
"q~+	c #9D010F",
"r~+	c #97040D",
"s~+	c #940406",
"t~+	c #8A030A",
"u~+	c #6E030C",
"v~+	c #490504",
"w~+	c #382611",
"x~+	c #79996A",
"y~+	c #91B58D",
"z~+	c #738E72",
"A~+	c #3D4A35",
"B~+	c #1F1008",
"C~+	c #220501",
"D~+	c #2C0206",
"E~+	c #730511",
"F~+	c #E27D4C",
"G~+	c #F39B64",
"H~+	c #B10E37",
"I~+	c #81031F",
"J~+	c #5D0111",
"K~+	c #620418",
"L~+	c #810827",
"M~+	c #760420",
"N~+	c #660117",
"O~+	c #56000F",
"P~+	c #52000D",
"Q~+	c #62000F",
"R~+	c #900321",
"S~+	c #CA234C",
"T~+	c #C12B49",
"U~+	c #76031A",
"V~+	c #870125",
"W~+	c #CB0339",
"X~+	c #DC5667",
"Y~+	c #FCBECA",
"Z~+	c #B36250",
"`~+	c #530C19",
" {+	c #3C0911",
".{+	c #030104",
"+{+	c #180607",
"@{+	c #120105",
"#{+	c #1D050A",
"${+	c #24080C",
"%{+	c #331119",
"&{+	c #371017",
"*{+	c #4C191C",
"={+	c #6F1B1E",
"-{+	c #A41F24",
";{+	c #F0A896",
">{+	c #F6C4AD",
",{+	c #982824",
"'{+	c #771F24",
"){+	c #722D32",
"!{+	c #4F1B1D",
"~{+	c #44131A",
"{{+	c #27080C",
"]{+	c #3B181D",
"^{+	c #2C1615",
"/{+	c #392022",
"({+	c #130607",
"_{+	c #302525",
":{+	c #231518",
"<{+	c #1A1015",
"[{+	c #1F1010",
"}{+	c #2E2424",
"|{+	c #0B0205",
"1{+	c #391D1F",
"2{+	c #3A0E12",
"3{+	c #641419",
"4{+	c #7F1D24",
"5{+	c #A74132",
"6{+	c #D17E38",
"7{+	c #551B21",
"8{+	c #170404",
"9{+	c #3B2120",
"0{+	c #2B0F11",
"a{+	c #281413",
"b{+	c #2D1F1C",
"c{+	c #1B040A",
"d{+	c #100002",
"e{+	c #050001",
"f{+	c #000003",
"g{+	c #010005",
"h{+	c #070305",
"i{+	c #030108",
"j{+	c #0B1504",
"k{+	c #18290F",
"l{+	c #14290C",
"m{+	c #10270A",
"n{+	c #10250C",
"o{+	c #10250E",
"p{+	c #0C2608",
"q{+	c #0D2608",
"r{+	c #0A2406",
"s{+	c #072604",
"t{+	c #022301",
"u{+	c #041F04",
"v{+	c #022601",
"w{+	c #094002",
"x{+	c #125C04",
"y{+	c #448C31",
"z{+	c #C2E4AA",
"A{+	c #F4FCCA",
"B{+	c #B8E890",
"C{+	c #5FA537",
"D{+	c #326008",
"E{+	c #423102",
"F{+	c #471E04",
"G{+	c #5A0B0F",
"H{+	c #6F050D",
"I{+	c #BA5A5F",
"J{+	c #FAD2D8",
"K{+	c #FDCFDF",
"L{+	c #C25E68",
"M{+	c #8B0615",
"N{+	c #5D0303",
"O{+	c #410200",
"P{+	c #2E0505",
"Q{+	c #28160F",
"R{+	c #221811",
"S{+	c #0E0903",
"T{+	c #110906",
"U{+	c #090603",
"V{+	c #030802",
"W{+	c #030B02",
"X{+	c #090900",
"Y{+	c #0F0700",
"Z{+	c #1C0301",
"`{+	c #260104",
" ]+	c #1B0000",
".]+	c #250302",
"+]+	c #2C0103",
"@]+	c #3A020C",
"#]+	c #46020B",
"$]+	c #901B21",
"%]+	c #C87B7F",
"&]+	c #EAC9C0",
"*]+	c #EFA4A9",
"=]+	c #8C222F",
"-]+	c #380C04",
";]+	c #221401",
">]+	c #171E04",
",]+	c #164C03",
"']+	c #4A8F2F",
")]+	c #C6E5A3",
"!]+	c #F2FCDD",
"~]+	c #DCF7CC",
"{]+	c #9BD76F",
"]]+	c #73D12C",
"^]+	c #58AD27",
"/]+	c #26670B",
"(]+	c #053802",
"_]+	c #032207",
":]+	c #031704",
"<]+	c #011200",
"[]+	c #062205",
"}]+	c #064C01",
"|]+	c #4FA73E",
"1]+	c #D1F6B9",
"2]+	c #EAF3C7",
"3]+	c #8CB854",
"4]+	c #337809",
"5]+	c #1C3507",
"6]+	c #0B1700",
"7]+	c #090600",
"8]+	c #120B01",
"9]+	c #0E2B01",
"0]+	c #255B0A",
"a]+	c #7AA353",
"b]+	c #D3F5AA",
"c]+	c #B6DB9B",
"d]+	c #487E30",
"e]+	c #2A3705",
"f]+	c #411B04",
"g]+	c #531402",
"h]+	c #680F09",
"i]+	c #700809",
"j]+	c #710408",
"k]+	c #680505",
"l]+	c #570204",
"m]+	c #220F02",
"n]+	c #162402",
"o]+	c #1B560C",
"p]+	c #599B53",
"q]+	c #91D390",
"r]+	c #B1E6A9",
"s]+	c #A0C696",
"t]+	c #5A695E",
"u]+	c #290F08",
"v]+	c #3C0201",
"w]+	c #730114",
"x]+	c #D15F4B",
"y]+	c #EB7447",
"z]+	c #9A052F",
"A]+	c #620317",
"B]+	c #520110",
"C]+	c #6D0820",
"D]+	c #6E011B",
"E]+	c #5A0014",
"F]+	c #44010D",
"G]+	c #360209",
"H]+	c #3E0108",
"I]+	c #410107",
"J]+	c #51040E",
"K]+	c #7F0120",
"L]+	c #C1203F",
"M]+	c #C32449",
"N]+	c #780119",
"O]+	c #AD0B36",
"P]+	c #D60D38",
"Q]+	c #ED8EA0",
"R]+	c #F0AEC1",
"S]+	c #822038",
"T]+	c #53131D",
"U]+	c #2E0909",
"V]+	c #140001",
"W]+	c #0A0000",
"X]+	c #0A0201",
"Y]+	c #0B0302",
"Z]+	c #090003",
"`]+	c #070003",
" ^+	c #1C080A",
".^+	c #140106",
"+^+	c #25080C",
"@^+	c #2D1619",
"#^+	c #17060A",
"$^+	c #4B181B",
"%^+	c #6E1A1D",
"&^+	c #F6C5AE",
"*^+	c #952521",
"=^+	c #781F23",
"-^+	c #732E33",
";^+	c #421218",
">^+	c #38161B",
",^+	c #2B1013",
"'^+	c #2C1614",
")^+	c #231313",
"!^+	c #231619",
"~^+	c #190F14",
"{^+	c #191418",
"]^+	c #1F0806",
"^^+	c #1F1110",
"/^+	c #312627",
"(^+	c #391C1E",
"_^+	c #210406",
":^+	c #65151A",
"<^+	c #7F1C24",
"[^+	c #A53F31",
"}^+	c #531920",
"|^+	c #40201E",
"1^+	c #371D1C",
"2^+	c #39201F",
"3^+	c #301212",
"4^+	c #2D1113",
"5^+	c #2A0E0F",
"6^+	c #271211",
"7^+	c #2C1E1B",
"8^+	c #160206",
"9^+	c #030208",
"0^+	c #0A1301",
"a^+	c #202E10",
"b^+	c #263815",
"c^+	c #1A360A",
"d^+	c #19340D",
"e^+	c #173110",
"f^+	c #112B0D",
"g^+	c #10280C",
"h^+	c #0F270B",
"i^+	c #0B2307",
"j^+	c #0A2206",
"k^+	c #092206",
"l^+	c #082406",
"m^+	c #042605",
"n^+	c #032E02",
"o^+	c #176C03",
"p^+	c #4F8D27",
"q^+	c #CAECAF",
"r^+	c #E5FED6",
"s^+	c #B4E180",
"t^+	c #5F9D24",
"u^+	c #385407",
"v^+	c #443102",
"w^+	c #452207",
"x^+	c #4C1A07",
"y^+	c #6E0D03",
"z^+	c #B15054",
"A^+	c #F9CFD7",
"B^+	c #F6D7DF",
"C^+	c #CE5469",
"D^+	c #90030D",
"E^+	c #640005",
"F^+	c #400201",
"G^+	c #290706",
"H^+	c #202418",
"I^+	c #26271B",
"J^+	c #0E0F04",
"K^+	c #0D0D04",
"L^+	c #110A06",
"M^+	c #0D0402",
"N^+	c #070200",
"O^+	c #090301",
"P^+	c #090601",
"Q^+	c #0C0700",
"R^+	c #140601",
"S^+	c #190501",
"T^+	c #1C0703",
"U^+	c #1F0702",
"V^+	c #200603",
"W^+	c #1F0301",
"X^+	c #200200",
"Y^+	c #4B0A02",
"Z^+	c #750605",
"`^+	c #B6555E",
" /+	c #EFBCC2",
"./+	c #FCE1DA",
"+/+	c #E6AFAC",
"@/+	c #B0414D",
"#/+	c #62080B",
"$/+	c #331506",
"%/+	c #201F06",
"&/+	c #194A00",
"*/+	c #4B902C",
"=/+	c #CDE9AC",
"-/+	c #F4FBD1",
";/+	c #D0F2AC",
">/+	c #77CD42",
",/+	c #73E223",
"'/+	c #459C17",
")/+	c #0D4A00",
"!/+	c #042D02",
"~/+	c #051A0E",
"{/+	c #050C0C",
"]/+	c #080B02",
"^/+	c #013500",
"//+	c #3D752D",
"(/+	c #C4EEA9",
"_/+	c #D7F9B6",
":/+	c #88BE4D",
"</+	c #367408",
"[/+	c #153808",
"}/+	c #131701",
"|/+	c #0B0501",
"1/+	c #150109",
"2/+	c #100D04",
"3/+	c #123202",
"4/+	c #1E610D",
"5/+	c #55924A",
"6/+	c #BBEBAD",
"7/+	c #D5F1C2",
"8/+	c #92AF7B",
"9/+	c #2E4F17",
"0/+	c #242F06",
"a/+	c #271D05",
"b/+	c #2A1605",
"c/+	c #281503",
"d/+	c #271401",
"e/+	c #261803",
"f/+	c #241E05",
"g/+	c #1B2403",
"h/+	c #172D03",
"i/+	c #1C4B11",
"j/+	c #378C1B",
"k/+	c #38A91D",
"l/+	c #36A523",
"m/+	c #6CC36B",
"n/+	c #A9E6AB",
"o/+	c #AEC9A3",
"p/+	c #565D4A",
"q/+	c #4A0902",
"r/+	c #84111D",
"s/+	c #BE223A",
"t/+	c #870423",
"u/+	c #520212",
"v/+	c #500112",
"w/+	c #6E031D",
"x/+	c #5B0114",
"y/+	c #3C000A",
"z/+	c #34050B",
"A/+	c #580113",
"B/+	c #830120",
"C/+	c #B91F4A",
"D/+	c #B0204D",
"E/+	c #840216",
"F/+	c #CD0835",
"G/+	c #CD2D46",
"H/+	c #F9B3DD",
"I/+	c #D58484",
"J/+	c #58131F",
"K/+	c #4B191F",
"L/+	c #2F0108",
"M/+	c #361316",
"N/+	c #46292A",
"O/+	c #493837",
"P/+	c #493932",
"Q/+	c #241A16",
"R/+	c #050104",
"S/+	c #060005",
"T/+	c #140204",
"U/+	c #200A0D",
"V/+	c #180309",
"W/+	c #1F050A",
"X/+	c #2F171A",
"Y/+	c #19070C",
"Z/+	c #0F0104",
"`/+	c #360F16",
" (+	c #701D1F",
".(+	c #A62026",
"+(+	c #F0A997",
"@(+	c #F5C5AE",
"#(+	c #952522",
"$(+	c #771E23",
"%(+	c #722E33",
"&(+	c #511D1E",
"*(+	c #431218",
"=(+	c #37151A",
"-(+	c #2A0F12",
";(+	c #2A1513",
">(+	c #371F21",
",(+	c #130608",
"'(+	c #2E2322",
")(+	c #221213",
"!(+	c #160C12",
"~(+	c #221816",
"{(+	c #1A161A",
"](+	c #1E0806",
"^(+	c #1E100F",
"/(+	c #322727",
"((+	c #220506",
"_(+	c #34080C",
":(+	c #521F22",
"<(+	c #631318",
"[(+	c #A53E2F",
"}(+	c #D07D38",
"|(+	c #91131C",
"1(+	c #541A20",
"2(+	c #2D0109",
"3(+	c #3E1E1D",
"4(+	c #371D1B",
"5(+	c #190605",
"6(+	c #3A2120",
"7(+	c #281312",
"8(+	c #0C0201",
"9(+	c #040601",
"0(+	c #060902",
"a(+	c #060D01",
"b(+	c #1C2908",
"c(+	c #33471A",
"d(+	c #2E4616",
"e(+	c #244111",
"f(+	c #204213",
"g(+	c #092302",
"h(+	c #052201",
"i(+	c #052601",
"j(+	c #092A05",
"k(+	c #0C2C08",
"l(+	c #0C2B07",
"m(+	c #0E2E08",
"n(+	c #0B3904",
"o(+	c #0D5401",
"p(+	c #1F6D06",
"q(+	c #5D9840",
"r(+	c #CCEDAB",
"s(+	c #F0FDCB",
"t(+	c #B2DF70",
"u(+	c #549E1F",
"v(+	c #33520D",
"w(+	c #353006",
"x(+	c #412005",
"y(+	c #461F06",
"z(+	c #6A110A",
"A(+	c #A84B4F",
"B(+	c #F5C8CA",
"C(+	c #FCCEDB",
"D(+	c #D45870",
"E(+	c #8D040E",
"F(+	c #5F0106",
"G(+	c #420301",
"H(+	c #28090A",
"I(+	c #302C26",
"J(+	c #273024",
"K(+	c #111507",
"L(+	c #0A0D02",
"M(+	c #0D0F06",
"N(+	c #090A03",
"O(+	c #050700",
"P(+	c #060500",
"Q(+	c #080602",
"R(+	c #0A0A04",
"S(+	c #0B0B01",
"T(+	c #0E0E00",
"U(+	c #151600",
"V(+	c #1C1B01",
"W(+	c #211802",
"X(+	c #241202",
"Y(+	c #240C02",
"Z(+	c #230703",
"`(+	c #200002",
" _+	c #5B0204",
"._+	c #8F141E",
"+_+	c #DB8182",
"@_+	c #FBDFD6",
"#_+	c #EDBCC7",
"$_+	c #BB5963",
"%_+	c #7D0B17",
"&_+	c #570706",
"*_+	c #440D03",
"=_+	c #2D1C03",
"-_+	c #1B3D01",
";_+	c #488B24",
">_+	c #C2E89B",
",_+	c #F2FBCD",
"'_+	c #C2E892",
")_+	c #6FCA30",
"!_+	c #6DD32F",
"~_+	c #2F820D",
"{_+	c #064001",
"]_+	c #032801",
"^_+	c #041A02",
"/_+	c #040903",
"(_+	c #050A01",
"__+	c #041608",
":_+	c #013601",
"<_+	c #86BD6A",
"[_+	c #87BE56",
"}_+	c #317B07",
"|_+	c #163C07",
"1_+	c #1A1401",
"2_+	c #120403",
"3_+	c #100003",
"4_+	c #130304",
"5_+	c #0D1101",
"6_+	c #0E3404",
"7_+	c #17610A",
"8_+	c #287C1E",
"9_+	c #99CB92",
"0_+	c #D2F6CE",
"a_+	c #C7ECB9",
"b_+	c #99BB88",
"c_+	c #5F825A",
"d_+	c #315426",
"e_+	c #244508",
"f_+	c #213F0B",
"g_+	c #1C3C09",
"h_+	c #173C05",
"i_+	c #153F03",
"j_+	c #164304",
"k_+	c #144E02",
"l_+	c #0F5802",
"m_+	c #197609",
"n_+	c #309F18",
"o_+	c #31AA11",
"p_+	c #2DA80B",
"q_+	c #6BBC5A",
"r_+	c #A8EA9F",
"s_+	c #90B582",
"t_+	c #54412D",
"u_+	c #6A070A",
"v_+	c #640511",
"w_+	c #51000D",
"x_+	c #46020D",
"y_+	c #590113",
"z_+	c #46000C",
"A_+	c #580210",
"B_+	c #830428",
"C_+	c #B82752",
"D_+	c #9A1028",
"E_+	c #990325",
"F_+	c #CE063D",
"G_+	c #E3596C",
"H_+	c #F6BB9B",
"I_+	c #B36F57",
"J_+	c #5A0D22",
"K_+	c #4E2029",
"L_+	c #330714",
"M_+	c #2A0106",
"N_+	c #1F0005",
"O_+	c #290813",
"P_+	c #401B1F",
"Q_+	c #561622",
"R_+	c #511522",
"S_+	c #704939",
"T_+	c #5B3233",
"U_+	c #483130",
"V_+	c #1A0C08",
"W_+	c #070203",
"X_+	c #070105",
"Y_+	c #230B0F",
"Z_+	c #1B050B",
"`_+	c #23070D",
" :+	c #31171B",
".:+	c #1B070D",
"+:+	c #100104",
"@:+	c #4A1719",
"#:+	c #711D20",
"$:+	c #F0AA98",
"%:+	c #F4C5AE",
"&:+	c #952623",
"*:+	c #751C21",
"=:+	c #702C32",
"-:+	c #411016",
";:+	c #2A0E11",
">:+	c #2B1513",
",:+	c #381F21",
"':+	c #2D2221",
"):+	c #241313",
"!:+	c #170D13",
"~:+	c #1C171C",
"{:+	c #1E0705",
"]:+	c #361E22",
"^:+	c #3A1E20",
"/:+	c #370B10",
"(:+	c #440F15",
"_:+	c #521E21",
"::+	c #642B2C",
"<:+	c #7D1B23",
"[:+	c #A64031",
"}:+	c #7D1E27",
"|:+	c #551920",
"1:+	c #2E010A",
"2:+	c #3E1D1C",
"3:+	c #371C1B",
"4:+	c #1C0707",
"5:+	c #3B2121",
"6:+	c #2C0F0E",
"7:+	c #291513",
"8:+	c #2E211D",
"9:+	c #030301",
"0:+	c #080402",
"a:+	c #070A01",
"b:+	c #081304",
"c:+	c #0B1602",
"d:+	c #0A0E03",
"e:+	c #0A1600",
"f:+	c #344711",
"g:+	c #455B24",
"h:+	c #37581A",
"i:+	c #32591D",
"j:+	c #204111",
"k:+	c #103002",
"l:+	c #0E2C02",
"m:+	c #103204",
"n:+	c #19440C",
"o:+	c #1B4D0F",
"p:+	c #144E0C",
"q:+	c #164F0F",
"r:+	c #174F0F",
"s:+	c #175110",
"t:+	c #185512",
"u:+	c #1D680D",
"v:+	c #288009",
"w:+	c #71AD54",
"x:+	c #D8F1B4",
"y:+	c #E8FDC7",
"z:+	c #A6D36B",
"A:+	c #588F19",
"B:+	c #365B11",
"C:+	c #2E2D02",
"D:+	c #411F01",
"E:+	c #53180B",
"F:+	c #591605",
"G:+	c #974344",
"H:+	c #F0BED3",
"I:+	c #FCD0E6",
"J:+	c #CA6570",
"K:+	c #930912",
"L:+	c #350100",
"M:+	c #2E382F",
"N:+	c #28322A",
"O:+	c #170D08",
"P:+	c #080800",
"Q:+	c #0C0D03",
"R:+	c #050F03",
"S:+	c #051902",
"T:+	c #041600",
"U:+	c #090C03",
"V:+	c #060B02",
"W:+	c #031001",
"X:+	c #122605",
"Y:+	c #153001",
"Z:+	c #1C3E00",
"`:+	c #354A09",
" <+	c #2A2E01",
".<+	c #271502",
"+<+	c #2A0806",
"@<+	c #420104",
"#<+	c #5E0304",
"$<+	c #8F1C28",
"%<+	c #DEA1AC",
"&<+	c #FBDDDF",
"*<+	c #D98F90",
"=<+	c #A21F26",
"-<+	c #630101",
";<+	c #450A02",
"><+	c #2B1C05",
",<+	c #1F2A02",
"'<+	c #387308",
")<+	c #A9D887",
"!<+	c #F4FCD2",
"~<+	c #C6EE91",
"{<+	c #64C92B",
"]<+	c #67C730",
"^<+	c #296E0C",
"/<+	c #033201",
"(<+	c #011302",
"_<+	c #080804",
":<+	c #022702",
"<<+	c #07150F",
"[<+	c #042506",
"}<+	c #68A649",
"|<+	c #7ABA48",
"1<+	c #306E08",
"2<+	c #173405",
"3<+	c #1D0502",
"4<+	c #2B040B",
"5<+	c #190103",
"6<+	c #050400",
"7<+	c #091102",
"8<+	c #082804",
"9<+	c #0F4F06",
"0<+	c #117406",
"a<+	c #3D963B",
"b<+	c #96C992",
"c<+	c #C7F0C7",
"d<+	c #D4FCD6",
"e<+	c #C9EDC7",
"f<+	c #B6D6B1",
"g<+	c #A0C39B",
"h<+	c #89B187",
"i<+	c #78AB7F",
"j<+	c #6AAD7C",
"k<+	c #5BAA77",
"l<+	c #50A66D",
"m<+	c #50A067",
"n<+	c #439652",
"o<+	c #1B8221",
"p<+	c #0C840D",
"q<+	c #1F970F",
"r<+	c #39B51B",
"s<+	c #37B71F",
"t<+	c #8AD471",
"u<+	c #B7DF94",
"v<+	c #8A9668",
"w<+	c #492713",
"x<+	c #490307",
"y<+	c #350607",
"z<+	c #41030A",
"A<+	c #380008",
"B<+	c #3E0104",
"C<+	c #6D0118",
"D<+	c #890D30",
"E<+	c #BA2542",
"F<+	c #8A0623",
"G<+	c #AF062B",
"H<+	c #D60B40",
"I<+	c #E77B72",
"J<+	c #FAC8D7",
"K<+	c #B67B73",
"L<+	c #5F1124",
"M<+	c #551B2C",
"N<+	c #491C25",
"O<+	c #3E1B1E",
"P<+	c #3D151B",
"Q<+	c #461824",
"R<+	c #491929",
"S<+	c #511020",
"T<+	c #813D34",
"U<+	c #D49888",
"V<+	c #FAB8A4",
"W<+	c #BA6C62",
"X<+	c #410913",
"Y<+	c #2D0F0F",
"Z<+	c #150104",
"`<+	c #0D0005",
" [+	c #270D11",
".[+	c #1F070D",
"+[+	c #23070C",
"@[+	c #31171C",
"#[+	c #1B080D",
"$[+	c #100103",
"%[+	c #331118",
"&[+	c #4C1A1C",
"*[+	c #5D2324",
"=[+	c #711D21",
"-[+	c #A52127",
";[+	c #F0AC99",
">[+	c #F4C5AF",
",[+	c #942622",
"'[+	c #761E23",
")[+	c #722D33",
"![+	c #501C1E",
"~[+	c #4F181A",
"{[+	c #220408",
"][+	c #230508",
"^[+	c #39161C",
"/[+	c #291412",
"([+	c #351D1E",
"_[+	c #180D13",
":[+	c #1C181C",
"<[+	c #1C0604",
"[[+	c #1C0E11",
"}[+	c #322828",
"|[+	c #080407",
"1[+	c #370C0F",
"2[+	c #521D1E",
"3[+	c #662B2B",
"4[+	c #681519",
"5[+	c #7D1C24",
"6[+	c #A94236",
"7[+	c #95151E",
"8[+	c #7F1B26",
"9[+	c #56161F",
"0[+	c #31020B",
"a[+	c #3C1818",
"b[+	c #371919",
"c[+	c #2B100E",
"d[+	c #2D1211",
"e[+	c #2B1110",
"f[+	c #26130F",
"g[+	c #2D211B",
"h[+	c #0C0500",
"i[+	c #050602",
"j[+	c #0C0F04",
"k[+	c #141A08",
"l[+	c #0F2605",
"m[+	c #10220B",
"n[+	c #162804",
"o[+	c #4B732C",
"p[+	c #63913D",
"q[+	c #3F721B",
"r[+	c #35661D",
"s[+	c #18430A",
"t[+	c #0C3C03",
"u[+	c #104A0A",
"v[+	c #296C1A",
"w[+	c #327E19",
"x[+	c #30841D",
"y[+	c #398F28",
"z[+	c #3F9125",
"A[+	c #3F8C22",
"B[+	c #459327",
"C[+	c #3B8F22",
"D[+	c #3A8E21",
"E[+	c #5A9E29",
"F[+	c #A4CF7B",
"G[+	c #E0F8C8",
"H[+	c #E6FCC0",
"I[+	c #9ECE6F",
"J[+	c #559113",
"K[+	c #376004",
"L[+	c #1E2F05",
"M[+	c #392A03",
"N[+	c #4D1F08",
"O[+	c #511901",
"P[+	c #843231",
"Q[+	c #ECB4C2",
"R[+	c #FDD8E9",
"S[+	c #D16A77",
"T[+	c #8E0617",
"U[+	c #680005",
"V[+	c #400100",
"W[+	c #310200",
"X[+	c #250F06",
"Y[+	c #33332A",
"Z[+	c #253227",
"`[+	c #091007",
" }+	c #0C0F05",
".}+	c #051202",
"+}+	c #0C1A04",
"@}+	c #051C02",
"#}+	c #052506",
"$}+	c #0E430A",
"%}+	c #35762E",
"&}+	c #0F2F0C",
"*}+	c #020E01",
"=}+	c #021B02",
"-}+	c #102B07",
";}+	c #133C03",
">}+	c #275E09",
",}+	c #A2C680",
"'}+	c #D3EDA2",
")}+	c #83A151",
"!}+	c #2D3803",
"~}+	c #2D0F0C",
"{}+	c #280803",
"]}+	c #2D0300",
"^}+	c #53040D",
"/}+	c #E49FAA",
"(}+	c #FDD3E0",
"_}+	c #C76D79",
":}+	c #89080F",
"<}+	c #740009",
"[}+	c #570205",
"}}+	c #321109",
"|}+	c #1D2305",
"1}+	c #214D02",
"2}+	c #86B652",
"3}+	c #E5FCBD",
"4}+	c #DAF6AF",
"5}+	c #6FC229",
"6}+	c #5CC42A",
"7}+	c #1E6707",
"8}+	c #012E04",
"9}+	c #031605",
"0}+	c #000D04",
"a}+	c #060305",
"b}+	c #0A2706",
"c}+	c #041F03",
"d}+	c #053000",
"e}+	c #0B2B01",
"f}+	c #111701",
"g}+	c #070900",
"h}+	c #6B1822",
"i}+	c #260003",
"j}+	c #120102",
"k}+	c #160104",
"l}+	c #120003",
"m}+	c #200205",
"n}+	c #1B0704",
"o}+	c #0E0801",
"p}+	c #0C1703",
"q}+	c #032F00",
"r}+	c #035002",
"s}+	c #096B0C",
"t}+	c #238928",
"u}+	c #4DA951",
"v}+	c #7CC782",
"w}+	c #9FDDAC",
"x}+	c #B4EDC1",
"y}+	c #C0F4CD",
"z}+	c #C4F9D7",
"A}+	c #BDFBDD",
"B}+	c #B3FCDF",
"C}+	c #B3FEE4",
"D}+	c #B8FEEC",
"E}+	c #B6FCEA",
"F}+	c #B0F7D8",
"G}+	c #94DBB2",
"H}+	c #409D59",
"I}+	c #108B0D",
"J}+	c #29A710",
"K}+	c #2AAF11",
"L}+	c #50B233",
"M}+	c #A4E082",
"N}+	c #ABD78F",
"O}+	c #5C7048",
"P}+	c #2B0803",
"Q}+	c #39040A",
"R}+	c #2D0107",
"S}+	c #120204",
"T}+	c #040303",
"U}+	c #070303",
"V}+	c #48020D",
"W}+	c #66031A",
"X}+	c #971138",
"Y}+	c #AC254C",
"Z}+	c #820217",
"`}+	c #BB0733",
" |+	c #D3133F",
".|+	c #EA7C5D",
"+|+	c #FBC7B9",
"@|+	c #DBA59B",
"#|+	c #8E523C",
"$|+	c #611724",
"%|+	c #601D28",
"&|+	c #5A1B29",
"*|+	c #561221",
"=|+	c #872D31",
"-|+	c #CB8055",
";|+	c #F4D4D2",
">|+	c #FAC1B6",
",|+	c #D35F54",
"'|+	c #900F2B",
")|+	c #46020A",
"!|+	c #280908",
"~|+	c #1B0509",
"{|+	c #110205",
"]|+	c #1F0508",
"^|+	c #2A0D10",
"/|+	c #240A0B",
"(|+	c #260A0D",
"_|+	c #280D11",
":|+	c #2D181B",
"<|+	c #19080C",
"[|+	c #351219",
"}|+	c #3C1319",
"||+	c #4B1A1A",
"1|+	c #731C25",
"2|+	c #A32129",
"3|+	c #EFAE9A",
"4|+	c #F3C5AF",
"5|+	c #912522",
"6|+	c #741C22",
"7|+	c #712B32",
"8|+	c #511C1F",
"9|+	c #4B1416",
"0|+	c #411319",
"a|+	c #220609",
"b|+	c #2B0F13",
"c|+	c #361D1F",
"d|+	c #211011",
"e|+	c #221417",
"f|+	c #180E14",
"g|+	c #2E1214",
"h|+	c #380D10",
"i|+	c #511B1D",
"j|+	c #692D2D",
"k|+	c #671418",
"l|+	c #811C25",
"m|+	c #FBDBC8",
"n|+	c #D4865B",
"o|+	c #93141D",
"p|+	c #7D1C26",
"q|+	c #54171F",
"r|+	c #2F020A",
"s|+	c #3D1919",
"t|+	c #371A1A",
"u|+	c #2C1210",
"v|+	c #2D1312",
"w|+	c #2A100F",
"x|+	c #271410",
"y|+	c #2D221C",
"z|+	c #0D0601",
"A|+	c #101C04",
"B|+	c #192C08",
"C|+	c #173603",
"D|+	c #21420A",
"E|+	c #71A149",
"F|+	c #87CD56",
"G|+	c #5AA028",
"H|+	c #357713",
"I|+	c #124A04",
"J|+	c #115205",
"K|+	c #377F1E",
"L|+	c #6EAF43",
"M|+	c #97CC79",
"N|+	c #B5DFA2",
"O|+	c #CAEDB7",
"P|+	c #D4F3BF",
"Q|+	c #DBF9C6",
"R|+	c #DDF9C2",
"S|+	c #DAF7BB",
"T|+	c #D2EFB3",
"U|+	c #D1F0AD",
"V|+	c #E4FAC1",
"W|+	c #F6FCDC",
"X|+	c #E4F6C4",
"Y|+	c #96CB63",
"Z|+	c #4E910B",
"`|+	c #2E5707",
" 1+	c #1D3404",
".1+	c #42510E",
"+1+	c #453C0D",
"@1+	c #432006",
"#1+	c #7A2D27",
"$1+	c #E9ACB7",
"%1+	c #FEDBEF",
"&1+	c #DA818A",
"*1+	c #990E1C",
"=1+	c #640105",
"-1+	c #2D382B",
";1+	c #282E25",
">1+	c #070A05",
",1+	c #070801",
"'1+	c #091304",
")1+	c #022A01",
"!1+	c #0A3402",
"~1+	c #49763B",
"{1+	c #94DA80",
"]1+	c #77D069",
"^1+	c #124C0D",
"/1+	c #041B04",
"(1+	c #0F2C0B",
"_1+	c #2E7016",
":1+	c #A4D481",
"<1+	c #ECF9C1",
"[1+	c #A3C465",
"}1+	c #365402",
"|1+	c #281F0A",
"11+	c #2B0D02",
"21+	c #2A0402",
"31+	c #380308",
"41+	c #550302",
"51+	c #7A0C12",
"61+	c #DC90A2",
"71+	c #FDD8DF",
"81+	c #CB687A",
"91+	c #850412",
"01+	c #6A0103",
"a1+	c #470207",
"b1+	c #360803",
"c1+	c #291E0A",
"d1+	c #143600",
"e1+	c #478119",
"f1+	c #CDF0A6",
"g1+	c #E9FDC7",
"h1+	c #8AD247",
"i1+	c #5FC323",
"j1+	c #297215",
"k1+	c #003501",
"l1+	c #011C06",
"m1+	c #020409",
"n1+	c #000405",
"o1+	c #000D05",
"p1+	c #050404",
"q1+	c #071903",
"r1+	c #0E2F07",
"s1+	c #081705",
"t1+	c #081209",
"u1+	c #021203",
"v1+	c #050E05",
"w1+	c #0A0B01",
"x1+	c #0E0300",
"y1+	c #0F0301",
"z1+	c #761426",
"A1+	c #A3283E",
"B1+	c #310104",
"C1+	c #2E0910",
"D1+	c #1B0506",
"E1+	c #200209",
"F1+	c #190108",
"G1+	c #120A05",
"H1+	c #0C1603",
"I1+	c #0A1F02",
"J1+	c #093103",
"K1+	c #06520C",
"L1+	c #086D1A",
"M1+	c #06791F",
"N1+	c #0E8229",
"O1+	c #15892F",
"P1+	c #1B9237",
"Q1+	c #1CA142",
"R1+	c #1DAD4C",
"S1+	c #20BA5F",
"T1+	c #25C36E",
"U1+	c #3CCB88",
"V1+	c #66D8AE",
"W1+	c #96EED8",
"X1+	c #AAF9EA",
"Y1+	c #7AD9B1",
"Z1+	c #2C984C",
"`1+	c #1C9A17",
" 2+	c #29B81F",
".2+	c #2AB912",
"+2+	c #5FC847",
"@2+	c #AAE691",
"#2+	c #94B485",
"$2+	c #3A4530",
"%2+	c #1D0B03",
"&2+	c #140301",
"*2+	c #080003",
"=2+	c #120103",
"-2+	c #260005",
";2+	c #51010D",
">2+	c #620118",
",2+	c #96123B",
"'2+	c #A01C39",
")2+	c #87031B",
"!2+	c #B80932",
"~2+	c #E10C44",
"{2+	c #E9554C",
"]2+	c #F6AA85",
"^2+	c #F7B555",
"/2+	c #F1AA65",
"(2+	c #DC946B",
"_2+	c #D98D65",
":2+	c #E7A895",
"<2+	c #F4B982",
"[2+	c #F4A59D",
"}2+	c #D04443",
"|2+	c #A40932",
"12+	c #720215",
"22+	c #390702",
"32+	c #210E01",
"42+	c #160A01",
"52+	c #250B0C",
"62+	c #280C10",
"72+	c #2E1A1C",
"82+	c #361219",
"92+	c #4C1B1B",
"02+	c #721B24",
"a2+	c #EFAF9B",
"b2+	c #F2C4AF",
"c2+	c #922623",
"d2+	c #731B21",
"e2+	c #4C1517",
"f2+	c #43151B",
"g2+	c #220508",
"h2+	c #210306",
"i2+	c #39151B",
"j2+	c #371E20",
"k2+	c #221111",
"l2+	c #241619",
"m2+	c #190F15",
"n2+	c #322728",
"o2+	c #35090D",
"p2+	c #511C1D",
"q2+	c #672C2C",
"r2+	c #651115",
"s2+	c #831A24",
"t2+	c #AA4432",
"u2+	c #FBDBC6",
"v2+	c #D9917C",
"w2+	c #93151D",
"x2+	c #7A1D25",
"y2+	c #52181F",
"z2+	c #2E020A",
"A2+	c #411D1E",
"B2+	c #3B1E1E",
"C2+	c #2D1310",
"D2+	c #271411",
"E2+	c #2E221C",
"F2+	c #100B03",
"G2+	c #060700",
"H2+	c #0A1401",
"I2+	c #0C2000",
"J2+	c #163302",
"K2+	c #275113",
"L2+	c #8DBE5E",
"M2+	c #AFEE74",
"N2+	c #7AC43C",
"O2+	c #3C7F14",
"P2+	c #185A0B",
"Q2+	c #509144",
"R2+	c #95D07D",
"S2+	c #C9EEA5",
"T2+	c #EAFCD2",
"U2+	c #F0FCE4",
"V2+	c #F3FCE9",
"W2+	c #F4FDDB",
"X2+	c #F1FDCE",
"Y2+	c #EFFDD6",
"Z2+	c #F0FCDA",
"`2+	c #F4FCE2",
" 3+	c #F7FAE8",
".3+	c #FAFAEA",
"+3+	c #F0FADF",
"@3+	c #C5EBA5",
"#3+	c #80C442",
"$3+	c #498E14",
"%3+	c #275706",
"&3+	c #183F03",
"*3+	c #4C8031",
"=3+	c #4A6B1A",
"-3+	c #4A2408",
";3+	c #6F2017",
">3+	c #D999A9",
",3+	c #FEE7F1",
"'3+	c #EB94A1",
")3+	c #A71727",
"!3+	c #6D0107",
"~3+	c #2A0C0C",
"{3+	c #2A3C30",
"]3+	c #1F3829",
"^3+	c #071108",
"/3+	c #070702",
"(3+	c #080E03",
"_3+	c #081903",
":3+	c #082405",
"<3+	c #013402",
"[3+	c #0F4605",
"}3+	c #689C57",
"|3+	c #ABF093",
"13+	c #7BC662",
"23+	c #225B17",
"33+	c #032304",
"43+	c #052E03",
"53+	c #104604",
"63+	c #28720F",
"73+	c #A4D582",
"83+	c #F3FDD0",
"93+	c #DBF3B0",
"03+	c #7AB647",
"a3+	c #4B750F",
"b3+	c #3C3809",
"c3+	c #331503",
"d3+	c #2E0801",
"e3+	c #340202",
"f3+	c #430209",
"g3+	c #740205",
"h3+	c #C76B6E",
"i3+	c #FEDBEB",
"j3+	c #D37C90",
"k3+	c #830718",
"l3+	c #580401",
"m3+	c #2A1608",
"n3+	c #182404",
"o3+	c #1E5402",
"p3+	c #85BC5D",
"q3+	c #E4FDC8",
"r3+	c #C1E69D",
"s3+	c #53BA19",
"t3+	c #38911D",
"u3+	c #033401",
"v3+	c #011F03",
"w3+	c #030600",
"x3+	c #000305",
"y3+	c #040200",
"z3+	c #000E08",
"A3+	c #030704",
"B3+	c #092707",
"C3+	c #143D11",
"D3+	c #091604",
"E3+	c #0F0D05",
"F3+	c #0E0C01",
"G3+	c #0D0401",
"H3+	c #0E0200",
"I3+	c #861C30",
"J3+	c #C43954",
"K3+	c #440105",
"L3+	c #140105",
"M3+	c #450E15",
"N3+	c #170102",
"O3+	c #1C0409",
"P3+	c #1C060B",
"Q3+	c #170306",
"R3+	c #0B0B05",
"S3+	c #041303",
"T3+	c #032603",
"U3+	c #072D08",
"V3+	c #013803",
"W3+	c #013B02",
"X3+	c #023E01",
"Y3+	c #034601",
"Z3+	c #044E04",
"`3+	c #02590A",
" 4+	c #05630B",
".4+	c #047415",
"+4+	c #008D27",
"@4+	c #06A746",
"#4+	c #36C489",
"$4+	c #82ECD7",
"%4+	c #96F7DE",
"&4+	c #5FC392",
"*4+	c #1F8931",
"=4+	c #2AAC1A",
"-4+	c #34C825",
";4+	c #36BD23",
">4+	c #7BC969",
",4+	c #AEDF99",
"'4+	c #86A378",
")4+	c #242E17",
"!4+	c #120701",
"~4+	c #110303",
"{4+	c #160004",
"]4+	c #250301",
"^4+	c #4C040B",
"/4+	c #61011C",
"(4+	c #8A1430",
"_4+	c #9E1F35",
":4+	c #8F041B",
"<4+	c #B10227",
"[4+	c #D60C3B",
"}4+	c #E61D4A",
"|4+	c #EB4F51",
"14+	c #EF8575",
"24+	c #EB9F82",
"34+	c #F5AFA8",
"44+	c #F6A7A6",
"54+	c #F08875",
"64+	c #DE5643",
"74+	c #CC1A47",
"84+	c #BB0232",
"94+	c #980121",
"04+	c #59050F",
"a4+	c #301006",
"b4+	c #1F1206",
"c4+	c #1A0B05",
"d4+	c #140203",
"e4+	c #260B0F",
"f4+	c #2C1113",
"g4+	c #270E0F",
"h4+	c #270B0E",
"i4+	c #290D11",
"j4+	c #301C1E",
"k4+	c #1A0A0D",
"l4+	c #36131A",
"m4+	c #3B1218",
"n4+	c #491818",
"o4+	c #741D26",
"p4+	c #A32029",
"q4+	c #F0AF9D",
"r4+	c #F3C4AF",
"s4+	c #922522",
"t4+	c #45171C",
"u4+	c #220306",
"v4+	c #2C1013",
"w4+	c #231519",
"x4+	c #170C12",
"y4+	c #231917",
"z4+	c #321D19",
"A4+	c #1D0E0E",
"B4+	c #360A0E",
"C4+	c #552022",
"D4+	c #682D2D",
"E4+	c #661215",
"F4+	c #861924",
"G4+	c #FBDDC8",
"H4+	c #92151D",
"I4+	c #791F26",
"J4+	c #511A20",
"K4+	c #411C1D",
"L4+	c #200608",
"M4+	c #2C1211",
"N4+	c #291612",
"O4+	c #131406",
"P4+	c #0D1801",
"Q4+	c #0F2601",
"R4+	c #113600",
"S4+	c #1B4B01",
"T4+	c #285B0D",
"U4+	c #A7CA79",
"V4+	c #CDFB9A",
"W4+	c #8DD651",
"X4+	c #3E8C0F",
"Y4+	c #418A24",
"Z4+	c #94D96B",
"`4+	c #D7FBAC",
" 5+	c #F4FFD3",
".5+	c #E9FDCE",
"+5+	c #CBF4AE",
"@5+	c #B4E489",
"#5+	c #9AD461",
"$5+	c #81C143",
"%5+	c #7BC239",
"&5+	c #7AC939",
"*5+	c #80CE47",
"=5+	c #8AD15C",
"-5+	c #9CDA74",
";5+	c #A5D67B",
">5+	c #86BF4B",
",5+	c #5AAF13",
"'5+	c #31820A",
")5+	c #0F4102",
"!5+	c #619039",
"~5+	c #57822A",
"{5+	c #393009",
"]5+	c #671C08",
"^5+	c #CB7F83",
"/5+	c #FCE3EB",
"(5+	c #F3B1BF",
"_5+	c #BA2936",
":5+	c #77010B",
"<5+	c #450304",
"[5+	c #260C06",
"}5+	c #31372E",
"|5+	c #273B2F",
"15+	c #081208",
"25+	c #060A02",
"35+	c #052A03",
"45+	c #053B05",
"55+	c #164C0E",
"65+	c #87B771",
"75+	c #B6F69C",
"85+	c #71BC5D",
"95+	c #1F5A11",
"05+	c #052207",
"a5+	c #072809",
"b5+	c #084302",
"c5+	c #266D0B",
"d5+	c #9CD074",
"e5+	c #E8FDC6",
"f5+	c #DCEDB5",
"g5+	c #67A03A",
"h5+	c #3A840A",
"i5+	c #354A07",
"j5+	c #39170C",
"k5+	c #330601",
"l5+	c #350203",
"m5+	c #420103",
"n5+	c #560703",
"o5+	c #A7323F",
"p5+	c #F9CCCE",
"q5+	c #EEACBC",
"r5+	c #9C0F2C",
"s5+	c #400404",
"t5+	c #230701",
"u5+	c #221C09",
"v5+	c #316909",
"w5+	c #BAE790",
"x5+	c #E3FDC1",
"y5+	c #7EC54F",
"z5+	c #46A624",
"A5+	c #064407",
"B5+	c #042100",
"C5+	c #000403",
"D5+	c #02110C",
"E5+	c #153B13",
"F5+	c #245520",
"G5+	c #091B02",
"H5+	c #121004",
"I5+	c #181406",
"J5+	c #0D0300",
"K5+	c #851C30",
"L5+	c #DA506B",
"M5+	c #160003",
"N5+	c #581119",
"O5+	c #1A0608",
"P5+	c #120604",
"Q5+	c #090803",
"R5+	c #060E06",
"S5+	c #0C1303",
"T5+	c #061902",
"U5+	c #021E01",
"V5+	c #012202",
"W5+	c #07220B",
"X5+	c #0B2009",
"Y5+	c #0B2604",
"Z5+	c #023C00",
"`5+	c #035B05",
" 6+	c #057C14",
".6+	c #0FA54A",
"+6+	c #4FD5A7",
"@6+	c #96F4E3",
"#6+	c #98ECD1",
"$6+	c #5BB386",
"%6+	c #1A8926",
"&6+	c #3EBA33",
"*6+	c #40C22E",
"=6+	c #42B12F",
"-6+	c #88D676",
";6+	c #9CDF90",
">6+	c #51784C",
",6+	c #071702",
"'6+	c #080700",
")6+	c #080300",
"!6+	c #2A0205",
"~6+	c #3E0313",
"{6+	c #570113",
"]6+	c #6F0D23",
"^6+	c #87172C",
"/6+	c #7E081A",
"(6+	c #82021B",
"_6+	c #9E062E",
":6+	c #BD1038",
"<6+	c #D41C48",
"[6+	c #E11C4E",
"}6+	c #DF1A4A",
"|6+	c #D51344",
"16+	c #CD0B40",
"26+	c #C5073B",
"36+	c #B50531",
"46+	c #8A081C",
"56+	c #600F0B",
"66+	c #3D1A03",
"76+	c #1D2201",
"86+	c #181F04",
"96+	c #1B1408",
"06+	c #180405",
"a6+	c #270D0E",
"b6+	c #2A0F13",
"c6+	c #1B0A0E",
"d6+	c #3A1218",
"e6+	c #721C25",
"f6+	c #F0B09C",
"g6+	c #F3C7B2",
"h6+	c #8F231F",
"i6+	c #702A31",
"j6+	c #501B1E",
"k6+	c #4D1618",
"l6+	c #44161B",
"m6+	c #210508",
"n6+	c #371319",
"o6+	c #291311",
"p6+	c #231212",
"q6+	c #221518",
"r6+	c #1C171B",
"s6+	c #1D0E0F",
"t6+	c #201112",
"u6+	c #331C20",
"v6+	c #2C0E10",
"w6+	c #210405",
"x6+	c #360A0C",
"y6+	c #541D20",
"z6+	c #671317",
"A6+	c #871A26",
"B6+	c #A84131",
"C6+	c #D9947D",
"D6+	c #91151D",
"E6+	c #781F25",
"F6+	c #4F171D",
"G6+	c #3F1D1C",
"H6+	c #391D1C",
"I6+	c #1F0607",
"J6+	c #3A1D1E",
"K6+	c #2E1411",
"L6+	c #2F1615",
"M6+	c #281512",
"N6+	c #2C2119",
"O6+	c #141C04",
"P6+	c #122505",
"Q6+	c #123405",
"R6+	c #194C02",
"S6+	c #2A6208",
"T6+	c #A5BD7C",
"U6+	c #E6FDB1",
"V6+	c #ABE06F",
"W6+	c #429A1D",
"X6+	c #74B953",
"Y6+	c #C7F4A1",
"Z6+	c #ECFDC4",
"`6+	c #E1F2B1",
" 7+	c #AEDB74",
".7+	c #78C137",
"+7+	c #5EAC18",
"@7+	c #5AA70F",
"#7+	c #67BA1D",
"$7+	c #6AC527",
"%7+	c #6AC723",
"&7+	c #6BC922",
"*7+	c #66C822",
"=7+	c #68C726",
"-7+	c #65BD22",
";7+	c #54AD18",
">7+	c #429C11",
",7+	c #296F05",
"'7+	c #1D4F0D",
")7+	c #6BA841",
"!7+	c #5A8C35",
"~7+	c #3D2908",
"{7+	c #5D2003",
"]7+	c #AE605F",
"^7+	c #FADEE8",
"/7+	c #FBC8CD",
"(7+	c #C83F4C",
"_7+	c #7A020C",
":7+	c #4D0102",
"<7+	c #390003",
"[7+	c #2B0807",
"}7+	c #283326",
"|7+	c #294231",
"17+	c #0E1107",
"27+	c #0B0701",
"37+	c #080F02",
"47+	c #091C04",
"57+	c #052B03",
"67+	c #043F04",
"77+	c #1B5217",
"87+	c #9CC48F",
"97+	c #BFF6A4",
"07+	c #67AD4F",
"a7+	c #104F06",
"b7+	c #012A07",
"c7+	c #044402",
"d7+	c #1A6205",
"e7+	c #88C067",
"f7+	c #E9FBC9",
"g7+	c #DEF1B8",
"h7+	c #5FA438",
"i7+	c #3C800E",
"j7+	c #334410",
"k7+	c #301A03",
"l7+	c #2D0A00",
"m7+	c #2A0301",
"n7+	c #7D0D0B",
"o7+	c #E2959F",
"p7+	c #FAD4D8",
"q7+	c #B93D52",
"r7+	c #6D030D",
"s7+	c #4E0100",
"t7+	c #420006",
"u7+	c #270206",
"v7+	c #230F07",
"w7+	c #191904",
"x7+	c #153804",
"y7+	c #4E8621",
"z7+	c #E1FBB1",
"A7+	c #D0F5A1",
"B7+	c #51B31E",
"C7+	c #25720C",
"D7+	c #022B02",
"E7+	c #021204",
"F7+	c #010308",
"G7+	c #010406",
"H7+	c #04160C",
"I7+	c #011002",
"J7+	c #275621",
"K7+	c #3B7730",
"L7+	c #0D2404",
"M7+	c #110408",
"N7+	c #7C1125",
"O7+	c #E66683",
"P7+	c #7E0F20",
"Q7+	c #180104",
"R7+	c #6A1520",
"S7+	c #070103",
"T7+	c #000203",
"U7+	c #000104",
"V7+	c #130002",
"W7+	c #130302",
"X7+	c #100502",
"Y7+	c #110702",
"Z7+	c #100600",
"`7+	c #110700",
" 8+	c #0F0C00",
".8+	c #050F06",
"+8+	c #051201",
"@8+	c #081E00",
"#8+	c #003C05",
"$8+	c #066116",
"%8+	c #0B8625",
"&8+	c #27AB5D",
"*8+	c #6CE1B9",
"=8+	c #98FBE3",
"-8+	c #8EE2C4",
";8+	c #459F6C",
">8+	c #239121",
",8+	c #41C02E",
"'8+	c #38C929",
")8+	c #47C33A",
"!8+	c #8FE087",
"~8+	c #84B680",
"{8+	c #2C4A2B",
"]8+	c #0A1501",
"^8+	c #260107",
"/8+	c #3F0608",
"(8+	c #4B0315",
"_8+	c #540212",
":8+	c #6E0819",
"<8+	c #800821",
"[8+	c #840824",
"}8+	c #880620",
"|8+	c #990421",
"18+	c #B00129",
"28+	c #BA0333",
"38+	c #BA0535",
"48+	c #B30E34",
"58+	c #9F2432",
"68+	c #8E2726",
"78+	c #69110F",
"88+	c #503210",
"98+	c #84995E",
"08+	c #3B6B26",
"a8+	c #0F2E02",
"b8+	c #180D06",
"c8+	c #290F13",
"d8+	c #2D1215",
"e8+	c #270D0F",
"f8+	c #280D0E",
"g8+	c #311D1F",
"h8+	c #1B0A0D",
"i8+	c #3A1117",
"j8+	c #4A1A1B",
"k8+	c #5A2024",
"l8+	c #711C23",
"m8+	c #A22129",
"n8+	c #8E221E",
"o8+	c #712B33",
"p8+	c #531E21",
"q8+	c #44171D",
"r8+	c #23060A",
"s8+	c #240507",
"t8+	c #361217",
"u8+	c #291313",
"v8+	c #371E21",
"w8+	c #251416",
"x8+	c #1C0E0E",
"y8+	c #211317",
"z8+	c #1B171B",
"A8+	c #1F0F10",
"B8+	c #201011",
"C8+	c #302526",
"D8+	c #331B1F",
"E8+	c #36090B",
"F8+	c #450E13",
"G8+	c #531B1F",
"H8+	c #67292B",
"I8+	c #691416",
"J8+	c #861E27",
"K8+	c #A74134",
"L8+	c #FBDCCD",
"M8+	c #DA853E",
"N8+	c #7B2128",
"O8+	c #52171E",
"P8+	c #2F0109",
"Q8+	c #280003",
"R8+	c #120301",
"S8+	c #1E0707",
"T8+	c #381C1C",
"U8+	c #311A15",
"V8+	c #301817",
"W8+	c #2B1816",
"X8+	c #292314",
"Y8+	c #152402",
"Z8+	c #143004",
"`8+	c #154405",
" 9+	c #276105",
".9+	c #89AE67",
"+9+	c #F0FBBB",
"@9+	c #C4F085",
"#9+	c #5AB027",
"$9+	c #9CDB73",
"%9+	c #DBFCB7",
"&9+	c #CEEFA4",
"*9+	c #95C95D",
"=9+	c #5CA61A",
"-9+	c #50A111",
";9+	c #5BA91E",
">9+	c #58A215",
",9+	c #518F19",
"'9+	c #377810",
")9+	c #226505",
"!9+	c #1C5A01",
"~9+	c #125604",
"{9+	c #185904",
"]9+	c #1B5E05",
"^9+	c #196406",
"/9+	c #146205",
"(9+	c #0A5503",
"_9+	c #0A5004",
":9+	c #3B7427",
"<9+	c #86C862",
"[9+	c #5A8B33",
"}9+	c #373402",
"|9+	c #5C1B0D",
"19+	c #923833",
"29+	c #F1C7C7",
"39+	c #FEDCE9",
"49+	c #DF6B78",
"59+	c #9C050F",
"69+	c #2D2420",
"79+	c #343E36",
"89+	c #0D1B11",
"99+	c #070C01",
"09+	c #050F01",
"a9+	c #092107",
"b9+	c #092803",
"c9+	c #083702",
"d9+	c #285821",
"e9+	c #A2CD92",
"f9+	c #BBF2A9",
"g9+	c #5CA44D",
"h9+	c #0E4B07",
"i9+	c #022603",
"j9+	c #05370A",
"k9+	c #0F5A07",
"l9+	c #63A343",
"m9+	c #DDF6C2",
"n9+	c #E4F8C2",
"o9+	c #77AB50",
"p9+	c #438B0E",
"q9+	c #284C05",
"r9+	c #291B04",
"s9+	c #620203",
"t9+	c #A74748",
"u9+	c #FCCFD8",
"v9+	c #D88C91",
"w9+	c #8B051B",
"x9+	c #580106",
"y9+	c #23130D",
"z9+	c #121602",
"A9+	c #154106",
"B9+	c #73AC47",
"C9+	c #F3FEC8",
"D9+	c #ACE07B",
"E9+	c #37980E",
"F9+	c #083E04",
"G9+	c #002001",
"H9+	c #000803",
"I9+	c #041C05",
"J9+	c #366F2A",
"K9+	c #559E40",
"L9+	c #0D2B05",
"M9+	c #171A03",
"N9+	c #1E140D",
"O9+	c #0A0006",
"P9+	c #700719",
"Q9+	c #EA7290",
"R9+	c #AA3047",
"S9+	c #470004",
"T9+	c #791C2A",
"U9+	c #2C0104",
"V9+	c #060302",
"W9+	c #070004",
"X9+	c #120503",
"Y9+	c #120904",
"Z9+	c #0C0C03",
"`9+	c #031700",
" 0+	c #014907",
".0+	c #037017",
"+0+	c #088525",
"@0+	c #34B16F",
"#0+	c #75ECC8",
"$0+	c #9EFBE8",
"%0+	c #84CFAC",
"&0+	c #2E8A44",
"*0+	c #22A21F",
"=0+	c #3ACD35",
"-0+	c #3CCB37",
";0+	c #6BC962",
">0+	c #A1DF94",
",0+	c #71A76A",
"'0+	c #174018",
")0+	c #0A120B",
"!0+	c #0E0604",
"~0+	c #200202",
"{0+	c #36050D",
"]0+	c #3F0911",
"^0+	c #46070F",
"/0+	c #4D060C",
"(0+	c #52030A",
"_0+	c #5B050F",
":0+	c #5E0A0F",
"<0+	c #69071C",
"[0+	c #730A25",
"}0+	c #741B1E",
"|0+	c #744A24",
"10+	c #BEBD95",
"20+	c #B0B280",
"30+	c #39360B",
"40+	c #5F7C3D",
"50+	c #DFF7BB",
"60+	c #A0D389",
"70+	c #154207",
"80+	c #132E04",
"90+	c #1A1608",
"00+	c #120501",
"a0+	c #281114",
"b0+	c #2A0F0F",
"c0+	c #311E1E",
"d0+	c #1A090C",
"e0+	c #110001",
"f0+	c #371318",
"g0+	c #48191D",
"h0+	c #701D23",
"i0+	c #EFB19F",
"j0+	c #8E231F",
"k0+	c #722B33",
"l0+	c #562025",
"m0+	c #491519",
"n0+	c #3F1218",
"o0+	c #260506",
"p0+	c #371215",
"q0+	c #2A1416",
"r0+	c #381F23",
"s0+	c #211010",
"t0+	c #211111",
"u0+	c #37191B",
"v0+	c #220405",
"w0+	c #460F14",
"x0+	c #671214",
"y0+	c #D9863D",
"z0+	c #8F161C",
"A0+	c #7A1F26",
"B0+	c #30020B",
"C0+	c #3C1C1B",
"D0+	c #1F0809",
"E0+	c #2F1712",
"F0+	c #311916",
"G0+	c #270E11",
"H0+	c #261811",
"I0+	c #1E1F09",
"J0+	c #192904",
"K0+	c #123A05",
"L0+	c #246203",
"M0+	c #639136",
"N0+	c #E1F4C0",
"O0+	c #D5F8B3",
"P0+	c #84C44C",
"Q0+	c #BBEB80",
"R0+	c #D7FBA2",
"S0+	c #A0D767",
"T0+	c #53A21A",
"U0+	c #4DA116",
"V0+	c #58A522",
"W0+	c #478318",
"X0+	c #26540B",
"Y0+	c #103D0D",
"Z0+	c #113608",
"`0+	c #0C3509",
" a+	c #0A2E03",
".a+	c #0E2601",
"+a+	c #0A2B02",
"@a+	c #083203",
"#a+	c #053402",
"$a+	c #073A03",
"%a+	c #0B4005",
"&a+	c #145807",
"*a+	c #58A63E",
"=a+	c #94DC70",
"-a+	c #558038",
";a+	c #303609",
">a+	c #5F1A08",
",a+	c #7B180C",
"'a+	c #E196A9",
")a+	c #FDE8EB",
"!a+	c #EE9597",
"~a+	c #B11324",
"{a+	c #690107",
"]a+	c #230401",
"^a+	c #261E1B",
"/a+	c #393C38",
"(a+	c #15201B",
"_a+	c #020E04",
":a+	c #080E01",
"<a+	c #091C03",
"[a+	c #032B03",
"}a+	c #043401",
"|a+	c #224D17",
"1a+	c #A4CD93",
"2a+	c #BCF1A2",
"3a+	c #489F37",
"4a+	c #083F04",
"5a+	c #081805",
"6a+	c #072505",
"7a+	c #042A03",
"8a+	c #0A4D03",
"9a+	c #30821C",
"0a+	c #C4E897",
"aa+	c #EFFCCE",
"ba+	c #8EC068",
"ca+	c #409309",
"da+	c #305803",
"ea+	c #221D04",
"fa+	c #240B02",
"ga+	c #270200",
"ha+	c #470102",
"ia+	c #7E0205",
"ja+	c #DD959A",
"ka+	c #F8CCD8",
"la+	c #B33447",
"ma+	c #2E0202",
"na+	c #0F1600",
"oa+	c #1A430A",
"pa+	c #8FC060",
"qa+	c #EEFFBB",
"ra+	c #88C855",
"sa+	c #1F6F02",
"ta+	c #022806",
"ua+	c #021701",
"va+	c #060403",
"wa+	c #010300",
"xa+	c #052304",
"ya+	c #417C31",
"za+	c #6DBD55",
"Aa+	c #103702",
"Ba+	c #1C1C06",
"Ca+	c #1B1808",
"Da+	c #040502",
"Ea+	c #610211",
"Fa+	c #DE6E87",
"Ga+	c #CF5D74",
"Ha+	c #67020F",
"Ia+	c #7B1A2B",
"Ja+	c #4D0915",
"Ka+	c #0E0A06",
"La+	c #031C01",
"Ma+	c #002F01",
"Na+	c #08540C",
"Oa+	c #057F18",
"Pa+	c #06A240",
"Qa+	c #4ACD8C",
"Ra+	c #96F5DA",
"Sa+	c #A7F2E2",
"Ta+	c #67B793",
"Ua+	c #0E8D27",
"Va+	c #2FB630",
"Wa+	c #44D43D",
"Xa+	c #3CC332",
"Ya+	c #82DB7B",
"Za+	c #9DDA92",
"`a+	c #537F47",
" b+	c #11290C",
".b+	c #091906",
"+b+	c #0E0E03",
"@b+	c #100805",
"#b+	c #160404",
"$b+	c #1D0405",
"%b+	c #350C0E",
"&b+	c #3C0F0F",
"*b+	c #3E120C",
"=b+	c #461417",
"-b+	c #4F1423",
";b+	c #47221D",
">b+	c #495520",
",b+	c #C4D6A9",
"'b+	c #F7F8E7",
")b+	c #D6F2B9",
"!b+	c #477E25",
"~b+	c #78B952",
"{b+	c #F3F7D7",
"]b+	c #E1F4D3",
"^b+	c #306F22",
"/b+	c #1B3005",
"(b+	c #1D1B06",
"_b+	c #140904",
":b+	c #140303",
"<b+	c #291316",
"[b+	c #2D1417",
"}b+	c #2B1113",
"|b+	c #2D1212",
"1b+	c #321F1F",
"2b+	c #1A0A0C",
"3b+	c #4A191E",
"4b+	c #5C2227",
"5b+	c #721D23",
"6b+	c #A2222A",
"7b+	c #F0B19F",
"8b+	c #F3C9B3",
"9b+	c #8F2420",
"0b+	c #712931",
"ab+	c #481418",
"bb+	c #40141A",
"cb+	c #291215",
"db+	c #130507",
"eb+	c #2F2423",
"fb+	c #221212",
"gb+	c #211417",
"hb+	c #1C0E10",
"ib+	c #1E0E0F",
"jb+	c #211112",
"kb+	c #201010",
"lb+	c #2F2425",
"mb+	c #2F1114",
"nb+	c #2B0D0F",
"ob+	c #230506",
"pb+	c #36090A",
"qb+	c #440D12",
"rb+	c #640F11",
"sb+	c #831B24",
"tb+	c #A64136",
"ub+	c #D8853F",
"vb+	c #91171E",
"wb+	c #50151C",
"xb+	c #2F010A",
"yb+	c #361B19",
"zb+	c #20080A",
"Ab+	c #391D1D",
"Bb+	c #311914",
"Cb+	c #2D1411",
"Db+	c #2B1412",
"Eb+	c #221A0C",
"Fb+	c #172303",
"Gb+	c #1B3202",
"Hb+	c #17490A",
"Ib+	c #3F7D06",
"Jb+	c #C9E1A0",
"Kb+	c #F1FBD6",
"Lb+	c #A0DF5F",
"Mb+	c #C1F286",
"Nb+	c #BFF083",
"Ob+	c #70BD36",
"Pb+	c #469D17",
"Qb+	c #57AE29",
"Rb+	c #438C1C",
"Sb+	c #114902",
"Tb+	c #082A02",
"Ub+	c #09200A",
"Vb+	c #0F0B00",
"Wb+	c #080F00",
"Xb+	c #002B05",
"Yb+	c #044709",
"Zb+	c #0E5D03",
"`b+	c #116606",
" c+	c #1A7510",
".c+	c #2F8721",
"+c+	c #61AE45",
"@c+	c #94DD6F",
"#c+	c #8CD56A",
"$c+	c #3B6418",
"%c+	c #493307",
"&c+	c #501E0B",
"*c+	c #620F09",
"=c+	c #B45E5C",
"-c+	c #FDDDE9",
";c+	c #FCB6C9",
">c+	c #C92732",
",c+	c #6A0606",
"'c+	c #490008",
")c+	c #380208",
"!c+	c #271312",
"~c+	c #333E37",
"{c+	c #1E2923",
"]c+	c #020F02",
"^c+	c #091B03",
"/c+	c #0A2705",
"(c+	c #003500",
"_c+	c #1A4D0E",
":c+	c #9ACA87",
"<c+	c #BAF4A6",
"[c+	c #4D9C3C",
"}c+	c #043F02",
"|c+	c #011609",
"1c+	c #011F04",
"2c+	c #032602",
"3c+	c #156405",
"4c+	c #88C468",
"5c+	c #E8FEC9",
"6c+	c #BCDE88",
"7c+	c #3E9710",
"8c+	c #24720C",
"9c+	c #1A260B",
"0c+	c #230E04",
"ac+	c #210500",
"bc+	c #9E2C32",
"cc+	c #F9D1DC",
"dc+	c #E297A7",
"ec+	c #93061E",
"fc+	c #590100",
"gc+	c #3A0001",
"hc+	c #1E0F03",
"ic+	c #121700",
"jc+	c #9CC96B",
"kc+	c #E4FDAF",
"lc+	c #63AD35",
"mc+	c #0C4801",
"nc+	c #021905",
"oc+	c #021001",
"pc+	c #030B06",
"qc+	c #030808",
"rc+	c #040700",
"sc+	c #052906",
"tc+	c #407D2D",
"uc+	c #86D366",
"vc+	c #154401",
"wc+	c #1E2405",
"xc+	c #150C03",
"yc+	c #080306",
"zc+	c #49020A",
"Ac+	c #C35D6E",
"Bc+	c #EE96AB",
"Cc+	c #911326",
"Dc+	c #1F0300",
"Ec+	c #6E0418",
"Fc+	c #781F2F",
"Gc+	c #2F060F",
"Hc+	c #230509",
"Ic+	c #020103",
"Jc+	c #050105",
"Kc+	c #030004",
"Lc+	c #050303",
"Mc+	c #050801",
"Nc+	c #030F01",
"Oc+	c #011B02",
"Pc+	c #033B02",
"Qc+	c #0E6E0F",
"Rc+	c #069122",
"Sc+	c #1AA552",
"Tc+	c #6BD7B3",
"Uc+	c #9EFAEB",
"Vc+	c #93EDCE",
"Wc+	c #44A46D",
"Xc+	c #188622",
"Yc+	c #3BBD39",
"Zc+	c #34C428",
"`c+	c #5DC747",
" d+	c #A9EB93",
".d+	c #92CC81",
"+d+	c #33652E",
"@d+	c #0B1301",
"#d+	c #0B0C01",
"$d+	c #120902",
"%d+	c #110B04",
"&d+	c #120A04",
"*d+	c #180905",
"=d+	c #1C0704",
"-d+	c #1D0703",
";d+	c #220804",
">d+	c #250A04",
",d+	c #212F01",
"'d+	c #88BC5A",
")d+	c #E3FDC2",
"!d+	c #FAFAE0",
"~d+	c #D2F8AA",
"{d+	c #4F9D24",
"]d+	c #6FC443",
"^d+	c #EEFADD",
"/d+	c #539C3E",
"(d+	c #203209",
"_d+	c #1F2109",
":d+	c #140B04",
"<d+	c #110203",
"[d+	c #291518",
"}d+	c #2D1618",
"|d+	c #280E10",
"1d+	c #290E0E",
"2d+	c #2C1110",
"3d+	c #321E1E",
"4d+	c #39151A",
"5d+	c #5E2228",
"6d+	c #741D24",
"7d+	c #A3212A",
"8d+	c #F0B09E",
"9d+	c #912623",
"0d+	c #731C22",
"ad+	c #722A33",
"bd+	c #501A1F",
"cd+	c #481317",
"dd+	c #391317",
"ed+	c #200F10",
"fd+	c #140A10",
"gd+	c #0E0306",
"hd+	c #37221F",
"id+	c #1F0F0F",
"jd+	c #390C0D",
"kd+	c #541C20",
"ld+	c #692C2D",
"md+	c #831B25",
"nd+	c #A54031",
"od+	c #FBDCCC",
"pd+	c #D88439",
"qd+	c #7A2027",
"rd+	c #51161D",
"sd+	c #3D1D1C",
"td+	c #341918",
"ud+	c #1F0708",
"vd+	c #301712",
"wd+	c #2F1612",
"xd+	c #28140F",
"yd+	c #1D1A08",
"zd+	c #152901",
"Ad+	c #173801",
"Bd+	c #255D09",
"Cd+	c #84B04C",
"Dd+	c #E7F7C2",
"Ed+	c #CBF587",
"Fd+	c #9DDB5E",
"Gd+	c #52AD13",
"Hd+	c #50AB17",
"Id+	c #4E8D22",
"Jd+	c #1F4C07",
"Kd+	c #052A01",
"Ld+	c #041A07",
"Md+	c #010D07",
"Nd+	c #062E03",
"Od+	c #548D36",
"Pd+	c #93D561",
"Qd+	c #9FE177",
"Rd+	c #ADE881",
"Sd+	c #B0EA84",
"Td+	c #A9E882",
"Ud+	c #8FD16E",
"Vd+	c #649945",
"Wd+	c #3C530D",
"Xd+	c #453506",
"Yd+	c #502001",
"Zd+	c #590E01",
"`d+	c #7F2D2D",
" e+	c #EFBBC4",
".e+	c #FEDBDD",
"+e+	c #D55B66",
"@e+	c #93030E",
"#e+	c #4D0207",
"$e+	c #271006",
"%e+	c #302C2C",
"&e+	c #27322D",
"*e+	c #040D05",
"=e+	c #040B01",
"-e+	c #082A04",
";e+	c #033001",
">e+	c #1B4B11",
",e+	c #96C77E",
"'e+	c #BFF6A6",
")e+	c #5D9D50",
"!e+	c #033F02",
"~e+	c #041506",
"{e+	c #041E08",
"]e+	c #0A2A06",
"^e+	c #0C5106",
"/e+	c #3C8722",
"(e+	c #DEF5BB",
"_e+	c #DBF7BC",
":e+	c #5DAB2C",
"<e+	c #397F11",
"[e+	c #1A3403",
"}e+	c #1B1605",
"|e+	c #240605",
"1e+	c #480101",
"2e+	c #6B0102",
"3e+	c #C8777A",
"4e+	c #FED7ED",
"5e+	c #BE4C60",
"6e+	c #72010A",
"7e+	c #590001",
"8e+	c #4D0002",
"9e+	c #3C0002",
"0e+	c #2A0201",
"ae+	c #200A05",
"be+	c #131400",
"ce+	c #163E03",
"de+	c #98CA66",
"ee+	c #D8FBA3",
"fe+	c #4D9627",
"ge+	c #052D01",
"he+	c #031000",
"ie+	c #010B01",
"je+	c #010501",
"ke+	c #02120A",
"le+	c #030A0C",
"me+	c #030702",
"ne+	c #052D0A",
"oe+	c #072F09",
"pe+	c #387324",
"qe+	c #A7E37D",
"re+	c #285B0B",
"se+	c #1B2D04",
"te+	c #140803",
"ue+	c #0D0208",
"ve+	c #0B0602",
"we+	c #180106",
"xe+	c #310308",
"ye+	c #9C293C",
"ze+	c #F8AFC4",
"Ae+	c #C0545E",
"Be+	c #7F0213",
"Ce+	c #4F0109",
"De+	c #872333",
"Ee+	c #440610",
"Fe+	c #230306",
"Ge+	c #4D111E",
"He+	c #200104",
"Ie+	c #040403",
"Je+	c #050904",
"Ke+	c #041103",
"Le+	c #024A0B",
"Me+	c #067A16",
"Ne+	c #078D24",
"Oe+	c #37B16E",
"Pe+	c #80E3C5",
"Qe+	c #AEFAE9",
"Re+	c #87D7B0",
"Se+	c #38934D",
"Te+	c #249826",
"Ue+	c #37BA2F",
"Ve+	c #3BC226",
"We+	c #75D45F",
"Xe+	c #A0E896",
"Ye+	c #7FB578",
"Ze+	c #285628",
"`e+	c #042B03",
" f+	c #081700",
".f+	c #081100",
"+f+	c #091001",
"@f+	c #151004",
"#f+	c #14170A",
"$f+	c #141D08",
"%f+	c #192409",
"&f+	c #193E03",
"*f+	c #3E851A",
"=f+	c #87D751",
"-f+	c #ADF37B",
";f+	c #7BCC4F",
">f+	c #1D7704",
",f+	c #318A13",
"'f+	c #ADED83",
")f+	c #DDFFB7",
"!f+	c #64AE44",
"~f+	c #1B350B",
"{f+	c #1B210D",
"]f+	c #160F07",
"^f+	c #281617",
"/f+	c #2B1617",
"(f+	c #2A1113",
"_f+	c #2B1010",
":f+	c #2B100F",
"<f+	c #331F1F",
"[f+	c #48151B",
"}f+	c #5E2027",
"|f+	c #751C24",
"1f+	c #A41F29",
"2f+	c #EFAF9D",
"3f+	c #932824",
"4f+	c #722A32",
"5f+	c #4F191E",
"6f+	c #471216",
"7f+	c #43161C",
"8f+	c #381216",
"9f+	c #1D0F0F",
"0f+	c #351E21",
"af+	c #3B0C0F",
"bf+	c #450D12",
"cf+	c #671316",
"df+	c #A63F36",
"ef+	c #FADACB",
"ff+	c #D78856",
"gf+	c #8F171C",
"hf+	c #771F25",
"if+	c #30010A",
"jf+	c #1C0708",
"kf+	c #371F1F",
"lf+	c #311614",
"mf+	c #2E1513",
"nf+	c #1E1108",
"of+	c #191F05",
"pf+	c #132C01",
"qf+	c #174201",
"rf+	c #36780B",
"sf+	c #C0E297",
"tf+	c #FDF9E8",
"uf+	c #DDFBA4",
"vf+	c #93D840",
"wf+	c #61B31D",
"xf+	c #559B1F",
"yf+	c #386713",
"zf+	c #093403",
"Af+	c #071802",
"Bf+	c #060D07",
"Cf+	c #000407",
"Df+	c #447E27",
"Ef+	c #ABE576",
"Ff+	c #8ECA63",
"Gf+	c #6CB14D",
"Hf+	c #569839",
"If+	c #417C20",
"Jf+	c #326A04",
"Kf+	c #316404",
"Lf+	c #3C540A",
"Mf+	c #423002",
"Nf+	c #482105",
"Of+	c #4B1307",
"Pf+	c #6D0C0A",
"Qf+	c #D49396",
"Rf+	c #FFE4EC",
"Sf+	c #EA8C96",
"Tf+	c #9A1014",
"Uf+	c #570406",
"Vf+	c #4B000B",
"Wf+	c #250905",
"Xf+	c #242E20",
"Yf+	c #2B3831",
"Zf+	c #091409",
"`f+	c #081300",
" g+	c #062701",
".g+	c #032B0A",
"+g+	c #0C4006",
"@g+	c #95B872",
"#g+	c #C8FCAD",
"$g+	c #6DAF5F",
"%g+	c #0C3A05",
"&g+	c #021F00",
"*g+	c #12350B",
"=g+	c #085E03",
"-g+	c #9AC874",
";g+	c #F4FCD6",
">g+	c #A3D679",
",g+	c #419214",
"'g+	c #2A4F05",
")g+	c #251A02",
"!g+	c #200900",
"~g+	c #240007",
"{g+	c #300000",
"]g+	c #3A0304",
"^g+	c #580109",
"/g+	c #801311",
"(g+	c #EDB2BF",
"_g+	c #EEB4C4",
":g+	c #A00F21",
"<g+	c #660104",
"[g+	c #540203",
"}g+	c #650405",
"|g+	c #6D020E",
"1g+	c #540304",
"2g+	c #2E0105",
"3g+	c #230505",
"4g+	c #160C00",
"5g+	c #153101",
"6g+	c #6CA148",
"7g+	c #B4ED8B",
"8g+	c #2C6D13",
"9g+	c #021B04",
"0g+	c #020601",
"ag+	c #000701",
"bg+	c #04170E",
"cg+	c #01130B",
"dg+	c #032C0F",
"eg+	c #06370C",
"fg+	c #2C661C",
"gg+	c #BCED8E",
"hg+	c #467621",
"ig+	c #1C3B02",
"jg+	c #180F05",
"kg+	c #0E0301",
"lg+	c #0E0705",
"mg+	c #770415",
"ng+	c #E18E9B",
"og+	c #EFA7BB",
"pg+	c #A2132B",
"qg+	c #5A0003",
"rg+	c #330308",
"sg+	c #700E1F",
"tg+	c #7F1A2E",
"ug+	c #3F040E",
"vg+	c #540A1A",
"wg+	c #160201",
"xg+	c #010500",
"yg+	c #040203",
"zg+	c #060306",
"Ag+	c #041800",
"Bg+	c #022C02",
"Cg+	c #04570B",
"Dg+	c #057B15",
"Eg+	c #049535",
"Fg+	c #3DC07A",
"Gg+	c #93EEC5",
"Hg+	c #B5F6D8",
"Ig+	c #82CA9E",
"Jg+	c #2C933E",
"Kg+	c #2D9E26",
"Lg+	c #34B42D",
"Mg+	c #46BE3F",
"Ng+	c #89D981",
"Og+	c #A9E9A5",
"Pg+	c #72A972",
"Qg+	c #165319",
"Rg+	c #032E03",
"Sg+	c #052604",
"Tg+	c #031E02",
"Ug+	c #011A01",
"Vg+	c #031900",
"Wg+	c #0D1A02",
"Xg+	c #0A1D01",
"Yg+	c #081E01",
"Zg+	c #0A2502",
"`g+	c #0B3D02",
" h+	c #1E7304",
".h+	c #2B8110",
"+h+	c #1B6C02",
"@h+	c #155B05",
"#h+	c #176602",
"$h+	c #58B530",
"%h+	c #A4F273",
"&h+	c #579D30",
"*h+	c #193504",
"=h+	c #191F0A",
"-h+	c #18110A",
";h+	c #130605",
">h+	c #2D1518",
",h+	c #260C0C",
"'h+	c #352020",
")h+	c #1B090C",
"!h+	c #38141A",
"~h+	c #612429",
"{h+	c #741C24",
"]h+	c #A31F28",
"^h+	c #EEAD9B",
"/h+	c #F3C9B2",
"(h+	c #922723",
"_h+	c #732C34",
":h+	c #481318",
"<h+	c #41141A",
"[h+	c #381116",
"}h+	c #2B1316",
"|h+	c #371D22",
"1h+	c #312323",
"2h+	c #221011",
"3h+	c #180D12",
"4h+	c #1D0705",
"5h+	c #1E0F10",
"6h+	c #1E0F0F",
"7h+	c #37070C",
"8h+	c #460C12",
"9h+	c #561F21",
"0h+	c #682C2C",
"ah+	c #651216",
"bh+	c #811E24",
"ch+	c #A73E39",
"dh+	c #FAD9CA",
"eh+	c #D1803B",
"fh+	c #8D151A",
"gh+	c #761E24",
"hh+	c #3D1C1C",
"ih+	c #190506",
"jh+	c #341D1D",
"kh+	c #331718",
"lh+	c #2B1514",
"mh+	c #140D02",
"nh+	c #1B4C02",
"oh+	c #549128",
"ph+	c #DFF8BE",
"qh+	c #F8FCC9",
"rh+	c #A6DC66",
"sh+	c #6BC320",
"th+	c #559D1C",
"uh+	c #1C4D02",
"vh+	c #021902",
"wh+	c #104803",
"xh+	c #8AD665",
"yh+	c #6FB746",
"zh+	c #268013",
"Ah+	c #237E03",
"Bh+	c #2D7906",
"Ch+	c #357307",
"Dh+	c #397205",
"Eh+	c #3B7008",
"Fh+	c #3D600A",
"Gh+	c #463703",
"Hh+	c #4A1600",
"Ih+	c #540E03",
"Jh+	c #B25058",
"Kh+	c #FCE1DE",
"Lh+	c #F9BFC5",
"Mh+	c #BC2B3B",
"Nh+	c #730206",
"Oh+	c #330406",
"Ph+	c #261D14",
"Qh+	c #304336",
"Rh+	c #112016",
"Sh+	c #040F01",
"Th+	c #051103",
"Uh+	c #022304",
"Vh+	c #033907",
"Wh+	c #79A363",
"Xh+	c #D1F8AB",
"Yh+	c #84C26E",
"Zh+	c #0A450C",
"`h+	c #030E03",
" i+	c #051702",
".i+	c #032400",
"+i+	c #2A7715",
"@i+	c #D1EFAE",
"#i+	c #E5F8BC",
"$i+	c #5EAA2F",
"%i+	c #3D730C",
"&i+	c #213000",
"*i+	c #230E02",
"=i+	c #470304",
"-i+	c #630308",
";i+	c #BB5158",
">i+	c #FDD4E4",
",i+	c #D06C7A",
"'i+	c #83030A",
")i+	c #5F0205",
"!i+	c #89212B",
"~i+	c #D78392",
"{i+	c #7E1F28",
"]i+	c #4F0101",
"^i+	c #300008",
"/i+	c #240304",
"(i+	c #1A0501",
"_i+	c #151E01",
":i+	c #224E0F",
"<i+	c #56923F",
"[i+	c #093601",
"}i+	c #040304",
"|i+	c #051B0F",
"1i+	c #052010",
"2i+	c #03260D",
"3i+	c #083C10",
"4i+	c #1A5410",
"5i+	c #BCEB8F",
"6i+	c #709E45",
"7i+	c #264902",
"8i+	c #141804",
"9i+	c #110602",
"0i+	c #0C0602",
"ai+	c #120504",
"bi+	c #560105",
"ci+	c #B33B4C",
"di+	c #FAC3D5",
"ei+	c #D57286",
"fi+	c #790716",
"gi+	c #520109",
"hi+	c #851A2E",
"ii+	c #5B0E1C",
"ji+	c #480813",
"ki+	c #480C15",
"li+	c #0D0901",
"mi+	c #051000",
"ni+	c #061B02",
"oi+	c #043503",
"pi+	c #015A08",
"qi+	c #03801F",
"ri+	c #14A045",
"si+	c #5BCB92",
"ti+	c #A0F6D4",
"ui+	c #AAF3D9",
"vi+	c #6FC392",
"wi+	c #1A8D2B",
"xi+	c #229D2A",
"yi+	c #2DB137",
"zi+	c #47B747",
"Ai+	c #92E28D",
"Bi+	c #9EE69F",
"Ci+	c #55AA5D",
"Di+	c #096114",
"Ei+	c #01520D",
"Fi+	c #02510F",
"Gi+	c #02510D",
"Hi+	c #03530A",
"Ii+	c #015609",
"Ji+	c #005809",
"Ki+	c #035B0B",
"Li+	c #0B5E0F",
"Mi+	c #115F13",
"Ni+	c #115C0F",
"Oi+	c #0F590A",
"Pi+	c #0E5807",
"Qi+	c #0D5A06",
"Ri+	c #146C03",
"Si+	c #378E1B",
"Ti+	c #276114",
"Ui+	c #14260A",
"Vi+	c #18190A",
"Wi+	c #18120A",
"Xi+	c #2B1618",
"Yi+	c #2E1618",
"Zi+	c #351E1F",
"`i+	c #1A070A",
" j+	c #37141B",
".j+	c #3B1319",
"+j+	c #481616",
"@j+	c #5D2125",
"#j+	c #EEAE9C",
"$j+	c #902420",
"%j+	c #721A20",
"&j+	c #511B20",
"*j+	c #3F1319",
"=j+	c #2A0C0F",
"-j+	c #2C1316",
";j+	c #361C21",
">j+	c #302122",
",j+	c #231012",
"'j+	c #1F1313",
")j+	c #170C10",
"!j+	c #0D0303",
"~j+	c #302626",
"{j+	c #390A0F",
"]j+	c #480F15",
"^j+	c #572022",
"/j+	c #6A2E2E",
"(j+	c #641115",
"_j+	c #832025",
":j+	c #A94038",
"<j+	c #FBD9CA",
"[j+	c #761F25",
"}j+	c #31020A",
"|j+	c #180506",
"1j+	c #331D1D",
"2j+	c #301515",
"3j+	c #25110F",
"4j+	c #140F03",
"5j+	c #111E01",
"6j+	c #143003",
"7j+	c #205404",
"8j+	c #8DB75D",
"9j+	c #EDFDCE",
"0j+	c #D9F890",
"aj+	c #8AD83C",
"bj+	c #4C9719",
"cj+	c #174D00",
"dj+	c #021F03",
"ej+	c #031008",
"fj+	c #022E03",
"gj+	c #43922F",
"hj+	c #90E65F",
"ij+	c #4CA81F",
"jj+	c #4F901F",
"kj+	c #52941A",
"lj+	c #4F8D17",
"mj+	c #538B1C",
"nj+	c #55851B",
"oj+	c #507616",
"pj+	c #3E5E10",
"qj+	c #412701",
"rj+	c #530C01",
"sj+	c #7B201C",
"tj+	c #EDB5BB",
"uj+	c #FDE3E0",
"vj+	c #DE636E",
"wj+	c #91040F",
"xj+	c #2F3D2D",
"yj+	c #1F3525",
"zj+	c #061003",
"Aj+	c #081C01",
"Bj+	c #022F0D",
"Cj+	c #033405",
"Dj+	c #558C39",
"Ej+	c #C6F59D",
"Fj+	c #9DD186",
"Gj+	c #104E06",
"Hj+	c #011402",
"Ij+	c #010E02",
"Jj+	c #030D03",
"Kj+	c #0D4007",
"Lj+	c #67A241",
"Mj+	c #E3FDCA",
"Nj+	c #C0E48F",
"Oj+	c #468C11",
"Pj+	c #325101",
"Qj+	c #251D01",
"Rj+	c #240403",
"Sj+	c #3A020A",
"Tj+	c #580204",
"Uj+	c #810C10",
"Vj+	c #EAA1B0",
"Wj+	c #FAC7D3",
"Xj+	c #AF1A34",
"Yj+	c #6C0305",
"Zj+	c #6A0006",
"`j+	c #AC4452",
" k+	c #FEC8D2",
".k+	c #AB404F",
"+k+	c #590201",
"@k+	c #230204",
"#k+	c #1C0206",
"$k+	c #140D03",
"%k+	c #132204",
"&k+	c #050E01",
"*k+	c #050403",
"=k+	c #010203",
"-k+	c #02170B",
";k+	c #0E2A1A",
">k+	c #010C03",
",k+	c #011805",
"'k+	c #0D3C13",
")k+	c #0B4804",
"!k+	c #A7D97D",
"~k+	c #98C568",
"{k+	c #335805",
"]k+	c #112901",
"^k+	c #110804",
"/k+	c #0E0805",
"(k+	c #100604",
"_k+	c #150A06",
":k+	c #200100",
"<k+	c #8F0417",
"[k+	c #E3828E",
"}k+	c #F8C9DB",
"|k+	c #AA3C57",
"1k+	c #670306",
"2k+	c #5A0413",
"3k+	c #8C1934",
"4k+	c #4E0414",
"5k+	c #3D0812",
"6k+	c #0E0402",
"7k+	c #0E0401",
"8k+	c #070E05",
"9k+	c #014005",
"0k+	c #046B14",
"ak+	c #069124",
"bk+	c #16AD4F",
"ck+	c #5CDAA3",
"dk+	c #99F8D8",
"ek+	c #A0EFD5",
"fk+	c #71C194",
"gk+	c #34A34C",
"hk+	c #24B02F",
"ik+	c #24AA31",
"jk+	c #2F9D42",
"kk+	c #37A54A",
"lk+	c #168934",
"mk+	c #107C34",
"nk+	c #0F7432",
"ok+	c #0C6F2D",
"pk+	c #096D29",
"qk+	c #057029",
"rk+	c #04742A",
"sk+	c #06772A",
"tk+	c #087428",
"uk+	c #0D7125",
"vk+	c #0D7027",
"wk+	c #0C6D27",
"xk+	c #0B6926",
"yk+	c #0E6425",
"zk+	c #0D6221",
"Ak+	c #085513",
"Bk+	c #043F06",
"Ck+	c #062802",
"Dk+	c #18140B",
"Ek+	c #130706",
"Fk+	c #291618",
"Gk+	c #271011",
"Hk+	c #29100F",
"Ik+	c #361F20",
"Jk+	c #1A080A",
"Kk+	c #4C191A",
"Lk+	c #5E2226",
"Mk+	c #A4212A",
"Nk+	c #722B34",
"Ok+	c #401319",
"Pk+	c #391216",
"Qk+	c #2B1215",
"Rk+	c #351A1F",
"Sk+	c #130506",
"Tk+	c #312122",
"Uk+	c #231113",
"Vk+	c #1F0E0F",
"Wk+	c #231111",
"Xk+	c #180E12",
"Yk+	c #34201C",
"Zk+	c #1D0D0E",
"`k+	c #210204",
" l+	c #39090E",
".l+	c #470E14",
"+l+	c #541D1F",
"@l+	c #661417",
"#l+	c #801D23",
"$l+	c #D28139",
"%l+	c #8D1519",
"&l+	c #751E24",
"*l+	c #551A21",
"=l+	c #32030C",
"-l+	c #160304",
";l+	c #341D1E",
">l+	c #2C1312",
",l+	c #1B0807",
"'l+	c #181508",
")l+	c #0E1D01",
"!l+	c #143104",
"~l+	c #225508",
"{l+	c #BDDA85",
"]l+	c #AFE169",
"^l+	c #4C9015",
"/l+	c #1D4E04",
"(l+	c #022101",
"_l+	c #010D08",
":l+	c #041202",
"<l+	c #245C1C",
"[l+	c #7ACB5D",
"}l+	c #7BBC47",
"|l+	c #487E19",
"1l+	c #354D08",
"2l+	c #243506",
"3l+	c #172C00",
"4l+	c #172602",
"5l+	c #1F2004",
"6l+	c #2A1B06",
"7l+	c #351806",
"8l+	c #4C0A06",
"9l+	c #62090A",
"0l+	c #C2726F",
"al+	c #FCECE6",
"bl+	c #F5A4AF",
"cl+	c #B31324",
"dl+	c #380103",
"el+	c #250A07",
"fl+	c #272B1F",
"gl+	c #293E2D",
"hl+	c #051706",
"il+	c #060E02",
"jl+	c #061401",
"kl+	c #033002",
"ll+	c #2B6521",
"ml+	c #B6E886",
"nl+	c #B7E68E",
"ol+	c #2F6822",
"pl+	c #042005",
"ql+	c #001600",
"rl+	c #020B05",
"sl+	c #041701",
"tl+	c #082E01",
"ul+	c #0E4508",
"vl+	c #9BC56E",
"wl+	c #ECFFD4",
"xl+	c #8EC454",
"yl+	c #42770A",
"zl+	c #303200",
"Al+	c #2C1003",
"Bl+	c #2C0106",
"Cl+	c #2B0402",
"Dl+	c #300201",
"El+	c #4A0208",
"Fl+	c #B7545B",
"Gl+	c #FADFE7",
"Hl+	c #DC7D92",
"Il+	c #890212",
"Jl+	c #630003",
"Kl+	c #670005",
"Ll+	c #B64B59",
"Ml+	c #FCD3DA",
"Nl+	c #AA3C4E",
"Ol+	c #1E0005",
"Pl+	c #130D07",
"Ql+	c #0D0904",
"Rl+	c #180B03",
"Sl+	c #011006",
"Tl+	c #142F21",
"Ul+	c #011308",
"Vl+	c #020C02",
"Wl+	c #0E3A15",
"Xl+	c #83B561",
"Yl+	c #BAE98A",
"Zl+	c #3A6704",
"`l+	c #164000",
" m+	c #120602",
".m+	c #150B03",
"+m+	c #1D0704",
"@m+	c #310105",
"#m+	c #640107",
"$m+	c #AB1E2D",
"%m+	c #F1B7C8",
"&m+	c #EBB5C5",
"*m+	c #931F2C",
"=m+	c #5D030B",
"-m+	c #420305",
";m+	c #6F041A",
">m+	c #81152C",
",m+	c #43060F",
"'m+	c #34030A",
")m+	c #390410",
"!m+	c #170303",
"~m+	c #0D0700",
"{m+	c #081102",
"]m+	c #032B04",
"^m+	c #034E03",
"/m+	c #057210",
"(m+	c #02922A",
"_m+	c #1FB05B",
":m+	c #6CD7AA",
"<m+	c #B0F7DE",
"[m+	c #B6F8E6",
"}m+	c #99DECC",
"|m+	c #86D3BC",
"1m+	c #86CFB3",
"2m+	c #91D7BB",
"3m+	c #95DDC6",
"4m+	c #9AE2D1",
"5m+	c #A0E3D4",
"6m+	c #A7E3D6",
"7m+	c #B2E5DF",
"8m+	c #AFE7DF",
"9m+	c #AAE8DD",
"0m+	c #A9E9DC",
"am+	c #AAEADC",
"bm+	c #ABEADC",
"cm+	c #ABEBDC",
"dm+	c #ACEBDC",
"em+	c #B0ECDD",
"fm+	c #A5EDD9",
"gm+	c #A9E2C8",
"hm+	c #91D1A4",
"im+	c #377949",
"jm+	c #101903",
"km+	c #17130B",
"lm+	c #110705",
"mm+	c #291416",
"nm+	c #261011",
"om+	c #2E1413",
"pm+	c #351E20",
"qm+	c #1C090D",
"rm+	c #37141A",
"sm+	c #4B1819",
"tm+	c #EEAB98",
"um+	c #F4C8B2",
"vm+	c #491419",
"wm+	c #3E1118",
"xm+	c #371115",
"ym+	c #2C0E11",
"zm+	c #371D21",
"Am+	c #140507",
"Bm+	c #322324",
"Cm+	c #241113",
"Dm+	c #1D1111",
"Em+	c #170D11",
"Fm+	c #470E13",
"Gm+	c #50191B",
"Hm+	c #A94233",
"Im+	c #D38139",
"Jm+	c #8E151A",
"Km+	c #3C1C1C",
"Lm+	c #170304",
"Mm+	c #361F1F",
"Nm+	c #2B1211",
"Om+	c #160503",
"Pm+	c #171507",
"Qm+	c #0A1B00",
"Rm+	c #113002",
"Sm+	c #23500C",
"Tm+	c #D2EC94",
"Um+	c #D3EDA6",
"Vm+	c #5A922E",
"Wm+	c #1A4107",
"Xm+	c #081E04",
"Ym+	c #1C4011",
"Zm+	c #295314",
"`m+	c #1C3804",
" n+	c #202106",
".n+	c #162102",
"+n+	c #162501",
"@n+	c #122901",
"#n+	c #152801",
"$n+	c #201E00",
"%n+	c #271603",
"&n+	c #380D03",
"*n+	c #4A0E01",
"=n+	c #891F2A",
"-n+	c #F2BEC8",
";n+	c #FDD5DD",
">n+	c #CF4659",
",n+	c #7F0208",
"'n+	c #440006",
")n+	c #221912",
"!n+	c #2D3C2D",
"~n+	c #102011",
"{n+	c #080D01",
"]n+	c #082504",
"^n+	c #063309",
"/n+	c #0F4A04",
"(n+	c #97C96E",
"_n+	c #CDF7A1",
":n+	c #598E45",
"<n+	c #052B01",
"[n+	c #031106",
"}n+	c #020803",
"|n+	c #062E01",
"1n+	c #155404",
"2n+	c #BFDE9E",
"3n+	c #EAFCCE",
"4n+	c #65AA26",
"5n+	c #3C5F0D",
"6n+	c #332100",
"7n+	c #300902",
"8n+	c #300200",
"9n+	c #370102",
"0n+	c #EEBAC7",
"an+	c #F9C1D2",
"bn+	c #A7293F",
"cn+	c #610304",
"dn+	c #4C0206",
"en+	c #6B0004",
"fn+	c #B94650",
"gn+	c #FECCD2",
"hn+	c #A84453",
"in+	c #5C0200",
"jn+	c #344126",
"kn+	c #222409",
"ln+	c #070505",
"mn+	c #173325",
"nn+	c #042115",
"on+	c #083211",
"pn+	c #054009",
"qn+	c #467F32",
"rn+	c #CDF89D",
"sn+	c #639535",
"tn+	c #265A00",
"un+	c #110704",
"vn+	c #170903",
"wn+	c #150C02",
"xn+	c #1A0B07",
"yn+	c #260106",
"zn+	c #75040B",
"An+	c #C04A59",
"Bn+	c #F3D8D9",
"Cn+	c #DD9CAD",
"Dn+	c #7E1018",
"En+	c #5A0209",
"Fn+	c #6E0919",
"Gn+	c #7A1226",
"Hn+	c #470511",
"In+	c #300208",
"Jn+	c #33060D",
"Kn+	c #1F040A",
"Ln+	c #110005",
"Mn+	c #0C0004",
"Nn+	c #030205",
"On+	c #0C0601",
"Pn+	c #050E03",
"Qn+	c #031705",
"Rn+	c #022703",
"Sn+	c #024706",
"Tn+	c #047018",
"Un+	c #069730",
"Vn+	c #25AE5E",
"Wn+	c #55D097",
"Xn+	c #8BECC8",
"Yn+	c #AEF6DE",
"Zn+	c #B6F4E3",
"`n+	c #ABF0DA",
" o+	c #A5F0DA",
".o+	c #A1F0DA",
"+o+	c #A2EED6",
"@o+	c #A5ECD4",
"#o+	c #A3EBD6",
"$o+	c #9CEAD3",
"%o+	c #96ECD0",
"&o+	c #94ECCE",
"*o+	c #94EBCF",
"=o+	c #97E9D3",
"-o+	c #99EBD3",
";o+	c #9BEBD2",
">o+	c #9DECD1",
",o+	c #A8EDD0",
"'o+	c #A4ECCA",
")o+	c #BAEFC4",
"!o+	c #B1FCB2",
"~o+	c #3B894A",
"{o+	c #111906",
"]o+	c #15130B",
"^o+	c #100705",
"/o+	c #291516",
"(o+	c #271112",
"_o+	c #2A1211",
":o+	c #361F21",
"<o+	c #1C0A0D",
"[o+	c #5D2226",
"}o+	c #A42129",
"|o+	c #F4C7B1",
"1o+	c #4A1519",
"2o+	c #371014",
"3o+	c #290C0E",
"4o+	c #312223",
"5o+	c #220F11",
"6o+	c #1D1212",
"7o+	c #211416",
"8o+	c #180E11",
"9o+	c #36221E",
"0o+	c #1C0C0F",
"ao+	c #200E0F",
"bo+	c #210F11",
"co+	c #1F0D0F",
"do+	c #2D2323",
"eo+	c #070406",
"fo+	c #2A0C0E",
"go+	c #38080D",
"ho+	c #4A1016",
"io+	c #521B1C",
"jo+	c #681418",
"ko+	c #841D24",
"lo+	c #AA4037",
"mo+	c #D78F6F",
"no+	c #8E191D",
"oo+	c #771F27",
"po+	c #53181E",
"qo+	c #300207",
"ro+	c #3D1D1E",
"so+	c #170403",
"to+	c #372020",
"uo+	c #290E0F",
"vo+	c #180503",
"wo+	c #131103",
"xo+	c #081C00",
"yo+	c #0A2B00",
"zo+	c #124205",
"Ao+	c #A4D27B",
"Bo+	c #698E49",
"Co+	c #0C3405",
"Do+	c #000300",
"Eo+	c #080C06",
"Fo+	c #091207",
"Go+	c #081B00",
"Ho+	c #111808",
"Io+	c #17150C",
"Jo+	c #0A2003",
"Ko+	c #113909",
"Lo+	c #7BA460",
"Mo+	c #A8D39C",
"No+	c #406635",
"Oo+	c #211E02",
"Po+	c #391108",
"Qo+	c #631002",
"Ro+	c #C5727D",
"So+	c #FFE1F3",
"To+	c #EF889B",
"Uo+	c #9A0A19",
"Vo+	c #3E000A",
"Wo+	c #220C0B",
"Xo+	c #243125",
"Yo+	c #253529",
"Zo+	c #040D03",
"`o+	c #030E01",
" p+	c #021F04",
".p+	c #063307",
"+p+	c #053603",
"@p+	c #5E9C3F",
"#p+	c #D8F8A1",
"$p+	c #88B968",
"%p+	c #033901",
"&p+	c #021700",
"*p+	c #030904",
"=p+	c #051B02",
"-p+	c #21600F",
";p+	c #D7E9B7",
">p+	c #D7F4B1",
",p+	c #579A19",
"'p+	c #394906",
")p+	c #391200",
"!p+	c #360802",
"~p+	c #3A0204",
"{p+	c #4C0102",
"]p+	c #5E0305",
"^p+	c #821016",
"/p+	c #D78D97",
"(p+	c #FDD9E9",
"_p+	c #CE657A",
":p+	c #790411",
"<p+	c #4F0100",
"[p+	c #3E0200",
"}p+	c #4A0102",
"|p+	c #B63640",
"1p+	c #FDC8D0",
"2p+	c #B5536A",
"3p+	c #5F0100",
"4p+	c #410007",
"5p+	c #050202",
"6p+	c #060405",
"7p+	c #406434",
"8p+	c #35541F",
"9p+	c #060603",
"0p+	c #020705",
"ap+	c #162F25",
"bp+	c #0C2A21",
"cp+	c #050908",
"dp+	c #051F05",
"ep+	c #084710",
"fp+	c #15580E",
"gp+	c #BBDE87",
"hp+	c #A3CE6C",
"ip+	c #3A6C0A",
"jp+	c #1E3305",
"kp+	c #100E01",
"lp+	c #140B01",
"mp+	c #190F08",
"np+	c #1D0803",
"op+	c #90030A",
"pp+	c #B9767C",
"qp+	c #FCD4E9",
"rp+	c #D393A4",
"sp+	c #791318",
"tp+	c #63070F",
"up+	c #680310",
"vp+	c #6D0917",
"wp+	c #731024",
"xp+	c #520A17",
"yp+	c #32050C",
"zp+	c #2B080E",
"Ap+	c #25040A",
"Bp+	c #160103",
"Cp+	c #090802",
"Dp+	c #031801",
"Ep+	c #012C04",
"Fp+	c #014408",
"Gp+	c #02690F",
"Hp+	c #088B20",
"Ip+	c #09A52E",
"Jp+	c #0CB23F",
"Kp+	c #16B34D",
"Lp+	c #24B656",
"Mp+	c #23B45A",
"Np+	c #22B457",
"Op+	c #20B450",
"Pp+	c #1DB34F",
"Qp+	c #21B74D",
"Rp+	c #24B94D",
"Sp+	c #27B94E",
"Tp+	c #28B64D",
"Up+	c #23B044",
"Vp+	c #27B83F",
"Wp+	c #26B73D",
"Xp+	c #29B93E",
"Yp+	c #2DBD42",
"Zp+	c #2DBA41",
"`p+	c #22B033",
" q+	c #6BDD62",
".q+	c #85DF74",
"+q+	c #194F14",
"@q+	c #101504",
"#q+	c #121007",
"$q+	c #0F0603",
"%q+	c #2A1619",
"&q+	c #2B1213",
"*q+	c #351F1F",
"=q+	c #1C0A0C",
"-q+	c #361319",
";q+	c #4D191A",
">q+	c #5E2125",
",q+	c #751C26",
"'q+	c #A42029",
")q+	c #F4C6B1",
"!q+	c #90201F",
"~q+	c #761B22",
"{q+	c #702730",
"]q+	c #411118",
"^q+	c #250509",
"/q+	c #250405",
"(q+	c #371116",
"_q+	c #2A0C10",
":q+	c #381E21",
"<q+	c #322122",
"[q+	c #230F11",
"}q+	c #1D1010",
"|q+	c #241212",
"1q+	c #160B11",
"2q+	c #1D191D",
"3q+	c #1C0D10",
"4q+	c #200D0F",
"5q+	c #1E0D0E",
"6q+	c #2D2223",
"7q+	c #070405",
"8q+	c #851D24",
"9q+	c #AB3F39",
"0q+	c #D99580",
"aq+	c #8C181C",
"bq+	c #751D26",
"cq+	c #50161A",
"dq+	c #2F0105",
"eq+	c #341E1E",
"fq+	c #280C0E",
"gq+	c #1A0602",
"hq+	c #120F03",
"iq+	c #022504",
"jq+	c #1A440E",
"kq+	c #042900",
"lq+	c #060A07",
"mq+	c #090403",
"nq+	c #010D00",
"oq+	c #080D06",
"pq+	c #061604",
"qq+	c #013900",
"rq+	c #5D8C46",
"sq+	c #D9F4C5",
"tq+	c #B9E69E",
"uq+	c #587A2F",
"vq+	c #3F2205",
"wq+	c #471206",
"xq+	c #881918",
"yq+	c #F1BCC7",
"zq+	c #FCCADA",
"Aq+	c #CB3A47",
"Bq+	c #7A0207",
"Cq+	c #3F0104",
"Dq+	c #261A15",
"Eq+	c #2C3C2F",
"Fq+	c #101C13",
"Gq+	c #031601",
"Hq+	c #072A07",
"Iq+	c #043001",
"Jq+	c #266C16",
"Kq+	c #B5E585",
"Lq+	c #B8E28C",
"Mq+	c #1D540F",
"Nq+	c #001E00",
"Oq+	c #020501",
"Pq+	c #030803",
"Qq+	c #053100",
"Rq+	c #2C681B",
"Sq+	c #E0F2BB",
"Tq+	c #C7E99E",
"Uq+	c #548A15",
"Vq+	c #353600",
"Wq+	c #450702",
"Xq+	c #440304",
"Yq+	c #450102",
"Zq+	c #500102",
"`q+	c #5B0501",
" r+	c #881315",
".r+	c #D28999",
"+r+	c #FDD9EA",
"@r+	c #D48998",
"#r+	c #7C0F1A",
"$r+	c #420000",
"%r+	c #3B0000",
"&r+	c #450001",
"*r+	c #5B0002",
"=r+	c #A7272F",
"-r+	c #F7C1C9",
";r+	c #D06D88",
">r+	c #6B0404",
",r+	c #450109",
"'r+	c #375F29",
")r+	c #55873D",
"!r+	c #1F1004",
"~r+	c #150405",
"{r+	c #100303",
"]r+	c #100406",
"^r+	c #092018",
"/r+	c #13322A",
"(r+	c #02100D",
"_r+	c #09410F",
":r+	c #044505",
"<r+	c #78AC56",
"[r+	c #D5F39C",
"}r+	c #61862C",
"|r+	c #315606",
"1r+	c #151E00",
"2r+	c #170C08",
"3r+	c #190D04",
"4r+	c #1C0E0C",
"5r+	c #1D0500",
"6r+	c #380503",
"7r+	c #690401",
"8r+	c #930815",
"9r+	c #D37F8B",
"0r+	c #FBDFE1",
"ar+	c #D198A6",
"br+	c #851421",
"cr+	c #6F0813",
"dr+	c #77051B",
"er+	c #79051A",
"fr+	c #74081D",
"gr+	c #5A121E",
"hr+	c #2F060C",
"ir+	c #2C0A10",
"jr+	c #27050C",
"kr+	c #0E0104",
"lr+	c #0E0403",
"mr+	c #061700",
"nr+	c #022506",
"or+	c #003A06",
"pr+	c #005004",
"qr+	c #02600B",
"rr+	c #076915",
"sr+	c #067313",
"tr+	c #067218",
"ur+	c #057117",
"vr+	c #037111",
"wr+	c #026E10",
"xr+	c #046C17",
"yr+	c #066B17",
"zr+	c #086918",
"Ar+	c #0A6618",
"Br+	c #086214",
"Cr+	c #0A6614",
"Dr+	c #0C6716",
"Er+	c #0F6818",
"Fr+	c #126B1C",
"Gr+	c #146D1D",
"Hr+	c #0F6912",
"Ir+	c #2D7B28",
"Jr+	c #1E5316",
"Kr+	c #0A1D04",
"Lr+	c #0D0E05",
"Mr+	c #100E07",
"Nr+	c #2B151A",
"Or+	c #291216",
"Pr+	c #291012",
"Qr+	c #2C1212",
"Rr+	c #372120",
"Sr+	c #1C0B0B",
"Tr+	c #120001",
"Ur+	c #361218",
"Vr+	c #4C1718",
"Wr+	c #5D1F24",
"Xr+	c #761C26",
"Yr+	c #A62029",
"Zr+	c #EFAC9A",
"`r+	c #F4C4B0",
" s+	c #91201F",
".s+	c #771B23",
"+s+	c #702830",
"@s+	c #421118",
"#s+	c #250408",
"$s+	c #381218",
"%s+	c #290C0F",
"&s+	c #322123",
"*s+	c #240F11",
"=s+	c #241112",
"-s+	c #201215",
";s+	c #1D0E10",
">s+	c #1F0C0E",
",s+	c #1F0E0E",
"'s+	c #2C2122",
")s+	c #341C20",
"!s+	c #2E1013",
"~s+	c #491016",
"{s+	c #541C1E",
"]s+	c #691519",
"^s+	c #831B23",
"/s+	c #AB4038",
"(s+	c #8B171B",
"_s+	c #761E27",
":s+	c #51161B",
"<s+	c #190703",
"[s+	c #140C07",
"}s+	c #020808",
"|s+	c #010C02",
"1s+	c #080305",
"2s+	c #0B0304",
"3s+	c #051507",
"4s+	c #042E02",
"5s+	c #275E11",
"6s+	c #C0E5A6",
"7s+	c #D0F2C0",
"8s+	c #65993A",
"9s+	c #453C06",
"0s+	c #4A1A01",
"as+	c #670E02",
"bs+	c #C05F63",
"cs+	c #FFE2EE",
"ds+	c #ED8C9B",
"es+	c #A90D15",
"fs+	c #2E0203",
"gs+	c #290F11",
"hs+	c #2B2B21",
"is+	c #072203",
"js+	c #063004",
"ks+	c #84BF5D",
"ls+	c #CEFA9E",
"ms+	c #57923F",
"ns+	c #022503",
"os+	c #011301",
"ps+	c #060607",
"qs+	c #020702",
"rs+	c #2E681D",
"ss+	c #DEF3B5",
"ts+	c #BEE290",
"us+	c #507611",
"vs+	c #3A2A01",
"ws+	c #430A03",
"xs+	c #450704",
"ys+	c #4D0301",
"zs+	c #660504",
"As+	c #DE9AA0",
"Bs+	c #FCDFE0",
"Cs+	c #E0859A",
"Ds+	c #8B1021",
"Es+	c #5E0209",
"Fs+	c #3F0201",
"Gs+	c #8F141D",
"Hs+	c #EDA6B3",
"Is+	c #EA99B1",
"Js+	c #810411",
"Ks+	c #480206",
"Ls+	c #1A3E0D",
"Ms+	c #6EAF59",
"Ns+	c #222603",
"Os+	c #160902",
"Ps+	c #321115",
"Qs+	c #021009",
"Rs+	c #15342D",
"Ss+	c #031D17",
"Ts+	c #030F03",
"Us+	c #062A07",
"Vs+	c #0E480A",
"Ws+	c #215C19",
"Xs+	c #CBEA92",
"Ys+	c #B8C979",
"Zs+	c #42760A",
"`s+	c #254101",
" t+	c #120905",
".t+	c #190D02",
"+t+	c #1C0D11",
"@t+	c #240805",
"#t+	c #2F0205",
"$t+	c #450607",
"%t+	c #9D0918",
"&t+	c #CF7C86",
"*t+	c #FDDAE1",
"=t+	c #D8AAAE",
"-t+	c #7A242F",
";t+	c #670815",
">t+	c #6E0E19",
",t+	c #740E1C",
"'t+	c #75051C",
")t+	c #6D1229",
"!t+	c #551120",
"~t+	c #220206",
"{t+	c #2B050D",
"]t+	c #351018",
"^t+	c #311017",
"/t+	c #270A0F",
"(t+	c #050003",
"_t+	c #0F0304",
":t+	c #150603",
"<t+	c #0B0A06",
"[t+	c #041204",
"}t+	c #002901",
"|t+	c #053400",
"1t+	c #053602",
"2t+	c #063101",
"3t+	c #082A01",
"4t+	c #072602",
"5t+	c #072304",
"6t+	c #042103",
"7t+	c #071F04",
"8t+	c #051D02",
"9t+	c #071F02",
"0t+	c #062002",
"at+	c #031D06",
"bt+	c #021105",
"ct+	c #0E0D06",
"dt+	c #281215",
"et+	c #2A1317",
"ft+	c #280F11",
"gt+	c #2D1313",
"ht+	c #1D0B0C",
"it+	c #4B1718",
"jt+	c #A6212A",
"kt+	c #F0AD9A",
"lt+	c #F4C3AF",
"mt+	c #761A22",
"nt+	c #6F262F",
"ot+	c #521B20",
"pt+	c #411018",
"qt+	c #260409",
"rt+	c #260507",
"st+	c #3A141A",
"tt+	c #2B0D11",
"ut+	c #2B1312",
"vt+	c #381E20",
"wt+	c #230E11",
"xt+	c #1E1111",
"yt+	c #200D0E",
"zt+	c #160C11",
"At+	c #1D181D",
"Bt+	c #1D0D10",
"Ct+	c #2A1F20",
"Dt+	c #38090E",
"Et+	c #551E20",
"Ft+	c #642828",
"Gt+	c #821A22",
"Ht+	c #A94034",
"It+	c #DA9681",
"Jt+	c #8C171B",
"Kt+	c #761E26",
"Lt+	c #3D1C1E",
"Mt+	c #331D1C",
"Nt+	c #160301",
"Ot+	c #030105",
"Pt+	c #040004",
"Qt+	c #030502",
"Rt+	c #030F02",
"St+	c #021300",
"Tt+	c #031604",
"Ut+	c #053302",
"Vt+	c #155108",
"Wt+	c #9FBF87",
"Xt+	c #E3F8C5",
"Yt+	c #79BC59",
"Zt+	c #335E0B",
"`t+	c #452406",
" u+	c #4E0D04",
".u+	c #85130F",
"+u+	c #EBB4B8",
"@u+	c #FCD7DE",
"#u+	c #CF4651",
"$u+	c #7C0205",
"%u+	c #1F0404",
"&u+	c #251D19",
"*u+	c #33392D",
"=u+	c #121B10",
"-u+	c #040E02",
";u+	c #032B01",
">u+	c #003700",
",u+	c #40822A",
"'u+	c #CEF695",
")u+	c #9FCE80",
"!u+	c #084805",
"~u+	c #031006",
"{u+	c #020D02",
"]u+	c #000603",
"^u+	c #040407",
"/u+	c #020602",
"(u+	c #031301",
"_u+	c #052A00",
":u+	c #296019",
"<u+	c #D9F1AF",
"[u+	c #BDDF8D",
"}u+	c #4F630C",
"|u+	c #452304",
"1u+	c #520F04",
"2u+	c #580A03",
"3u+	c #750509",
"4u+	c #A43640",
"5u+	c #ECADAB",
"6u+	c #FDD5E5",
"7u+	c #D18389",
"8u+	c #87100F",
"9u+	c #58040B",
"0u+	c #74040B",
"au+	c #D97083",
"bu+	c #F9BBD5",
"cu+	c #9E2438",
"du+	c #530104",
"eu+	c #080006",
"fu+	c #062402",
"gu+	c #76C162",
"hu+	c #2B5116",
"iu+	c #171B06",
"ju+	c #441E1E",
"ku+	c #112D26",
"lu+	c #0A2C23",
"mu+	c #021007",
"nu+	c #13400F",
"ou+	c #0F3910",
"pu+	c #709A4C",
"qu+	c #E1F8AF",
"ru+	c #7DA650",
"su+	c #3C680A",
"tu+	c #1E3503",
"uu+	c #0F1002",
"vu+	c #141006",
"wu+	c #131707",
"xu+	c #293815",
"yu+	c #272104",
"zu+	c #53030A",
"Au+	c #720510",
"Bu+	c #9D0519",
"Cu+	c #CF6D70",
"Du+	c #FBDDE1",
"Eu+	c #EBC4CC",
"Fu+	c #95494E",
"Gu+	c #6D0617",
"Hu+	c #6E0E18",
"Iu+	c #74101E",
"Ju+	c #750B23",
"Ku+	c #731026",
"Lu+	c #691726",
"Mu+	c #4B0F1A",
"Nu+	c #2E0308",
"Ou+	c #210103",
"Pu+	c #280006",
"Qu+	c #2B0309",
"Ru+	c #2F0C11",
"Su+	c #321316",
"Tu+	c #2D1214",
"Uu+	c #20080C",
"Vu+	c #110304",
"Wu+	c #1C0701",
"Xu+	c #160801",
"Yu+	c #031607",
"Zu+	c #03180B",
"`u+	c #173804",
" v+	c #164203",
".v+	c #0B3609",
"+v+	c #042805",
"@v+	c #031A01",
"#v+	c #041203",
"$v+	c #040C07",
"%v+	c #010B05",
"&v+	c #030B00",
"*v+	c #050B00",
"=v+	c #080B01",
"-v+	c #050906",
";v+	c #080701",
">v+	c #080502",
",v+	c #261517",
"'v+	c #240E12",
")v+	c #351F1E",
"!v+	c #1C0A0B",
"~v+	c #4C1719",
"{v+	c #F4C6B2",
"]v+	c #90201D",
"^v+	c #761A21",
"/v+	c #6F262E",
"(v+	c #43121A",
"_v+	c #250406",
":v+	c #391319",
"<v+	c #2A0D11",
"[v+	c #2C1413",
"}v+	c #312022",
"|v+	c #220E10",
"1v+	c #210E0F",
"2v+	c #271C1B",
"3v+	c #1F0D0E",
"4v+	c #662A2B",
"5v+	c #8D181D",
"6v+	c #772028",
"7v+	c #52181D",
"8v+	c #160303",
"9v+	c #210708",
"0v+	c #140201",
"av+	c #0F0705",
"bv+	c #050304",
"cv+	c #040104",
"dv+	c #0F0108",
"ev+	c #020E03",
"fv+	c #011501",
"gv+	c #021F01",
"hv+	c #022201",
"iv+	c #095701",
"jv+	c #69A354",
"kv+	c #CBF7B6",
"lv+	c #9CD685",
"mv+	c #417610",
"nv+	c #303304",
"ov+	c #381601",
"pv+	c #640904",
"qv+	c #AC5455",
"rv+	c #FCE5EA",
"sv+	c #F0A6A9",
"tv+	c #9E1817",
"uv+	c #550005",
"vv+	c #1E0F0E",
"wv+	c #2B2D26",
"xv+	c #2A3326",
"yv+	c #060E03",
"zv+	c #021002",
"Av+	c #032303",
"Bv+	c #013400",
"Cv+	c #12520A",
"Dv+	c #A0D47B",
"Ev+	c #BFF2A1",
"Fv+	c #3C712A",
"Gv+	c #051F03",
"Hv+	c #010A01",
"Iv+	c #020603",
"Jv+	c #020F00",
"Kv+	c #032300",
"Lv+	c #1B4E0C",
"Mv+	c #CFE5A9",
"Nv+	c #B5D786",
"Ov+	c #4B5205",
"Pv+	c #4E2304",
"Qv+	c #591600",
"Rv+	c #7E0B06",
"Sv+	c #B45454",
"Tv+	c #F2C0BD",
"Uv+	c #F7C6CF",
"Vv+	c #BC6A72",
"Wv+	c #810614",
"Xv+	c #520409",
"Yv+	c #2D0100",
"Zv+	c #3E0204",
"`v+	c #AD2B47",
" w+	c #FBBCDB",
".w+	c #C57784",
"+w+	c #71020D",
"@w+	c #160000",
"#w+	c #0D0006",
"$w+	c #0A020A",
"%w+	c #011306",
"&w+	c #6EAE53",
"*w+	c #5A9142",
"=w+	c #1F3214",
"-w+	c #100700",
";w+	c #401B17",
">w+	c #351618",
",w+	c #061C16",
"'w+	c #10382D",
")w+	c #041812",
"!w+	c #040A04",
"~w+	c #164109",
"{w+	c #104909",
"]w+	c #91C372",
"^w+	c #D9F3AB",
"/w+	c #7FAD50",
"(w+	c #3E6007",
"_w+	c #152006",
":w+	c #09110D",
"<w+	c #6C7B4E",
"[w+	c #BFDC92",
"}w+	c #71A250",
"|w+	c #2F3706",
"1w+	c #430705",
"2w+	c #590306",
"3w+	c #770507",
"4w+	c #980512",
"5w+	c #C9525C",
"6w+	c #F4C2C8",
"7w+	c #F6D4DD",
"8w+	c #BC7E89",
"9w+	c #7E1623",
"0w+	c #6E0913",
"aw+	c #750E1E",
"bw+	c #7D1027",
"cw+	c #7C1228",
"dw+	c #78142A",
"ew+	c #6B1528",
"fw+	c #571321",
"gw+	c #390B11",
"hw+	c #240103",
"iw+	c #37131A",
"jw+	c #38151D",
"kw+	c #301117",
"lw+	c #22090D",
"mw+	c #0B0004",
"nw+	c #060304",
"ow+	c #190407",
"pw+	c #1C0A09",
"qw+	c #130C03",
"rw+	c #122A02",
"sw+	c #73A931",
"tw+	c #74BB2C",
"uw+	c #65A242",
"vw+	c #286213",
"ww+	c #081F01",
"xw+	c #080205",
"yw+	c #271618",
"zw+	c #230D10",
"Aw+	c #2C1314",
"Bw+	c #A6212B",
"Cw+	c #F4C5B1",
"Dw+	c #91211E",
"Ew+	c #722931",
"Fw+	c #511A1F",
"Gw+	c #2C0E12",
"Hw+	c #2D1514",
"Iw+	c #3A2022",
"Jw+	c #230E10",
"Kw+	c #231112",
"Lw+	c #201316",
"Mw+	c #1D191B",
"Nw+	c #36221D",
"Ow+	c #210E10",
"Pw+	c #210F10",
"Qw+	c #2D2122",
"Rw+	c #090406",
"Sw+	c #341C21",
"Tw+	c #2C0D10",
"Uw+	c #3C1C1F",
"Vw+	c #3A090E",
"Ww+	c #571F21",
"Xw+	c #661619",
"Yw+	c #AB4030",
"Zw+	c #FBDBCF",
"`w+	c #DA9584",
" x+	c #901822",
".x+	c #541A1F",
"+x+	c #3D1E1F",
"@x+	c #341B1C",
"#x+	c #1F0506",
"$x+	c #0B0503",
"%x+	c #000D01",
"&x+	c #001304",
"*x+	c #051804",
"=x+	c #031C03",
"-x+	c #011E02",
";x+	c #063804",
">x+	c #145D0B",
",x+	c #52983F",
"'x+	c #CDF3AB",
")x+	c #C1EC9F",
"!x+	c #488F29",
"~x+	c #294303",
"{x+	c #372106",
"]x+	c #3E1101",
"^x+	c #781008",
"/x+	c #DF999B",
"(x+	c #FFE8E5",
"_x+	c #DC5C65",
":x+	c #730607",
"<x+	c #440109",
"[x+	c #280304",
"}x+	c #1E1D13",
"|x+	c #2D402E",
"1x+	c #151F10",
"2x+	c #011606",
"3x+	c #092C07",
"4x+	c #549640",
"5x+	c #D2FAA9",
"6x+	c #80B46B",
"7x+	c #043801",
"8x+	c #071B04",
"9x+	c #093203",
"0x+	c #98BC74",
"ax+	c #94B360",
"bx+	c #3F4102",
"cx+	c #502202",
"dx+	c #731906",
"ex+	c #B96962",
"fx+	c #F9D2C9",
"gx+	c #ECB9BC",
"hx+	c #A8434F",
"ix+	c #6F0303",
"jx+	c #230300",
"kx+	c #82031B",
"lx+	c #E0839B",
"mx+	c #F4C1CA",
"nx+	c #9C3246",
"ox+	c #5C0204",
"px+	c #460100",
"qx+	c #290108",
"rx+	c #220008",
"sx+	c #140200",
"tx+	c #040801",
"ux+	c #416B2C",
"vx+	c #91CB6E",
"wx+	c #1F4514",
"xx+	c #171D02",
"yx+	c #44231D",
"zx+	c #120B07",
"Ax+	c #0F332B",
"Bx+	c #092F26",
"Cx+	c #020A05",
"Dx+	c #0C2808",
"Ex+	c #0B340A",
"Fx+	c #154A08",
"Gx+	c #89B074",
"Hx+	c #CFF4B4",
"Ix+	c #A3BE83",
"Jx+	c #1D2D0E",
"Kx+	c #041906",
"Lx+	c #728853",
"Mx+	c #DDEEB0",
"Nx+	c #DEF7BD",
"Ox+	c #88AC62",
"Px+	c #384205",
"Qx+	c #42050A",
"Rx+	c #550509",
"Sx+	c #6F0403",
"Tx+	c #960108",
"Ux+	c #AD2C3A",
"Vx+	c #E49DAC",
"Wx+	c #FEDFE7",
"Xx+	c #E7C5CB",
"Yx+	c #AB5A66",
"Zx+	c #750911",
"`x+	c #77091B",
" y+	c #80142B",
".y+	c #821B31",
"+y+	c #821930",
"@y+	c #7A1D2F",
"#y+	c #6C1A26",
"$y+	c #601524",
"%y+	c #4D0E1F",
"&y+	c #380613",
"*y+	c #250206",
"=y+	c #1F0104",
"-y+	c #220205",
";y+	c #2B080D",
">y+	c #350E13",
",y+	c #3D1219",
"'y+	c #35101A",
")y+	c #25060F",
"!y+	c #170207",
"~y+	c #142B02",
"{y+	c #4D9421",
"]y+	c #C2F187",
"^y+	c #E3FCB7",
"/y+	c #609644",
"(y+	c #070D00",
"_y+	c #1E0306",
":y+	c #25050A",
"<y+	c #24040B",
"[y+	c #1E020A",
"}y+	c #150105",
"|y+	c #100806",
"1y+	c #210C11",
"2y+	c #2C1317",
"3y+	c #2D1213",
"4y+	c #311513",
"5y+	c #361F1C",
"6y+	c #1D0A09",
"7y+	c #3C141A",
"8y+	c #270002",
"9y+	c #4A1516",
"0y+	c #5E2024",
"ay+	c #771E28",
"by+	c #A7222B",
"cy+	c #F4C5B0",
"dy+	c #941E1E",
"ey+	c #761C22",
"fy+	c #561920",
"gy+	c #45121B",
"hy+	c #280306",
"iy+	c #3C1219",
"jy+	c #2F0E12",
"ky+	c #381F20",
"ly+	c #150708",
"my+	c #321F21",
"ny+	c #251013",
"oy+	c #231011",
"py+	c #201114",
"qy+	c #160A0F",
"ry+	c #2A1E1D",
"sy+	c #1E0B0D",
"ty+	c #2E2123",
"uy+	c #2D0E12",
"vy+	c #2B0B0E",
"wy+	c #3A1A1D",
"xy+	c #240406",
"yy+	c #652B2B",
"zy+	c #AC4032",
"Ay+	c #D99483",
"By+	c #8F1622",
"Cy+	c #52171C",
"Dy+	c #300206",
"Ey+	c #331A1B",
"Fy+	c #1D0305",
"Gy+	c #0F0303",
"Hy+	c #010E00",
"Iy+	c #051A01",
"Jy+	c #042004",
"Ky+	c #092A09",
"Ly+	c #0D340B",
"My+	c #0C3908",
"Ny+	c #0D4005",
"Oy+	c #468F26",
"Py+	c #CAEEA1",
"Qy+	c #D8FABB",
"Ry+	c #70B250",
"Sy+	c #285807",
"Ty+	c #232B01",
"Uy+	c #371703",
"Vy+	c #471401",
"Wy+	c #98282E",
"Xy+	c #F6CFCD",
"Yy+	c #FABAC4",
"Zy+	c #B72637",
"`y+	c #510201",
" z+	c #260D0B",
".z+	c #252C1E",
"+z+	c #061101",
"@z+	c #052106",
"#z+	c #0A5406",
"$z+	c #A9DA89",
"%z+	c #BAEC99",
"&z+	c #295E18",
"*z+	c #040B08",
"=z+	c #041302",
"-z+	c #021F02",
";z+	c #214111",
">z+	c #2E420B",
",z+	c #352C02",
"'z+	c #5A2605",
")z+	c #AD6A58",
"!z+	c #F7E9D3",
"~z+	c #E5C6BC",
"{z+	c #8F2B2E",
"]z+	c #60090A",
"^z+	c #3E0000",
"/z+	c #210005",
"(z+	c #260007",
"_z+	c #560408",
":z+	c #AD223B",
"<z+	c #F2B7C0",
"[z+	c #E19DAE",
"}z+	c #871227",
"|z+	c #540604",
"1z+	c #2B0006",
"2z+	c #1A0201",
"3z+	c #070600",
"4z+	c #0F2901",
"5z+	c #9ED680",
"6z+	c #1E3907",
"7z+	c #1D0508",
"8z+	c #441E1D",
"9z+	c #270F0F",
"0z+	c #07221B",
"az+	c #144135",
"bz+	c #022013",
"cz+	c #071F06",
"dz+	c #093102",
"ez+	c #57714B",
"fz+	c #728760",
"gz+	c #0E1A07",
"hz+	c #081507",
"iz+	c #173404",
"jz+	c #688348",
"kz+	c #E5EFB7",
"lz+	c #E1F8BF",
"mz+	c #87AF61",
"nz+	c #3A5009",
"oz+	c #451102",
"pz+	c #5A0408",
"qz+	c #670405",
"rz+	c #840205",
"sz+	c #A80D19",
"tz+	c #C67172",
"uz+	c #FCEBE9",
"vz+	c #DAA7B3",
"wz+	c #903C45",
"xz+	c #7C0812",
"yz+	c #771C26",
"zz+	c #861F30",
"Az+	c #83273E",
"Bz+	c #7E1C39",
"Cz+	c #801735",
"Dz+	c #70162A",
"Ez+	c #601B23",
"Fz+	c #4F141D",
"Gz+	c #38050C",
"Hz+	c #290105",
"Iz+	c #230305",
"Jz+	c #1F0405",
"Kz+	c #28080E",
"Lz+	c #331319",
"Mz+	c #3B171E",
"Nz+	c #28070C",
"Oz+	c #130103",
"Pz+	c #080103",
"Qz+	c #040103",
"Rz+	c #5CA036",
"Sz+	c #E5FCB7",
"Tz+	c #CEEEA4",
"Uz+	c #286410",
"Vz+	c #092301",
"Wz+	c #090002",
"Xz+	c #170E0B",
"Yz+	c #2A1216",
"Zz+	c #321613",
"`z+	c #37201D",
" A+	c #1E0B0B",
".A+	c #361318",
"+A+	c #3D141A",
"@A+	c #4B1617",
"#A+	c #5D1F23",
"$A+	c #771D27",
"%A+	c #F3C3AE",
"&A+	c #931C1C",
"*A+	c #571820",
"=A+	c #46121B",
"-A+	c #3E141B",
";A+	c #2D0C0F",
">A+	c #331F21",
",A+	c #261013",
"'A+	c #1C100F",
")A+	c #210D0F",
"!A+	c #221215",
"~A+	c #1D1A1C",
"{A+	c #36211C",
"]A+	c #090407",
"^A+	c #2D0D10",
"/A+	c #38181B",
"(A+	c #240407",
"_A+	c #3B090F",
":A+	c #511A1C",
"<A+	c #642A2A",
"[A+	c #68181B",
"}A+	c #D99383",
"|A+	c #8F1621",
"1A+	c #53191E",
"2A+	c #2B0105",
"3A+	c #190604",
"4A+	c #0E0202",
"5A+	c #100202",
"6A+	c #041104",
"7A+	c #051A05",
"8A+	c #002101",
"9A+	c #012D02",
"0A+	c #093A06",
"aA+	c #054A07",
"bA+	c #085208",
"cA+	c #146010",
"dA+	c #1A6B13",
"eA+	c #217217",
"fA+	c #488F33",
"gA+	c #C2E99A",
"hA+	c #F0FCC8",
"iA+	c #96D36A",
"jA+	c #307518",
"kA+	c #1C3100",
"lA+	c #2B2102",
"mA+	c #3E1202",
"nA+	c #551103",
"oA+	c #C26671",
"pA+	c #FEE3E6",
"qA+	c #EC7E93",
"rA+	c #8B0619",
"sA+	c #241C14",
"tA+	c #2C3A2A",
"uA+	c #192818",
"vA+	c #041100",
"wA+	c #072F01",
"xA+	c #043402",
"yA+	c #4E983F",
"zA+	c #CFFBA4",
"AA+	c #76B35E",
"BA+	c #033700",
"CA+	c #021305",
"DA+	c #040706",
"EA+	c #051504",
"FA+	c #091A06",
"GA+	c #112303",
"HA+	c #263602",
"IA+	c #6B622C",
"JA+	c #EFE5C1",
"KA+	c #F2F9D2",
"LA+	c #A88868",
"MA+	c #551806",
"NA+	c #420504",
"OA+	c #3A0104",
"PA+	c #230104",
"QA+	c #1D0104",
"RA+	c #2D0104",
"SA+	c #4B0101",
"TA+	c #690509",
"UA+	c #B85062",
"VA+	c #F9BACB",
"WA+	c #D7879A",
"XA+	c #750D19",
"YA+	c #460400",
"ZA+	c #0F1601",
"`A+	c #6B9A59",
" B+	c #7ABD66",
".B+	c #1C4809",
"+B+	c #161506",
"@B+	c #361113",
"#B+	c #080905",
"$B+	c #113C2D",
"%B+	c #093927",
"&B+	c #021507",
"*B+	c #050A04",
"=B+	c #091108",
"-B+	c #0B1808",
";B+	c #041703",
">B+	c #041001",
",B+	c #040705",
"'B+	c #050606",
")B+	c #141C05",
"!B+	c #21410C",
"~B+	c #5A8139",
"{B+	c #DAECB1",
"]B+	c #E7F9CC",
"^B+	c #89BA67",
"/B+	c #49671D",
"(B+	c #401B09",
"_B+	c #5A0304",
":B+	c #690203",
"<B+	c #7C0305",
"[B+	c #A30412",
"}B+	c #BD2E3E",
"|B+	c #DE9BA1",
"1B+	c #F8E1E0",
"2B+	c #DAAAAC",
"3B+	c #AA535C",
"4B+	c #850B1B",
"5B+	c #760B14",
"6B+	c #721824",
"7B+	c #802837",
"8B+	c #862E3F",
"9B+	c #84293F",
"0B+	c #7C1E37",
"aB+	c #731B2E",
"bB+	c #6F1E2F",
"cB+	c #5F1A29",
"dB+	c #4E1220",
"eB+	c #38050F",
"fB+	c #2C090C",
"gB+	c #351216",
"hB+	c #34141A",
"iB+	c #23080E",
"jB+	c #150005",
"kB+	c #100D03",
"lB+	c #133403",
"mB+	c #8BC35E",
"nB+	c #F4FDD1",
"oB+	c #97C976",
"pB+	c #061C02",
"qB+	c #010600",
"rB+	c #1E140F",
"sB+	c #281917",
"tB+	c #2A1215",
"uB+	c #2E1414",
"vB+	c #301412",
"wB+	c #39221F",
"xB+	c #1F0C0C",
"yB+	c #4A1617",
"zB+	c #EFAD9A",
"AB+	c #941D1D",
"BB+	c #722B32",
"CB+	c #581A22",
"DB+	c #260509",
"EB+	c #290306",
"FB+	c #3C1118",
"GB+	c #2F0E11",
"HB+	c #150808",
"IB+	c #321E21",
"JB+	c #240F12",
"KB+	c #211114",
"LB+	c #1F1B1D",
"MB+	c #0A0508",
"NB+	c #2E0E11",
"OB+	c #37171A",
"PB+	c #230205",
"QB+	c #3D0B11",
"RB+	c #490F15",
"SB+	c #551D1F",
"TB+	c #AB3F31",
"UB+	c #FBDCD0",
"VB+	c #D89382",
"WB+	c #901722",
"XB+	c #782029",
"YB+	c #2B0205",
"ZB+	c #3E1E1F",
"`B+	c #1A0605",
" C+	c #200509",
".C+	c #023F03",
"+C+	c #0C5405",
"@C+	c #236D14",
"#C+	c #308114",
"$C+	c #3B8A1D",
"%C+	c #529B30",
"&C+	c #5FA43A",
"*C+	c #77B353",
"=C+	c #C3EAAF",
"-C+	c #EEFECE",
";C+	c #B8DF89",
">C+	c #458C20",
",C+	c #1A4201",
"'C+	c #1D2600",
")C+	c #331D02",
"!C+	c #451302",
"~C+	c #761111",
"{C+	c #E2ABAF",
"]C+	c #FECFDA",
"^C+	c #C44155",
"/C+	c #1D0A06",
"(C+	c #202A1C",
"_C+	c #263E2A",
":C+	c #0B1605",
"<C+	c #041E04",
"[C+	c #053601",
"}C+	c #0D5408",
"|C+	c #9DDB7F",
"1C+	c #B8EC93",
"2C+	c #2E6B20",
"3C+	c #012100",
"4C+	c #040E04",
"5C+	c #0A1403",
"6C+	c #0D2D03",
"7C+	c #1A4A02",
"8C+	c #A7C27A",
"9C+	c #CAD699",
"0C+	c #565E12",
"aC+	c #3F2411",
"bC+	c #190A01",
"cC+	c #240A01",
"dC+	c #2C0300",
"eC+	c #2C0005",
"fC+	c #3B0102",
"gC+	c #4D0401",
"hC+	c #6E0510",
"iC+	c #C45B6C",
"jC+	c #FAC7CF",
"kC+	c #C87283",
"lC+	c #6C050F",
"mC+	c #0F0102",
"nC+	c #0D0902",
"oC+	c #153B0A",
"pC+	c #99DD7E",
"qC+	c #356628",
"rC+	c #1C3008",
"sC+	c #1D0603",
"tC+	c #401E1F",
"uC+	c #1E0A09",
"vC+	c #031D10",
"wC+	c #143F2E",
"xC+	c #072814",
"yC+	c #001004",
"zC+	c #010403",
"AC+	c #030204",
"BC+	c #030303",
"CC+	c #0A0E02",
"DC+	c #172807",
"EC+	c #1D390F",
"FC+	c #577C3A",
"GC+	c #D0E9A8",
"HC+	c #F1F5DC",
"IC+	c #9BBF79",
"JC+	c #54822A",
"KC+	c #3B2C0C",
"LC+	c #53040B",
"MC+	c #5B0101",
"NC+	c #6D010B",
"OC+	c #8E0016",
"PC+	c #A50721",
"QC+	c #B64B50",
"RC+	c #E1A6AB",
"SC+	c #FAE1E2",
"TC+	c #FAECE4",
"UC+	c #E6BABA",
"VC+	c #BA6C74",
"WC+	c #981C29",
"XC+	c #860813",
"YC+	c #7E1721",
"ZC+	c #812033",
"`C+	c #85223D",
" D+	c #852337",
".D+	c #87263B",
"+D+	c #84263D",
"@D+	c #761B34",
"#D+	c #711A32",
"$D+	c #621B2A",
"%D+	c #511520",
"&D+	c #3A0A12",
"*D+	c #230304",
"=D+	c #2A0308",
"-D+	c #2F0B12",
";D+	c #35161D",
">D+	c #2F1219",
",D+	c #21070C",
"'D+	c #121103",
")D+	c #1B4704",
"!D+	c #B4E286",
"~D+	c #508B3D",
"{D+	c #042F00",
"]D+	c #030002",
"^D+	c #19100D",
"/D+	c #20150F",
"(D+	c #2A1A17",
"_D+	c #1F0D0D",
":D+	c #2D110E",
"<D+	c #392220",
"[D+	c #1E0B0A",
"}D+	c #351217",
"|D+	c #741A24",
"1D+	c #F5C6B1",
"2D+	c #751A21",
"3D+	c #6F272F",
"4D+	c #591B22",
"5D+	c #45121A",
"6D+	c #260408",
"7D+	c #2E0D10",
"8D+	c #392020",
"9D+	c #311D20",
"0D+	c #1E1211",
"aD+	c #1E0F11",
"bD+	c #160A0E",
"cD+	c #1E0704",
"dD+	c #0A0407",
"eD+	c #2F1014",
"fD+	c #371619",
"gD+	c #4B1016",
"hD+	c #551D20",
"iD+	c #AB3F2D",
"jD+	c #FBDACF",
"kD+	c #D89282",
"lD+	c #911823",
"mD+	c #53181D",
"nD+	c #1F0509",
"oD+	c #0F0004",
"pD+	c #032203",
"qD+	c #023201",
"rD+	c #024101",
"sD+	c #105909",
"tD+	c #2D7B1B",
"uD+	c #58A136",
"vD+	c #8DC866",
"wD+	c #B9DF9A",
"xD+	c #D0F1B0",
"yD+	c #E1F9C0",
"zD+	c #EBF9CA",
"AD+	c #F1FBCF",
"BD+	c #F8FDCC",
"CD+	c #C5E996",
"DD+	c #529E26",
"ED+	c #225003",
"FD+	c #162E02",
"GD+	c #1F2701",
"HD+	c #381B01",
"ID+	c #4B1501",
"JD+	c #A83439",
"KD+	c #FADEDB",
"LD+	c #F4ADB8",
"MD+	c #9D1A26",
"ND+	c #500202",
"OD+	c #310206",
"PD+	c #23110C",
"QD+	c #253928",
"RD+	c #14311D",
"SD+	c #080F01",
"TD+	c #051701",
"UD+	c #052A04",
"VD+	c #093709",
"WD+	c #49993A",
"XD+	c #D3FBA6",
"YD+	c #7ABA5E",
"ZD+	c #033B01",
"`D+	c #021302",
" E+	c #000F00",
".E+	c #040305",
"+E+	c #103707",
"@E+	c #4A732F",
"#E+	c #E1F4B9",
"$E+	c #E7F6BA",
"%E+	c #788F3D",
"&E+	c #424F02",
"*E+	c #332003",
"=E+	c #180602",
"-E+	c #160D01",
";E+	c #392E09",
">E+	c #391C03",
",E+	c #350A01",
"'E+	c #450105",
")E+	c #540302",
"!E+	c #7D050D",
"~E+	c #CE747F",
"{E+	c #FBC2D3",
"]E+	c #A33F50",
"^E+	c #4D0503",
"/E+	c #0B0402",
"(E+	c #76A860",
"_E+	c #88B676",
":E+	c #1E3E06",
"<E+	c #1B1F0A",
"[E+	c #311414",
"}E+	c #09271B",
"|E+	c #063118",
"1E+	c #03220F",
"2E+	c #020E07",
"3E+	c #030008",
"4E+	c #040A01",
"5E+	c #0B1202",
"6E+	c #191F0B",
"7E+	c #123F02",
"8E+	c #4F7C31",
"9E+	c #C4DAA3",
"0E+	c #EBFBD3",
"aE+	c #BDD49B",
"bE+	c #6B8F33",
"cE+	c #414608",
"dE+	c #520106",
"eE+	c #590207",
"fE+	c #72020E",
"gE+	c #970118",
"hE+	c #B90722",
"iE+	c #C73744",
"jE+	c #F9CED3",
"kE+	c #FEE8F0",
"lE+	c #F4D0D1",
"mE+	c #CD9597",
"nE+	c #9E383F",
"oE+	c #840610",
"pE+	c #7C0A14",
"qE+	c #801829",
"rE+	c #892337",
"sE+	c #88263D",
"tE+	c #862B44",
"uE+	c #842D46",
"vE+	c #7F2740",
"wE+	c #6E1D32",
"xE+	c #63192B",
"yE+	c #5C1728",
"zE+	c #4E1421",
"AE+	c #230106",
"BE+	c #260309",
"CE+	c #320C14",
"DE+	c #3B141D",
"EE+	c #37151B",
"FE+	c #270C10",
"GE+	c #080400",
"HE+	c #121301",
"IE+	c #346418",
"JE+	c #C7F19C",
"KE+	c #9DCE78",
"LE+	c #14510D",
"ME+	c #051C00",
"NE+	c #030003",
"OE+	c #1D1310",
"PE+	c #22160F",
"QE+	c #210E0E",
"RE+	c #2C1517",
"SE+	c #2E120F",
"TE+	c #3A2321",
"UE+	c #1D0B0A",
"VE+	c #751B24",
"WE+	c #A41F28",
"XE+	c #EEAB99",
"YE+	c #951E1E",
"ZE+	c #70282F",
"`E+	c #581A21",
" F+	c #28060B",
".F+	c #3E131A",
"+F+	c #371E1F",
"@F+	c #140607",
"#F+	c #1C1010",
"$F+	c #201013",
"%F+	c #16090E",
"&F+	c #37201C",
"*F+	c #200504",
"=F+	c #332325",
"-F+	c #301215",
";F+	c #320F13",
">F+	c #39171B",
",F+	c #3F0A0D",
"'F+	c #4C0F16",
")F+	c #692C2F",
"!F+	c #661217",
"~F+	c #851922",
"{F+	c #B04130",
"]F+	c #DA8F7F",
"^F+	c #921A23",
"/F+	c #741D22",
"(F+	c #57171E",
"_F+	c #2F0208",
":F+	c #361817",
"<F+	c #381F22",
"[F+	c #21070A",
"}F+	c #0C1104",
"|F+	c #032506",
"1F+	c #063E01",
"2F+	c #0E5608",
"3F+	c #237211",
"4F+	c #6CAA4E",
"5F+	c #BAE39D",
"6F+	c #E1F8CA",
"7F+	c #F4FDE1",
"8F+	c #FBFBE7",
"9F+	c #FAFBE6",
"0F+	c #F0FAD3",
"aF+	c #BCE47F",
"bF+	c #5DA529",
"cF+	c #1A6004",
"dF+	c #0D3D02",
"eF+	c #1A4910",
"fF+	c #4B601A",
"gF+	c #441C06",
"hF+	c #5E0E04",
"iF+	c #D07371",
"jF+	c #FCF0ED",
"kF+	c #E67E89",
"lF+	c #74060C",
"mF+	c #50000C",
"nF+	c #250706",
"oF+	c #1A200E",
"pF+	c #27402C",
"qF+	c #081E0F",
"rF+	c #0A0F01",
"sF+	c #031D00",
"tF+	c #063502",
"uF+	c #105006",
"vF+	c #96D77A",
"wF+	c #C2F19E",
"xF+	c #2B7818",
"yF+	c #012B03",
"zF+	c #020C00",
"AF+	c #02020B",
"BF+	c #030306",
"CF+	c #040701",
"DF+	c #041101",
"EF+	c #0C2602",
"FF+	c #114A10",
"GF+	c #A0C274",
"HF+	c #F7FECF",
"IF+	c #A9CB81",
"JF+	c #4B7009",
"KF+	c #373B06",
"LF+	c #13030C",
"MF+	c #170902",
"NF+	c #152704",
"OF+	c #486827",
"PF+	c #C1DA97",
"QF+	c #8B975F",
"RF+	c #3B2805",
"SF+	c #350905",
"TF+	c #350004",
"UF+	c #981322",
"VF+	c #F2AFC5",
"WF+	c #CE7885",
"XF+	c #5C0206",
"YF+	c #021003",
"ZF+	c #214515",
"`F+	c #AADA89",
" G+	c #476D31",
".G+	c #21300E",
"+G+	c #1F1608",
"@G+	c #1C0508",
"#G+	c #0E0807",
"$G+	c #052513",
"%G+	c #02230E",
"&G+	c #021B0B",
"*G+	c #010C06",
"=G+	c #010909",
"-G+	c #091B07",
";G+	c #374F2F",
">G+	c #2D3E23",
",G+	c #0F2307",
"'G+	c #1A3601",
")G+	c #31610C",
"!G+	c #A6C088",
"~G+	c #ECF9D8",
"{G+	c #D4ECBF",
"]G+	c #7C9B56",
"^G+	c #4D5D13",
"/G+	c #3E2405",
"(G+	c #460409",
"_G+	c #510108",
":G+	c #7B010C",
"<G+	c #9A0011",
"[G+	c #B3021B",
"}G+	c #B31A2F",
"|G+	c #CE707B",
"1G+	c #EFB9C5",
"2G+	c #FDE0E7",
"3G+	c #FDE9EA",
"4G+	c #E9C3C5",
"5G+	c #C8898C",
"6G+	c #974246",
"7G+	c #840C17",
"8G+	c #820715",
"9G+	c #821828",
"0G+	c #86273B",
"aG+	c #892747",
"bG+	c #85253F",
"cG+	c #812139",
"dG+	c #7C1F39",
"eG+	c #751F38",
"fG+	c #681C2D",
"gG+	c #541224",
"hG+	c #43111F",
"iG+	c #270207",
"jG+	c #2A0405",
"kG+	c #391013",
"lG+	c #43151E",
"mG+	c #38121C",
"nG+	c #0B1701",
"oG+	c #437A2F",
"pG+	c #A5EB7E",
"qG+	c #3E7C26",
"rG+	c #042C07",
"sG+	c #130D09",
"tG+	c #17100B",
"uG+	c #201211",
"vG+	c #1E0A0A",
"wG+	c #301314",
"xG+	c #382022",
"yG+	c #3B1317",
"zG+	c #4B1519",
"AG+	c #5F2023",
"BG+	c #751B20",
"CG+	c #A31D23",
"DG+	c #ECAA99",
"EG+	c #F2C8B4",
"FG+	c #911E1E",
"GG+	c #7A1822",
"HG+	c #571A1E",
"IG+	c #531419",
"JG+	c #290405",
"KG+	c #401316",
"LG+	c #300C0D",
"MG+	c #391E21",
"NG+	c #321D20",
"OG+	c #240E11",
"PG+	c #241011",
"QG+	c #220F12",
"RG+	c #19090F",
"SG+	c #38211D",
"TG+	c #1E0C0E",
"UG+	c #1E0E0E",
"VG+	c #322224",
"WG+	c #330F13",
"XG+	c #3A171B",
"YG+	c #240508",
"ZG+	c #4C0E15",
"`G+	c #6A2C2F",
" H+	c #6A141A",
".H+	c #861822",
"+H+	c #B14130",
"@H+	c #FCD4B8",
"#H+	c #421D1C",
"$H+	c #180306",
"%H+	c #331B1E",
"&H+	c #1D0505",
"*H+	c #140704",
"=H+	c #15120A",
"-H+	c #080F03",
";H+	c #022C00",
">H+	c #024B03",
",H+	c #176A0B",
"'H+	c #509531",
")H+	c #B0DA93",
"!H+	c #E9F9CF",
"~H+	c #FBFAE3",
"{H+	c #F1FBD0",
"]H+	c #D3F4A8",
"^H+	c #BAEA8A",
"/H+	c #A9DE79",
"(H+	c #A4DF6B",
"_H+	c #A0E25E",
":H+	c #88CE44",
"<H+	c #539C20",
"[H+	c #1F6506",
"}H+	c #0C3F01",
"|H+	c #0F3E04",
"1H+	c #609E3F",
"2H+	c #46611C",
"3H+	c #471B05",
"4H+	c #820C11",
"5H+	c #ECAFA9",
"6H+	c #FDE4E3",
"7H+	c #C94F5A",
"8H+	c #420109",
"9H+	c #200B0B",
"0H+	c #1F2C1A",
"aH+	c #253B27",
"bH+	c #031304",
"cH+	c #062602",
"dH+	c #053604",
"eH+	c #398425",
"fH+	c #C0F79C",
"gH+	c #8BC36B",
"hH+	c #074B02",
"iH+	c #023502",
"jH+	c #2D842D",
"kH+	c #357B35",
"lH+	c #031102",
"mH+	c #071600",
"nH+	c #0B3902",
"oH+	c #256816",
"pH+	c #D8F1AC",
"qH+	c #E9F7C4",
"rH+	c #659A39",
"sH+	c #426608",
"tH+	c #242700",
"uH+	c #170702",
"vH+	c #150404",
"wH+	c #140F00",
"xH+	c #121C06",
"yH+	c #205304",
"zH+	c #B0D181",
"AH+	c #EBFBD6",
"BH+	c #C2DE90",
"CH+	c #506118",
"DH+	c #3B0F03",
"EH+	c #310305",
"FH+	c #520001",
"GH+	c #90111D",
"HH+	c #F3B5CA",
"IH+	c #D77D89",
"JH+	c #66030A",
"KH+	c #679153",
"LH+	c #94C878",
"MH+	c #1C3803",
"NH+	c #322916",
"OH+	c #23100D",
"PH+	c #080004",
"QH+	c #020105",
"RH+	c #020706",
"SH+	c #010904",
"TH+	c #080005",
"UH+	c #061702",
"VH+	c #48603E",
"WH+	c #A0A182",
"XH+	c #7B7A5E",
"YH+	c #483B28",
"ZH+	c #151801",
"`H+	c #112002",
" I+	c #152E04",
".I+	c #2B630A",
"+I+	c #79AB5F",
"@I+	c #DDEAC2",
"#I+	c #E2F2CF",
"$I+	c #94BA7F",
"%I+	c #588428",
"&I+	c #3C530C",
"*I+	c #421304",
"=I+	c #46010B",
"-I+	c #4D0104",
";I+	c #6E0207",
">I+	c #88020D",
",I+	c #9F0412",
"'I+	c #9F151F",
")I+	c #BE4952",
"!I+	c #E58F98",
"~I+	c #F7C4CB",
"{I+	c #FEE6E8",
"]I+	c #FAE6EA",
"^I+	c #C88184",
"/I+	c #9C393F",
"(I+	c #840918",
"_I+	c #820E1D",
":I+	c #811726",
"<I+	c #832636",
"[I+	c #862840",
"}I+	c #882644",
"|I+	c #85243F",
"1I+	c #842040",
"2I+	c #751D39",
"3I+	c #5F1E2F",
"4I+	c #471722",
"5I+	c #320913",
"6I+	c #330913",
"7I+	c #3D111B",
"8I+	c #320D15",
"9I+	c #090400",
"0I+	c #0A1B01",
"aI+	c #499039",
"bI+	c #5B9F42",
"cI+	c #113E02",
"dI+	c #0D0603",
"eI+	c #1F2317",
"fI+	c #2B3522",
"gI+	c #33412A",
"hI+	c #404430",
"iI+	c #484832",
"jI+	c #464A2E",
"kI+	c #3F432A",
"lI+	c #2F2D20",
"mI+	c #281715",
"nI+	c #31191B",
"oI+	c #34161A",
"pI+	c #381C21",
"qI+	c #20070B",
"rI+	c #36181B",
"sI+	c #3B1518",
"tI+	c #5D1E21",
"uI+	c #74191E",
"vI+	c #EDAB99",
"wI+	c #901E1F",
"xI+	c #7A1922",
"yI+	c #772830",
"zI+	c #541319",
"AI+	c #2A0408",
"BI+	c #310D0D",
"CI+	c #391D22",
"DI+	c #250E11",
"EI+	c #231014",
"FI+	c #1A0A10",
"GI+	c #210604",
"HI+	c #361B20",
"II+	c #301014",
"JI+	c #320D12",
"KI+	c #3C171C",
"LI+	c #250608",
"MI+	c #40070B",
"NI+	c #501017",
"OI+	c #6A2A2E",
"PI+	c #6B151B",
"QI+	c #891823",
"RI+	c #B24031",
"SI+	c #FBD5B9",
"TI+	c #D99281",
"UI+	c #901A23",
"VI+	c #751E22",
"WI+	c #5C1B22",
"XI+	c #431E1D",
"YI+	c #381A19",
"ZI+	c #321A1D",
"`I+	c #1A0402",
" J+	c #171109",
".J+	c #121709",
"+J+	c #023100",
"@J+	c #0E5303",
"#J+	c #267513",
"$J+	c #7EB46C",
"%J+	c #D8F3C8",
"&J+	c #F0FDE2",
"*J+	c #E3FBC4",
"=J+	c #B8E382",
"-J+	c #8FCE43",
";J+	c #6FBB17",
">J+	c #6EC714",
",J+	c #68C218",
"'J+	c #5DB620",
")J+	c #469C19",
"!J+	c #297D05",
"~J+	c #1D6508",
"{J+	c #083D05",
"]J+	c #073805",
"^J+	c #589D2E",
"/J+	c #68B335",
"(J+	c #343A03",
"_J+	c #4E1702",
":J+	c #A82534",
"<J+	c #F9D6D1",
"[J+	c #FBC8C9",
"}J+	c #243A25",
"|J+	c #1A2E1A",
"1J+	c #052F03",
"2J+	c #074504",
"3J+	c #76C45A",
"4J+	c #C6FAA0",
"5J+	c #428629",
"6J+	c #023803",
"7J+	c #186214",
"8J+	c #61E160",
"9J+	c #338D34",
"0J+	c #031002",
"aJ+	c #030601",
"bJ+	c #0E2201",
"cJ+	c #0A4903",
"dJ+	c #69A64E",
"eJ+	c #F1FECC",
"fJ+	c #C8E0A5",
"gJ+	c #45850A",
"hJ+	c #365409",
"iJ+	c #161700",
"jJ+	c #0F0801",
"kJ+	c #0B0709",
"lJ+	c #0E0D01",
"mJ+	c #0F1703",
"nJ+	c #0F3607",
"oJ+	c #539231",
"pJ+	c #E5F9BC",
"qJ+	c #CDF3B7",
"rJ+	c #79AC33",
"sJ+	c #4F570A",
"tJ+	c #331308",
"uJ+	c #921923",
"vJ+	c #F6C0D2",
"wJ+	c #D47985",
"xJ+	c #6D020C",
"yJ+	c #0C3203",
"zJ+	c #93CA78",
"AJ+	c #649249",
"BJ+	c #232B03",
"CJ+	c #2B1F13",
"DJ+	c #0D0608",
"EJ+	c #020106",
"FJ+	c #070005",
"GJ+	c #050208",
"HJ+	c #040C00",
"IJ+	c #263211",
"JJ+	c #907B60",
"KJ+	c #DDA49C",
"LJ+	c #A36A66",
"MJ+	c #89644E",
"NJ+	c #404E2B",
"OJ+	c #161906",
"PJ+	c #111D0A",
"QJ+	c #172F03",
"RJ+	c #28590C",
"SJ+	c #3E8420",
"TJ+	c #A7CC8D",
"UJ+	c #E9F8D0",
"VJ+	c #C6E0A1",
"WJ+	c #78A53C",
"XJ+	c #4D7617",
"YJ+	c #333607",
"ZJ+	c #370801",
"`J+	c #440305",
" K+	c #4F000A",
".K+	c #5C0009",
"+K+	c #660204",
"@K+	c #860106",
"#K+	c #97010D",
"$K+	c #9F0318",
"%K+	c #A7192F",
"&K+	c #C55162",
"*K+	c #EA93A7",
"=K+	c #F6CDD1",
"-K+	c #FEF1E5",
";K+	c #FAE4DE",
">K+	c #E6B9BD",
",K+	c #BE757E",
"'K+	c #972233",
")K+	c #8D041A",
"!K+	c #860A1C",
"~K+	c #861528",
"{K+	c #8A213B",
"]K+	c #8A2C43",
"^K+	c #872D45",
"/K+	c #83233F",
"(K+	c #781733",
"_K+	c #6A152E",
":K+	c #5B192B",
"<K+	c #451725",
"[K+	c #23060D",
"}K+	c #1E0104",
"|K+	c #230208",
"1K+	c #050103",
"2K+	c #0B0400",
"3K+	c #0D1C02",
"4K+	c #2A731D",
"5K+	c #164A04",
"6K+	c #0D1C03",
"7K+	c #090104",
"8K+	c #0D0104",
"9K+	c #150B06",
"0K+	c #2A2F1F",
"aK+	c #3B4C2E",
"bK+	c #38552A",
"cK+	c #3C5E2F",
"dK+	c #426341",
"eK+	c #426448",
"fK+	c #436048",
"gK+	c #465946",
"hK+	c #41493A",
"iK+	c #454539",
"jK+	c #3A352B",
"kK+	c #2A1715",
"lK+	c #351A1E",
"mK+	c #3A1718",
"nK+	c #4D171B",
"oK+	c #602124",
"pK+	c #751A1E",
"qK+	c #F2C6B2",
"rK+	c #911E1F",
"sK+	c #7A1821",
"tK+	c #762730",
"uK+	c #581A1E",
"vK+	c #56131A",
"wK+	c #4C121A",
"xK+	c #2B0408",
"yK+	c #421216",
"zK+	c #330D0E",
"AK+	c #311214",
"BK+	c #3A1D22",
"CK+	c #321C1F",
"DK+	c #260F12",
"EK+	c #251113",
"FK+	c #231013",
"GK+	c #200E10",
"HK+	c #341A1E",
"IK+	c #330C11",
"JK+	c #3F181D",
"KK+	c #28060A",
"LK+	c #42090D",
"MK+	c #4D0C13",
"NK+	c #6B292E",
"OK+	c #6A1218",
"PK+	c #8B1823",
"QK+	c #B44032",
"RK+	c #FBD5BA",
"SK+	c #D99382",
"TK+	c #8E1A22",
"UK+	c #5A1921",
"VK+	c #381A1A",
"WK+	c #1B0609",
"XK+	c #281013",
"YK+	c #1D0602",
"ZK+	c #190F05",
"`K+	c #18190B",
" L+	c #041B01",
".L+	c #043200",
"+L+	c #095406",
"@L+	c #387C17",
"#L+	c #A8CF84",
"$L+	c #E8FCDA",
"%L+	c #EBFCD2",
"&L+	c #BBE389",
"*L+	c #74BF38",
"=L+	c #54BE11",
"-L+	c #5EC51A",
";L+	c #61B21D",
">L+	c #3A840D",
",L+	c #1E6701",
"'L+	c #175C01",
")L+	c #195906",
"!L+	c #145008",
"~L+	c #083906",
"{L+	c #013700",
"]L+	c #3E8225",
"^L+	c #92DF56",
"/L+	c #447310",
"(L+	c #3D2102",
"_L+	c #590C01",
":L+	c #BB5D64",
"<L+	c #FEE7E8",
"[L+	c #ED9CA0",
"}L+	c #8D0B1A",
"|L+	c #400208",
"1L+	c #2A0902",
"2L+	c #1F2014",
"3L+	c #204029",
"4L+	c #0B1C07",
"5L+	c #091302",
"6L+	c #012301",
"7L+	c #043903",
"8L+	c #246617",
"9L+	c #ACE88D",
"0L+	c #9EDD7E",
"aL+	c #0E5901",
"bL+	c #013C03",
"cL+	c #44AB44",
"dL+	c #6DDC6E",
"eL+	c #024503",
"fL+	c #030B01",
"gL+	c #061800",
"hL+	c #115904",
"iL+	c #A6D089",
"jL+	c #F4FED7",
"kL+	c #97BE6B",
"lL+	c #407606",
"mL+	c #263A02",
"nL+	c #0E0C00",
"oL+	c #070A08",
"pL+	c #0A2607",
"qL+	c #1B5402",
"rL+	c #9BCA7D",
"sL+	c #F1FDD5",
"tL+	c #95D65E",
"uL+	c #56890A",
"vL+	c #3F3202",
"wL+	c #250D07",
"xL+	c #530203",
"yL+	c #9A222B",
"zL+	c #F9C8D7",
"AL+	c #CF7581",
"BL+	c #70010C",
"CL+	c #031403",
"DL+	c #2E5820",
"EL+	c #A3D885",
"FL+	c #3C5E1E",
"GL+	c #1D2602",
"HL+	c #0E1603",
"IL+	c #38321D",
"JL+	c #671B17",
"KL+	c #CB7B7E",
"LL+	c #F3D2CD",
"ML+	c #A36A64",
"NL+	c #825C45",
"OL+	c #57472F",
"PL+	c #201602",
"QL+	c #111A03",
"RL+	c #151E07",
"SL+	c #23430A",
"TL+	c #2D6804",
"UL+	c #75A551",
"VL+	c #D9EAB9",
"WL+	c #EBF4CD",
"XL+	c #ACCF80",
"YL+	c #6B9A3A",
"ZL+	c #395B12",
"`L+	c #212301",
" M+	c #360506",
".M+	c #43000B",
"+M+	c #410106",
"@M+	c #4C020A",
"#M+	c #59050C",
"$M+	c #6F060B",
"%M+	c #84010B",
"&M+	c #8F020F",
"*M+	c #9E061A",
"=M+	c #B21429",
"-M+	c #CF5763",
";M+	c #E4A8AB",
">M+	c #FAD8D7",
",M+	c #FEEDEF",
"'M+	c #FCE2E4",
")M+	c #E1B4B6",
"!M+	c #B97477",
"~M+	c #8F2B33",
"{M+	c #83061A",
"]M+	c #7C1421",
"^M+	c #7C232D",
"/M+	c #812838",
"(M+	c #862C43",
"_M+	c #842A47",
":M+	c #782040",
"<M+	c #6C1836",
"[M+	c #6B1832",
"}M+	c #531829",
"|M+	c #2C0610",
"1M+	c #1C0105",
"2M+	c #110103",
"3M+	c #080104",
"4M+	c #100302",
"5M+	c #141A04",
"6M+	c #173907",
"7M+	c #0E1E03",
"8M+	c #0F0A03",
"9M+	c #070502",
"0M+	c #090902",
"aM+	c #0D0E03",
"bM+	c #0E1201",
"cM+	c #1A3008",
"dM+	c #234C09",
"eM+	c #55753C",
"fM+	c #94B571",
"gM+	c #81AC56",
"hM+	c #63903E",
"iM+	c #4E7634",
"jM+	c #4B683E",
"kM+	c #38532B",
"lM+	c #3B4B29",
"mM+	c #3E3E28",
"nM+	c #2C1F15",
"oM+	c #1F0908",
"pM+	c #371B1D",
"qM+	c #381818",
"rM+	c #300104",
"sM+	c #5E1E21",
"tM+	c #781D22",
"uM+	c #A72026",
"vM+	c #921F20",
"wM+	c #791821",
"xM+	c #75262E",
"yM+	c #58131A",
"zM+	c #4B1018",
"AM+	c #2D0409",
"BM+	c #2D0204",
"CM+	c #431216",
"DM+	c #350D0F",
"EM+	c #331114",
"FM+	c #3B1C22",
"GM+	c #150406",
"HM+	c #311B1E",
"IM+	c #241115",
"JM+	c #261F1C",
"KM+	c #201B1D",
"LM+	c #311014",
"MM+	c #350D12",
"NM+	c #40181D",
"OM+	c #440A0D",
"PM+	c #4F0C14",
"QM+	c #591920",
"RM+	c #712E33",
"SM+	c #6B1218",
"TM+	c #8C1723",
"UM+	c #B64131",
"VM+	c #D89381",
"WM+	c #8D1B21",
"XM+	c #731D21",
"YM+	c #5D1C23",
"ZM+	c #300309",
"`M+	c #381B1A",
" N+	c #1D070A",
".N+	c #200709",
"+N+	c #220C07",
"@N+	c #1A1708",
"#N+	c #121B05",
"$N+	c #062D00",
"%N+	c #0E5306",
"&N+	c #35801C",
"*N+	c #B0D994",
"=N+	c #F1FECE",
"-N+	c #E1FAB6",
";N+	c #94D05A",
">N+	c #54B210",
",N+	c #60C019",
"'N+	c #59B019",
")N+	c #2F7807",
"!N+	c #0D4D06",
"~N+	c #094904",
"{N+	c #0F4706",
"]N+	c #0A3804",
"^N+	c #052D04",
"/N+	c #032D04",
"(N+	c #033D03",
"_N+	c #327A16",
":N+	c #8BE455",
"<N+	c #70A93E",
"[N+	c #403C03",
"}N+	c #460E04",
"|N+	c #690E04",
"1N+	c #D19193",
"2N+	c #FEE8E9",
"3N+	c #D86B74",
"4N+	c #72030F",
"5N+	c #370208",
"6N+	c #2A0E04",
"7N+	c #202919",
"8N+	c #163B23",
"9N+	c #081502",
"0N+	c #042D05",
"aN+	c #084003",
"bN+	c #519740",
"cN+	c #D0F9B3",
"dN+	c #65B14C",
"eN+	c #034505",
"fN+	c #0D5E0B",
"gN+	c #6DE66D",
"hN+	c #4F9F53",
"iN+	c #011F02",
"jN+	c #0A1F01",
"kN+	c #113B05",
"lN+	c #D0E9B5",
"mN+	c #EAFAD4",
"nN+	c #69A32F",
"oN+	c #3E640A",
"pN+	c #1C2601",
"qN+	c #130806",
"rN+	c #0F0A01",
"sN+	c #090703",
"tN+	c #070D06",
"uN+	c #0D380C",
"vN+	c #36710F",
"wN+	c #CDEBAF",
"xN+	c #DAF7B8",
"yN+	c #77AE1C",
"zN+	c #476617",
"AN+	c #2A2301",
"BN+	c #230502",
"CN+	c #570103",
"DN+	c #A1252F",
"EN+	c #FAC8D6",
"FN+	c #CF717E",
"GN+	c #380404",
"HN+	c #050004",
"IN+	c #070607",
"JN+	c #062003",
"KN+	c #679850",
"LN+	c #95C670",
"MN+	c #27470A",
"NN+	c #162D0A",
"ON+	c #052404",
"PN+	c #031404",
"QN+	c #4E080E",
"RN+	c #931A2A",
"SN+	c #E09DA1",
"TN+	c #F5DDD1",
"UN+	c #B17976",
"VN+	c #755736",
"WN+	c #554D25",
"XN+	c #20200C",
"YN+	c #0F1B01",
"ZN+	c #101A02",
"`N+	c #1F360B",
" O+	c #28530F",
".O+	c #3D7324",
"+O+	c #99BE84",
"@O+	c #E1F6C3",
"#O+	c #DCEFB5",
"$O+	c #95B463",
"%O+	c #4C6E1F",
"&O+	c #212F04",
"*O+	c #1C0D04",
"=O+	c #230806",
"-O+	c #2C0407",
";O+	c #360304",
">O+	c #5B0308",
",O+	c #6C030F",
"'O+	c #78070E",
")O+	c #86040D",
"!O+	c #9B0210",
"~O+	c #AC0519",
"{O+	c #BC2434",
"]O+	c #D26A7A",
"^O+	c #E6B0B9",
"/O+	c #F9E1E3",
"(O+	c #FFEBEE",
"_O+	c #F8D8DB",
":O+	c #D9B0AD",
"<O+	c #B0696C",
"[O+	c #901D27",
"}O+	c #870A1C",
"|O+	c #86152D",
"1O+	c #8C2243",
"2O+	c #942C54",
"3O+	c #8A264D",
"4O+	c #7C213D",
"5O+	c #781D37",
"6O+	c #6A1A33",
"7O+	c #4F182A",
"8O+	c #2C0714",
"9O+	c #150106",
"0O+	c #0F0105",
"aO+	c #100105",
"bO+	c #120C00",
"cO+	c #161003",
"dO+	c #130905",
"eO+	c #070402",
"fO+	c #12260E",
"gO+	c #1F4019",
"hO+	c #234917",
"iO+	c #1E460F",
"jO+	c #173F08",
"kO+	c #194008",
"lO+	c #1C4602",
"mO+	c #225201",
"nO+	c #3D671B",
"oO+	c #C5E69B",
"pO+	c #ECFDC2",
"qO+	c #F1FFCB",
"rO+	c #E6FBC6",
"sO+	c #CAE7B0",
"tO+	c #95BB77",
"uO+	c #548434",
"vO+	c #396324",
"wO+	c #32461C",
"xO+	c #3F3D24",
"yO+	c #2A2318",
"zO+	c #361A1B",
"AO+	c #4E181C",
"BO+	c #791C21",
"CO+	c #F2C5B2",
"DO+	c #7B1922",
"EO+	c #792932",
"FO+	c #5C1B20",
"GO+	c #571119",
"HO+	c #4E111A",
"IO+	c #2F0509",
"JO+	c #2F0306",
"KO+	c #451116",
"LO+	c #360D0F",
"MO+	c #3C1C22",
"NO+	c #160406",
"OO+	c #301B1E",
"PO+	c #18080E",
"QO+	c #3B2320",
"RO+	c #302425",
"SO+	c #080505",
"TO+	c #340F14",
"UO+	c #390D14",
"VO+	c #401519",
"WO+	c #2A0606",
"XO+	c #480B0D",
"YO+	c #5B181F",
"ZO+	c #712C30",
"`O+	c #6C1016",
" P+	c #B74334",
".P+	c #FCDDC7",
"+P+	c #D8917A",
"@P+	c #8E1C1E",
"#P+	c #741E21",
"$P+	c #5B1B22",
"%P+	c #280203",
"&P+	c #401C1A",
"*P+	c #351817",
"=P+	c #170406",
"-P+	c #1E0408",
";P+	c #241307",
">P+	c #132406",
",P+	c #0B2202",
"'P+	c #154702",
")P+	c #287B0D",
"!P+	c #ACD588",
"~P+	c #EDFFCB",
"{P+	c #7ACB38",
"]P+	c #4FB216",
"^P+	c #58B71E",
"/P+	c #33800A",
"(P+	c #0A4402",
"_P+	c #043106",
":P+	c #032A02",
"<P+	c #052402",
"[P+	c #033704",
"}P+	c #0E5C04",
"|P+	c #4D9A30",
"1P+	c #9FE769",
"2P+	c #86C747",
"3P+	c #446106",
"4P+	c #3F3005",
"5P+	c #490805",
"6P+	c #72190E",
"7P+	c #E9AEB7",
"8P+	c #FCD5CE",
"9P+	c #BB384B",
"0P+	c #5C0207",
"aP+	c #310204",
"bP+	c #20130E",
"cP+	c #213929",
"dP+	c #1A311E",
"eP+	c #081302",
"fP+	c #081A04",
"gP+	c #0A3407",
"hP+	c #0F4902",
"iP+	c #80CB6B",
"jP+	c #C2F3A6",
"kP+	c #318219",
"lP+	c #023E09",
"mP+	c #369A35",
"nP+	c #7CEB78",
"oP+	c #1B5A1C",
"pP+	c #011603",
"qP+	c #000A01",
"rP+	c #092201",
"sP+	c #0F4101",
"tP+	c #3E8928",
"uP+	c #E5F4C9",
"vP+	c #4E9108",
"wP+	c #38530F",
"xP+	c #161E00",
"yP+	c #0B0604",
"zP+	c #061009",
"AP+	c #072209",
"BP+	c #0D4302",
"CP+	c #578D2E",
"DP+	c #E0F9BF",
"EP+	c #C1EB9B",
"FP+	c #60910F",
"GP+	c #384E04",
"HP+	c #201801",
"IP+	c #1C0002",
"JP+	c #240003",
"KP+	c #350000",
"LP+	c #A2212C",
"MP+	c #F7C5D0",
"NP+	c #D07083",
"OP+	c #730101",
"PP+	c #3E020B",
"QP+	c #0E2804",
"RP+	c #85BD61",
"SP+	c #75AF54",
"TP+	c #183E08",
"UP+	c #123605",
"VP+	c #083304",
"WP+	c #5D040A",
"XP+	c #9A1219",
"YP+	c #DB8588",
"ZP+	c #F8DDD8",
"`P+	c #B98C87",
" Q+	c #794F2C",
".Q+	c #665735",
"+Q+	c #2C280E",
"@Q+	c #191806",
"#Q+	c #101904",
"$Q+	c #162703",
"%Q+	c #183E04",
"&Q+	c #1C530A",
"*Q+	c #5B8344",
"=Q+	c #C0D1A1",
"-Q+	c #D3F2AB",
";Q+	c #65893D",
">Q+	c #203906",
",Q+	c #091905",
"'Q+	c #111806",
")Q+	c #192005",
"!Q+	c #232706",
"~Q+	c #2C2107",
"{Q+	c #331007",
"]Q+	c #3D0509",
"^Q+	c #4A0407",
"/Q+	c #56060A",
"(Q+	c #68030C",
"_Q+	c #950214",
":Q+	c #990514",
"<Q+	c #A8091F",
"[Q+	c #B93243",
"}Q+	c #CF727E",
"|Q+	c #EDB0BA",
"1Q+	c #FBDFE5",
"2Q+	c #FEECE8",
"3Q+	c #EFD2CF",
"4Q+	c #D1949B",
"5Q+	c #A0414B",
"6Q+	c #7A0617",
"7Q+	c #800F28",
"8Q+	c #8A1E3D",
"9Q+	c #922447",
"0Q+	c #87223F",
"aQ+	c #7B1F38",
"bQ+	c #791A38",
"cQ+	c #721D36",
"dQ+	c #430F1A",
"eQ+	c #190403",
"fQ+	c #151806",
"gQ+	c #29461E",
"hQ+	c #3A6C35",
"iQ+	c #336E2B",
"jQ+	c #2E6F1F",
"kQ+	c #2C7112",
"lQ+	c #2E740D",
"mQ+	c #2A6D05",
"nQ+	c #246504",
"oQ+	c #246507",
"pQ+	c #2A6A06",
"qQ+	c #5D9332",
"rQ+	c #91C75C",
"sQ+	c #BBE67C",
"tQ+	c #DEF5A8",
"uQ+	c #F4FAD8",
"vQ+	c #F5FADE",
"wQ+	c #D6E8B7",
"xQ+	c #74A055",
"yQ+	c #39681E",
"zQ+	c #344614",
"AQ+	c #393D27",
"BQ+	c #23180E",
"CQ+	c #321916",
"DQ+	c #371517",
"EQ+	c #320305",
"FQ+	c #5F1D21",
"GQ+	c #7B1A1E",
"HQ+	c #EFAA9A",
"IQ+	c #F1C3B5",
"JQ+	c #901B20",
"KQ+	c #7B1822",
"LQ+	c #7D2832",
"MQ+	c #651D25",
"NQ+	c #590F19",
"OQ+	c #310507",
"PQ+	c #330408",
"QQ+	c #3E1E22",
"RQ+	c #190406",
"SQ+	c #321B1F",
"TQ+	c #270F13",
"UQ+	c #3A0D14",
"VQ+	c #421419",
"WQ+	c #2E0607",
"XQ+	c #4B0E11",
"YQ+	c #551017",
"ZQ+	c #5A181E",
"`Q+	c #712D31",
" R+	c #6C1015",
".R+	c #901723",
"+R+	c #B84338",
"@R+	c #FCDBC6",
"#R+	c #D89079",
"$R+	c #901C1F",
"%R+	c #5A1B21",
"&R+	c #401B1A",
"*R+	c #351615",
"=R+	c #1E0A02",
"-R+	c #221B05",
";R+	c #08330A",
">R+	c #226F07",
",R+	c #95C661",
"'R+	c #F0FEC0",
")R+	c #D7F5A1",
"!R+	c #73C23A",
"~R+	c #4BBD1D",
"{R+	c #4BAE27",
"]R+	c #145607",
"^R+	c #023507",
"/R+	c #022305",
"(R+	c #011801",
"_R+	c #081A00",
":R+	c #094803",
"<R+	c #268019",
"[R+	c #5DB23B",
"}R+	c #97DF5B",
"|R+	c #A9EE6C",
"1R+	c #7BB04F",
"2R+	c #345F0D",
"3R+	c #475414",
"4R+	c #402C02",
"5R+	c #4D0A06",
"6R+	c #982724",
"7R+	c #F6CBCD",
"8R+	c #F7B8B8",
"9R+	c #A1182D",
"0R+	c #2C0705",
"aR+	c #1D1F14",
"bR+	c #23412E",
"cR+	c #0C200D",
"dR+	c #063C02",
"eR+	c #1C6311",
"fR+	c #B1EC90",
"gR+	c #A0D97D",
"hR+	c #106305",
"iR+	c #035005",
"jR+	c #70CE6C",
"kR+	c #68D068",
"lR+	c #023902",
"mR+	c #010205",
"nR+	c #0E1005",
"oR+	c #0B2701",
"pR+	c #114A05",
"qR+	c #61A24A",
"rR+	c #EDFCD1",
"sR+	c #BAE09C",
"tR+	c #498705",
"uR+	c #2E4504",
"vR+	c #141900",
"wR+	c #0C0903",
"xR+	c #0A0705",
"yR+	c #072606",
"zR+	c #124A03",
"AR+	c #74A750",
"BR+	c #E9FECD",
"CR+	c #AEDD86",
"DR+	c #518506",
"ER+	c #2A3F01",
"FR+	c #1B1200",
"GR+	c #1D0203",
"HR+	c #260202",
"IR+	c #330100",
"JR+	c #9B1521",
"KR+	c #F4BFC7",
"LR+	c #D78092",
"MR+	c #750303",
"NR+	c #490009",
"OR+	c #193E13",
"PR+	c #8CCB5E",
"QR+	c #5C9335",
"RR+	c #133A04",
"SR+	c #0D3207",
"TR+	c #000C00",
"UR+	c #030809",
"VR+	c #110302",
"WR+	c #310405",
"XR+	c #710405",
"YR+	c #AA0911",
"ZR+	c #CB7978",
"`R+	c #C8A4A1",
" S+	c #804E33",
".S+	c #686239",
"+S+	c #404020",
"@S+	c #221608",
"#S+	c #0D160A",
"$S+	c #10190C",
"%S+	c #112A08",
"&S+	c #163D02",
"*S+	c #254D10",
"=S+	c #315A1F",
"-S+	c #143A03",
";S+	c #0C1E03",
">S+	c #12240A",
",S+	c #1F4D13",
"'S+	c #699B52",
")S+	c #91C675",
"!S+	c #66944A",
"~S+	c #3C5D1E",
"{S+	c #32440E",
"]S+	c #392808",
"^S+	c #3C1104",
"/S+	c #530905",
"(S+	c #6B0305",
"_S+	c #81020B",
":S+	c #990211",
"<S+	c #A80214",
"[S+	c #B00B1D",
"}S+	c #C13947",
"|S+	c #DF848C",
"1S+	c #F7C4C9",
"2S+	c #FBF0EF",
"3S+	c #F6EBEB",
"4S+	c #E0B3B8",
"5S+	c #AE6362",
"6S+	c #821619",
"7S+	c #790A24",
"8S+	c #8B1E3E",
"9S+	c #8F2542",
"0S+	c #88213E",
"aS+	c #7C1932",
"bS+	c #6E202E",
"cS+	c #531A27",
"dS+	c #120002",
"eS+	c #101001",
"fS+	c #202E0D",
"gS+	c #204510",
"hS+	c #1D560D",
"iS+	c #5B8F4D",
"jS+	c #B6D8A1",
"kS+	c #CFEDB2",
"lS+	c #CDF1A7",
"mS+	c #BDE991",
"nS+	c #A0D378",
"oS+	c #6CAA4A",
"pS+	c #3F861B",
"qS+	c #337407",
"rS+	c #2E6C01",
"sS+	c #327705",
"tS+	c #54991A",
"uS+	c #97CD57",
"vS+	c #D9F1A4",
"wS+	c #E8F5CA",
"xS+	c #85AC60",
"yS+	c #376A20",
"zS+	c #2E3B11",
"AS+	c #362F18",
"BS+	c #301C13",
"CS+	c #361313",
"DS+	c #2C0004",
"ES+	c #2F0103",
"FS+	c #78171C",
"GS+	c #F0AC9B",
"HS+	c #F1C1B4",
"IS+	c #8F191E",
"JS+	c #7C1823",
"KS+	c #7E2833",
"LS+	c #661D26",
"MS+	c #5E161E",
"NS+	c #511218",
"OS+	c #320507",
"PS+	c #350509",
"QS+	c #3B0D0F",
"RS+	c #331213",
"SS+	c #180406",
"TS+	c #260E11",
"US+	c #251214",
"VS+	c #220D0F",
"WS+	c #201C1E",
"XS+	c #1D0A0C",
"YS+	c #351015",
"ZS+	c #3B0D14",
"`S+	c #46161B",
" T+	c #320508",
".T+	c #4D0C10",
"+T+	c #580F17",
"@T+	c #5F1920",
"#T+	c #732A2F",
"$T+	c #721319",
"%T+	c #941925",
"&T+	c #B94238",
"*T+	c #FCD9C4",
"=T+	c #D98F79",
"-T+	c #921C1F",
";T+	c #741D21",
">T+	c #270102",
",T+	c #451F1E",
"'T+	c #381817",
")T+	c #1B0401",
"!T+	c #211604",
"~T+	c #1D2209",
"{T+	c #142E01",
"]T+	c #135604",
"^T+	c #63A63F",
"/T+	c #E0F9B6",
"(T+	c #DDF9AE",
"_T+	c #7FCA47",
":T+	c #4CBF1A",
"<T+	c #3EA11A",
"[T+	c #064203",
"}T+	c #03290C",
"|T+	c #011906",
"1T+	c #020E02",
"2T+	c #011304",
"3T+	c #1C6215",
"4T+	c #7EC75A",
"5T+	c #ADF174",
"6T+	c #ADED73",
"7T+	c #83BB4B",
"8T+	c #3D7717",
"9T+	c #306203",
"0T+	c #2F5505",
"aT+	c #3C4409",
"bT+	c #3D2201",
"cT+	c #5A0806",
"dT+	c #B63E3E",
"eT+	c #F1969E",
"fT+	c #8C071D",
"gT+	c #410304",
"hT+	c #250A06",
"iT+	c #1A2A1B",
"jT+	c #20422B",
"kT+	c #061404",
"lT+	c #041801",
"mT+	c #072D04",
"nT+	c #054301",
"oT+	c #448C36",
"pT+	c #CBFBA6",
"qT+	c #73B650",
"rT+	c #025002",
"sT+	c #1F7921",
"tT+	c #92F091",
"uT+	c #409240",
"vT+	c #012B00",
"wT+	c #010206",
"xT+	c #101205",
"yT+	c #0B2D01",
"zT+	c #0F5105",
"AT+	c #7FB564",
"BT+	c #F3FED8",
"CT+	c #9FD277",
"DT+	c #437903",
"ET+	c #273A01",
"FT+	c #141600",
"GT+	c #080806",
"HT+	c #040A00",
"IT+	c #051901",
"JT+	c #062904",
"KT+	c #134C02",
"LT+	c #8CBA6C",
"MT+	c #F0FFD7",
"NT+	c #9BD26B",
"OT+	c #487D02",
"PT+	c #233400",
"QT+	c #1B1000",
"RT+	c #1B0205",
"ST+	c #1C0003",
"TT+	c #530001",
"UT+	c #930B14",
"VT+	c #ECA9B1",
"WT+	c #E69AAC",
"XT+	c #7E0710",
"YT+	c #3A0004",
"ZT+	c #18480D",
"`T+	c #7BC661",
" U+	c #37742C",
".U+	c #032403",
"+U+	c #0D1517",
"@U+	c #081211",
"#U+	c #0C0407",
"$U+	c #3B030F",
"%U+	c #740202",
"&U+	c #99030D",
"*U+	c #C35360",
"=U+	c #F6D2CF",
"-U+	c #DEC1B4",
";U+	c #8D5946",
">U+	c #83623F",
",U+	c #625A36",
"'U+	c #0A0E05",
")U+	c #0C1306",
"!U+	c #132306",
"~U+	c #0C2604",
"{U+	c #081C0C",
"]U+	c #12330B",
"^U+	c #5F885B",
"/U+	c #BEDCAA",
"(U+	c #EBFDD1",
"_U+	c #EAFED1",
":U+	c #E1FDCC",
"<U+	c #D4F1C3",
"[U+	c #B5CDAB",
"}U+	c #6E9B64",
"|U+	c #3B6020",
"1U+	c #364009",
"2U+	c #392708",
"3U+	c #3B120D",
"4U+	c #420807",
"5U+	c #49030A",
"6U+	c #5A0310",
"7U+	c #710513",
"8U+	c #800410",
"9U+	c #950210",
"0U+	c #AC021A",
"aU+	c #B21129",
"bU+	c #C45D65",
"cU+	c #E8A7B3",
"dU+	c #FDF0EC",
"eU+	c #EDCBC7",
"fU+	c #C48383",
"gU+	c #952C32",
"hU+	c #7B0D1C",
"iU+	c #7B2331",
"jU+	c #82233B",
"kU+	c #831E3E",
"lU+	c #77213B",
"mU+	c #591526",
"nU+	c #2D0004",
"oU+	c #100402",
"pU+	c #181506",
"qU+	c #1B2807",
"rU+	c #193606",
"sU+	c #1A490D",
"tU+	c #A2D894",
"uU+	c #D8F6B4",
"vU+	c #F1F8C4",
"wU+	c #F7F8D5",
"xU+	c #F8FBE4",
"yU+	c #F6FAE6",
"zU+	c #F6F8E0",
"AU+	c #D7EBBE",
"BU+	c #8CC174",
"CU+	c #3D811D",
"DU+	c #2C620A",
"EU+	c #2B5A09",
"FU+	c #2F6500",
"GU+	c #528E16",
"HU+	c #ACD270",
"IU+	c #F5F9CB",
"JU+	c #F0F8C6",
"KU+	c #7EA653",
"LU+	c #2D580D",
"MU+	c #2A330D",
"NU+	c #2F220F",
"OU+	c #351312",
"PU+	c #5F1D20",
"QU+	c #7C1B1F",
"RU+	c #AA1F25",
"SU+	c #EFA899",
"TU+	c #F2C1B4",
"UU+	c #921A20",
"VU+	c #811A26",
"WU+	c #802833",
"XU+	c #6B2028",
"YU+	c #62151D",
"ZU+	c #58141B",
"`U+	c #39060A",
" V+	c #3D0B0E",
".V+	c #371214",
"+V+	c #3E1D21",
"@V+	c #0D0202",
"#V+	c #260D11",
"$V+	c #220F13",
"%V+	c #28201D",
"&V+	c #38201C",
"*V+	c #1F0C0D",
"=V+	c #38191F",
"-V+	c #361016",
";V+	c #3D0D15",
">V+	c #49161D",
",V+	c #36060A",
"'V+	c #3D0108",
")V+	c #560C13",
"!V+	c #5D0C17",
"~V+	c #6A1B26",
"{V+	c #7B2931",
"]V+	c #79121B",
"^V+	c #961925",
"/V+	c #BC4136",
"(V+	c #FCD8C3",
"_V+	c #D98F78",
":V+	c #931C20",
"<V+	c #5A1A21",
"[V+	c #371715",
"}V+	c #1F0A02",
"|V+	c #231F06",
"1V+	c #172806",
"2V+	c #153D08",
"3V+	c #327D0E",
"4V+	c #C2E592",
"5V+	c #EBFFC1",
"6V+	c #94DA68",
"7V+	c #53C11F",
"8V+	c #399617",
"9V+	c #093C06",
"0V+	c #072206",
"aV+	c #042202",
"bV+	c #5CA337",
"cV+	c #A0EA69",
"dV+	c #70AC3F",
"eV+	c #3A7D10",
"fV+	c #307606",
"gV+	c #3D7411",
"hV+	c #456E13",
"iV+	c #456012",
"jV+	c #474311",
"kV+	c #411701",
"lV+	c #C6625C",
"mV+	c #DF7482",
"nV+	c #74020E",
"oV+	c #390304",
"pV+	c #220D06",
"qV+	c #1C3622",
"rV+	c #193C25",
"sV+	c #041C03",
"tV+	c #074602",
"uV+	c #74B763",
"vV+	c #C6F9A4",
"wV+	c #3A8D27",
"xV+	c #014D01",
"yV+	c #54AC50",
"zV+	c #90ED91",
"AV+	c #1B5D1D",
"BV+	c #020500",
"CV+	c #111304",
"DV+	c #0C3200",
"EV+	c #0C5705",
"FV+	c #99C678",
"GV+	c #F3FCDB",
"HV+	c #8AC958",
"IV+	c #3F6D03",
"JV+	c #233100",
"KV+	c #131200",
"LV+	c #060906",
"MV+	c #040B00",
"NV+	c #052B07",
"OV+	c #155001",
"PV+	c #9ECA81",
"QV+	c #F2FFD9",
"RV+	c #8ECB57",
"SV+	c #407802",
"TV+	c #1F2E03",
"UV+	c #1C0F00",
"VV+	c #630106",
"WV+	c #90080D",
"XV+	c #DF8591",
"YV+	c #F4B8CA",
"ZV+	c #991F2E",
"`V+	c #420005",
" W+	c #150000",
".W+	c #204E1A",
"+W+	c #42783C",
"@W+	c #001500",
"#W+	c #0E1919",
"$W+	c #0B1212",
"%W+	c #170209",
"&W+	c #320603",
"*W+	c #580608",
"=W+	c #8E010F",
"-W+	c #B63942",
";W+	c #EAB1AE",
">W+	c #F1D5C3",
",W+	c #AC7C6D",
"'W+	c #82603C",
")W+	c #7C6040",
"!W+	c #2C2516",
"~W+	c #060C03",
"{W+	c #050C03",
"]W+	c #080F06",
"^W+	c #2F5224",
"/W+	c #93C280",
"(W+	c #D4F9BE",
"_W+	c #D4F3BE",
":W+	c #A1C588",
"<W+	c #80A46B",
"[W+	c #A5C994",
"}W+	c #CDECC1",
"|W+	c #E5FDDD",
"1W+	c #F4FBD7",
"2W+	c #CEECAF",
"3W+	c #92C47B",
"4W+	c #53833F",
"5W+	c #33531B",
"6W+	c #2E3008",
"7W+	c #302108",
"8W+	c #380F0A",
"9W+	c #45030A",
"0W+	c #51020A",
"aW+	c #61030B",
"bW+	c #73030E",
"cW+	c #8B0311",
"dW+	c #9E0314",
"eW+	c #AC0918",
"fW+	c #C23C45",
"gW+	c #E08C98",
"hW+	c #F5CFD6",
"iW+	c #FEEDF1",
"jW+	c #F4D6D7",
"kW+	c #C99598",
"lW+	c #962E3B",
"mW+	c #910925",
"nW+	c #891632",
"oW+	c #811E36",
"pW+	c #762233",
"qW+	c #3F040A",
"rW+	c #140004",
"sW+	c #100004",
"tW+	c #160A06",
"uW+	c #161A05",
"vW+	c #162A03",
"wW+	c #193703",
"xW+	c #1D4404",
"yW+	c #386E16",
"zW+	c #5C8F20",
"AW+	c #6FA228",
"BW+	c #7DB140",
"CW+	c #96C962",
"DW+	c #B8DF8B",
"EW+	c #DEEFBD",
"FW+	c #F5FAD7",
"GW+	c #F5FBD0",
"HW+	c #C8E6AD",
"IW+	c #639153",
"JW+	c #2C5407",
"KW+	c #2F4E01",
"LW+	c #2C4704",
"MW+	c #3B640C",
"NW+	c #A4BF61",
"OW+	c #F1F8C8",
"PW+	c #DDEDB8",
"QW+	c #54822D",
"RW+	c #233D03",
"SW+	c #2D270D",
"TW+	c #2F0107",
"UW+	c #300302",
"VW+	c #4D181B",
"WW+	c #601D21",
"XW+	c #7D1D21",
"YW+	c #AA1E24",
"ZW+	c #EEA698",
"`W+	c #F2BFB3",
" X+	c #961C23",
".X+	c #841C28",
"+X+	c #832936",
"@X+	c #71222B",
"#X+	c #6A141D",
"$X+	c #5F131A",
"%X+	c #41050B",
"&X+	c #54111A",
"*X+	c #400B10",
"=X+	c #381114",
"-X+	c #3F1D21",
";X+	c #311A1E",
">X+	c #240B0F",
",X+	c #230F10",
"'X+	c #210E12",
")X+	c #190A0F",
"!X+	c #200D11",
"~X+	c #1E0A0C",
"{X+	c #0B0405",
"]X+	c #3B1A20",
"^X+	c #3A1015",
"/X+	c #410D15",
"(X+	c #4F171E",
"_X+	c #3A060B",
":X+	c #5D0E15",
"<X+	c #6E1220",
"[X+	c #75202E",
"}X+	c #882734",
"|X+	c #80121C",
"1X+	c #9E1C2A",
"2X+	c #BE4239",
"3X+	c #FCD8C7",
"4X+	c #D98D77",
"5X+	c #931D20",
"6X+	c #741E23",
"7X+	c #5C1D23",
"8X+	c #300307",
"9X+	c #190300",
"0X+	c #241308",
"aX+	c #212205",
"bX+	c #1A5011",
"cX+	c #68AD45",
"dX+	c #F2FBC0",
"eX+	c #CCF291",
"fX+	c #5ECB1B",
"gX+	c #399419",
"hX+	c #064107",
"iX+	c #020205",
"jX+	c #000C01",
"kX+	c #0A3501",
"lX+	c #70CA3C",
"mX+	c #5AB225",
"nX+	c #3D8B0D",
"oX+	c #3C8306",
"pX+	c #4B8715",
"qX+	c #517A13",
"rX+	c #3E580C",
"sX+	c #2B3204",
"tX+	c #381A04",
"uX+	c #4A0B07",
"vX+	c #7B050C",
"wX+	c #D5857E",
"xX+	c #CC5966",
"yX+	c #610007",
"zX+	c #360305",
"AX+	c #23150C",
"BX+	c #243F2A",
"CX+	c #11311A",
"DX+	c #032205",
"EX+	c #063404",
"FX+	c #0C5004",
"GX+	c #9BDA89",
"HX+	c #ACE98F",
"IX+	c #167010",
"JX+	c #065502",
"KX+	c #7DD478",
"LX+	c #7DD47E",
"MX+	c #0A0701",
"NX+	c #111504",
"OX+	c #0D5903",
"PX+	c #F3FCD8",
"QX+	c #7BBE44",
"RX+	c #3C6602",
"SX+	c #141100",
"TX+	c #0A0A05",
"UX+	c #155403",
"VX+	c #A6CF85",
"WX+	c #88C94C",
"XX+	c #3C7304",
"YX+	c #1F2D05",
"ZX+	c #500106",
"`X+	c #85111A",
" Y+	c #980D11",
".Y+	c #C84D5C",
"+Y+	c #FFCBD9",
"@Y+	c #C7576C",
"#Y+	c #640307",
"$Y+	c #4B0106",
"%Y+	c #070108",
"&Y+	c #041004",
"*Y+	c #040106",
"=Y+	c #060A05",
"-Y+	c #0A1806",
";Y+	c #020607",
">Y+	c #111612",
",Y+	c #0C150A",
"'Y+	c #36020A",
")Y+	c #510506",
"!Y+	c #790304",
"~Y+	c #A21922",
"{Y+	c #CF8A84",
"]Y+	c #FBE2CE",
"^Y+	c #D1A89C",
"/Y+	c #753B31",
"(Y+	c #422922",
"_Y+	c #49783D",
":Y+	c #B1DD92",
"<Y+	c #D0F5AF",
"[Y+	c #9CC689",
"}Y+	c #487535",
"|Y+	c #235504",
"1Y+	c #295E0A",
"2Y+	c #29650C",
"3Y+	c #306F1E",
"4Y+	c #639D59",
"5Y+	c #AED29F",
"6Y+	c #E1F8D2",
"7Y+	c #F1FDDC",
"8Y+	c #DDF7BB",
"9Y+	c #B5E28D",
"0Y+	c #81B95A",
"aY+	c #498427",
"bY+	c #2E560F",
"cY+	c #313207",
"dY+	c #331201",
"eY+	c #400303",
"fY+	c #4A020A",
"gY+	c #74011A",
"hY+	c #84021B",
"iY+	c #970515",
"jY+	c #AD0311",
"kY+	c #BC2231",
"lY+	c #F3C0CD",
"mY+	c #F6DDDA",
"nY+	c #CE9498",
"oY+	c #8F2A30",
"pY+	c #7B1120",
"qY+	c #791A28",
"rY+	c #580811",
"sY+	c #160502",
"tY+	c #141805",
"uY+	c #264A0E",
"vY+	c #26560A",
"wY+	c #276204",
"xY+	c #266A01",
"yY+	c #296507",
"zY+	c #2D5C09",
"AY+	c #345605",
"BY+	c #405905",
"CY+	c #496804",
"DY+	c #538718",
"EY+	c #7DAF4E",
"FY+	c #BDDE9B",
"GY+	c #E7FBC4",
"HY+	c #DBF4AA",
"IY+	c #72994E",
"JY+	c #1A4C07",
"KY+	c #1D4003",
"LY+	c #274408",
"MY+	c #34600A",
"NY+	c #A3C96E",
"OY+	c #F2FDD1",
"PY+	c #A2BD81",
"QY+	c #2B4E03",
"RY+	c #2A270D",
"SY+	c #351712",
"TY+	c #30040A",
"UY+	c #511A1D",
"VY+	c #611F23",
"WY+	c #7B1B1F",
"XY+	c #A91D22",
"YY+	c #EEA596",
"ZY+	c #F1B9A7",
"`Y+	c #9F1D26",
" Z+	c #881A29",
".Z+	c #832633",
"+Z+	c #7D222A",
"@Z+	c #781922",
"#Z+	c #68141C",
"$Z+	c #4C060D",
"%Z+	c #40080C",
"&Z+	c #54141B",
"*Z+	c #420A10",
"=Z+	c #3B1116",
"-Z+	c #411D23",
";Z+	c #321A1E",
">Z+	c #260D10",
",Z+	c #200C0E",
"'Z+	c #1F1A1A",
")Z+	c #38211B",
"!Z+	c #200404",
"~Z+	c #200D12",
"{Z+	c #1F0B0D",
"]Z+	c #332222",
"^Z+	c #3F181F",
"/Z+	c #3E0E13",
"(Z+	c #450D13",
"_Z+	c #561B21",
":Z+	c #41060B",
"<Z+	c #4E030C",
"[Z+	c #7A131D",
"}Z+	c #851321",
"|Z+	c #942A36",
"1Z+	c #A22636",
"2Z+	c #961522",
"3Z+	c #AA1C2D",
"4Z+	c #BF422D",
"5Z+	c #FCD5C9",
"6Z+	c #D88038",
"7Z+	c #921D22",
"8Z+	c #732025",
"9Z+	c #591C20",
"0Z+	c #2F0305",
"aZ+	c #461C1E",
"bZ+	c #361315",
"cZ+	c #21180B",
"dZ+	c #192103",
"eZ+	c #173703",
"fZ+	c #24640D",
"gZ+	c #A6DA82",
"hZ+	c #F7FCC4",
"iZ+	c #90DA55",
"jZ+	c #3FA51D",
"kZ+	c #044901",
"lZ+	c #022203",
"mZ+	c #001001",
"nZ+	c #010006",
"oZ+	c #000E02",
"pZ+	c #134905",
"qZ+	c #7FDE40",
"rZ+	c #55AF12",
"sZ+	c #498E12",
"tZ+	c #51860F",
"uZ+	c #33530F",
"vZ+	c #212402",
"wZ+	c #1D1803",
"xZ+	c #360C03",
"yZ+	c #48080C",
"zZ+	c #850A11",
"AZ+	c #E79C9D",
"BZ+	c #FEE3DB",
"CZ+	c #BB4046",
"DZ+	c #570107",
"EZ+	c #370709",
"FZ+	c #1D1C0E",
"GZ+	c #0E2712",
"HZ+	c #051602",
"IZ+	c #042A07",
"JZ+	c #063A03",
"KZ+	c #196A10",
"LZ+	c #BAF39F",
"MZ+	c #8BCF77",
"NZ+	c #065C06",
"OZ+	c #146A0C",
"PZ+	c #95EE90",
"QZ+	c #54B059",
"RZ+	c #022801",
"SZ+	c #001300",
"TZ+	c #111905",
"UZ+	c #0A3902",
"VZ+	c #0F5801",
"WZ+	c #A5D18F",
"XZ+	c #F3FFD1",
"YZ+	c #76B63D",
"ZZ+	c #3A6301",
"`Z+	c #252E03",
" `+	c #060B05",
".`+	c #010C01",
"+`+	c #011C02",
"@`+	c #092802",
"#`+	c #0A5205",
"$`+	c #A5CA7C",
"%`+	c #F4FED5",
"&`+	c #88CA4E",
"*`+	c #3D7308",
"=`+	c #1E3001",
"-`+	c #570007",
";`+	c #A42D32",
">`+	c #CB313A",
",`+	c #BF1727",
"'`+	c #EEBABB",
")`+	c #EDAABE",
"!`+	c #830F1C",
"~`+	c #4E0403",
"{`+	c #370005",
"]`+	c #0D1F07",
"^`+	c #071A05",
"/`+	c #0C180B",
"(`+	c #101813",
"_`+	c #09150F",
":`+	c #0A0501",
"<`+	c #4B0306",
"[`+	c #700208",
"}`+	c #94040A",
"|`+	c #B05A50",
"1`+	c #D39591",
"2`+	c #73282F",
"3`+	c #270605",
"4`+	c #040B04",
"5`+	c #3D643A",
"6`+	c #93C887",
"7`+	c #86AE6F",
"8`+	c #456C2A",
"9`+	c #1E4E04",
"0`+	c #1B4804",
"a`+	c #213F04",
"b`+	c #1F3E03",
"c`+	c #234B05",
"d`+	c #285905",
"e`+	c #306809",
"f`+	c #236A0A",
"g`+	c #3C7228",
"h`+	c #8FB17A",
"i`+	c #C5E3B0",
"j`+	c #DFFACB",
"k`+	c #EDFED6",
"l`+	c #B3D78F",
"m`+	c #6B9E4C",
"n`+	c #396E1C",
"o`+	c #2D4811",
"p`+	c #2D2102",
"q`+	c #3F0A06",
"r`+	c #480606",
"s`+	c #56040A",
"t`+	c #68010B",
"u`+	c #7A010D",
"v`+	c #8F0011",
"w`+	c #A00218",
"x`+	c #B21728",
"y`+	c #D26872",
"z`+	c #F1BEC6",
"A`+	c #FCEAEA",
"B`+	c #F6D7D9",
"C`+	c #C88897",
"D`+	c #7B2C35",
"E`+	c #610F0F",
"F`+	c #460404",
"G`+	c #180901",
"H`+	c #1D2002",
"I`+	c #1E4403",
"J`+	c #255B09",
"K`+	c #257002",
"L`+	c #3B891E",
"M`+	c #529741",
"N`+	c #5B9E44",
"O`+	c #4A972E",
"P`+	c #317C10",
"Q`+	c #296204",
"R`+	c #284F02",
"S`+	c #274600",
"T`+	c #2A4802",
"U`+	c #355905",
"V`+	c #3B6807",
"W`+	c #769C46",
"X`+	c #C7E893",
"Y`+	c #C5EF97",
"Z`+	c #4B782E",
"``+	c #1C3706",
"  @	c #192E0B",
". @	c #284301",
"+ @	c #3C6D0E",
"@ @	c #DBEBAC",
"# @	c #CBE6A0",
"$ @	c #36630C",
"% @	c #272A10",
"& @	c #341E0F",
"* @	c #2E090E",
"= @	c #601F21",
"- @	c #7B1D1F",
"; @	c #A91D1F",
"> @	c #EDA690",
", @	c #EEB494",
"' @	c #AC1C25",
") @	c #A11A2D",
"! @	c #A42638",
"~ @	c #A71F2A",
"{ @	c #902427",
"] @	c #7C1D22",
"^ @	c #5A0911",
"/ @	c #490911",
"( @	c #5F1420",
"_ @	c #460C13",
": @	c #3F1117",
"< @	c #441C23",
"[ @	c #1A0407",
"} @	c #331A1D",
"| @	c #290E11",
"1 @	c #251011",
"2 @	c #200D0D",
"3 @	c #3E0F13",
"4 @	c #461014",
"5 @	c #5C1E22",
"6 @	c #4E080D",
"7 @	c #660612",
"8 @	c #981726",
"9 @	c #B92836",
"0 @	c #C2333C",
"a @	c #C9323E",
"b @	c #C53642",
"c @	c #C32D3D",
"d @	c #C1412E",
"e @	c #DA8660",
"f @	c #911C20",
"g @	c #721E24",
"h @	c #5B1D21",
"i @	c #451A1C",
"j @	c #351012",
"k @	c #1A0705",
"l @	c #21190C",
"m @	c #172002",
"n @	c #377514",
"o @	c #DBF2A9",
"p @	c #DAF7A2",
"q @	c #5BB82E",
"r @	c #165B05",
"s @	c #012B01",
"t @	c #050009",
"u @	c #001900",
"v @	c #236E11",
"w @	c #89EB48",
"x @	c #57A61D",
"y @	c #416E18",
"z @	c #223503",
"A @	c #1B1E08",
"B @	c #1C2006",
"C @	c #221906",
"D @	c #2C0F06",
"E @	c #350A02",
"F @	c #470A02",
"G @	c #8E1219",
"H @	c #EFAFAF",
"I @	c #FBD6CF",
"J @	c #AB2C30",
"K @	c #520108",
"L @	c #330809",
"M @	c #1B2010",
"N @	c #051E08",
"O @	c #092F06",
"P @	c #3F923E",
"Q @	c #C3FCA8",
"R @	c #61AD56",
"S @	c #025503",
"T @	c #3D9232",
"U @	c #9FF696",
"V @	c #308234",
"W @	c #002100",
"X @	c #0B3903",
"Y @	c #105A01",
"Z @	c #A4D18E",
"` @	c #F3FFD0",
" .@	c #76B43C",
"..@	c #396300",
"+.@	c #232F03",
"@.@	c #121300",
"#.@	c #080A01",
"$.@	c #050B04",
"%.@	c #020C01",
"&.@	c #021901",
"*.@	c #072C01",
"=.@	c #0C4E09",
"-.@	c #95C170",
";.@	c #F2FFD4",
">.@	c #97CE5F",
",.@	c #407A03",
"'.@	c #1E3603",
").@	c #1B1602",
"!.@	c #330104",
"~.@	c #5B0008",
"{.@	c #A12B33",
"].@	c #EE6172",
"^.@	c #B0071A",
"/.@	c #D5616C",
"(.@	c #FDCADF",
"_.@	c #C47686",
":.@	c #76040C",
"<.@	c #4A0302",
"[.@	c #350303",
"}.@	c #1C3C14",
"|.@	c #021602",
"1.@	c #111F0B",
"2.@	c #010008",
"3.@	c #0C1614",
"4.@	c #0B1615",
"5.@	c #800208",
"6.@	c #6A0208",
"7.@	c #070B04",
"8.@	c #122404",
"9.@	c #173905",
"0.@	c #163806",
"a.@	c #153006",
"b.@	c #0E2604",
"c.@	c #0D1F05",
"d.@	c #0B1902",
"e.@	c #122205",
"f.@	c #173007",
"g.@	c #183B05",
"h.@	c #1E4C04",
"i.@	c #27600E",
"j.@	c #276911",
"k.@	c #266B0F",
"l.@	c #5C954B",
"m.@	c #9ECD90",
"n.@	c #EDFDDE",
"o.@	c #E7FDDB",
"p.@	c #C5E7AD",
"q.@	c #85B363",
"r.@	c #4B7928",
"s.@	c #365215",
"t.@	c #2B2302",
"u.@	c #320C01",
"v.@	c #3C0608",
"w.@	c #4B0111",
"x.@	c #630013",
"y.@	c #78010E",
"z.@	c #8B020D",
"A.@	c #9C0614",
"B.@	c #AD1729",
"C.@	c #D06C79",
"D.@	c #F0BDC8",
"E.@	c #FEE6F1",
"F.@	c #ECCAD2",
"G.@	c #A96973",
"H.@	c #720D19",
"I.@	c #380400",
"J.@	c #360105",
"K.@	c #2D0708",
"L.@	c #232402",
"M.@	c #294B08",
"N.@	c #2B6712",
"O.@	c #5C9140",
"P.@	c #ADD391",
"Q.@	c #D9F2BE",
"R.@	c #EAFCD1",
"S.@	c #E2F9C4",
"T.@	c #C6E9A6",
"U.@	c #7CB464",
"V.@	c #21660C",
"W.@	c #144201",
"X.@	c #133201",
"Y.@	c #192A05",
"Z.@	c #202D05",
"`.@	c #274403",
" +@	c #426B1B",
".+@	c #8FC566",
"++@	c #8BC365",
"@+@	c #213604",
"#+@	c #1C2C04",
"$+@	c #224D02",
"%+@	c #99B166",
"&+@	c #E1F8A4",
"*+@	c #537F2B",
"=+@	c #212E07",
"-+@	c #301E08",
";+@	c #2E0B0E",
">+@	c #320105",
",+@	c #50171B",
"'+@	c #601F22",
")+@	c #7B1C1F",
"!+@	c #ECA692",
"~+@	c #F2B595",
"{+@	c #B21E27",
"]+@	c #CE3039",
"^+@	c #D63748",
"/+@	c #CB2A3B",
"(+@	c #C1343B",
"_+@	c #AD262F",
":+@	c #6C1114",
"<+@	c #691320",
"[+@	c #4B0D14",
"}+@	c #431117",
"|+@	c #451C23",
"1+@	c #1B0406",
"2+@	c #341A1D",
"3+@	c #210F0F",
"4+@	c #201B1C",
"5+@	c #39221C",
"6+@	c #200C12",
"7+@	c #200E0E",
"8+@	c #312020",
"9+@	c #421B22",
"0+@	c #401115",
"a+@	c #491014",
"b+@	c #621C20",
"c+@	c #630A10",
"d+@	c #911324",
"e+@	c #C82F40",
"f+@	c #D0594A",
"g+@	c #DA6D5C",
"h+@	c #DA3844",
"i+@	c #E2414E",
"j+@	c #C94134",
"k+@	c #FBD5C9",
"l+@	c #D88A76",
"m+@	c #941E23",
"n+@	c #711E24",
"o+@	c #46191B",
"p+@	c #320B0E",
"q+@	c #1C0907",
"r+@	c #152101",
"s+@	c #1B4006",
"t+@	c #518C28",
"u+@	c #F0FEB6",
"v+@	c #A8D976",
"w+@	c #26790B",
"x+@	c #022B01",
"y+@	c #041405",
"z+@	c #000801",
"A+@	c #040107",
"B+@	c #021B01",
"C+@	c #3B7E2A",
"D+@	c #70AD3E",
"E+@	c #2B5309",
"F+@	c #142803",
"G+@	c #122506",
"H+@	c #183804",
"I+@	c #83A765",
"J+@	c #7C9A53",
"K+@	c #323008",
"L+@	c #390C04",
"M+@	c #510805",
"N+@	c #9A1D25",
"O+@	c #F6C0C1",
"P+@	c #F6C8C1",
"Q+@	c #9E1B1C",
"R+@	c #4D010A",
"S+@	c #2C0907",
"T+@	c #1E2B19",
"U+@	c #27472F",
"V+@	c #041904",
"W+@	c #061C03",
"X+@	c #073503",
"Y+@	c #094A01",
"Z+@	c #65B96A",
"`+@	c #C3FCAD",
" @@	c #358F2F",
".@@	c #035008",
"+@@	c #63BC56",
"@@@	c #A0EE94",
"#@@	c #105B12",
"$@@	c #011D00",
"%@@	c #0E0803",
"&@@	c #0A3A02",
"*@@	c #105B02",
"=@@	c #A3CF8E",
"-@@	c #F5FED1",
";@@	c #79B53C",
">@@	c #386401",
",@@	c #1E2E01",
"'@@	c #101500",
")@@	c #060B01",
"!@@	c #020802",
"~@@	c #051803",
"{@@	c #012C02",
"]@@	c #044005",
"^@@	c #76AD52",
"/@@	c #ECFFCC",
"(@@	c #B0D77D",
"_@@	c #448203",
":@@	c #1A3A03",
"<@@	c #1C1802",
"[@@	c #1A0203",
"}@@	c #210002",
"|@@	c #941B27",
"1@@	c #F898A9",
"2@@	c #AD3B47",
"3@@	c #B5081B",
"4@@	c #E57B98",
"5@@	c #BA5C64",
"6@@	c #74010C",
"7@@	c #400402",
"8@@	c #040207",
"9@@	c #051603",
"0@@	c #28581E",
"a@@	c #052704",
"b@@	c #051B01",
"c@@	c #121E06",
"d@@	c #030309",
"e@@	c #000406",
"f@@	c #051213",
"g@@	c #0B1B1A",
"h@@	c #020E0D",
"i@@	c #150403",
"j@@	c #010F07",
"k@@	c #011A03",
"l@@	c #091E03",
"m@@	c #071E02",
"n@@	c #0D0D03",
"o@@	c #051002",
"p@@	c #1D4326",
"q@@	c #306947",
"r@@	c #145331",
"s@@	c #04280A",
"t@@	c #0D1800",
"u@@	c #131F01",
"v@@	c #132C02",
"w@@	c #1C4406",
"x@@	c #2A5A0B",
"y@@	c #30640C",
"z@@	c #236F06",
"A@@	c #378224",
"B@@	c #6BAC56",
"C@@	c #B0DC9C",
"D@@	c #E3F9D9",
"E@@	c #EFFAE5",
"F@@	c #CEEDB7",
"G@@	c #98C07A",
"H@@	c #5A7F34",
"I@@	c #394D15",
"J@@	c #221C02",
"K@@	c #260806",
"L@@	c #3A030A",
"M@@	c #510106",
"N@@	c #5F0211",
"O@@	c #730214",
"P@@	c #8D000D",
"Q@@	c #9B0213",
"R@@	c #AD1D33",
"S@@	c #D56E7B",
"T@@	c #F8CBD4",
"U@@	c #FEE3F4",
"V@@	c #DAA3B2",
"W@@	c #782526",
"X@@	c #480607",
"Y@@	c #391607",
"Z@@	c #2C3902",
"`@@	c #366611",
" #@	c #93B86F",
".#@	c #E5F4C0",
"+#@	c #FCFBE4",
"@#@	c #F4FBE4",
"##@	c #E3FCD0",
"$#@	c #E1F9CB",
"%#@	c #EEFAD5",
"&#@	c #F1FAD7",
"*#@	c #E5FCCE",
"=#@	c #A8D29A",
"-#@	c #255D1D",
";#@	c #0D3102",
">#@	c #151F03",
",#@	c #1B1500",
"'#@	c #1C1803",
")#@	c #192304",
"!#@	c #204704",
"~#@	c #67984A",
"{#@	c #37521F",
"]#@	c #151A08",
"^#@	c #1D3105",
"/#@	c #547522",
"(#@	c #DEF69D",
"_#@	c #709746",
":#@	c #202F03",
"<#@	c #2E1C04",
"[#@	c #310E11",
"}#@	c #642225",
"|#@	c #7A1C1F",
"1#@	c #A81D1F",
"2#@	c #EEA591",
"3#@	c #F1B392",
"4#@	c #CA333C",
"5#@	c #E64F42",
"6#@	c #CA5E46",
"7#@	c #E99B62",
"8#@	c #DD8C6B",
"9#@	c #D44047",
"0#@	c #AB212E",
"a#@	c #5F1013",
"b#@	c #671720",
"c#@	c #510D15",
"d#@	c #491318",
"e#@	c #491D23",
"f#@	c #1C0406",
"g#@	c #351B1E",
"h#@	c #290E12",
"i#@	c #200C0D",
"j#@	c #17070D",
"k#@	c #271F1C",
"l#@	c #332223",
"m#@	c #110405",
"n#@	c #411015",
"o#@	c #4D1013",
"p#@	c #6C1B20",
"q#@	c #81111A",
"r#@	c #BB2034",
"s#@	c #DD5D4B",
"t#@	c #FBD2B3",
"u#@	c #FAF9F2",
"v#@	c #FBD9C2",
"w#@	c #E65A45",
"x#@	c #EC4050",
"y#@	c #CE4135",
"z#@	c #FBD4C8",
"A#@	c #D78A76",
"B#@	c #5A1C20",
"C#@	c #45171A",
"D#@	c #32080B",
"E#@	c #1D0B08",
"F#@	c #1D1408",
"G#@	c #112001",
"H#@	c #153A05",
"I#@	c #67A03F",
"J#@	c #D5FA9C",
"K#@	c #5A9A34",
"L#@	c #0A3C02",
"M#@	c #0E0D03",
"N#@	c #080403",
"O#@	c #071305",
"P#@	c #153A0A",
"Q#@	c #102802",
"R#@	c #121D03",
"S#@	c #0F1D00",
"T#@	c #042603",
"U#@	c #5A853F",
"V#@	c #DCF8AB",
"W#@	c #B6DD73",
"X#@	c #56681C",
"Y#@	c #3B1706",
"Z#@	c #550507",
"`#@	c #A62832",
" $@	c #FACFD0",
".$@	c #F1BCB5",
"+$@	c #970F0E",
"@$@	c #2A0D08",
"#$@	c #1F331F",
"$$@	c #1D4027",
"%$@	c #0A1F04",
"&$@	c #043C03",
"*$@	c #065301",
"=$@	c #89D68C",
"-$@	c #B3F3A9",
";$@	c #097307",
">$@	c #044D0D",
",$@	c #79DB6A",
"'$@	c #98DD89",
")$@	c #054705",
"!$@	c #000D00",
"~$@	c #030106",
"{$@	c #050504",
"]$@	c #101805",
"^$@	c #093801",
"/$@	c #0C5800",
"($@	c #9DC889",
"_$@	c #F7FED1",
":$@	c #83BD45",
"<$@	c #3C6803",
"[$@	c #1E3103",
"}$@	c #101701",
"|$@	c #071306",
"1$@	c #002E04",
"2$@	c #023706",
"3$@	c #559431",
"4$@	c #E4FBC0",
"5$@	c #C9E29D",
"6$@	c #50910A",
"7$@	c #1B4205",
"8$@	c #201C01",
"9$@	c #170C06",
"0$@	c #290201",
"a$@	c #860F1E",
"b$@	c #F4AABC",
"c$@	c #D07086",
"d$@	c #8F0503",
"e$@	c #9C1026",
"f$@	c #E18B97",
"g$@	c #FAC8D2",
"h$@	c #B9747A",
"i$@	c #6B0C15",
"j$@	c #07020B",
"k$@	c #3A7A2D",
"l$@	c #0A3900",
"m$@	c #072902",
"n$@	c #0A1C05",
"o$@	c #0B1708",
"p$@	c #040C0B",
"q$@	c #0B1613",
"r$@	c #03130E",
"s$@	c #030804",
"t$@	c #0F0106",
"u$@	c #23473C",
"v$@	c #3E7160",
"w$@	c #386C5C",
"x$@	c #28564A",
"y$@	c #081C16",
"z$@	c #0A0A03",
"A$@	c #1C4D2D",
"B$@	c #4CA668",
"C$@	c #4AB372",
"D$@	c #4BBA81",
"E$@	c #42A274",
"F$@	c #2A7853",
"G$@	c #103F25",
"H$@	c #0A2308",
"I$@	c #182505",
"J$@	c #1C2B05",
"K$@	c #193503",
"L$@	c #205509",
"M$@	c #2F7006",
"N$@	c #2D7509",
"O$@	c #28760F",
"P$@	c #52953C",
"Q$@	c #A2CC89",
"R$@	c #D6EFC9",
"S$@	c #EDFCE4",
"T$@	c #D4EDC1",
"U$@	c #92B373",
"V$@	c #52722A",
"W$@	c #334811",
"X$@	c #231D01",
"Y$@	c #300905",
"Z$@	c #3D040C",
"`$@	c #46030D",
" %@	c #56050C",
".%@	c #70010D",
"+%@	c #930015",
"@%@	c #A20215",
"#%@	c #C12741",
"$%@	c #E99AAE",
"%%@	c #FDE6E9",
"&%@	c #E8C3CB",
"*%@	c #8C3F4A",
"=%@	c #57130C",
"-%@	c #3E2803",
";%@	c #455717",
">%@	c #ACCA83",
",%@	c #F1FDC8",
"'%@	c #EBFDC7",
")%@	c #C3E791",
"!%@	c #89C653",
"~%@	c #65AE35",
"{%@	c #63A626",
"]%@	c #5EA925",
"^%@	c #82C24F",
"/%@	c #BCE587",
"(%@	c #CCFB9C",
"_%@	c #7DC163",
":%@	c #111D01",
"<%@	c #170A06",
"[%@	c #180909",
"}%@	c #151303",
"|%@	c #24350C",
"1%@	c #3B4722",
"2%@	c #181304",
"3%@	c #1E1406",
"4%@	c #2A4D04",
"5%@	c #C3DE8B",
"6%@	c #7B9C50",
"7%@	c #222804",
"8%@	c #2C1703",
"9%@	c #310D11",
"0%@	c #330307",
"a%@	c #4F171B",
"b%@	c #642325",
"c%@	c #7A1B1E",
"d%@	c #A71C1E",
"e%@	c #EFA88E",
"f%@	c #F2B391",
"g%@	c #D83C48",
"h%@	c #E45446",
"i%@	c #F7C6A9",
"j%@	c #F3F1E5",
"k%@	c #F7F6E2",
"l%@	c #EEA885",
"m%@	c #C02534",
"n%@	c #8B1121",
"o%@	c #761825",
"p%@	c #540C13",
"q%@	c #4B1217",
"r%@	c #4B1C21",
"s%@	c #270C0F",
"t%@	c #220E0F",
"u%@	c #200E11",
"v%@	c #201C1C",
"w%@	c #1E0403",
"x%@	c #1D0B10",
"y%@	c #241012",
"z%@	c #210D0E",
"A%@	c #342323",
"B%@	c #0F0404",
"C%@	c #110404",
"D%@	c #421A21",
"E%@	c #4F1015",
"F%@	c #701D22",
"G%@	c #7F0D17",
"H%@	c #AF0E24",
"I%@	c #E77753",
"J%@	c #F9E0C9",
"K%@	c #FBF7F8",
"L%@	c #FBDFCC",
"M%@	c #E0674A",
"N%@	c #DF2F3F",
"O%@	c #CC3F2F",
"P%@	c #FCD5C4",
"Q%@	c #D88977",
"R%@	c #971D25",
"S%@	c #752027",
"T%@	c #451519",
"U%@	c #1D0906",
"V%@	c #1D1208",
"W%@	c #0E1C02",
"X%@	c #112F03",
"Y%@	c #376C19",
"Z%@	c #7CB155",
"`%@	c #165002",
" &@	c #081E06",
".&@	c #041601",
"+&@	c #050B02",
"@&@	c #141703",
"#&@	c #1A1507",
"$&@	c #0C0603",
"%&@	c #060A04",
"&&@	c #071403",
"*&@	c #0B0F03",
"=&@	c #081703",
"-&@	c #09350A",
";&@	c #98C46E",
">&@	c #EDFCB7",
",&@	c #8AB441",
"'&@	c #3D4C06",
")&@	c #3C1703",
"!&@	c #B2353C",
"~&@	c #FCDDDA",
"{&@	c #EAADA3",
"]&@	c #92070F",
"^&@	c #27100C",
"/&@	c #203523",
"(&@	c #173821",
"_&@	c #0D2304",
":&@	c #064003",
"<&@	c #095F07",
"[&@	c #9FE99F",
"}&@	c #99DF90",
"|&@	c #006202",
"1&@	c #105E10",
"2&@	c #93EF82",
"3&@	c #86C877",
"4&@	c #023A02",
"5&@	c #011601",
"6&@	c #060705",
"7&@	c #0B5402",
"8&@	c #89BC78",
"9&@	c #F7FFD5",
"0&@	c #98CC59",
"a&@	c #3D6E05",
"b&@	c #1B3503",
"c&@	c #051308",
"d&@	c #053605",
"e&@	c #327416",
"f&@	c #D2EDAE",
"g&@	c #E1F4BA",
"h&@	c #59A61C",
"i&@	c #244E05",
"j&@	c #1B0303",
"k&@	c #78040E",
"l&@	c #EAA1B2",
"m&@	c #E999B1",
"n&@	c #930408",
"o&@	c #790405",
"p&@	c #940E22",
"q&@	c #CD828D",
"r&@	c #F8BFC3",
"s&@	c #BE717A",
"t&@	c #040108",
"u&@	c #011702",
"v&@	c #62A155",
"w&@	c #407137",
"x&@	c #144404",
"y&@	c #061402",
"z&@	c #06120B",
"A&@	c #080A09",
"B&@	c #000705",
"C&@	c #0C3427",
"D&@	c #043225",
"E&@	c #0D4336",
"F&@	c #185345",
"G&@	c #062A22",
"H&@	c #2B653B",
"I&@	c #428649",
"J&@	c #666A45",
"K&@	c #6B604D",
"L&@	c #54745D",
"M&@	c #529A79",
"N&@	c #5A997E",
"O&@	c #397D59",
"P&@	c #165128",
"Q&@	c #102E09",
"R&@	c #182607",
"S&@	c #222205",
"T&@	c #182808",
"U&@	c #163E07",
"V&@	c #205E07",
"W&@	c #2B7609",
"X&@	c #2F7D08",
"Y&@	c #408428",
"Z&@	c #8AB777",
"`&@	c #D2EABF",
" *@	c #F1FBDC",
".*@	c #C0E0A2",
"+*@	c #5F8E39",
"@*@	c #2B430D",
"#*@	c #1E1E11",
"$*@	c #231005",
"%*@	c #330609",
"&*@	c #400216",
"**@	c #5C0311",
"=*@	c #760511",
"-*@	c #9C0116",
";*@	c #A8071A",
">*@	c #C46975",
",*@	c #F5CBDE",
"'*@	c #EFC8D1",
")*@	c #79423C",
"!*@	c #473A02",
"~*@	c #8EAC61",
"{*@	c #EFFAC7",
"]*@	c #DCF79E",
"^*@	c #91BB53",
"/*@	c #457510",
"(*@	c #345204",
"_*@	c #2D3B01",
":*@	c #223600",
"<*@	c #2D6F09",
"[*@	c #5BA933",
"}*@	c #88DA61",
"|*@	c #34731A",
"1*@	c #131F05",
"2*@	c #100903",
"3*@	c #130701",
"4*@	c #180A01",
"5*@	c #1D0E03",
"6*@	c #160A04",
"7*@	c #190503",
"8*@	c #172E04",
"9*@	c #91AE6D",
"0*@	c #738D50",
"a*@	c #1E2102",
"b*@	c #281405",
"c*@	c #300C10",
"d*@	c #300204",
"e*@	c #4E171B",
"f*@	c #652326",
"g*@	c #7B1C1E",
"h*@	c #A71D1E",
"i*@	c #EEAB92",
"j*@	c #F4B799",
"k*@	c #D5343E",
"l*@	c #EC4E47",
"m*@	c #F9C6AB",
"n*@	c #EFFCEC",
"o*@	c #F8F9E7",
"p*@	c #EFB291",
"q*@	c #AE222C",
"r*@	c #891021",
"s*@	c #7A1929",
"t*@	c #520A14",
"u*@	c #4B1116",
"v*@	c #4C1C21",
"w*@	c #1E0406",
"x*@	c #32191D",
"y*@	c #250B0F",
"z*@	c #200D10",
"A*@	c #271E1C",
"B*@	c #211C1C",
"C*@	c #38221C",
"D*@	c #1D0403",
"E*@	c #1C0C11",
"F*@	c #1C0B0C",
"G*@	c #1E0B0E",
"H*@	c #1F0A0B",
"I*@	c #332122",
"J*@	c #0D0404",
"K*@	c #411A21",
"L*@	c #3E0C12",
"M*@	c #4A0F14",
"N*@	c #6A2025",
"O*@	c #6C0A10",
"P*@	c #920316",
"Q*@	c #B71F2E",
"R*@	c #D97959",
"S*@	c #F7B48F",
"T*@	c #D87353",
"U*@	c #C51B25",
"V*@	c #DB2D3D",
"W*@	c #C53B30",
"X*@	c #FBD3BC",
"Y*@	c #DA8A7A",
"Z*@	c #961923",
"`*@	c #741E27",
" =@	c #2F0709",
".=@	c #1D0806",
"+=@	c #1E0E08",
"@=@	c #0E1F04",
"#=@	c #082C01",
"$=@	c #103803",
"%=@	c #0A1402",
"&=@	c #0D0B02",
"*=@	c #0C0D02",
"==@	c #26260B",
"-=@	c #342C11",
";=@	c #1E0F02",
">=@	c #0F0802",
",=@	c #010706",
"'=@	c #060900",
")=@	c #022003",
"!=@	c #255808",
"~=@	c #C1E495",
"{=@	c #D1EE9B",
"]=@	c #588E12",
"^=@	c #2E2D04",
"/=@	c #3E1501",
"(=@	c #5F0701",
"_=@	c #B93E42",
":=@	c #FDE4DD",
"<=@	c #E39D91",
"[=@	c #890213",
"}=@	c #243727",
"|=@	c #13311C",
"1=@	c #0A2703",
"2=@	c #094504",
"3=@	c #166F1C",
"4=@	c #A9F5AA",
"5=@	c #7ACD6E",
"6=@	c #005601",
"7=@	c #237513",
"8=@	c #ACF899",
"9=@	c #6CB05C",
"0=@	c #003203",
"a=@	c #001301",
"b=@	c #010803",
"c=@	c #050905",
"d=@	c #151604",
"e=@	c #092D01",
"f=@	c #0B4E05",
"g=@	c #6AAA57",
"h=@	c #F0FED4",
"i=@	c #B1DA7A",
"j=@	c #407604",
"k=@	c #193A03",
"l=@	c #0E1D00",
"m=@	c #060C05",
"n=@	c #010B02",
"o=@	c #001203",
"p=@	c #041408",
"q=@	c #043104",
"r=@	c #135705",
"s=@	c #ABCD89",
"t=@	c #F2FDCF",
"u=@	c #77C048",
"v=@	c #326407",
"w=@	c #1A2A03",
"x=@	c #171305",
"y=@	c #1A0403",
"z=@	c #1E0105",
"A=@	c #D48492",
"B=@	c #F6BACB",
"C=@	c #97161F",
"D=@	c #6B0304",
"E=@	c #700105",
"F=@	c #760610",
"G=@	c #8B323B",
"H=@	c #722C33",
"I=@	c #3A0105",
"J=@	c #000207",
"K=@	c #010C05",
"L=@	c #3F6F31",
"M=@	c #9DD67F",
"N=@	c #2F661B",
"O=@	c #265314",
"P=@	c #042201",
"Q=@	c #07160C",
"R=@	c #040804",
"S=@	c #040E0E",
"T=@	c #010702",
"U=@	c #14412F",
"V=@	c #03311F",
"W=@	c #05251B",
"X=@	c #043228",
"Y=@	c #052621",
"Z=@	c #183419",
"`=@	c #3A2B24",
" -@	c #CE748C",
".-@	c #EDC1C3",
"+-@	c #C57D7B",
"@-@	c #7B4031",
"#-@	c #62634E",
"$-@	c #689477",
"%-@	c #5DA482",
"&-@	c #3B8B64",
"*-@	c #165C34",
"=-@	c #0A2C0C",
"--@	c #121B04",
";-@	c #172306",
">-@	c #19300C",
",-@	c #19350A",
"'-@	c #164105",
")-@	c #245C0A",
"!-@	c #297106",
"~-@	c #427C22",
"{-@	c #98B07E",
"]-@	c #C9E5A1",
"^-@	c #6A954B",
"/-@	c #181D0D",
"(-@	c #1A2A15",
"_-@	c #273915",
":-@	c #252B04",
"<-@	c #2C1702",
"[-@	c #3A1007",
"}-@	c #4A0C07",
"|-@	c #630310",
"1-@	c #760711",
"2-@	c #970516",
"3-@	c #AB394F",
"4-@	c #E39CAA",
"5-@	c #BB776E",
"6-@	c #47450B",
"7-@	c #AFE071",
"8-@	c #D4F68E",
"9-@	c #75A13C",
"0-@	c #325903",
"a-@	c #223B01",
"b-@	c #212A02",
"c-@	c #242802",
"d-@	c #202401",
"e-@	c #221E03",
"f-@	c #212303",
"g-@	c #1C2A00",
"h-@	c #1D4201",
"i-@	c #3A801D",
"j-@	c #418424",
"k-@	c #182302",
"l-@	c #180604",
"m-@	c #140300",
"n-@	c #0D0400",
"o-@	c #110605",
"p-@	c #384723",
"q-@	c #39441F",
"r-@	c #1A1700",
"s-@	c #230F08",
"t-@	c #2D0A0C",
"u-@	c #491316",
"v-@	c #611F22",
"w-@	c #A92121",
"x-@	c #EDAA95",
"y-@	c #F3B694",
"z-@	c #BC2E2D",
"A-@	c #E63840",
"B-@	c #DD5D52",
"C-@	c #F1A793",
"D-@	c #E59375",
"E-@	c #CC4343",
"F-@	c #6F0C18",
"G-@	c #6B1423",
"H-@	c #4D0B14",
"I-@	c #4C1B21",
"J-@	c #1F0408",
"K-@	c #30191D",
"L-@	c #250C10",
"M-@	c #210E11",
"N-@	c #271D1B",
"O-@	c #1C0C0D",
"P-@	c #210C0D",
"Q-@	c #342223",
"R-@	c #5E1C20",
"S-@	c #55080C",
"T-@	c #6D010C",
"U-@	c #9E0C20",
"V-@	c #B91324",
"W-@	c #D5212E",
"X-@	c #CE1A28",
"Y-@	c #D72E3C",
"Z-@	c #D13340",
"`-@	c #BE3C33",
" ;@	c #FAD2B7",
".;@	c #DA8B7A",
"+;@	c #931921",
"@;@	c #731D26",
"#;@	c #320407",
"$;@	c #451215",
"%;@	c #1C0706",
"&;@	c #1F0D09",
"*;@	c #0B1106",
"=;@	c #0B1707",
"-;@	c #0A1601",
";;@	c #0B0F06",
">;@	c #110C06",
",;@	c #0F0D01",
"';@	c #26380E",
");@	c #5C682F",
"!;@	c #3A2E0B",
"~;@	c #251007",
"{;@	c #120806",
"];@	c #080204",
"^;@	c #00310D",
"/;@	c #4E851B",
"(;@	c #E0F8B6",
"_;@	c #ADD571",
":;@	c #3C6C05",
"<;@	c #292308",
"[;@	c #391505",
"};@	c #620803",
"|;@	c #C0484C",
"1;@	c #FFE5E1",
"2;@	c #DE928A",
"3;@	c #800111",
"4;@	c #3D0404",
"5;@	c #261A12",
"6;@	c #233C29",
"7;@	c #112C16",
"8;@	c #062103",
"9;@	c #082D08",
"0;@	c #064A04",
"a;@	c #287F2C",
"b;@	c #A9FAAB",
"c;@	c #5DB959",
"d;@	c #015100",
"e;@	c #3B8D28",
"f;@	c #B7FCA3",
"g;@	c #519940",
"h;@	c #002D02",
"i;@	c #080D05",
"j;@	c #141304",
"k;@	c #0A2500",
"l;@	c #0A4607",
"m;@	c #4B8E2E",
"n;@	c #E2FBC9",
"o;@	c #C6E29E",
"p;@	c #4B850A",
"q;@	c #1C4004",
"r;@	c #0D2000",
"s;@	c #060D06",
"t;@	c #011101",
"u;@	c #021104",
"v;@	c #012506",
"w;@	c #044701",
"x;@	c #6FA050",
"y;@	c #EFFAD1",
"z;@	c #ADDB86",
"A;@	c #3C780B",
"B;@	c #1A3801",
"C;@	c #1A1508",
"D;@	c #190602",
"E;@	c #210205",
"F;@	c #5E0103",
"G;@	c #B55361",
"H;@	c #FECBD5",
"I;@	c #B15259",
"J;@	c #570202",
"K;@	c #4F0204",
"L;@	c #400203",
"M;@	c #060007",
"N;@	c #050207",
"O;@	c #082702",
"P;@	c #73AB55",
"Q;@	c #98D080",
"R;@	c #366D20",
"S;@	c #31601B",
"T;@	c #062404",
"U;@	c #071405",
"V;@	c #060706",
"W;@	c #030501",
"X;@	c #0D412E",
"Y;@	c #10573D",
"Z;@	c #083C2C",
"`;@	c #012E24",
" >@	c #050A08",
".>@	c #410F06",
"+>@	c #8D1224",
"@>@	c #CF7E88",
"#>@	c #F7CCD1",
"$>@	c #F5C8D0",
"%>@	c #C88F8C",
"&>@	c #9F4A48",
"*>@	c #735547",
"=>@	c #599077",
"->@	c #549D89",
";>@	c #3F8770",
">>@	c #28604A",
",>@	c #13331F",
"'>@	c #061D04",
")>@	c #172E12",
"!>@	c #1D2E16",
"~>@	c #173F03",
"{>@	c #326708",
"]>@	c #427A12",
"^>@	c #315805",
"/>@	c #0D1A14",
"(>@	c #123409",
"_>@	c #5C8A54",
":>@	c #87BB77",
"<>@	c #457C31",
"[>@	c #2F4A1A",
"}>@	c #2D260C",
"|>@	c #381104",
"1>@	c #430B0B",
"2>@	c #420E0A",
"3>@	c #65070A",
"4>@	c #710E13",
"5>@	c #712A17",
"6>@	c #7C733A",
"7>@	c #729259",
"8>@	c #5D9A36",
"9>@	c #72B338",
"0>@	c #2A5803",
"a>@	c #1E2B06",
"b>@	c #1D1C04",
"c>@	c #1B1502",
"d>@	c #191104",
"e>@	c #1D0D07",
"f>@	c #1F0D05",
"g>@	c #1E1803",
"h>@	c #1E3203",
"i>@	c #2F540F",
"j>@	c #1E2901",
"k>@	c #190601",
"l>@	c #120206",
"m>@	c #140404",
"n>@	c #170B00",
"o>@	c #200507",
"p>@	c #4A1417",
"q>@	c #632123",
"r>@	c #AB2323",
"s>@	c #EEAA96",
"t>@	c #F2AF75",
"u>@	c #BE1E33",
"v>@	c #E82D3F",
"w>@	c #E41F3C",
"x>@	c #CE182E",
"y>@	c #BA0A20",
"z>@	c #85010F",
"A>@	c #50070D",
"B>@	c #590F1B",
"C>@	c #470A11",
"D>@	c #491A1F",
"E>@	c #1E0407",
"F>@	c #1F0B0F",
"G>@	c #1A0A0F",
"H>@	c #1B0B0C",
"I>@	c #210C0F",
"J>@	c #200B0C",
"K>@	c #352324",
"L>@	c #3C0D12",
"M>@	c #430B11",
"N>@	c #52151B",
"O>@	c #410507",
"P>@	c #4B0006",
"Q>@	c #6F0015",
"R>@	c #860315",
"S>@	c #9D0C19",
"T>@	c #A41321",
"U>@	c #991023",
"V>@	c #A21724",
"W>@	c #B83D33",
"X>@	c #F8CFB7",
"Y>@	c #DA8B7B",
"Z>@	c #731D25",
"`>@	c #2E0709",
" ,@	c #1E0708",
".,@	c #1C0607",
"+,@	c #0A0C03",
"@,@	c #0E0B01",
"#,@	c #120E00",
"$,@	c #110A0E",
"%,@	c #0C0D09",
"&,@	c #22360B",
"*,@	c #6B9D46",
"=,@	c #648A37",
"-,@	c #312A04",
";,@	c #011E04",
">,@	c #03430E",
",,@	c #7BB34A",
"',@	c #ECFCBC",
"),@	c #85B646",
"!,@	c #2C5103",
"~,@	c #2E230B",
"{,@	c #341204",
"],@	c #690907",
"^,@	c #C65155",
"/,@	c #FFE1E0",
"(,@	c #DB8986",
"_,@	c #75010E",
":,@	c #221E12",
"<,@	c #21412A",
"[,@	c #102812",
"},@	c #072705",
"|,@	c #033209",
"1,@	c #065207",
"2,@	c #3C913A",
"3,@	c #A1FBA2",
"4,@	c #38A23D",
"5,@	c #054F01",
"6,@	c #54A63E",
"7,@	c #BEFCA9",
"8,@	c #388625",
"9,@	c #012902",
"0,@	c #0C1109",
"a,@	c #050A05",
"b,@	c #0D1E01",
"c,@	c #0C400A",
"d,@	c #2C710F",
"e,@	c #CEF2B5",
"f,@	c #DCEFBA",
"g,@	c #549419",
"h,@	c #204904",
"i,@	c #0C2400",
"j,@	c #061501",
"k,@	c #000D02",
"l,@	c #001804",
"m,@	c #023403",
"n,@	c #2F6B1A",
"o,@	c #CDE6B4",
"p,@	c #D8F2B3",
"q,@	c #559025",
"r,@	c #1D4801",
"s,@	c #191B04",
"t,@	c #180801",
"u,@	c #490203",
"v,@	c #8B1C28",
"w,@	c #F7AFB8",
"x,@	c #D997A0",
"y,@	c #84050F",
"z,@	c #550301",
"A,@	c #500100",
"B,@	c #16380C",
"C,@	c #87B96D",
"D,@	c #9CD384",
"E,@	c #306520",
"F,@	c #356618",
"G,@	c #113006",
"H,@	c #0B1507",
"I,@	c #093725",
"J,@	c #0F4C35",
"K,@	c #1F5C48",
"L,@	c #185441",
"M,@	c #063929",
"N,@	c #011810",
"O,@	c #4B0308",
"P,@	c #7C0513",
"Q,@	c #A9222F",
"R,@	c #C88581",
"S,@	c #EEC6D3",
"T,@	c #F9D6D9",
"U,@	c #E1A5A6",
"V,@	c #A85B59",
"W,@	c #734C36",
"X,@	c #6C7F64",
"Y,@	c #56A376",
"Z,@	c #499B75",
"`,@	c #3E695F",
" '@	c #223638",
".'@	c #0F1A0B",
"+'@	c #11150A",
"@'@	c #142C07",
"#'@	c #2A5212",
"$'@	c #23450C",
"%'@	c #052104",
"&'@	c #08390E",
"*'@	c #4E9853",
"='@	c #C9F6C4",
"-'@	c #EFFADD",
";'@	c #D8ECB9",
">'@	c #6CA451",
",'@	c #275B0F",
"''@	c #1A3807",
")'@	c #2C1706",
"!'@	c #431509",
"~'@	c #3C2D02",
"{'@	c #628638",
"]'@	c #E3F3B4",
"^'@	c #E6FBD8",
"/'@	c #84B275",
"('@	c #206908",
"_'@	c #194F05",
":'@	c #103100",
"<'@	c #131B02",
"['@	c #140E02",
"}'@	c #110800",
"|'@	c #0E0502",
"1'@	c #180303",
"2'@	c #200D04",
"3'@	c #252502",
"4'@	c #262103",
"5'@	c #230308",
"6'@	c #270209",
"7'@	c #210106",
"8'@	c #250309",
"9'@	c #170004",
"0'@	c #100506",
"a'@	c #160403",
"b'@	c #4A1518",
"c'@	c #7A1A1D",
"d'@	c #AA2222",
"e'@	c #F0AF98",
"f'@	c #F3BFA0",
"g'@	c #9F2827",
"h'@	c #921123",
"i'@	c #93191C",
"j'@	c #920B17",
"k'@	c #950C16",
"l'@	c #820711",
"m'@	c #5B0005",
"n'@	c #45050A",
"o'@	c #570E1A",
"p'@	c #40090E",
"q'@	c #461A1F",
"r'@	c #220C0E",
"s'@	c #18070E",
"t'@	c #1B0A0C",
"u'@	c #210B0E",
"v'@	c #411820",
"w'@	c #3A0D13",
"x'@	c #400A10",
"y'@	c #4E121A",
"z'@	c #390409",
"A'@	c #5D020E",
"B'@	c #6D0613",
"C'@	c #720914",
"D'@	c #6F0810",
"E'@	c #931722",
"F'@	c #B23F32",
"G'@	c #FAD1B8",
"H'@	c #DA8C7B",
"I'@	c #721C24",
"J'@	c #441214",
"K'@	c #2E0809",
"L'@	c #1D0607",
"M'@	c #1D0408",
"N'@	c #170C05",
"O'@	c #0F1203",
"P'@	c #759946",
"Q'@	c #A5E66F",
"R'@	c #497B1D",
"S'@	c #34270C",
"T'@	c #060800",
"U'@	c #050802",
"V'@	c #011506",
"W'@	c #175A08",
"X'@	c #A5DA85",
"Y'@	c #E1F5AB",
"Z'@	c #639923",
"`'@	c #253E04",
" )@	c #342505",
".)@	c #341105",
"+)@	c #6D070D",
"@)@	c #C85559",
"#)@	c #FFDFE1",
"$)@	c #D88081",
"%)@	c #6F010E",
"&)@	c #202212",
"*)@	c #20452B",
"=)@	c #11260E",
"-)@	c #072A06",
";)@	c #01360B",
">)@	c #055809",
",)@	c #479D41",
"')@	c #9DF99C",
"))@	c #22962F",
"!)@	c #0B4F00",
"~)@	c #66B94C",
"{)@	c #C2F8AD",
"])@	c #2B7B15",
"^)@	c #0E130B",
"/)@	c #0E1701",
"()@	c #073604",
"_)@	c #145B02",
":)@	c #AFDA91",
"<)@	c #EDF9CA",
"[)@	c #6BAB3E",
"})@	c #275404",
"|)@	c #0E2A00",
"1)@	c #091902",
"2)@	c #030C03",
"3)@	c #030A03",
"4)@	c #010B08",
"5)@	c #011000",
"6)@	c #032104",
"7)@	c #084803",
"8)@	c #81B26A",
"9)@	c #ECFDC5",
"0)@	c #91C467",
"a)@	c #2D5E06",
"b)@	c #170A00",
"c)@	c #1C0403",
"d)@	c #1C0104",
"e)@	c #400103",
"f)@	c #660407",
"g)@	c #D06B7D",
"h)@	c #FABDD0",
"i)@	c #A9454B",
"j)@	c #710107",
"k)@	c #5D0002",
"l)@	c #1B3B0F",
"m)@	c #81B46F",
"n)@	c #A0D88B",
"o)@	c #386D2B",
"p)@	c #346920",
"q)@	c #1C410E",
"r)@	c #071C01",
"s)@	c #0A1304",
"t)@	c #0A1007",
"u)@	c #080A04",
"v)@	c #062518",
"w)@	c #011A0E",
"x)@	c #052114",
"y)@	c #184130",
"z)@	c #1E523D",
"A)@	c #0F412D",
"B)@	c #03180E",
"C)@	c #080304",
"D)@	c #610407",
"E)@	c #7A080B",
"F)@	c #992523",
"G)@	c #BF7B78",
"H)@	c #E9C4C2",
"I)@	c #FDD6DD",
"J)@	c #E6ADB9",
"K)@	c #A5605B",
"L)@	c #834837",
"M)@	c #677F64",
"N)@	c #5C9B85",
"O)@	c #37605A",
"P)@	c #191F1C",
"Q)@	c #091801",
"R)@	c #1D3E09",
"S)@	c #193A07",
"T)@	c #051A03",
"U)@	c #021707",
"V)@	c #02320E",
"W)@	c #4B9C53",
"X)@	c #9CED91",
"Y)@	c #94DA7E",
"Z)@	c #D0F3B3",
"`)@	c #E3F8D2",
" !@	c #8FC37D",
".!@	c #286614",
"+!@	c #1E3D00",
"@!@	c #182F06",
"#!@	c #1C2906",
"$!@	c #3E7827",
"%!@	c #81CE4A",
"&!@	c #ADE281",
"*!@	c #EFFDDB",
"=!@	c #EEF8D1",
"-!@	c #81AB65",
";!@	c #175B07",
">!@	c #0D3901",
",!@	c #0F1F02",
"'!@	c #0F1003",
")!@	c #210402",
"!!@	c #270E02",
"~!@	c #240005",
"{!@	c #791A1C",
"]!@	c #AA2323",
"^!@	c #F1B196",
"/!@	c #F4C3AE",
"(!@	c #982624",
"_!@	c #780F1F",
":!@	c #651510",
"<!@	c #63070E",
"[!@	c #61070B",
"}!@	c #5B050D",
"|!@	c #420004",
"1!@	c #380607",
"2!@	c #4D0D15",
"3!@	c #3B080C",
"4!@	c #3D1012",
"5!@	c #43191D",
"6!@	c #1A0406",
"7!@	c #30191C",
"8!@	c #210C0E",
"9!@	c #18070D",
"0!@	c #39231C",
"a!@	c #1E0503",
"b!@	c #1C0B10",
"c!@	c #1D090B",
"d!@	c #230C0F",
"e!@	c #302021",
"f!@	c #0E0203",
"g!@	c #3C1A21",
"h!@	c #350F12",
"i!@	c #3C0B11",
"j!@	c #49141B",
"k!@	c #310509",
"l!@	c #430107",
"m!@	c #51010C",
"n!@	c #620713",
"o!@	c #690F17",
"p!@	c #630D0F",
"q!@	c #891A23",
"r!@	c #FBD6C5",
"s!@	c #D9907E",
"t!@	c #901820",
"u!@	c #330407",
"v!@	c #451216",
"w!@	c #1E0404",
"x!@	c #200508",
"y!@	c #0B0704",
"z!@	c #161004",
"A!@	c #1B0F02",
"B!@	c #113106",
"C!@	c #467622",
"D!@	c #D5EE9D",
"E!@	c #AFDE7C",
"F!@	c #336204",
"G!@	c #2F2C07",
"H!@	c #191204",
"I!@	c #020D04",
"J!@	c #021E05",
"K!@	c #083902",
"L!@	c #2D7A11",
"M!@	c #CDF0A2",
"N!@	c #C4E69C",
"O!@	c #467F10",
"P!@	c #212D02",
"Q!@	c #312806",
"R!@	c #6D060C",
"S!@	c #C8585C",
"T!@	c #D77D7F",
"U!@	c #6F000F",
"V!@	c #370303",
"W!@	c #1D230F",
"X!@	c #26452A",
"Y!@	c #11210C",
"Z!@	c #092F09",
"`!@	c #0B3C0C",
" ~@	c #065712",
".~@	c #4DAA4B",
"+~@	c #99F996",
"@~@	c #18881E",
"#~@	c #075400",
"$~@	c #7AC15E",
"%~@	c #B7F39B",
"&~@	c #1B6F07",
"*~@	c #001601",
"=~@	c #011001",
"-~@	c #10130A",
";~@	c #060103",
">~@	c #111404",
",~@	c #102601",
"'~@	c #095008",
")~@	c #86BB5C",
"!~@	c #93C870",
"~~@	c #2E6D03",
"{~@	c #0E3501",
"]~@	c #0A1B05",
"^~@	c #050C02",
"/~@	c #000904",
"(~@	c #003000",
"_~@	c #2D661C",
":~@	c #C5E7A3",
"<~@	c #CBE8AE",
"[~@	c #4C772A",
"}~@	c #173102",
"|~@	c #190401",
"1~@	c #360205",
"2~@	c #911D2F",
"3~@	c #ECA8B3",
"4~@	c #E8A8B0",
"5~@	c #991530",
"6~@	c #730105",
"7~@	c #4F0401",
"8~@	c #3A0007",
"9~@	c #260201",
"0~@	c #0B2E03",
"a~@	c #649457",
"b~@	c #A4DD9B",
"c~@	c #51874A",
"d~@	c #275B13",
"e~@	c #2C5613",
"f~@	c #0A1A06",
"g~@	c #101010",
"h~@	c #041810",
"i~@	c #061E15",
"j~@	c #020E0A",
"k~@	c #031F0E",
"l~@	c #0F3624",
"m~@	c #11352A",
"n~@	c #061B16",
"o~@	c #420105",
"p~@	c #6B0204",
"q~@	c #8E010A",
"r~@	c #9F1019",
"s~@	c #B35E63",
"t~@	c #DFB5B5",
"u~@	c #FBDBE3",
"v~@	c #EFB7C8",
"w~@	c #B86E76",
"x~@	c #5B3E2D",
"y~@	c #232F1E",
"z~@	c #081303",
"A~@	c #1C2C0B",
"B~@	c #1D340B",
"C~@	c #021C00",
"D~@	c #033F1C",
"E~@	c #0A9954",
"F~@	c #62D27C",
"G~@	c #9BF186",
"H~@	c #51C12C",
"I~@	c #37B523",
"J~@	c #A7E783",
"K~@	c #F7F8D8",
"L~@	c #F1F9E7",
"M~@	c #A3D796",
"N~@	c #317A25",
"O~@	c #0B4904",
"P~@	c #183806",
"Q~@	c #134403",
"R~@	c #62BB35",
"S~@	c #52CA25",
"T~@	c #A8E381",
"U~@	c #F4FBCC",
"V~@	c #E7F8CF",
"W~@	c #669753",
"X~@	c #0C5102",
"Y~@	c #152902",
"Z~@	c #101603",
"`~@	c #1C0401",
" {@	c #220201",
".{@	c #240401",
"+{@	c #220400",
"@{@	c #240200",
"#{@	c #0A0004",
"${@	c #2B0506",
"%{@	c #410F13",
"&{@	c #481217",
"*{@	c #5B1C1F",
"={@	c #781C1F",
"-{@	c #AB2426",
";{@	c #F1AE95",
">{@	c #F2C8B1",
",{@	c #912020",
"'{@	c #6C0F1B",
"){@	c #611014",
"!{@	c #59050D",
"~{@	c #56030A",
"{{@	c #4E0209",
"]{@	c #370003",
"^{@	c #370A0E",
"/{@	c #40181B",
"({@	c #1E0C0D",
"_{@	c #230D0F",
":{@	c #1E0A0E",
"<{@	c #19080E",
"[{@	c #281E1C",
"}{@	c #39231D",
"|{@	c #1E0504",
"1{@	c #210A0D",
"2{@	c #2F2021",
"3{@	c #090404",
"4{@	c #3A1B21",
"5{@	c #320E12",
"6{@	c #380A0F",
"7{@	c #2B0004",
"8{@	c #400008",
"9{@	c #4B010B",
"0{@	c #5A0811",
"a{@	c #641218",
"b{@	c #600E11",
"c{@	c #AA3F2F",
"d{@	c #FAD9CB",
"e{@	c #DA9381",
"f{@	c #901620",
"g{@	c #2C0709",
"h{@	c #27070A",
"i{@	c #190609",
"j{@	c #181703",
"k{@	c #1A2705",
"l{@	c #21520E",
"m{@	c #ABD180",
"n{@	c #E7FEB4",
"o{@	c #7AA94D",
"p{@	c #2B5A02",
"q{@	c #222803",
"r{@	c #111003",
"s{@	c #030F06",
"t{@	c #041505",
"u{@	c #093105",
"v{@	c #0C5402",
"w{@	c #589C35",
"x{@	c #E9FDB9",
"y{@	c #9ECF74",
"z{@	c #316A05",
"A{@	c #222E04",
"B{@	c #2F2D07",
"C{@	c #3B1108",
"D{@	c #6A0706",
"E{@	c #C8595D",
"F{@	c #70000F",
"G{@	c #350404",
"H{@	c #1E230F",
"I{@	c #284528",
"J{@	c #0D1F0B",
"K{@	c #07340C",
"L{@	c #0C400C",
"M{@	c #055817",
"N{@	c #52B552",
"O{@	c #98FA94",
"P{@	c #168116",
"Q{@	c #055900",
"R{@	c #89C76B",
"S{@	c #B3F092",
"T{@	c #116603",
"U{@	c #001901",
"V{@	c #12130A",
"W{@	c #080904",
"X{@	c #141407",
"Y{@	c #0E1A00",
"Z{@	c #07420B",
"`{@	c #488920",
" ]@	c #E5F7C8",
".]@	c #BEE199",
"+]@	c #3B830A",
"@]@	c #0E4100",
"#]@	c #082205",
"$]@	c #030603",
"%]@	c #040805",
"&]@	c #002200",
"*]@	c #679051",
"=]@	c #DCF4C5",
"-]@	c #88B266",
";]@	c #203606",
">]@	c #1A1104",
",]@	c #150400",
"']@	c #370302",
")]@	c #B84755",
"!]@	c #F9C2C8",
"~]@	c #DF98A1",
"{]@	c #962129",
"]]@	c #7A0206",
"^]@	c #610200",
"/]@	c #500402",
"(]@	c #430002",
"_]@	c #410103",
":]@	c #450301",
"<]@	c #570203",
"[]@	c #4D0405",
"}]@	c #290702",
"|]@	c #150301",
"1]@	c #467441",
"2]@	c #97D58E",
"3]@	c #7EBA71",
"4]@	c #2C661F",
"5]@	c #305E1B",
"6]@	c #254612",
"7]@	c #132802",
"8]@	c #0B1501",
"9]@	c #0C0F02",
"0]@	c #020B07",
"a]@	c #061B14",
"b]@	c #031B0F",
"c]@	c #04190A",
"d]@	c #031307",
"e]@	c #031306",
"f]@	c #021809",
"g]@	c #0A1D16",
"h]@	c #05100C",
"i]@	c #84040B",
"j]@	c #980510",
"k]@	c #B24551",
"l]@	c #D8969D",
"m]@	c #D99D9B",
"n]@	c #5A2320",
"o]@	c #1C0906",
"p]@	c #161C06",
"q]@	c #1A2F10",
"r]@	c #011605",
"s]@	c #075D4A",
"t]@	c #28D1A7",
"u]@	c #37F5C0",
"v]@	c #1FC084",
"w]@	c #118120",
"x]@	c #44BB24",
"y]@	c #45C71D",
"z]@	c #3CB81E",
"A]@	c #9DE173",
"B]@	c #EBFBCB",
"C]@	c #F1FCE5",
"D]@	c #B5DCA0",
"E]@	c #3C8228",
"F]@	c #0E5505",
"G]@	c #0E4504",
"H]@	c #095001",
"I]@	c #46A81F",
"J]@	c #59BB1A",
"K]@	c #B6E885",
"L]@	c #EBFFD5",
"M]@	c #D0EBBF",
"N]@	c #4A7C2F",
"O]@	c #153F06",
"P]@	c #162004",
"Q]@	c #121200",
"R]@	c #1C0901",
"S]@	c #3F0105",
"T]@	c #500005",
"U]@	c #480003",
"V]@	c #2D0709",
"W]@	c #270809",
"X]@	c #2A0307",
"Y]@	c #751B1E",
"Z]@	c #A92425",
"`]@	c #F1AD96",
" ^@	c #F2C9B2",
".^@	c #901D1F",
"+^@	c #690E18",
"@^@	c #5F1218",
"#^@	c #50080D",
"$^@	c #4E0307",
"%^@	c #3F0D15",
"&^@	c #340A0E",
"*^@	c #371011",
"=^@	c #3D171A",
"-^@	c #1C0D0D",
";^@	c #210B0D",
">^@	c #100305",
",^@	c #38231C",
"'^@	c #090405",
")^@	c #3A1C21",
"!^@	c #300E11",
"~^@	c #36090E",
"{^@	c #421319",
"]^@	c #48020B",
"^^@	c #570B11",
"/^@	c #66171C",
"(^@	c #630F13",
"_^@	c #851A22",
":^@	c #AA402F",
"<^@	c #FBDACC",
"[^@	c #DA9583",
"}^@	c #8F151E",
"|^@	c #58191F",
"1^@	c #320306",
"2^@	c #401012",
"3^@	c #2A0808",
"4^@	c #1E0304",
"5^@	c #220A0B",
"6^@	c #174908",
"7^@	c #72A049",
"8^@	c #E6F9BD",
"9^@	c #C3E691",
"0^@	c #438411",
"a^@	c #1F4D05",
"b^@	c #090E01",
"c^@	c #070D01",
"d^@	c #031505",
"e^@	c #021F05",
"f^@	c #042903",
"g^@	c #0D4804",
"h^@	c #147104",
"i^@	c #94C66C",
"j^@	c #E8FCC0",
"k^@	c #73B53B",
"l^@	c #245503",
"m^@	c #263908",
"n^@	c #353608",
"o^@	c #3E1106",
"p^@	c #680603",
"q^@	c #C85A5D",
"r^@	c #D67C7E",
"s^@	c #1F230F",
"t^@	c #234325",
"u^@	c #081F0A",
"v^@	c #04390E",
"w^@	c #07440D",
"x^@	c #025C17",
"y^@	c #57BE55",
"z^@	c #99F990",
"A^@	c #157D12",
"B^@	c #075900",
"C^@	c #93CE75",
"D^@	c #B4EC95",
"E^@	c #0D5E01",
"F^@	c #012502",
"G^@	c #011901",
"H^@	c #13140B",
"I^@	c #090A05",
"J^@	c #110F06",
"K^@	c #082E06",
"L^@	c #1B6104",
"M^@	c #BEE197",
"N^@	c #E0F3C1",
"O^@	c #5B9B2B",
"P^@	c #175501",
"Q^@	c #042C02",
"R^@	c #030503",
"S^@	c #060604",
"T^@	c #041F06",
"U^@	c #0F3805",
"V^@	c #7A9668",
"W^@	c #81AA65",
"X^@	c #222B09",
"Y^@	c #170D03",
"Z^@	c #140501",
"`^@	c #370103",
" /@	c #65050B",
"./@	c #BD5660",
"+/@	c #F7C7C6",
"@/@	c #E5AFB3",
"#/@	c #B34F57",
"$/@	c #8C0814",
"%/@	c #810208",
"&/@	c #780004",
"*/@	c #6D0003",
"=/@	c #680102",
"-/@	c #730004",
";/@	c #790309",
">/@	c #842726",
",/@	c #B56965",
"'/@	c #D98F94",
")/@	c #8D4049",
"!/@	c #14390D",
"~/@	c #699F61",
"{/@	c #8AD07F",
"]/@	c #74B362",
"^/@	c #2A6417",
"//@	c #104505",
"(/@	c #10310C",
"_/@	c #0A1A0D",
":/@	c #010D0A",
"</@	c #000704",
"[/@	c #040B03",
"}/@	c #030C05",
"|/@	c #050F0E",
"1/@	c #091311",
"2/@	c #09130A",
"3/@	c #010806",
"4/@	c #210301",
"5/@	c #5F0307",
"6/@	c #730701",
"7/@	c #8E030D",
"8/@	c #7B030E",
"9/@	c #162A0B",
"0/@	c #081C03",
"a/@	c #061206",
"b/@	c #0F6F55",
"c/@	c #24DAAC",
"d/@	c #41E4C5",
"e/@	c #62F7E3",
"f/@	c #56F5D7",
"g/@	c #24C887",
"h/@	c #118128",
"i/@	c #3BB115",
"j/@	c #44D417",
"k/@	c #44C81B",
"l/@	c #93DE68",
"m/@	c #E9FCD0",
"n/@	c #F4FBDA",
"o/@	c #B3DE9E",
"p/@	c #348526",
"q/@	c #0F5604",
"r/@	c #0C4B08",
"s/@	c #185604",
"t/@	c #48B111",
"u/@	c #5CC821",
"v/@	c #C4EF9B",
"w/@	c #F6FCD8",
"x/@	c #BDD69D",
"y/@	c #26680E",
"z/@	c #233908",
"A/@	c #201E01",
"B/@	c #2A0E02",
"C/@	c #400B05",
"D/@	c #6F161C",
"E/@	c #730A14",
"F/@	c #640509",
"G/@	c #580303",
"H/@	c #470305",
"I/@	c #0D0604",
"J/@	c #0B0D06",
"K/@	c #0F0C07",
"L/@	c #481116",
"M/@	c #741A1D",
"N/@	c #A82224",
"O/@	c #F0AC96",
"P/@	c #670D17",
"Q/@	c #60161C",
"R/@	c #4E0B0F",
"S/@	c #4A0509",
"T/@	c #410307",
"U/@	c #2A0306",
"V/@	c #3C0F15",
"W/@	c #320A0D",
"X/@	c #330E0E",
"Y/@	c #3B1719",
"Z/@	c #31191D",
"`/@	c #201B1B",
" (@	c #36201A",
".(@	c #1F0604",
"+(@	c #1E0C11",
"@(@	c #20090C",
"#(@	c #2F2122",
"$(@	c #3A1C22",
"%(@	c #2F0E10",
"&(@	c #3F1217",
"*(@	c #280406",
"=(@	c #510D11",
"-(@	c #661A1E",
";(@	c #630C11",
">(@	c #841821",
",(@	c #AC4230",
"'(@	c #8F151F",
")(@	c #54151B",
"!(@	c #411213",
"~(@	c #2B0A0A",
"{(@	c #201704",
"](@	c #1D3706",
"^(@	c #266A0E",
"/(@	c #C1E58D",
"((@	c #EBFBC8",
"_(@	c #7BB844",
":(@	c #327808",
"<(@	c #0F3903",
"[(@	c #091F04",
"}(@	c #061300",
"|(@	c #031100",
"1(@	c #002501",
"2(@	c #003300",
"3(@	c #074A03",
"4(@	c #116502",
"5(@	c #358914",
"6(@	c #CCEC9C",
"7(@	c #CEF4A3",
"8(@	c #539C17",
"9(@	c #1B4603",
"0(@	c #2C480A",
"a(@	c #393C07",
"b(@	c #410F08",
"c(@	c #650701",
"d(@	c #C5575B",
"e(@	c #FFE6E6",
"f(@	c #D47A7C",
"g(@	c #710010",
"h(@	c #380707",
"i(@	c #212511",
"j(@	c #244225",
"k(@	c #081E09",
"l(@	c #083910",
"m(@	c #0B4812",
"n(@	c #015C14",
"o(@	c #5AC456",
"p(@	c #97F98C",
"q(@	c #137B0F",
"r(@	c #065900",
"s(@	c #99D37B",
"t(@	c #B8E99A",
"u(@	c #0C5A01",
"v(@	c #021B03",
"w(@	c #0B0C08",
"x(@	c #0D0502",
"y(@	c #100E06",
"z(@	c #0B2004",
"A(@	c #094501",
"B(@	c #82B362",
"C(@	c #95C164",
"D(@	c #286706",
"E(@	c #043500",
"F(@	c #050704",
"G(@	c #021C03",
"H(@	c #0D2201",
"I(@	c #0B2A00",
"J(@	c #181303",
"K(@	c #150600",
"L(@	c #150402",
"M(@	c #330301",
"N(@	c #79010D",
"O(@	c #AF4251",
"P(@	c #EDABB7",
"Q(@	c #FCDAD4",
"R(@	c #ECBAB5",
"S(@	c #D28186",
"T(@	c #BA5960",
"U(@	c #B43F47",
"V(@	c #BC3B47",
"W(@	c #BE555A",
"X(@	c #C88780",
"Y(@	c #E2B5AF",
"Z(@	c #F8D5CE",
"`(@	c #FAD4CD",
" _@	c #D39A9B",
"._@	c #732C35",
"+_@	c #040105",
"@_@	c #184813",
"#_@	c #5E974F",
"$_@	c #8BCF76",
"%_@	c #87C574",
"&_@	c #3F7333",
"*_@	c #042604",
"=_@	c #011204",
"-_@	c #010704",
";_@	c #000E07",
">_@	c #030F0A",
",_@	c #030B07",
"'_@	c #020805",
")_@	c #350005",
"!_@	c #460006",
"~_@	c #330306",
"{_@	c #120900",
"]_@	c #111C02",
"^_@	c #0E1D05",
"/_@	c #026948",
"(_@	c #39DCAF",
"__@	c #1D9F7A",
":_@	c #05623C",
"<_@	c #2CAA87",
"[_@	c #4EF5D3",
"}_@	c #58FAD4",
"|_@	c #2ED791",
"1_@	c #078035",
"2_@	c #3BAE14",
"3_@	c #3ACB12",
"4_@	c #3EC818",
"5_@	c #8DDE65",
"6_@	c #E2FCCC",
"7_@	c #F4FDE2",
"8_@	c #B0DC95",
"9_@	c #2C7A1D",
"0_@	c #0B5702",
"a_@	c #134609",
"b_@	c #0E6402",
"c_@	c #4ABD1D",
"d_@	c #76C933",
"e_@	c #D9F6AD",
"f_@	c #EFFCDC",
"g_@	c #86B664",
"h_@	c #2A5407",
"i_@	c #263104",
"j_@	c #3F1804",
"k_@	c #853122",
"l_@	c #F2B791",
"m_@	c #F4C9B4",
"n_@	c #D9A081",
"o_@	c #B15D3B",
"p_@	c #8C171D",
"q_@	c #770409",
"r_@	c #580502",
"s_@	c #430200",
"t_@	c #1E0602",
"u_@	c #140D07",
"v_@	c #151209",
"w_@	c #1C1B0E",
"x_@	c #1D2415",
"y_@	c #1C1F16",
"z_@	c #17110E",
"A_@	c #050503",
"B_@	c #180103",
"C_@	c #5C1D20",
"D_@	c #74191D",
"E_@	c #A82324",
"F_@	c #F0AB95",
"G_@	c #650E17",
"H_@	c #631E22",
"I_@	c #4C0E10",
"J_@	c #4A080D",
"K_@	c #3E0308",
"L_@	c #3A0F16",
"M_@	c #300A0D",
"N_@	c #3D1A1C",
"O_@	c #160405",
"P_@	c #200B0D",
"Q_@	c #220A0D",
"R_@	c #33090D",
"S_@	c #3E1217",
"T_@	c #260405",
"U_@	c #3A0208",
"V_@	c #43080D",
"W_@	c #511114",
"X_@	c #671D21",
"Y_@	c #660E13",
"Z_@	c #831720",
"`_@	c #8E141E",
" :@	c #752028",
".:@	c #431414",
"+:@	c #2C0A09",
"@:@	c #180203",
"#:@	c #141603",
"$:@	c #192601",
"%:@	c #1D4A08",
"&:@	c #5C9D3C",
"*:@	c #CBEB95",
"=:@	c #469E12",
"-:@	c #236204",
";:@	c #0B2C03",
">:@	c #021601",
",:@	c #033E02",
"':@	c #075702",
"):@	c #116F05",
"!:@	c #1F8007",
"~:@	c #85BC5A",
"{:@	c #ECFCC3",
"]:@	c #9FE268",
"^:@	c #3E8408",
"/:@	c #163B01",
"(:@	c #375A12",
"_:@	c #3A4005",
"::@	c #430D0C",
"<:@	c #640602",
"[:@	c #C25457",
"}:@	c #D97F81",
"|:@	c #720010",
"1:@	c #380807",
"2:@	c #202410",
"3:@	c #213D21",
"4:@	c #0C1C08",
"5:@	c #0A310B",
"6:@	c #053C08",
"7:@	c #00580F",
"8:@	c #57C451",
"9:@	c #92F987",
"0:@	c #117D0F",
"a:@	c #075C01",
"b:@	c #9DD680",
"c:@	c #BCE89F",
"d:@	c #0D5902",
"e:@	c #011A02",
"f:@	c #14150C",
"g:@	c #160805",
"h:@	c #0A1701",
"i:@	c #042F06",
"j:@	c #3A7524",
"k:@	c #CCE697",
"l:@	c #407816",
"m:@	c #0B3E03",
"n:@	c #022300",
"o:@	c #030F00",
"p:@	c #010708",
"q:@	c #0A0504",
"r:@	c #041003",
"s:@	c #130702",
"t:@	c #190203",
"u:@	c #190005",
"v:@	c #1B0004",
"w:@	c #1D0103",
"x:@	c #270201",
"y:@	c #280201",
"z:@	c #620408",
"A:@	c #88151F",
"B:@	c #C16567",
"C:@	c #E9ABA9",
"D:@	c #F9CECF",
"E:@	c #FDDAE0",
"F:@	c #FEDCE2",
"G:@	c #FDE0E3",
"H:@	c #FCDFE3",
"I:@	c #FBD9DC",
"J:@	c #EFBEC2",
"K:@	c #CC868D",
"L:@	c #A23946",
"M:@	c #470105",
"N:@	c #040704",
"O:@	c #072B03",
"P:@	c #315D27",
"Q:@	c #619954",
"R:@	c #2D6523",
"S:@	c #062905",
"T:@	c #041005",
"U:@	c #162E14",
"V:@	c #21431D",
"W:@	c #070903",
"X:@	c #0F0400",
"Y:@	c #0F0205",
"Z:@	c #110D08",
"`:@	c #0D1E05",
" <@	c #032C1C",
".<@	c #169C73",
"+<@	c #189C76",
"@<@	c #276D58",
"#<@	c #044A25",
"$<@	c #055120",
"%<@	c #198C65",
"&<@	c #53E7C6",
"*<@	c #52FCDD",
"=<@	c #42DFAD",
"-<@	c #0E8838",
";<@	c #3EBC23",
"><@	c #40CA15",
",<@	c #3EC70E",
"'<@	c #8BE068",
")<@	c #E6FCCB",
"!<@	c #A9DA95",
"~<@	c #287A19",
"{<@	c #125003",
"]<@	c #1D7306",
"^<@	c #59C525",
"/<@	c #83D552",
"(<@	c #EAFCC7",
"_<@	c #E1F1C9",
":<@	c #548C3A",
"<<@	c #33460A",
"[<@	c #7B1A1A",
"}<@	c #CB715B",
"|<@	c #F0B08F",
"1<@	c #FBD1B2",
"2<@	c #FACEA1",
"3<@	c #F6BB8D",
"4<@	c #D79579",
"5<@	c #9A422E",
"6<@	c #6B050C",
"7<@	c #1A1108",
"8<@	c #19190C",
"9<@	c #1B200B",
"0<@	c #1B270E",
"a<@	c #151809",
"b<@	c #130908",
"c<@	c #1B0204",
"d<@	c #5B1C20",
"e<@	c #F1AC95",
"f<@	c #F3CAB3",
"g<@	c #921F21",
"h<@	c #661018",
"i<@	c #642226",
"j<@	c #4E1214",
"k<@	c #4D0910",
"l<@	c #41040C",
"m<@	c #280208",
"n<@	c #390D15",
"o<@	c #2F0B0D",
"p<@	c #331110",
"q<@	c #3E1D1E",
"r<@	c #150505",
"s<@	c #311A1D",
"t<@	c #1F0C0F",
"u<@	c #17060C",
"v<@	c #1D0A0F",
"w<@	c #312324",
"x<@	c #361A1F",
"y<@	c #300D12",
"z<@	c #300B0F",
"A<@	c #3B161A",
"B<@	c #3A040A",
"C<@	c #511317",
"D<@	c #6A2125",
"E<@	c #670E14",
"F<@	c #861724",
"G<@	c #D9947F",
"H<@	c #51181C",
"I<@	c #2E0207",
"J<@	c #411616",
"K<@	c #2F0A0B",
"L<@	c #160402",
"M<@	c #161A01",
"N<@	c #1A3402",
"O<@	c #265D09",
"P<@	c #A0CC7C",
"Q<@	c #F6FDD0",
"R<@	c #92D458",
"S<@	c #3A840F",
"T<@	c #134900",
"U<@	c #021E00",
"V<@	c #013102",
"W<@	c #094608",
"X<@	c #0A640A",
"Y<@	c #0F720F",
"Z<@	c #58943B",
"`<@	c #A8D683",
" [@	c #E2F6BE",
".[@	c #D6F5AB",
"+[@	c #69BB2D",
"@[@	c #2B6E02",
"#[@	c #103600",
"$[@	c #406F18",
"%[@	c #37430B",
"&[@	c #430D08",
"*[@	c #620504",
"=[@	c #C24E4D",
"-[@	c #FFE3DF",
";[@	c #DA8389",
">[@	c #75020A",
",[@	c #3A0609",
"'[@	c #231B0A",
")[@	c #1A3712",
"![@	c #0E2009",
"~[@	c #0D2F0B",
"{[@	c #04470D",
"][@	c #035A11",
"^[@	c #48C04A",
"/[@	c #86F875",
"([@	c #178114",
"_[@	c #0A5D00",
":[@	c #9AD77D",
"<[@	c #C0EA9A",
"[[@	c #0F5D01",
"}[@	c #022802",
"|[@	c #001201",
"1[@	c #14150E",
"2[@	c #0E0603",
"3[@	c #110E03",
"4[@	c #052005",
"5[@	c #0B4A06",
"6[@	c #90BC70",
"7[@	c #EBFAB9",
"8[@	c #75A945",
"9[@	c #0D4E07",
"0[@	c #072201",
"a[@	c #1D0201",
"b[@	c #1F0004",
"c[@	c #270103",
"d[@	c #5A0002",
"e[@	c #77020B",
"f[@	c #880414",
"g[@	c #991D2D",
"h[@	c #AC3A4B",
"i[@	c #BA4C5D",
"j[@	c #B85260",
"k[@	c #B24656",
"l[@	c #9F2239",
"m[@	c #86081F",
"n[@	c #700110",
"o[@	c #5C0109",
"p[@	c #060208",
"q[@	c #1B3516",
"r[@	c #5B9B4B",
"s[@	c #6CB25F",
"t[@	c #396C31",
"u[@	c #042E06",
"v[@	c #080C00",
"w[@	c #080902",
"x[@	c #020804",
"y[@	c #070800",
"z[@	c #170506",
"A[@	c #0C1507",
"B[@	c #031201",
"C[@	c #013F27",
"D[@	c #1A865E",
"E[@	c #0B4C32",
"F[@	c #318062",
"G[@	c #1F8A5E",
"H[@	c #046737",
"I[@	c #064F28",
"J[@	c #0B8052",
"K[@	c #2CDEBA",
"L[@	c #43FCD3",
"M[@	c #3AE4A9",
"N[@	c #0E8839",
"O[@	c #3DB022",
"P[@	c #41D318",
"Q[@	c #37C30A",
"R[@	c #97E265",
"S[@	c #F2F8DA",
"T[@	c #A0D488",
"U[@	c #25730D",
"V[@	c #114F08",
"W[@	c #125104",
"X[@	c #2D8A12",
"Y[@	c #60D42C",
"Z[@	c #ABE387",
"`[@	c #F8FBE5",
" }@	c #BFDDA2",
".}@	c #3A6A14",
"+}@	c #3B3A06",
"@}@	c #5E1B0B",
"#}@	c #910C18",
"$}@	c #B00F25",
"%}@	c #C73938",
"&}@	c #D76D3C",
"*}@	c #ECB398",
"=}@	c #FCD1AF",
"-}@	c #F4B258",
";}@	c #C78152",
">}@	c #62131C",
",}@	c #38080C",
"'}@	c #261A10",
")}@	c #1D2710",
"!}@	c #1A2E0D",
"~}@	c #242C12",
"{}@	c #161204",
"]}@	c #170E09",
"^}@	c #1B0D0E",
"/}@	c #1E0205",
"(}@	c #441015",
"_}@	c #5D1B1C",
":}@	c #731A1E",
"<}@	c #A52328",
"[}@	c #F1AB94",
"}}@	c #90211F",
"|}@	c #671017",
"1}@	c #68252C",
"2}@	c #4A0C11",
"3}@	c #3E050D",
"4}@	c #391017",
"5}@	c #2E0C0F",
"6}@	c #240C10",
"7}@	c #1F0E12",
"8}@	c #17080D",
"9}@	c #281F1A",
"0}@	c #211D1D",
"a}@	c #302223",
"b}@	c #34191D",
"c}@	c #300C11",
"d}@	c #2F0B0F",
"e}@	c #381418",
"f}@	c #3B060D",
"g}@	c #40080E",
"h}@	c #4F1317",
"i}@	c #681016",
"j}@	c #881825",
"k}@	c #AC4134",
"l}@	c #FBDAC5",
"m}@	c #D9947E",
"n}@	c #8E1619",
"o}@	c #772024",
"p}@	c #2E0208",
"q}@	c #421717",
"r}@	c #310B0D",
"s}@	c #180704",
"t}@	c #1A1205",
"u}@	c #171E01",
"v}@	c #1D3C04",
"w}@	c #306D06",
"x}@	c #C5EBA4",
"y}@	c #E7FBB9",
"z}@	c #66B62D",
"A}@	c #276E09",
"B}@	c #083C00",
"C}@	c #084908",
"D}@	c #0D6901",
"E}@	c #227913",
"F}@	c #99C37B",
"G}@	c #E3F4D0",
"H}@	c #EDFBE6",
"I}@	c #E4F9B1",
"J}@	c #8ED244",
"K}@	c #4DAA0F",
"L}@	c #195507",
"M}@	c #103E02",
"N}@	c #497F1F",
"O}@	c #354405",
"P}@	c #440E07",
"Q}@	c #610307",
"R}@	c #BD4543",
"S}@	c #FDDCD9",
"T}@	c #DD8D90",
"U}@	c #7D040B",
"V}@	c #390808",
"W}@	c #23270B",
"X}@	c #225219",
"Y}@	c #093109",
"Z}@	c #0E4516",
"`}@	c #085C1A",
" |@	c #046016",
".|@	c #43BE48",
"+|@	c #85FA70",
"@|@	c #1C8619",
"#|@	c #0B5D01",
"$|@	c #95D479",
"%|@	c #C1EB99",
"&|@	c #116102",
"*|@	c #032902",
"=|@	c #13140D",
"-|@	c #0F100B",
";|@	c #050507",
">|@	c #120805",
",|@	c #356822",
"'|@	c #C9E9A4",
")|@	c #B8E18A",
"!|@	c #216107",
"~|@	c #022B04",
"{|@	c #230203",
"]|@	c #230001",
"^|@	c #460102",
"/|@	c #560103",
"(|@	c #640205",
"_|@	c #630105",
":|@	c #4A0101",
"<|@	c #010906",
"[|@	c #05180C",
"}|@	c #386232",
"||@	c #73B75D",
"1|@	c #7BC365",
"2|@	c #316728",
"3|@	c #061805",
"4|@	c #060C01",
"5|@	c #080E05",
"6|@	c #050803",
"7|@	c #040C02",
"8|@	c #00301A",
"9|@	c #196C4A",
"0|@	c #013E21",
"a|@	c #05361C",
"b|@	c #0A4F2E",
"c|@	c #167C4E",
"d|@	c #0B7242",
"e|@	c #045C2F",
"f|@	c #046F40",
"g|@	c #22D0A0",
"h|@	c #40FBD7",
"i|@	c #3EE6B0",
"j|@	c #0B8C31",
"k|@	c #4ABB18",
"l|@	c #45CE18",
"m|@	c #3FC419",
"n|@	c #9DE767",
"o|@	c #F0FBD2",
"p|@	c #F4F6E3",
"q|@	c #93CE7D",
"r|@	c #19740C",
"s|@	c #0C5301",
"t|@	c #0C5701",
"u|@	c #46A81D",
"v|@	c #65D229",
"w|@	c #D1F5AF",
"x|@	c #F1F9D7",
"y|@	c #84AF5E",
"z|@	c #2A5601",
"A|@	c #5A0E05",
"B|@	c #740207",
"C|@	c #A7040E",
"D|@	c #BC061C",
"E|@	c #C53331",
"F|@	c #DD7A57",
"G|@	c #ED9E60",
"H|@	c #B56C37",
"I|@	c #460B0B",
"J|@	c #311B0C",
"K|@	c #1E2B0C",
"L|@	c #1C3810",
"M|@	c #1F2B0E",
"N|@	c #171104",
"O|@	c #1C0E0D",
"P|@	c #110403",
"Q|@	c #210305",
"R|@	c #5C1A1A",
"S|@	c #A42228",
"T|@	c #F0AA93",
"U|@	c #8F221F",
"V|@	c #6A1319",
"W|@	c #6B262E",
"X|@	c #4B1619",
"Y|@	c #4B0F13",
"Z|@	c #3E0810",
"`|@	c #250306",
" 1@	c #381017",
".1@	c #2D0B0E",
"+1@	c #2E0F0F",
"@1@	c #230C10",
"#1@	c #1E0E13",
"$1@	c #18090E",
"%1@	c #291F1A",
"&1@	c #34181D",
"*1@	c #371317",
"=1@	c #260306",
"-1@	c #3C080E",
";1@	c #40090F",
">1@	c #501619",
",1@	c #692226",
"'1@	c #650D13",
")1@	c #AC4233",
"!1@	c #DA947E",
"~1@	c #8E1519",
"{1@	c #761F23",
"]1@	c #501A1E",
"^1@	c #411617",
"/1@	c #1A0A06",
"(1@	c #1C1707",
"_1@	c #182300",
":1@	c #488616",
"<1@	c #DDFCB9",
"[1@	c #C8F299",
"}1@	c #499F0C",
"|1@	c #053903",
"11@	c #082905",
"21@	c #044C05",
"31@	c #0E690D",
"41@	c #308220",
"51@	c #B6DF8D",
"61@	c #F5F9D9",
"71@	c #C7EFA3",
"81@	c #7FC93F",
"91@	c #399016",
"01@	c #1D550E",
"a1@	c #56952A",
"b1@	c #384702",
"c1@	c #5E030A",
"d1@	c #B23A37",
"e1@	c #FDD3D2",
"f1@	c #DF9C9A",
"g1@	c #86030C",
"h1@	c #3C0807",
"i1@	c #252A06",
"j1@	c #30681F",
"k1@	c #0C4007",
"l1@	c #074B12",
"m1@	c #05641D",
"n1@	c #05681C",
"o1@	c #3EBA44",
"p1@	c #88FC72",
"q1@	c #228D21",
"r1@	c #095C02",
"s1@	c #8FCF75",
"t1@	c #C2EE9A",
"u1@	c #176907",
"v1@	c #030C02",
"w1@	c #13140F",
"x1@	c #0D0504",
"y1@	c #033702",
"z1@	c #6B9F52",
"A1@	c #DDFAB1",
"B1@	c #659638",
"C1@	c #013D09",
"D1@	c #041401",
"E1@	c #030701",
"F1@	c #2E0405",
"G1@	c #360100",
"H1@	c #02020A",
"I1@	c #05010B",
"J1@	c #070204",
"K1@	c #031200",
"L1@	c #022D05",
"M1@	c #407735",
"N1@	c #8AC87F",
"O1@	c #74AE69",
"P1@	c #1E4C17",
"Q1@	c #0C0E02",
"R1@	c #050501",
"S1@	c #041000",
"T1@	c #011102",
"U1@	c #011708",
"V1@	c #174E36",
"W1@	c #054A2E",
"X1@	c #04391D",
"Y1@	c #0C361A",
"Z1@	c #10351B",
"`1@	c #15774B",
" 2@	c #118050",
".2@	c #02642A",
"+2@	c #016E3E",
"@2@	c #23C3A1",
"#2@	c #3CFBCE",
"$2@	c #38E0A7",
"%2@	c #0E7E34",
"&2@	c #4AC917",
"*2@	c #40C90C",
"=2@	c #3BD612",
"-2@	c #A8E375",
";2@	c #F1FAD1",
">2@	c #E9FAE2",
",2@	c #87C26B",
"'2@	c #166F10",
")2@	c #0E5103",
"!2@	c #1A6504",
"~2@	c #4FCC1E",
"{2@	c #81D955",
"]2@	c #F5FBD7",
"^2@	c #CEECB2",
"/2@	c #408322",
"(2@	c #244600",
"_2@	c #351E04",
":2@	c #410A04",
"<2@	c #4F0700",
"[2@	c #660202",
"}2@	c #79050A",
"|2@	c #8D040D",
"12@	c #A50914",
"22@	c #AF1217",
"32@	c #9E2324",
"42@	c #51150A",
"52@	c #292D08",
"62@	c #1B4409",
"72@	c #1A480C",
"82@	c #182C05",
"92@	c #191409",
"02@	c #140C09",
"a2@	c #1A0D08",
"b2@	c #290407",
"c2@	c #471318",
"d2@	c #601E1E",
"e2@	c #721A1D",
"f2@	c #A32127",
"g2@	c #F0A993",
"h2@	c #90211E",
"i2@	c #6D141B",
"j2@	c #6E2830",
"k2@	c #4F181C",
"l2@	c #490F12",
"m2@	c #410C14",
"n2@	c #240307",
"o2@	c #2E0F10",
"p2@	c #3B1A1D",
"q2@	c #200C0F",
"r2@	c #1E0D12",
"s2@	c #16070B",
"t2@	c #281E19",
"u2@	c #1F0A0C",
"v2@	c #080405",
"w2@	c #33181C",
"x2@	c #2F0B10",
"y2@	c #391519",
"z2@	c #270306",
"A2@	c #37040A",
"B2@	c #541B1E",
"C2@	c #692428",
"D2@	c #640F14",
"E2@	c #871825",
"F2@	c #FBD9C3",
"G2@	c #8F1519",
"H2@	c #521B1F",
"I2@	c #3F1315",
"J2@	c #300609",
"K2@	c #1C1907",
"L2@	c #182700",
"M2@	c #1D4A04",
"N2@	c #6AA03D",
"O2@	c #EFFEC1",
"P2@	c #A7E472",
"Q2@	c #378C04",
"R2@	c #0A4C03",
"S2@	c #053904",
"T2@	c #053203",
"U2@	c #064601",
"V2@	c #146E08",
"W2@	c #3E8927",
"X2@	c #F2FAE9",
"Y2@	c #E3F5D2",
"Z2@	c #95D86A",
"`2@	c #56C809",
" 3@	c #5ACD0F",
".3@	c #43A413",
"+3@	c #135404",
"@3@	c #083904",
"#3@	c #438B2C",
"$3@	c #5BA22C",
"%3@	c #384401",
"&3@	c #450E09",
"*3@	c #5C0307",
"=3@	c #A72F2C",
"-3@	c #FCC9CA",
";3@	c #E5AFA5",
">3@	c #90050F",
",3@	c #2C2402",
"'3@	c #386B1A",
")3@	c #164A07",
"!3@	c #084B11",
"~3@	c #086D23",
"{3@	c #046F20",
"]3@	c #37B33D",
"^3@	c #8CFD75",
"/3@	c #2E9B2F",
"(3@	c #075B02",
"_3@	c #84C56C",
":3@	c #C6F4A0",
"<3@	c #20730F",
"[3@	c #012D01",
"}3@	c #021502",
"|3@	c #050F04",
"13@	c #14150F",
"23@	c #161712",
"33@	c #031C02",
"43@	c #ADCC8B",
"53@	c #0E4506",
"63@	c #3D0102",
"73@	c #4B0304",
"83@	c #4F0304",
"93@	c #270003",
"03@	c #120505",
"a3@	c #1F0406",
"b3@	c #041307",
"c3@	c #0A3003",
"d3@	c #5E924E",
"e3@	c #87C878",
"f3@	c #4F854A",
"g3@	c #093701",
"h3@	c #0E2701",
"i3@	c #101403",
"j3@	c #0B1005",
"k3@	c #061304",
"l3@	c #0B2B0C",
"m3@	c #82A97B",
"n3@	c #59784C",
"o3@	c #033807",
"p3@	c #051D03",
"q3@	c #040F05",
"r3@	c #052918",
"s3@	c #13553A",
"t3@	c #0A321E",
"u3@	c #06381A",
"v3@	c #033B1A",
"w3@	c #07381B",
"x3@	c #0D6A40",
"y3@	c #0B844E",
"z3@	c #0E5E30",
"A3@	c #026D36",
"B3@	c #22C28E",
"C3@	c #47F7D5",
"D3@	c #21D19C",
"E3@	c #187F2A",
"F3@	c #44CD1D",
"G3@	c #3FC40F",
"H3@	c #4ACE17",
"I3@	c #9DE975",
"J3@	c #EFF9D4",
"K3@	c #E5F7CF",
"L3@	c #72B05A",
"M3@	c #196704",
"N3@	c #064D01",
"O3@	c #2A871A",
"P3@	c #5EC72E",
"Q3@	c #C1E99C",
"R3@	c #EDFEDB",
"S3@	c #8FBD6E",
"T3@	c #246303",
"U3@	c #1D3202",
"V3@	c #211304",
"W3@	c #2D0B06",
"X3@	c #380B09",
"Y3@	c #490904",
"Z3@	c #630E02",
"`3@	c #752707",
" 4@	c #735613",
".4@	c #648028",
"+4@	c #66973B",
"@4@	c #649443",
"#4@	c #32661A",
"$4@	c #173401",
"%4@	c #171409",
"&4@	c #13090B",
"*4@	c #190C09",
"=4@	c #2E070C",
"-4@	c #5E1C1C",
";4@	c #711A1D",
">4@	c #91201E",
",4@	c #6F141C",
"'4@	c #6F2830",
")4@	c #50181C",
"!4@	c #460E10",
"~4@	c #400D14",
"{4@	c #230207",
"]4@	c #371117",
"^4@	c #3A181B",
"/4@	c #220B0E",
"(4@	c #1C0B0D",
"_4@	c #271D18",
":4@	c #210505",
"<4@	c #2D1F20",
"[4@	c #37050B",
"}4@	c #3E0B0F",
"|4@	c #6A2629",
"14@	c #651014",
"24@	c #881926",
"34@	c #AC4135",
"44@	c #FBD9C4",
"54@	c #8F1619",
"64@	c #521A1E",
"74@	c #2E0509",
"84@	c #1A0B04",
"94@	c #1C1B06",
"04@	c #172900",
"a4@	c #1D4D01",
"b4@	c #84B162",
"c4@	c #F8FDC4",
"d4@	c #8CD24E",
"e4@	c #297902",
"f4@	c #0D4502",
"g4@	c #063B01",
"h4@	c #024201",
"i4@	c #16690C",
"j4@	c #3A9024",
"k4@	c #C5E5A6",
"l4@	c #F2FDDC",
"m4@	c #6ECB3A",
"n4@	c #56C91C",
"o4@	c #58CB1F",
"p4@	c #378E13",
"q4@	c #114702",
"r4@	c #0B4C05",
"s4@	c #70CD4A",
"t4@	c #529E20",
"u4@	c #394406",
"v4@	c #5C0503",
"w4@	c #9B221E",
"x4@	c #F7BDBE",
"y4@	c #EFBEB0",
"z4@	c #990D14",
"A4@	c #440508",
"B4@	c #2C1F02",
"C4@	c #356C17",
"D4@	c #054D0F",
"E4@	c #09792C",
"F4@	c #037322",
"G4@	c #2CA833",
"H4@	c #8BFC74",
"I4@	c #3EAE40",
"J4@	c #035801",
"K4@	c #7ABD64",
"L4@	c #CAFCA5",
"M4@	c #2D7F1C",
"N4@	c #191A15",
"O4@	c #031405",
"P4@	c #6D9654",
"Q4@	c #133707",
"R4@	c #02120E",
"S4@	c #1A0102",
"T4@	c #6F0B14",
"U4@	c #B15F65",
"V4@	c #994146",
"W4@	c #520002",
"X4@	c #3D0105",
"Y4@	c #4A0003",
"Z4@	c #4D0107",
"`4@	c #180403",
" 5@	c #31080B",
".5@	c #420C11",
"+5@	c #490E14",
"@5@	c #420D14",
"#5@	c #32070E",
"$5@	c #041C07",
"%5@	c #254E1F",
"&5@	c #71AE63",
"*5@	c #75AF5F",
"=5@	c #193B0A",
"-5@	c #0C1605",
";5@	c #082001",
">5@	c #093204",
",5@	c #89B075",
"'5@	c #C1E89E",
")5@	c #236319",
"!5@	c #033603",
"~5@	c #02190B",
"{5@	c #0D4630",
"]5@	c #11432F",
"^5@	c #07341E",
"/5@	c #05351A",
"(5@	c #0A3217",
"_5@	c #073918",
":5@	c #06562E",
"<5@	c #198149",
"[5@	c #066A2F",
"}5@	c #016938",
"|5@	c #20C093",
"15@	c #3CF7D3",
"25@	c #1BBD8E",
"35@	c #1D8817",
"45@	c #4ECA22",
"55@	c #47CB13",
"65@	c #4BC417",
"75@	c #A7E67C",
"85@	c #EEFDD1",
"95@	c #DCF2B9",
"05@	c #59A13B",
"a5@	c #0C5B02",
"b5@	c #0F4903",
"c5@	c #409A1B",
"d5@	c #78D54F",
"e5@	c #EFFDCC",
"f5@	c #D5EFB4",
"g5@	c #37861D",
"h5@	c #104B02",
"i5@	c #0E1D04",
"j5@	c #0B1402",
"k5@	c #0E1204",
"l5@	c #1A1B01",
"m5@	c #203502",
"n5@	c #668B3F",
"o5@	c #CEE6A6",
"p5@	c #EAF6D3",
"q5@	c #EAFAD1",
"r5@	c #D5F9AB",
"s5@	c #7BB357",
"t5@	c #1B3F01",
"u5@	c #141107",
"v5@	c #13070E",
"w5@	c #140505",
"x5@	c #30090E",
"y5@	c #5F1D1E",
"z5@	c #731B1E",
"A5@	c #F0AA94",
"B5@	c #92211F",
"C5@	c #71151D",
"D5@	c #4E161B",
"E5@	c #450E10",
"F5@	c #400F16",
"G5@	c #361117",
"H5@	c #2C0A0E",
"I5@	c #2F0F10",
"J5@	c #3B191D",
"K5@	c #1E0D0F",
"L5@	c #1D0C11",
"M5@	c #3A231F",
"N5@	c #1C090B",
"O5@	c #2D1F1F",
"P5@	c #32171B",
"Q5@	c #2D0C10",
"R5@	c #2C0B0F",
"S5@	c #341417",
"T5@	c #360A0B",
"U5@	c #410B10",
"V5@	c #662427",
"W5@	c #6B1216",
"X5@	c #891822",
"Y5@	c #AD4030",
"Z5@	c #55191C",
"`5@	c #2E0406",
" 6@	c #3E1014",
".6@	c #2C0309",
"+6@	c #190904",
"@6@	c #152800",
"#6@	c #174E00",
"$6@	c #8FB96F",
"%6@	c #F1FEC4",
"&6@	c #77BF34",
"*6@	c #216B07",
"=6@	c #0E4D00",
"-6@	c #034105",
";6@	c #126202",
">6@	c #278E19",
",6@	c #B0DC93",
"'6@	c #F4FED9",
")6@	c #B8EA8A",
"!6@	c #52BD1B",
"~6@	c #5FD51A",
"{6@	c #54BB1B",
"]6@	c #1D6606",
"^6@	c #043702",
"/6@	c #1B540E",
"(6@	c #78C660",
"_6@	c #80DC5A",
":6@	c #448411",
"<6@	c #3B4505",
"[6@	c #421103",
"}6@	c #5A0402",
"|6@	c #931319",
"16@	c #EFA8AB",
"26@	c #F8C8BE",
"36@	c #971F1A",
"46@	c #4C0406",
"56@	c #381203",
"66@	c #306A15",
"76@	c #1E6610",
"86@	c #094805",
"96@	c #0A8D2C",
"06@	c #0D7624",
"a6@	c #169D2D",
"b6@	c #84F974",
"c6@	c #4AC04A",
"d6@	c #025601",
"e6@	c #61B04A",
"f6@	c #D4FCB1",
"g6@	c #449329",
"h6@	c #011D01",
"i6@	c #010505",
"j6@	c #0F110C",
"k6@	c #1A1D16",
"l6@	c #041304",
"m6@	c #050804",
"n6@	c #050203",
"o6@	c #14050A",
"p6@	c #2A0708",
"q6@	c #4A0D03",
"r6@	c #5F050E",
"s6@	c #881017",
"t6@	c #E8AEB1",
"u6@	c #F8DFDE",
"v6@	c #C06A76",
"w6@	c #7D0B0D",
"x6@	c #3D0004",
"y6@	c #2E0104",
"z6@	c #310601",
"A6@	c #410203",
"B6@	c #4F020B",
"C6@	c #62020C",
"D6@	c #7B1114",
"E6@	c #9F5555",
"F6@	c #D88D8F",
"G6@	c #964D54",
"H6@	c #30030A",
"I6@	c #4E0C1A",
"J6@	c #5F0D1E",
"K6@	c #4B0E19",
"L6@	c #260307",
"M6@	c #040E00",
"N6@	c #011A00",
"O6@	c #49743F",
"P6@	c #4A6A42",
"Q6@	c #081504",
"R6@	c #0B1905",
"S6@	c #082000",
"T6@	c #0A2D02",
"U6@	c #28591B",
"V6@	c #CFF1A1",
"W6@	c #75AA5A",
"X6@	c #012000",
"Y6@	c #030E06",
"Z6@	c #01220C",
"`6@	c #174B34",
" 7@	c #033A24",
".7@	c #07331F",
"+7@	c #08321E",
"@7@	c #024A23",
"#7@	c #14814B",
"$7@	c #096B38",
"%7@	c #006733",
"&7@	c #21C59D",
"*7@	c #2BE8BF",
"=7@	c #0F9460",
"-7@	c #2C7D0A",
";7@	c #4ABC1C",
">7@	c #61D42B",
",7@	c #43C514",
"'7@	c #AEE582",
")7@	c #C4F0A1",
"!7@	c #348219",
"~7@	c #1B5E06",
"{7@	c #4CB521",
"]7@	c #C5EC8A",
"^7@	c #F2FED7",
"/7@	c #80B464",
"(7@	c #1A5E0A",
"_7@	c #083000",
":7@	c #071402",
"<7@	c #0A1605",
"[7@	c #062200",
"}7@	c #164C0C",
"|7@	c #7EB864",
"17@	c #C3EBA7",
"27@	c #D8E9C6",
"37@	c #D6E9BE",
"47@	c #B4D88D",
"57@	c #537E33",
"67@	c #132C00",
"77@	c #15030B",
"87@	c #30080F",
"97@	c #481218",
"07@	c #5D1B1B",
"a7@	c #77181D",
"b7@	c #F0AC93",
"c7@	c #92231D",
"d7@	c #70171C",
"e7@	c #6F2831",
"f7@	c #471011",
"g7@	c #3E0B13",
"h7@	c #250409",
"i7@	c #2B0B0F",
"j7@	c #35181D",
"k7@	c #150407",
"l7@	c #2C1B1C",
"m7@	c #1D0F10",
"n7@	c #1D0C0D",
"o7@	c #1C0C0E",
"p7@	c #0F0203",
"q7@	c #1D0B0D",
"r7@	c #1B080A",
"s7@	c #331417",
"t7@	c #370A0C",
"u7@	c #4F161A",
"v7@	c #662528",
"w7@	c #6B1115",
"x7@	c #881721",
"y7@	c #AD4032",
"z7@	c #8D171A",
"A7@	c #741E24",
"B7@	c #55181C",
"C7@	c #2D0405",
"D7@	c #3D1014",
"E7@	c #171403",
"F7@	c #132600",
"G7@	c #154402",
"H7@	c #8EB56B",
"I7@	c #E9FDB3",
"J7@	c #6AAC2A",
"K7@	c #205F0C",
"L7@	c #084704",
"M7@	c #0A5307",
"N7@	c #258506",
"O7@	c #9CCF73",
"P7@	c #E6FDCB",
"Q7@	c #BDED91",
"R7@	c #5CBE1C",
"S7@	c #64D52A",
"T7@	c #4EAA21",
"U7@	c #0D5602",
"V7@	c #023D03",
"W7@	c #034008",
"X7@	c #478441",
"Y7@	c #98E17F",
"Z7@	c #85CE5B",
"`7@	c #256815",
" 8@	c #356C10",
".8@	c #3C4F0C",
"+8@	c #401500",
"@8@	c #550400",
"#8@	c #8C070E",
"$8@	c #E5989B",
"%8@	c #FDD5CA",
"&8@	c #AA302E",
"*8@	c #4D0706",
"=8@	c #2F6312",
"-8@	c #276F13",
";8@	c #0B4802",
">8@	c #0D8F2C",
",8@	c #097F28",
"'8@	c #0B9628",
")8@	c #71F16B",
"!8@	c #56CE53",
"~8@	c #005300",
"{8@	c #459932",
"]8@	c #D5FDB2",
"^8@	c #60A846",
"/8@	c #023903",
"(8@	c #001C00",
"_8@	c #011802",
":8@	c #051307",
"<8@	c #020806",
"[8@	c #0B0D08",
"}8@	c #1B1D16",
"|8@	c #080C05",
"18@	c #050702",
"28@	c #100405",
"38@	c #1B0D06",
"48@	c #3A2502",
"58@	c #9B7B58",
"68@	c #A6785C",
"78@	c #8F0902",
"88@	c #A22E31",
"98@	c #E8B2B2",
"08@	c #FDDDE0",
"a8@	c #C68390",
"b8@	c #821A1C",
"c8@	c #760205",
"d8@	c #620205",
"e8@	c #2B0300",
"f8@	c #2A0400",
"g8@	c #2D0003",
"h8@	c #510003",
"i8@	c #530210",
"j8@	c #6A030B",
"k8@	c #8D1516",
"l8@	c #B96566",
"m8@	c #E5BDBA",
"n8@	c #E0B2B6",
"o8@	c #8F424E",
"p8@	c #3C0107",
"q8@	c #35080F",
"r8@	c #480918",
"s8@	c #440716",
"t8@	c #010605",
"u8@	c #021706",
"v8@	c #061B07",
"w8@	c #0F2108",
"x8@	c #111F04",
"y8@	c #0B1800",
"z8@	c #0A2203",
"A8@	c #0C3803",
"B8@	c #88BB6A",
"C8@	c #B5E287",
"D8@	c #28640F",
"E8@	c #023500",
"F8@	c #011505",
"G8@	c #0A3824",
"H8@	c #155239",
"I8@	c #033822",
"J8@	c #052E1E",
"K8@	c #052916",
"L8@	c #0A2A16",
"M8@	c #043C1A",
"N8@	c #0C793E",
"O8@	c #0B6E31",
"P8@	c #066F42",
"Q8@	c #148662",
"R8@	c #056138",
"S8@	c #044805",
"T8@	c #0E5F09",
"U8@	c #318D15",
"V8@	c #5BC22E",
"W8@	c #5CCA2E",
"X8@	c #ABE982",
"Y8@	c #ECFBCB",
"Z8@	c #89BE57",
"`8@	c #155C02",
" 9@	c #054000",
".9@	c #308D14",
"+9@	c #7CD048",
"@9@	c #ECFDCA",
"#9@	c #C9E0AC",
"$9@	c #277613",
"%9@	c #0A4201",
"&9@	c #012102",
"*9@	c #041400",
"=9@	c #070F01",
"-9@	c #062800",
";9@	c #124B06",
">9@	c #286411",
",9@	c #34690F",
"'9@	c #2F5F09",
")9@	c #1E4D04",
"!9@	c #122E01",
"~9@	c #0F1801",
"{9@	c #0F0505",
"]9@	c #130107",
"^9@	c #150604",
"/9@	c #0C0402",
"(9@	c #29090F",
"_9@	c #320A11",
":9@	c #5C1B1B",
"<9@	c #91221C",
"[9@	c #70161C",
"}9@	c #481113",
"|9@	c #361015",
"19@	c #2C0C0F",
"29@	c #33171C",
"39@	c #140407",
"49@	c #2C1B1D",
"59@	c #1E1A1C",
"69@	c #39221E",
"79@	c #1D0A0D",
"89@	c #35090A",
"99@	c #692A2C",
"09@	c #690F13",
"a9@	c #86161F",
"b9@	c #AD4034",
"c9@	c #FBDBCA",
"d9@	c #D8937D",
"e9@	c #711B21",
"f9@	c #53171A",
"g9@	c #3C0F12",
"h9@	c #2A0608",
"i9@	c #171106",
"j9@	c #111F01",
"k9@	c #0E3801",
"l9@	c #6EA04D",
"m9@	c #D4FC99",
"n9@	c #51991C",
"o9@	c #185707",
"p9@	c #064B03",
"q9@	c #1A6C03",
"r9@	c #67B84C",
"s9@	c #E8F9C5",
"t9@	c #DDF3A8",
"u9@	c #65C72C",
"v9@	c #5FD623",
"w9@	c #4AAA1B",
"x9@	c #0D4F01",
"y9@	c #073E08",
"z9@	c #0E4803",
"A9@	c #5DA34A",
"B9@	c #9AEB82",
"C9@	c #65A857",
"D9@	c #174F0A",
"E9@	c #265407",
"F9@	c #3F6C11",
"G9@	c #3E4E0B",
"H9@	c #3C1401",
"I9@	c #4E0505",
"J9@	c #830308",
"K9@	c #D78084",
"L9@	c #FFDFD6",
"M9@	c #BE494A",
"N9@	c #510703",
"O9@	c #380F05",
"P9@	c #30580D",
"Q9@	c #307913",
"R9@	c #118929",
"S9@	c #0B8F33",
"T9@	c #059327",
"U9@	c #57E95F",
"V9@	c #65DB5E",
"W9@	c #025300",
"X9@	c #27811C",
"Y9@	c #CEFAAD",
"Z9@	c #7DBC62",
"`9@	c #044403",
" 0@	c #012001",
".0@	c #031305",
"+0@	c #1B1E16",
"@0@	c #0E1109",
"#0@	c #180B09",
"$0@	c #4C480A",
"%0@	c #E3D8B2",
"&0@	c #F2DEB9",
"*0@	c #914129",
"=0@	c #840207",
"-0@	c #A01828",
";0@	c #DC9199",
">0@	c #FCD7E1",
",0@	c #E1AFB3",
"'0@	c #A4464B",
")0@	c #80070B",
"!0@	c #6D0303",
"~0@	c #620304",
"{0@	c #4A0301",
"]0@	c #470101",
"^0@	c #4A0103",
"/0@	c #420106",
"(0@	c #440107",
"_0@	c #450107",
":0@	c #520004",
"<0@	c #600303",
"[0@	c #720205",
"}0@	c #8D1C1F",
"|0@	c #BD6B6E",
"10@	c #E9B8BB",
"20@	c #EBB9C7",
"30@	c #B8636C",
"40@	c #830C1F",
"50@	c #52010B",
"60@	c #360005",
"70@	c #24040A",
"80@	c #070207",
"90@	c #061803",
"00@	c #0C1706",
"a0@	c #0C0B07",
"b0@	c #377026",
"c0@	c #CAED8F",
"d0@	c #72A54A",
"e0@	c #084702",
"f0@	c #030C04",
"g0@	c #011C0C",
"h0@	c #194F39",
"i0@	c #0C3F2C",
"j0@	c #0F0702",
"k0@	c #200604",
"l0@	c #091F0D",
"m0@	c #082710",
"n0@	c #023C12",
"o0@	c #157435",
"p0@	c #0F5E2B",
"q0@	c #092D0E",
"r0@	c #0D1C06",
"s0@	c #032002",
"t0@	c #0C330B",
"u0@	c #0F4708",
"v0@	c #134E04",
"w0@	c #288018",
"x0@	c #4CB219",
"y0@	c #A1D86F",
"z0@	c #9AD865",
"A0@	c #186B00",
"B0@	c #093B05",
"C0@	c #1B5605",
"D0@	c #48B216",
"E0@	c #CCF1A2",
"F0@	c #F0F7D4",
"G0@	c #5C9E48",
"H0@	c #0D5806",
"I0@	c #031800",
"J0@	c #0D1304",
"K0@	c #0F1C06",
"L0@	c #112505",
"M0@	c #132903",
"N0@	c #162205",
"O0@	c #1A180A",
"P0@	c #100503",
"Q0@	c #340D14",
"R0@	c #270104",
"S0@	c #5F1E1E",
"T0@	c #78181E",
"U0@	c #A81F27",
"V0@	c #F0AB92",
"W0@	c #F4C6AC",
"X0@	c #6E2831",
"Y0@	c #460F11",
"Z0@	c #361115",
"`0@	c #2A0A0E",
" a@	c #36191E",
".a@	c #1C0F0F",
"+a@	c #1D0C0C",
"@a@	c #15060B",
"#a@	c #271D1C",
"$a@	c #1E191B",
"%a@	c #200503",
"&a@	c #1B090B",
"*a@	c #1E090B",
"=a@	c #2E0D11",
"-a@	c #321215",
";a@	c #370B0C",
">a@	c #420B10",
",a@	c #6A2A2D",
"'a@	c #871620",
")a@	c #D8927D",
"!a@	c #8C1719",
"~a@	c #6F191F",
"{a@	c #2D0609",
"]a@	c #1B0D09",
"^a@	c #111501",
"/a@	c #0A2802",
"(a@	c #32691C",
"_a@	c #A1DB75",
":a@	c #0E4901",
"<a@	c #045000",
"[a@	c #418F16",
"}a@	c #C3F0A2",
"|a@	c #EAFDD3",
"1a@	c #8ACD47",
"2a@	c #5ACE22",
"3a@	c #4BAE2A",
"4a@	c #094E01",
"5a@	c #073504",
"6a@	c #245D13",
"7a@	c #7FC866",
"8a@	c #89D276",
"9a@	c #397E2C",
"0a@	c #2C6C10",
"aa@	c #3F7313",
"ba@	c #446815",
"ca@	c #334B02",
"da@	c #352F06",
"ea@	c #3B0F08",
"fa@	c #C86068",
"ga@	c #FFE1DE",
"ha@	c #CD6A69",
"ia@	c #5E0602",
"ja@	c #3E0D08",
"ka@	c #304A06",
"la@	c #358310",
"ma@	c #126004",
"na@	c #147B20",
"oa@	c #1A9F41",
"pa@	c #068D26",
"qa@	c #3AE050",
"ra@	c #73E969",
"sa@	c #055701",
"ta@	c #0C6D09",
"ua@	c #C3F0A3",
"va@	c #97D17A",
"wa@	c #075005",
"xa@	c #021404",
"ya@	c #030D06",
"za@	c #1B1E17",
"Aa@	c #14170F",
"Ba@	c #191006",
"Ca@	c #242004",
"Da@	c #616B26",
"Ea@	c #EDF4D1",
"Fa@	c #C7D1A3",
"Ga@	c #6E5023",
"Ha@	c #64040C",
"Ia@	c #690106",
"Ja@	c #8D0912",
"Ka@	c #C06B73",
"La@	c #F9CACD",
"Ma@	c #F9DED9",
"Na@	c #DDA0A2",
"Oa@	c #B0464E",
"Pa@	c #8D0F18",
"Qa@	c #8A0110",
"Ra@	c #84020E",
"Sa@	c #740309",
"Ta@	c #630305",
"Ua@	c #690004",
"Va@	c #6A0004",
"Wa@	c #6D0105",
"Xa@	c #6F0106",
"Ya@	c #6D0606",
"Za@	c #7C0409",
"`a@	c #991321",
" b@	c #B14C52",
".b@	c #DA9996",
"+b@	c #F4CFCF",
"@b@	c #FEE2EA",
"#b@	c #EFB9CA",
"$b@	c #C06573",
"%b@	c #90171E",
"&b@	c #770303",
"*b@	c #4C0501",
"=b@	c #020403",
"-b@	c #040A05",
";b@	c #093202",
">b@	c #9AC172",
",b@	c #B7E48C",
"'b@	c #1C5110",
")b@	c #041305",
"!b@	c #000105",
"~b@	c #030B03",
"{b@	c #0D2C1E",
"]b@	c #0C2D20",
"^b@	c #110B03",
"/b@	c #571D1B",
"(b@	c #621819",
"_b@	c #360705",
":b@	c #141208",
"<b@	c #04220D",
"[b@	c #023611",
"}b@	c #012105",
"|b@	c #04391E",
"1b@	c #1B775C",
"2b@	c #024935",
"3b@	c #0B2103",
"4b@	c #072400",
"5b@	c #0E3401",
"6b@	c #0F3E02",
"7b@	c #0A5001",
"8b@	c #1E7412",
"9b@	c #38821E",
"0b@	c #155C03",
"ab@	c #173204",
"bb@	c #2E8608",
"cb@	c #94DC61",
"db@	c #F1FED6",
"eb@	c #A6CD91",
"fb@	c #136F09",
"gb@	c #053901",
"hb@	c #080600",
"ib@	c #090808",
"jb@	c #0A0605",
"kb@	c #2A0A10",
"lb@	c #350E15",
"mb@	c #611F20",
"nb@	c #A81F26",
"ob@	c #F5C6AD",
"pb@	c #6E141A",
"qb@	c #6B242D",
"rb@	c #470F12",
"sb@	c #410E15",
"tb@	c #240308",
"ub@	c #16070C",
"vb@	c #1E191C",
"wb@	c #291B1C",
"xb@	c #060303",
"yb@	c #32171C",
"zb@	c #321216",
"Ab@	c #380B0C",
"Bb@	c #68282B",
"Cb@	c #6A1014",
"Db@	c #D8937E",
"Eb@	c #8D171B",
"Fb@	c #54171B",
"Gb@	c #2C0304",
"Hb@	c #0B1907",
"Ib@	c #063203",
"Jb@	c #275513",
"Kb@	c #073A06",
"Lb@	c #0B3601",
"Mb@	c #15640C",
"Nb@	c #8DCB60",
"Ob@	c #EEFEC7",
"Pb@	c #B9E786",
"Qb@	c #56CA19",
"Rb@	c #5CC723",
"Sb@	c #105B03",
"Tb@	c #052F04",
"Ub@	c #022309",
"Vb@	c #408228",
"Wb@	c #8BE270",
"Xb@	c #227208",
"Yb@	c #428220",
"Zb@	c #41741F",
"`b@	c #264E04",
" c@	c #233A06",
".c@	c #232200",
"+c@	c #290C05",
"@c@	c #370809",
"#c@	c #450707",
"$c@	c #B6414C",
"%c@	c #FDDDDD",
"&c@	c #E18F90",
"*c@	c #6D0704",
"=c@	c #450C0A",
"-c@	c #313D03",
";c@	c #3A8C12",
">c@	c #19750A",
",c@	c #0B670C",
"'c@	c #2CB353",
")c@	c #0B8B27",
"!c@	c #26D846",
"~c@	c #7EF475",
"{c@	c #146410",
"]c@	c #026003",
"^c@	c #B1DF95",
"/c@	c #AFE58F",
"(c@	c #115F0A",
"_c@	c #011503",
":c@	c #041007",
"<c@	c #171A12",
"[c@	c #191C13",
"}c@	c #120906",
"|c@	c #181405",
"1c@	c #252808",
"2c@	c #74893A",
"3c@	c #E9FAC8",
"4c@	c #A3C472",
"5c@	c #4D5306",
"6c@	c #470906",
"7c@	c #4C0306",
"8c@	c #6C0101",
"9c@	c #7A0209",
"0c@	c #A82D36",
"ac@	c #E1929E",
"bc@	c #F9D0DB",
"cc@	c #EEC0BC",
"dc@	c #D79796",
"ec@	c #C97378",
"fc@	c #BB515C",
"gc@	c #B03A48",
"hc@	c #A1303B",
"ic@	c #9B3239",
"jc@	c #9D3A3F",
"kc@	c #A94B4E",
"lc@	c #BB6062",
"mc@	c #CC7E80",
"nc@	c #DEA8A5",
"oc@	c #F5CFC8",
"pc@	c #FFE5E3",
"qc@	c #FBDDE0",
"rc@	c #E7B1B7",
"sc@	c #BE636D",
"tc@	c #95111D",
"uc@	c #7C0306",
"vc@	c #3E0105",
"wc@	c #250204",
"xc@	c #0C0207",
"yc@	c #010108",
"zc@	c #071102",
"Ac@	c #325F25",
"Bc@	c #769955",
"Cc@	c #0D3103",
"Dc@	c #040905",
"Ec@	c #46241C",
"Fc@	c #842D2A",
"Gc@	c #932E30",
"Hc@	c #700B16",
"Ic@	c #2E080A",
"Jc@	c #0A0905",
"Kc@	c #164931",
"Lc@	c #47B48D",
"Mc@	c #3AD9BC",
"Nc@	c #12AA96",
"Oc@	c #0B7857",
"Pc@	c #043D1B",
"Qc@	c #011D12",
"Rc@	c #083204",
"Sc@	c #0E4602",
"Tc@	c #103701",
"Uc@	c #033102",
"Vc@	c #0E3201",
"Wc@	c #135E03",
"Xc@	c #61C52A",
"Yc@	c #DCFBC0",
"Zc@	c #DBEEC4",
"`c@	c #2F8623",
" d@	c #0B4A04",
".d@	c #012702",
"+d@	c #001801",
"@d@	c #0A0209",
"#d@	c #100109",
"$d@	c #130204",
"%d@	c #0A0505",
"&d@	c #2C0B11",
"*d@	c #611F1F",
"=d@	c #78191E",
"-d@	c #90221C",
";d@	c #6D2730",
">d@	c #491215",
",d@	c #410F16",
"'d@	c #2B1B1C",
")d@	c #201B1E",
"!d@	c #200403",
"~d@	c #1C090C",
"{d@	c #1F090C",
"]d@	c #2C0E0F",
"^d@	c #2B0D10",
"/d@	c #321319",
"(d@	c #220409",
"_d@	c #350708",
":d@	c #450C12",
"<d@	c #652729",
"[d@	c #6A1217",
"}d@	c #841822",
"|d@	c #AD3F2F",
"1d@	c #D99485",
"2d@	c #8D1720",
"3d@	c #741E22",
"4d@	c #53161B",
"5d@	c #3E100F",
"6d@	c #2C0706",
"7d@	c #140002",
"8d@	c #260A0B",
"9d@	c #071C00",
"0d@	c #0B2501",
"ad@	c #073D00",
"bd@	c #30891A",
"cd@	c #D0EFA6",
"dd@	c #DCFABA",
"ed@	c #73CD2E",
"fd@	c #64D730",
"gd@	c #267E0C",
"hd@	c #023700",
"id@	c #021705",
"jd@	c #1C4B0D",
"kd@	c #479922",
"ld@	c #327E12",
"md@	c #215609",
"nd@	c #183203",
"od@	c #171C02",
"pd@	c #121104",
"qd@	c #1B0C02",
"rd@	c #2B0902",
"sd@	c #410502",
"td@	c #5A0306",
"ud@	c #A0282D",
"vd@	c #F8CDD1",
"wd@	c #EBB2BD",
"xd@	c #7A0F08",
"yd@	c #4C0C03",
"zd@	c #372902",
"Ad@	c #419013",
"Bd@	c #1E9204",
"Cd@	c #0B6A06",
"Dd@	c #31C051",
"Ed@	c #169323",
"Fd@	c #1BCB3F",
"Gd@	c #7AF581",
"Hd@	c #2D762E",
"Id@	c #024E00",
"Jd@	c #87C872",
"Kd@	c #CBF3B2",
"Ld@	c #2C801E",
"Md@	c #013300",
"Nd@	c #021D03",
"Od@	c #031904",
"Pd@	c #011202",
"Qd@	c #101109",
"Rd@	c #202216",
"Sd@	c #090103",
"Td@	c #1A1802",
"Ud@	c #1C3003",
"Vd@	c #739D47",
"Wd@	c #F0FED2",
"Xd@	c #97C066",
"Yd@	c #3F5B06",
"Zd@	c #351902",
"`d@	c #460000",
" e@	c #4E0200",
".e@	c #660502",
"+e@	c #87020B",
"@e@	c #A42933",
"#e@	c #C17171",
"$e@	c #E5AAAA",
"%e@	c #F7C9CD",
"&e@	c #FCDDDC",
"*e@	c #FEE4E2",
"=e@	c #FCE0DF",
"-e@	c #FADBDC",
";e@	c #F8DADC",
">e@	c #FADDDF",
",e@	c #FDE0E2",
"'e@	c #FFE2E4",
")e@	c #FDDBD9",
"!e@	c #F7C5C6",
"~e@	c #EDA4A6",
"{e@	c #CD7276",
"]e@	c #A63440",
"^e@	c #8E0714",
"/e@	c #780109",
"(e@	c #5A0103",
"_e@	c #370205",
":e@	c #490305",
"<e@	c #6A0615",
"[e@	c #973E4D",
"}e@	c #AD616C",
"|e@	c #58161D",
"1e@	c #1E0106",
"2e@	c #1A040A",
"3e@	c #2D0810",
"4e@	c #180204",
"5e@	c #070006",
"6e@	c #120C04",
"7e@	c #5E2F20",
"8e@	c #B25E5C",
"9e@	c #86131D",
"0e@	c #4E0D0C",
"ae@	c #190808",
"be@	c #193F2F",
"ce@	c #359A74",
"de@	c #136248",
"ee@	c #159275",
"fe@	c #22D9B4",
"ge@	c #1AD5B1",
"he@	c #089E77",
"ie@	c #015B3A",
"je@	c #012E09",
"ke@	c #0D2A01",
"le@	c #0D3203",
"me@	c #477647",
"ne@	c #6F9A6C",
"oe@	c #236514",
"pe@	c #40A814",
"qe@	c #B8E982",
"re@	c #F1FED5",
"se@	c #6FAB63",
"te@	c #085D04",
"ue@	c #013103",
"ve@	c #021903",
"we@	c #23050B",
"xe@	c #391016",
"ye@	c #491117",
"ze@	c #5E1D1D",
"Ae@	c #76191E",
"Be@	c #F0AA92",
"Ce@	c #F6C6AE",
"De@	c #8F201B",
"Ee@	c #70171E",
"Fe@	c #6C2831",
"Ge@	c #4C191E",
"He@	c #441114",
"Ie@	c #3F1017",
"Je@	c #240408",
"Ke@	c #290F12",
"Le@	c #1B0B0B",
"Me@	c #1B0B0E",
"Ne@	c #1E080A",
"Oe@	c #290A0E",
"Pe@	c #34151B",
"Qe@	c #340607",
"Re@	c #662829",
"Se@	c #6A1317",
"Te@	c #831722",
"Ue@	c #AE402D",
"Ve@	c #FBD4B9",
"We@	c #D89383",
"Xe@	c #8C151F",
"Ye@	c #54161C",
"Ze@	c #3E110F",
"`e@	c #2C0806",
" f@	c #27090A",
".f@	c #160300",
"+f@	c #0B0903",
"@f@	c #0A1200",
"#f@	c #0A1900",
"$f@	c #0E4D02",
"%f@	c #6CAE45",
"&f@	c #E7FCCA",
"*f@	c #B6EA8A",
"=f@	c #6DD22A",
"-f@	c #55AD2E",
";f@	c #044902",
">f@	c #002400",
",f@	c #24550C",
"'f@	c #092901",
")f@	c #021400",
"!f@	c #0E0900",
"~f@	c #0E0500",
"{f@	c #3A0302",
"]f@	c #540207",
"^f@	c #8F1018",
"/f@	c #F0B1B6",
"(f@	c #F8D5D6",
"_f@	c #9D2026",
":f@	c #580903",
"<f@	c #351D00",
"[f@	c #409014",
"}f@	c #23A706",
"|f@	c #0F7B03",
"1f@	c #0D8C1C",
"2f@	c #087D09",
"3f@	c #19C135",
"4f@	c #6DF67C",
"5f@	c #267628",
"6f@	c #033B04",
"7f@	c #57A342",
"8f@	c #D0FCB7",
"9f@	c #5CA447",
"0f@	c #022204",
"af@	c #011502",
"bf@	c #040C05",
"cf@	c #060703",
"df@	c #212219",
"ef@	c #12120E",
"ff@	c #1B1C03",
"gf@	c #163309",
"hf@	c #6AA03B",
"if@	c #ECFDD4",
"jf@	c #A3CC78",
"kf@	c #346605",
"lf@	c #272502",
"mf@	c #4B0502",
"nf@	c #5B0504",
"of@	c #77040C",
"pf@	c #8E0A19",
"qf@	c #9D232C",
"rf@	c #B04248",
"sf@	c #C15C5F",
"tf@	c #D16F71",
"uf@	c #D3797D",
"vf@	c #D27B81",
"wf@	c #D2737C",
"xf@	c #D36472",
"yf@	c #C6505F",
"zf@	c #B53C45",
"Af@	c #8F0813",
"Bf@	c #83030B",
"Cf@	c #780105",
"Df@	c #3D0007",
"Ef@	c #510009",
"Ff@	c #6C020E",
"Gf@	c #9C3F49",
"Hf@	c #DAA7B1",
"If@	c #F8C7D8",
"Jf@	c #D38497",
"Kf@	c #65111E",
"Lf@	c #1C0602",
"Mf@	c #280209",
"Nf@	c #480F1B",
"Of@	c #34050D",
"Pf@	c #020B06",
"Qf@	c #0B1207",
"Rf@	c #5B261A",
"Sf@	c #B66360",
"Tf@	c #FACAC4",
"Uf@	c #AB2F3D",
"Vf@	c #082416",
"Wf@	c #0C704F",
"Xf@	c #08613C",
"Yf@	c #14532F",
"Zf@	c #096A42",
"`f@	c #1EB98D",
" g@	c #33E9CD",
".g@	c #1ACDAA",
"+g@	c #058C68",
"@g@	c #015429",
"#g@	c #082802",
"$g@	c #257623",
"%g@	c #B4F0AE",
"&g@	c #E6FCE2",
"*g@	c #92C674",
"=g@	c #3AA108",
"-g@	c #8ED050",
";g@	c #EBFECD",
">g@	c #A2D48C",
",g@	c #156807",
"'g@	c #053E05",
")g@	c #001D01",
"!g@	c #010305",
"~g@	c #120200",
"{g@	c #310711",
"]g@	c #200207",
"^g@	c #320B14",
"/g@	c #4C141A",
"(g@	c #761A1E",
"_g@	c #90211C",
":g@	c #461316",
"<g@	c #220404",
"[g@	c #1C0C0C",
"}g@	c #1B0B0D",
"|g@	c #1F1A1D",
"1g@	c #38201D",
"2g@	c #2D1E1F",
"3g@	c #2F171B",
"4g@	c #2B0D0E",
"5g@	c #280A0E",
"6g@	c #210207",
"7g@	c #460E13",
"8g@	c #551B20",
"9g@	c #66282A",
"0g@	c #681116",
"ag@	c #AE4230",
"bg@	c #FCD4B9",
"cg@	c #8D151F",
"dg@	c #53161C",
"eg@	c #2D0308",
"fg@	c #3D0F0D",
"gg@	c #2C0807",
"hg@	c #1E0302",
"ig@	c #100602",
"jg@	c #0E0D00",
"kg@	c #0C1800",
"lg@	c #0D2B00",
"mg@	c #125702",
"ng@	c #A6D275",
"og@	c #ECFDD3",
"pg@	c #8EDB52",
"qg@	c #70D334",
"rg@	c #1D6005",
"sg@	c #012907",
"tg@	c #020A00",
"ug@	c #000906",
"vg@	c #071502",
"wg@	c #070902",
"xg@	c #16130E",
"yg@	c #261B0F",
"zg@	c #252412",
"Ag@	c #2E2212",
"Bg@	c #2B130B",
"Cg@	c #230A03",
"Dg@	c #4E0309",
"Eg@	c #820511",
"Fg@	c #E38D91",
"Gg@	c #FDE8E4",
"Hg@	c #C14551",
"Ig@	c #3B1400",
"Jg@	c #428617",
"Kg@	c #36BA12",
"Lg@	c #199102",
"Mg@	c #0C8304",
"Ng@	c #0A840C",
"Og@	c #3ED150",
"Pg@	c #4DD561",
"Qg@	c #024F05",
"Rg@	c #052909",
"Sg@	c #287517",
"Tg@	c #C1F5AB",
"Ug@	c #8AC470",
"Vg@	c #075500",
"Wg@	c #021B07",
"Xg@	c #001502",
"Yg@	c #1A1B14",
"Zg@	c #1B1A16",
"`g@	c #130705",
" h@	c #1B1C04",
".h@	c #13340B",
"+h@	c #539228",
"@h@	c #E4FAC9",
"#h@	c #B7DC8E",
"$h@	c #367208",
"%h@	c #213001",
"&h@	c #210E04",
"*h@	c #230400",
"=h@	c #4C0400",
"-h@	c #6D0104",
";h@	c #750004",
">h@	c #760006",
",h@	c #7A0006",
"'h@	c #7D0106",
")h@	c #7A0106",
"!h@	c #760407",
"~h@	c #700304",
"{h@	c #6D0206",
"]h@	c #660105",
"^h@	c #5A0205",
"/h@	c #230005",
"(h@	c #420306",
"_h@	c #570409",
":h@	c #8C252C",
"<h@	c #D7898E",
"[h@	c #FCCED8",
"}h@	c #F0B6C7",
"|h@	c #B05260",
"1h@	c #6C0314",
"2h@	c #3C0206",
"3h@	c #5E1521",
"4h@	c #431016",
"5h@	c #422A16",
"6h@	c #8F3734",
"7h@	c #FBCFCA",
"8h@	c #DA6F7C",
"9h@	c #790F14",
"0h@	c #3B0509",
"ah@	c #175D4E",
"bh@	c #0B6747",
"ch@	c #0A562B",
"dh@	c #075E2E",
"eh@	c #0E5937",
"fh@	c #15885C",
"gh@	c #2ADDB1",
"hh@	c #2DEBC7",
"ih@	c #15CA9B",
"jh@	c #0B895B",
"kh@	c #014716",
"lh@	c #328422",
"mh@	c #88E168",
"nh@	c #D4F9CA",
"oh@	c #DDF6CF",
"ph@	c #5CAB32",
"qh@	c #6BC122",
"rh@	c #D9F9B1",
"sh@	c #CFF0AE",
"th@	c #27770F",
"uh@	c #360C0F",
"vh@	c #2C060D",
"wh@	c #190104",
"xh@	c #150B0A",
"yh@	c #330C14",
"zh@	c #380E15",
"Ah@	c #4B1319",
"Bh@	c #601F1E",
"Ch@	c #761A1F",
"Dh@	c #F0AB94",
"Eh@	c #F4C3AC",
"Fh@	c #92231E",
"Gh@	c #70161D",
"Hh@	c #4A161C",
"Ih@	c #401017",
"Jh@	c #230405",
"Kh@	c #381316",
"Lh@	c #34171C",
"Mh@	c #130305",
"Nh@	c #1E080B",
"Oh@	c #311218",
"Ph@	c #37090A",
"Qh@	c #440C11",
"Rh@	c #662729",
"Sh@	c #841722",
"Th@	c #AE4232",
"Uh@	c #FCD6BB",
"Vh@	c #D89182",
"Wh@	c #8C141E",
"Xh@	c #2D0309",
"Yh@	c #2B0806",
"Zh@	c #150401",
"`h@	c #100E00",
" i@	c #0F1901",
".i@	c #143103",
"+i@	c #25690D",
"@i@	c #C8EBA2",
"#i@	c #E1F9B5",
"$i@	c #76CD2A",
"%i@	c #5CB12B",
"&i@	c #104105",
"*i@	c #011B04",
"=i@	c #000C02",
"-i@	c #092509",
";i@	c #104321",
">i@	c #3D8B67",
",i@	c #499257",
"'i@	c #3F4610",
")i@	c #491A0A",
"!i@	c #350305",
"~i@	c #6E020C",
"{i@	c #C56064",
"]i@	c #FFE6E5",
"^i@	c #D67A82",
"/i@	c #440B03",
"(i@	c #47721B",
"_i@	c #69D63B",
":i@	c #33AF12",
"<i@	c #108901",
"[i@	c #22AB34",
"}i@	c #70EF7E",
"|i@	c #208C30",
"1i@	c #052507",
"2i@	c #094405",
"3i@	c #A0DE8B",
"4i@	c #B0E398",
"5i@	c #166B06",
"6i@	c #003301",
"7i@	c #021E0A",
"8i@	c #011707",
"9i@	c #051206",
"0i@	c #211D1A",
"ai@	c #1D0503",
"bi@	c #113504",
"ci@	c #367715",
"di@	c #DBEFB4",
"ei@	c #D1EEAD",
"fi@	c #428916",
"gi@	c #214001",
"hi@	c #1B1803",
"ii@	c #1C0900",
"ji@	c #480205",
"ki@	c #4E0103",
"li@	c #4F0102",
"mi@	c #3B0403",
"ni@	c #330303",
"oi@	c #250303",
"pi@	c #3B0101",
"qi@	c #6E0206",
"ri@	c #AA4853",
"si@	c #EBC0CC",
"ti@	c #F8DAE6",
"ui@	c #D28995",
"vi@	c #882129",
"wi@	c #570902",
"xi@	c #5A1621",
"yi@	c #060C07",
"zi@	c #090706",
"Ai@	c #2E2A13",
"Bi@	c #782219",
"Ci@	c #ECB0B4",
"Di@	c #EB9EA2",
"Ei@	c #870A14",
"Fi@	c #4E070D",
"Gi@	c #100803",
"Hi@	c #103D30",
"Ii@	c #157151",
"Ji@	c #0F5236",
"Ki@	c #085F36",
"Li@	c #055D30",
"Mi@	c #0D6130",
"Ni@	c #07733C",
"Oi@	c #35CC93",
"Pi@	c #29DAA7",
"Qi@	c #1BD9A7",
"Ri@	c #07854D",
"Si@	c #104F04",
"Ti@	c #60CD38",
"Ui@	c #96E478",
"Vi@	c #ECFCEA",
"Wi@	c #A6D48B",
"Xi@	c #63BC17",
"Yi@	c #C6EC8B",
"Zi@	c #EEFDD2",
"`i@	c #4F9635",
" j@	c #085301",
".j@	c #063104",
"+j@	c #180809",
"@j@	c #380E14",
"#j@	c #4B1219",
"$j@	c #771A1F",
"%j@	c #F0AC94",
"&j@	c #71181E",
"*j@	c #471417",
"=j@	c #281A1B",
"-j@	c #1A0A0B",
";j@	c #1E1A1D",
">j@	c #1E0B0C",
",j@	c #2E1F20",
"'j@	c #2A0B0F",
")j@	c #360709",
"!j@	c #460D13",
"~j@	c #50171C",
"{j@	c #851823",
"]j@	c #AE422C",
"^j@	c #FCD7C0",
"/j@	c #D89181",
"(j@	c #721B21",
"_j@	c #53151B",
":j@	c #2D0208",
"<j@	c #3B0E0E",
"[j@	c #2D0908",
"}j@	c #180301",
"|j@	c #110D02",
"1j@	c #131D02",
"2j@	c #193705",
"3j@	c #3E7F22",
"4j@	c #DBFABF",
"5j@	c #D0F190",
"6j@	c #74C92A",
"7j@	c #41881E",
"8j@	c #0C3102",
"9j@	c #002802",
"0j@	c #29824E",
"aj@	c #73D9B0",
"bj@	c #8EFAC8",
"cj@	c #75DC85",
"dj@	c #50731C",
"ej@	c #483108",
"fj@	c #3A0106",
"gj@	c #600108",
"hj@	c #A63236",
"ij@	c #FBD7D7",
"jj@	c #EEAAAF",
"kj@	c #8B1219",
"lj@	c #490603",
"mj@	c #333F03",
"nj@	c #65B136",
"oj@	c #76E556",
"pj@	c #64CE52",
"qj@	c #5FE66C",
"rj@	c #63D972",
"sj@	c #04540B",
"tj@	c #0D2600",
"uj@	c #07340A",
"vj@	c #79B565",
"wj@	c #CCF9B1",
"xj@	c #3C8F26",
"yj@	c #032107",
"zj@	c #011A08",
"Aj@	c #031209",
"Bj@	c #201D1A",
"Cj@	c #171510",
"Dj@	c #060506",
"Ej@	c #200806",
"Fj@	c #1B140E",
"Gj@	c #163201",
"Hj@	c #20650D",
"Ij@	c #C2DD90",
"Jj@	c #E9FCCB",
"Kj@	c #61AB36",
"Lj@	c #1C5504",
"Mj@	c #132604",
"Nj@	c #101201",
"Oj@	c #190600",
"Pj@	c #180302",
"Qj@	c #5A0109",
"Rj@	c #790414",
"Sj@	c #BD6473",
"Tj@	c #F8CCDB",
"Uj@	c #F1BBCB",
"Vj@	c #BC5268",
"Wj@	c #840613",
"Xj@	c #570504",
"Yj@	c #100300",
"Zj@	c #000303",
"`j@	c #601822",
" k@	c #480C17",
".k@	c #020E08",
"+k@	c #281F0D",
"@k@	c #722416",
"#k@	c #CF7D84",
"$k@	c #FAC2C2",
"%k@	c #A42B34",
"&k@	c #5F0A12",
"*k@	c #1A0707",
"=k@	c #0F744B",
"-k@	c #0B5B3F",
";k@	c #10593A",
">k@	c #025F2E",
",k@	c #0C6130",
"'k@	c #096235",
")k@	c #239F68",
"!k@	c #0B8B50",
"~k@	c #17BC72",
"{k@	c #119E64",
"]k@	c #013E06",
"^k@	c #42A328",
"/k@	c #6ADB2A",
"(k@	c #D5F7BF",
"_k@	c #E3F9C8",
":k@	c #6EBB3A",
"<k@	c #ABDE68",
"[k@	c #F5FBDD",
"}k@	c #81BF63",
"|k@	c #0B3A07",
"1k@	c #001F01",
"2k@	c #060903",
"3k@	c #070205",
"4k@	c #13070C",
"5k@	c #4C151B",
"6k@	c #5F1F20",
"7k@	c #771B1F",
"8k@	c #F1AB96",
"9k@	c #F4C4AD",
"0k@	c #90231F",
"ak@	c #711920",
"bk@	c #6E2A32",
"ck@	c #4C171C",
"dk@	c #2B0B10",
"ek@	c #2A1012",
"fk@	c #140405",
"gk@	c #1C0D0F",
"hk@	c #1F1A1E",
"ik@	c #38211E",
"jk@	c #1B080B",
"kk@	c #1D0B0B",
"lk@	c #1E0C0C",
"mk@	c #1B0909",
"nk@	c #360609",
"ok@	c #671318",
"pk@	c #871B25",
"qk@	c #AD412E",
"rk@	c #FBD6BB",
"sk@	c #D79281",
"tk@	c #8C1520",
"uk@	c #741C25",
"vk@	c #531219",
"wk@	c #2E0A0B",
"xk@	c #0B0200",
"yk@	c #150C07",
"zk@	c #173C02",
"Ak@	c #579237",
"Bk@	c #E8FCC3",
"Ck@	c #BEEC76",
"Dk@	c #71C32D",
"Ek@	c #2B6A10",
"Fk@	c #082400",
"Gk@	c #020D00",
"Hk@	c #063E13",
"Ik@	c #44A47C",
"Jk@	c #6EF6C8",
"Kk@	c #5FE9B6",
"Lk@	c #51E78E",
"Mk@	c #41D25C",
"Nk@	c #417F13",
"Ok@	c #4A3C08",
"Pk@	c #560004",
"Qk@	c #90111A",
"Rk@	c #ECB6B3",
"Sk@	c #FBCBCF",
"Tk@	c #AE3341",
"Uk@	c #560502",
"Vk@	c #331702",
"Wk@	c #2C3002",
"Xk@	c #235D12",
"Yk@	c #6CB259",
"Zk@	c #82E177",
"`k@	c #39953B",
" l@	c #062500",
".l@	c #042207",
"+l@	c #013506",
"@l@	c #4D813E",
"#l@	c #CEF9AB",
"$l@	c #75BF56",
"%l@	c #0A540D",
"&l@	c #032800",
"*l@	c #011F06",
"=l@	c #031509",
"-l@	c #041106",
";l@	c #171913",
">l@	c #1E2118",
",l@	c #050408",
"'l@	c #1A0F12",
")l@	c #1C2500",
"!l@	c #0B5305",
"~l@	c #89C159",
"{l@	c #F4FDD3",
"]l@	c #A1D077",
"^l@	c #1D7108",
"/l@	c #123604",
"(l@	c #0D1B03",
"_l@	c #150902",
":l@	c #2A0202",
"<l@	c #660208",
"[l@	c #870E1D",
"}l@	c #CE7989",
"|l@	c #FDD6E2",
"1l@	c #E4A9B7",
"2l@	c #9F2F3D",
"3l@	c #79030A",
"4l@	c #510104",
"5l@	c #2D0206",
"6l@	c #731A2E",
"7l@	c #070B09",
"8l@	c #0C1608",
"9l@	c #5D2710",
"0l@	c #AD3335",
"al@	c #FDCBD0",
"bl@	c #CA5C64",
"cl@	c #730713",
"dl@	c #20080E",
"el@	c #195D43",
"fl@	c #0D6849",
"gl@	c #08593C",
"hl@	c #09633E",
"il@	c #076736",
"jl@	c #076B39",
"kl@	c #19955D",
"ll@	c #12894F",
"ml@	c #0EAF66",
"nl@	c #18B374",
"ol@	c #014010",
"pl@	c #176305",
"ql@	c #5BDA25",
"rl@	c #A2DD70",
"sl@	c #F7FDDB",
"tl@	c #AEDA92",
"ul@	c #8AD845",
"vl@	c #F1FCCF",
"wl@	c #A8DA86",
"xl@	c #186A04",
"yl@	c #0D4204",
"zl@	c #022402",
"Al@	c #061104",
"Bl@	c #300D14",
"Cl@	c #751B1F",
"Dl@	c #A72224",
"El@	c #F1AB97",
"Fl@	c #902623",
"Gl@	c #6D191E",
"Hl@	c #6E2931",
"Il@	c #440F11",
"Jl@	c #380F18",
"Kl@	c #2B0B11",
"Ll@	c #2A1011",
"Ml@	c #34181B",
"Nl@	c #1B0D0F",
"Ol@	c #13070B",
"Pl@	c #1B0708",
"Ql@	c #470D14",
"Rl@	c #4E161C",
"Sl@	c #681318",
"Tl@	c #AB3F2C",
"Ul@	c #FBD6BA",
"Vl@	c #54131A",
"Wl@	c #390F10",
"Xl@	c #2B0B0B",
"Yl@	c #1A2602",
"Zl@	c #6DA34B",
"`l@	c #E8FEBE",
" m@	c #B2E76B",
".m@	c #60AF1D",
"+m@	c #1B4C01",
"@m@	c #071B02",
"#m@	c #040205",
"$m@	c #064417",
"%m@	c #32B67A",
"&m@	c #68F9D4",
"*m@	c #41EAAE",
"=m@	c #0B9E34",
"-m@	c #33C85E",
";m@	c #3DE261",
">m@	c #378E14",
",m@	c #484C08",
"'m@	c #331704",
")m@	c #78050B",
"!m@	c #D97680",
"~m@	c #FEE6E0",
"{m@	c #D66977",
"]m@	c #6F010B",
"^m@	c #400505",
"/m@	c #251601",
"(m@	c #172903",
"_m@	c #133503",
":m@	c #174E0E",
"<m@	c #073E05",
"[m@	c #092203",
"}m@	c #091E02",
"|m@	c #08260A",
"1m@	c #033406",
"2m@	c #1D5412",
"3m@	c #B1E694",
"4m@	c #B0E391",
"5m@	c #0F7404",
"6m@	c #023405",
"7m@	c #012207",
"8m@	c #0D0E09",
"9m@	c #1F211A",
"0m@	c #11100C",
"am@	c #08060B",
"bm@	c #150504",
"cm@	c #25110C",
"dm@	c #111F00",
"em@	c #0D3C05",
"fm@	c #4A9424",
"gm@	c #DAF7B5",
"hm@	c #DAEFBE",
"im@	c #409020",
"jm@	c #114C01",
"km@	c #0D0A04",
"lm@	c #0D0704",
"mm@	c #110004",
"nm@	c #440101",
"om@	c #580105",
"pm@	c #68020B",
"qm@	c #911926",
"rm@	c #DE9096",
"sm@	c #FDDBDF",
"tm@	c #DB95A8",
"um@	c #961C2C",
"vm@	c #490917",
"wm@	c #6C1229",
"xm@	c #170003",
"ym@	c #030206",
"zm@	c #000A04",
"Am@	c #060D08",
"Bm@	c #49220C",
"Cm@	c #931514",
"Dm@	c #E9ABAA",
"Em@	c #E79393",
"Fm@	c #880516",
"Gm@	c #330A0E",
"Hm@	c #0A442E",
"Im@	c #147554",
"Jm@	c #045E3D",
"Km@	c #196847",
"Lm@	c #197346",
"Mm@	c #1C7549",
"Nm@	c #1B925B",
"Om@	c #198C52",
"Pm@	c #0B9E5B",
"Qm@	c #1DBF83",
"Rm@	c #034B17",
"Sm@	c #023F00",
"Tm@	c #4CBA26",
"Um@	c #6ED229",
"Vm@	c #E3F8BB",
"Wm@	c #E5F8C9",
"Xm@	c #86D73F",
"Ym@	c #DCF9BD",
"Zm@	c #C7EDA5",
"`m@	c #2B780A",
" n@	c #0D4B02",
".n@	c #052C02",
"+n@	c #031A03",
"@n@	c #061305",
"#n@	c #2A0E13",
"$n@	c #140306",
"%n@	c #491418",
"&n@	c #902622",
"*n@	c #6E1A1F",
"=n@	c #6E2A31",
"-n@	c #4D161A",
";n@	c #370E17",
">n@	c #290F10",
",n@	c #1A0B0D",
"'n@	c #14080C",
")n@	c #1D181C",
"!n@	c #1C0A0A",
"~n@	c #2C1E1F",
"{n@	c #2C171A",
"]n@	c #290B0E",
"^n@	c #450B13",
"/n@	c #602326",
"(n@	c #681419",
"_n@	c #861A23",
":n@	c #AC402D",
"<n@	c #D69080",
"[n@	c #391012",
"}n@	c #2A0C0B",
"|n@	c #180906",
"1n@	c #192702",
"2n@	c #1B3F05",
"3n@	c #78AB53",
"4n@	c #EAFFBB",
"5n@	c #ABE665",
"6n@	c #5A9F1A",
"7n@	c #203901",
"8n@	c #0C1002",
"9n@	c #086226",
"0n@	c #30B379",
"an@	c #4BF09B",
"bn@	c #0EF065",
"cn@	c #16A128",
"dn@	c #1EA537",
"en@	c #43EF6E",
"fn@	c #34A425",
"gn@	c #53640E",
"hn@	c #422608",
"in@	c #2D0301",
"jn@	c #320605",
"kn@	c #630205",
"ln@	c #BB3645",
"mn@	c #F9E0DB",
"nn@	c #EBA4AE",
"on@	c #810A19",
"pn@	c #270B05",
"qn@	c #151205",
"rn@	c #101D09",
"sn@	c #042003",
"tn@	c #072104",
"un@	c #082F07",
"vn@	c #043704",
"wn@	c #044300",
"xn@	c #7DBE6B",
"yn@	c #D0FBB3",
"zn@	c #449B2D",
"An@	c #014A07",
"Bn@	c #012606",
"Cn@	c #021704",
"Dn@	c #050603",
"En@	c #1E1D18",
"Fn@	c #070509",
"Gn@	c #102903",
"Hn@	c #1E6A05",
"In@	c #A4D786",
"Jn@	c #EFFDD5",
"Kn@	c #8ABE66",
"Ln@	c #1D6A07",
"Mn@	c #0E3A00",
"Nn@	c #061D07",
"On@	c #090B03",
"Pn@	c #480102",
"Qn@	c #700103",
"Rn@	c #972C32",
"Sn@	c #E5A1B1",
"Tn@	c #FED7E6",
"Un@	c #DA8695",
"Vn@	c #9A1022",
"Wn@	c #460200",
"Xn@	c #670D23",
"Yn@	c #5A0419",
"Zn@	c #020903",
"`n@	c #7D1D15",
" o@	c #C5716E",
".o@	c #F7B2B1",
"+o@	c #A21C2D",
"@o@	c #4C070D",
"#o@	c #1F0407",
"$o@	c #042C1B",
"%o@	c #1B7858",
"&o@	c #026240",
"*o@	c #044B2D",
"=o@	c #053D1D",
"-o@	c #043B1B",
";o@	c #157F4D",
">o@	c #1B8F54",
",o@	c #05904E",
"'o@	c #1CC386",
")o@	c #045827",
"!o@	c #063504",
"~o@	c #287A10",
"{o@	c #66DF25",
"]o@	c #ADE167",
"^o@	c #F5FED8",
"/o@	c #BBEBA0",
"(o@	c #CDEFA3",
"_o@	c #488A21",
":o@	c #095301",
"<o@	c #093604",
"[o@	c #2D1015",
"}o@	c #310E15",
"|o@	c #A62122",
"1o@	c #F4C6B0",
"2o@	c #8E221F",
"3o@	c #6C272E",
"4o@	c #481415",
"5o@	c #3A0D12",
"6o@	c #200407",
"7o@	c #3A111A",
"8o@	c #361A1C",
"9o@	c #190909",
"0o@	c #15090D",
"ao@	c #261C1A",
"bo@	c #210404",
"co@	c #2D171A",
"do@	c #290C0D",
"eo@	c #33151A",
"fo@	c #36070A",
"go@	c #51191F",
"ho@	c #851A23",
"io@	c #AD402E",
"jo@	c #391112",
"ko@	c #190706",
"lo@	c #172501",
"mo@	c #193D04",
"no@	c #78A851",
"oo@	c #ECFFBC",
"po@	c #AAE466",
"qo@	c #508A12",
"ro@	c #2B2A01",
"so@	c #140701",
"to@	c #0F5029",
"uo@	c #155F20",
"vo@	c #27D166",
"wo@	c #19F46A",
"xo@	c #0BC12E",
"yo@	c #0C8D1C",
"zo@	c #39EE75",
"Ao@	c #33C03E",
"Bo@	c #547A12",
"Co@	c #48360D",
"Do@	c #330905",
"Eo@	c #300407",
"Fo@	c #550204",
"Go@	c #90101C",
"Ho@	c #ECABB6",
"Io@	c #F7CED0",
"Jo@	c #5C0007",
"Ko@	c #390B08",
"Lo@	c #200E07",
"Mo@	c #0E0E04",
"No@	c #072F06",
"Oo@	c #023B01",
"Po@	c #408B36",
"Qo@	c #C4FBAC",
"Ro@	c #96CD76",
"So@	c #096303",
"To@	c #032D03",
"Uo@	c #031206",
"Vo@	c #11110D",
"Wo@	c #201F1A",
"Xo@	c #121011",
"Yo@	c #090709",
"Zo@	c #220605",
"`o@	c #221106",
" p@	c #102000",
".p@	c #144803",
"+p@	c #4F9A37",
"@p@	c #DFF9BD",
"#p@	c #DAEAB8",
"$p@	c #3D8B22",
"%p@	c #0D5404",
"&p@	c #061701",
"*p@	c #070A02",
"=p@	c #070301",
"-p@	c #350003",
";p@	c #560106",
">p@	c #6B0006",
",p@	c #7A060D",
"'p@	c #A3494F",
")p@	c #EFB8C2",
"!p@	c #FCCCD9",
"~p@	c #CC7187",
"{p@	c #8F0B1F",
"]p@	c #78112A",
"^p@	c #1C0202",
"/p@	c #060505",
"(p@	c #150D01",
"_p@	c #5C180C",
":p@	c #9C2727",
"<p@	c #F6A8B1",
"[p@	c #BC4252",
"}p@	c #500307",
"|p@	c #240309",
"1p@	c #03150A",
"2p@	c #247258",
"3p@	c #096745",
"4p@	c #065333",
"5p@	c #0F5331",
"6p@	c #175031",
"7p@	c #12804C",
"8p@	c #1A9255",
"9p@	c #048341",
"0p@	c #1EC384",
"ap@	c #04643B",
"bp@	c #032F02",
"cp@	c #0A4305",
"dp@	c #54C22B",
"ep@	c #72D31D",
"fp@	c #E0F9AC",
"gp@	c #ECFDE0",
"hp@	c #EBFAD8",
"ip@	c #F0FBC6",
"jp@	c #6DA145",
"kp@	c #075903",
"lp@	c #0B3C05",
"mp@	c #061E01",
"np@	c #200D0C",
"op@	c #1D0306",
"pp@	c #301017",
"qp@	c #320E15",
"rp@	c #380F15",
"sp@	c #A41F20",
"tp@	c #8D211E",
"up@	c #6B262D",
"vp@	c #50191D",
"wp@	c #491416",
"xp@	c #3B0E13",
"yp@	c #39111A",
"zp@	c #1C080B",
"Ap@	c #1D0D0D",
"Bp@	c #1B0C0E",
"Cp@	c #251C1A",
"Dp@	c #371F1D",
"Ep@	c #1D0A0A",
"Fp@	c #1C090A",
"Gp@	c #070304",
"Hp@	c #290B0D",
"Ip@	c #36171D",
"Jp@	c #37080C",
"Kp@	c #460E15",
"Lp@	c #841A21",
"Mp@	c #AC4030",
"Np@	c #F9C9A3",
"Op@	c #D7917F",
"Pp@	c #8D151E",
"Qp@	c #56141B",
"Rp@	c #391011",
"Sp@	c #1B0805",
"Tp@	c #142201",
"Up@	c #183E03",
"Vp@	c #709D4B",
"Wp@	c #EAFEBE",
"Xp@	c #AEE865",
"Yp@	c #4D7E11",
"Zp@	c #332501",
"`p@	c #170301",
" q@	c #03471E",
".q@	c #07692A",
"+q@	c #24A456",
"@q@	c #2EF77B",
"#q@	c #15D33F",
"$q@	c #0A8C14",
"%q@	c #2CE069",
"&q@	c #30DB4E",
"*q@	c #4E8C17",
"=q@	c #474D0D",
"-q@	c #371705",
";q@	c #4A0106",
">q@	c #730307",
",q@	c #D26C7B",
"'q@	c #FEDEDE",
")q@	c #D1616A",
"!q@	c #700107",
"~q@	c #400607",
"{q@	c #30110A",
"]q@	c #1F1409",
"^q@	c #0D1001",
"/q@	c #0B2605",
"(q@	c #053E03",
"_q@	c #316B29",
":q@	c #729F6B",
"<q@	c #095E08",
"[q@	c #0B6304",
"}q@	c #9EE289",
"|q@	c #CEF3AC",
"1q@	c #378921",
"2q@	c #074304",
"3q@	c #011704",
"4q@	c #1A1915",
"5q@	c #232220",
"6q@	c #060407",
"7q@	c #340D0D",
"8q@	c #1A1A02",
"9q@	c #0C3601",
"0q@	c #166503",
"aq@	c #AAD588",
"bq@	c #FAFBD7",
"cq@	c #9AD07A",
"dq@	c #247311",
"eq@	c #0E4204",
"fq@	c #081603",
"gq@	c #051001",
"hq@	c #2C0205",
"iq@	c #2D0201",
"jq@	c #420204",
"kq@	c #4D0507",
"lq@	c #911119",
"mq@	c #C37078",
"nq@	c #FAC8D4",
"oq@	c #F4BFD0",
"pq@	c #B75965",
"qq@	c #82050B",
"rq@	c #5C0201",
"sq@	c #430001",
"tq@	c #080200",
"uq@	c #020306",
"vq@	c #620C1F",
"wq@	c #4D0513",
"xq@	c #040F00",
"yq@	c #102605",
"zq@	c #081505",
"Aq@	c #090108",
"Bq@	c #410903",
"Cq@	c #750C06",
"Dq@	c #A54552",
"Eq@	c #871F2A",
"Fq@	c #470206",
"Gq@	c #070A03",
"Hq@	c #1C6247",
"Iq@	c #0F714D",
"Jq@	c #025234",
"Kq@	c #005A32",
"Lq@	c #085330",
"Mq@	c #107C47",
"Nq@	c #1A9453",
"Oq@	c #027A35",
"Pq@	c #1BC281",
"Qq@	c #066E46",
"Rq@	c #022D02",
"Sq@	c #227B10",
"Tq@	c #71E22F",
"Uq@	c #A7DD58",
"Vq@	c #F1FCCE",
"Wq@	c #F5FBF2",
"Xq@	c #F7F9E0",
"Yq@	c #85B863",
"Zq@	c #0C6304",
"`q@	c #0F4006",
" r@	c #072303",
".r@	c #230D0D",
"+r@	c #1E0206",
"@r@	c #311217",
"#r@	c #390E15",
"$r@	c #A31D20",
"%r@	c #8F221E",
"&r@	c #6F181E",
"*r@	c #461112",
"=r@	c #3D0E14",
"-r@	c #391219",
";r@	c #280D10",
">r@	c #33161A",
",r@	c #1F0A0D",
"'r@	c #1B090A",
")r@	c #1D0B0E",
"!r@	c #1C0809",
"~r@	c #1F090B",
"{r@	c #2E1619",
"]r@	c #35080A",
"^r@	c #440D14",
"/r@	c #631216",
"(r@	c #82191E",
"_r@	c #AB402E",
":r@	c #F5B67A",
"<r@	c #D8927F",
"[r@	c #8E131C",
"}r@	c #771923",
"|r@	c #5A141D",
"1r@	c #370F10",
"2r@	c #290C0B",
"3r@	c #1C0204",
"4r@	c #1E0906",
"5r@	c #111C01",
"6r@	c #163C01",
"7r@	c #5B883A",
"8r@	c #B6EA6B",
"9r@	c #4A7614",
"0r@	c #2D2500",
"ar@	c #01350F",
"br@	c #067634",
"cr@	c #096426",
"dr@	c #30F47C",
"er@	c #19E44E",
"fr@	c #0D9818",
"gr@	c #1EBD4B",
"hr@	c #33F162",
"ir@	c #419E23",
"jr@	c #526912",
"kr@	c #402A05",
"lr@	c #3E0107",
"mr@	c #680003",
"nr@	c #A53336",
"or@	c #F7CDD2",
"pr@	c #EF9DA6",
"qr@	c #8D0F13",
"rr@	c #450508",
"sr@	c #360F07",
"tr@	c #271707",
"ur@	c #1B1909",
"vr@	c #101B08",
"wr@	c #1A5807",
"xr@	c #ABD494",
"yr@	c #D9F8CC",
"zr@	c #479D43",
"Ar@	c #075803",
"Br@	c #559F48",
"Cr@	c #CDFEAE",
"Dr@	c #89C26B",
"Er@	c #0E5E05",
"Fr@	c #022E01",
"Gr@	c #001B02",
"Hr@	c #011404",
"Ir@	c #0D0D0A",
"Jr@	c #171814",
"Kr@	c #0B0A0E",
"Lr@	c #2E060B",
"Mr@	c #2F130B",
"Nr@	c #0E2C00",
"Or@	c #0D4401",
"Pr@	c #4D8B2D",
"Qr@	c #6BA84E",
"Rr@	c #1E6303",
"Sr@	c #083C02",
"Tr@	c #0B1F0A",
"Ur@	c #060502",
"Vr@	c #090305",
"Wr@	c #110104",
"Xr@	c #270304",
"Yr@	c #3E0005",
"Zr@	c #4A0403",
"`r@	c #550303",
" s@	c #93030D",
".s@	c #B94954",
"+s@	c #EBADB4",
"@s@	c #EAADBC",
"#s@	c #A33B42",
"$s@	c #7E040C",
"%s@	c #660003",
"&s@	c #2A0200",
"*s@	c #0F0200",
"=s@	c #010307",
"-s@	c #050005",
";s@	c #36040B",
">s@	c #5A0E1B",
",s@	c #294B15",
"'s@	c #508232",
")s@	c #0C3005",
"!s@	c #081500",
"~s@	c #010506",
"{s@	c #050108",
"]s@	c #410604",
"^s@	c #540206",
"/s@	c #430105",
"(s@	c #09492D",
"_s@	c #157752",
":s@	c #03533A",
"<s@	c #015130",
"[s@	c #025330",
"}s@	c #0C7945",
"|s@	c #169654",
"1s@	c #007230",
"2s@	c #15BE7B",
"3s@	c #0C7C4D",
"4s@	c #022805",
"5s@	c #085003",
"6s@	c #4CAA21",
"7s@	c #8BDA33",
"8s@	c #AFDB6B",
"9s@	c #D5F5A6",
"0s@	c #F9FAE7",
"as@	c #93C975",
"bs@	c #136B05",
"cs@	c #104002",
"ds@	c #032604",
"es@	c #041700",
"fs@	c #250E0F",
"gs@	c #180005",
"hs@	c #200506",
"is@	c #170607",
"js@	c #49151B",
"ks@	c #75191F",
"ls@	c #A51D22",
"ms@	c #EFAA97",
"ns@	c #90211D",
"os@	c #6B262B",
"ps@	c #450F11",
"qs@	c #230408",
"rs@	c #220407",
"ss@	c #29090D",
"ts@	c #270D10",
"us@	c #32161B",
"vs@	c #2D1A1C",
"ws@	c #1B0C0D",
"xs@	c #1C070A",
"ys@	c #2A1D1C",
"zs@	c #1D0709",
"As@	c #28090D",
"Bs@	c #36080B",
"Cs@	c #4E181D",
"Ds@	c #612628",
"Es@	c #631215",
"Fs@	c #83191E",
"Gs@	c #AB4032",
"Hs@	c #F5B67C",
"Is@	c #D8917F",
"Js@	c #761923",
"Ks@	c #360F0F",
"Ls@	c #280B0A",
"Ms@	c #1E0805",
"Ns@	c #133401",
"Os@	c #427225",
"Ps@	c #E8FCC7",
"Qs@	c #C3EA85",
"Rs@	c #497614",
"Ss@	c #202800",
"Ts@	c #001106",
"Us@	c #022104",
"Vs@	c #047434",
"Ws@	c #054914",
"Xs@	c #22D064",
"Ys@	c #19F460",
"Zs@	c #15A921",
"`s@	c #109B32",
" t@	c #33F875",
".t@	c #36C343",
"+t@	c #5C7D16",
"@t@	c #4B3F0E",
"#t@	c #2B0903",
"$t@	c #360004",
"%t@	c #560005",
"&t@	c #850B0F",
"*t@	c #E59DA7",
"=t@	c #FDD4D8",
"-t@	c #BA4141",
";t@	c #600204",
">t@	c #380C06",
",t@	c #2B1704",
"'t@	c #1D1C09",
")t@	c #101F06",
"!t@	c #0F4003",
"~t@	c #618D46",
"{t@	c #EEF6D0",
"]t@	c #F8FAED",
"^t@	c #99DC89",
"/t@	c #0D6207",
"(t@	c #0D6007",
"_t@	c #A7E98C",
":t@	c #C3F0A5",
"<t@	c #2D7B1E",
"[t@	c #021607",
"}t@	c #030D07",
"|t@	c #141611",
"1t@	c #292B26",
"2t@	c #040504",
"3t@	c #070707",
"4t@	c #34120F",
"5t@	c #0E3802",
"6t@	c #0B5701",
"7t@	c #88B861",
"8t@	c #F1FBD2",
"9t@	c #D1EEB2",
"0t@	c #4E8D26",
"at@	c #0A3605",
"bt@	c #071E04",
"ct@	c #091003",
"dt@	c #180004",
"et@	c #1A0104",
"ft@	c #360104",
"gt@	c #3C0004",
"ht@	c #5D000A",
"it@	c #6F0601",
"jt@	c #82050A",
"kt@	c #A22F38",
"lt@	c #E3928F",
"mt@	c #F7E1DC",
"nt@	c #F9D9E4",
"ot@	c #DA8395",
"pt@	c #9E1C29",
"qt@	c #7D010A",
"rt@	c #630104",
"st@	c #430101",
"tt@	c #000E00",
"ut@	c #011004",
"vt@	c #4B812D",
"wt@	c #87D15E",
"xt@	c #0B4501",
"yt@	c #0A2304",
"zt@	c #030909",
"At@	c #547B46",
"Bt@	c #1F5017",
"Ct@	c #110400",
"Dt@	c #012915",
"Et@	c #1C704F",
"Ft@	c #066141",
"Gt@	c #03482B",
"Ht@	c #115C3D",
"It@	c #187D52",
"Jt@	c #1D8755",
"Kt@	c #086230",
"Lt@	c #14AE6C",
"Mt@	c #159159",
"Nt@	c #002B08",
"Ot@	c #022200",
"Pt@	c #0B5603",
"Qt@	c #75C333",
"Rt@	c #87DE1D",
"St@	c #A3E448",
"Tt@	c #F7FCD5",
"Ut@	c #A6D886",
"Vt@	c #176F09",
"Wt@	c #0F4200",
"Xt@	c #042904",
"Yt@	c #150702",
"Zt@	c #260E10",
"`t@	c #190006",
" u@	c #1C0608",
".u@	c #260A0C",
"+u@	c #170608",
"@u@	c #5B1E23",
"#u@	c #74181E",
"$u@	c #A71F24",
"%u@	c #F0A996",
"&u@	c #F4C6AF",
"*u@	c #8D1E1A",
"=u@	c #71171C",
"-u@	c #6C262C",
";u@	c #4C171A",
">u@	c #451011",
",u@	c #220307",
"'u@	c #27070B",
")u@	c #2C191B",
"!u@	c #12060A",
"~u@	c #38201E",
"{u@	c #1F0B0C",
"]u@	c #271819",
"^u@	c #30181C",
"/u@	c #301217",
"(u@	c #230309",
"_u@	c #440D13",
":u@	c #4D171C",
"<u@	c #602527",
"[u@	c #641216",
"}u@	c #F8B77C",
"|u@	c #D99180",
"1u@	c #8F131C",
"2u@	c #781A25",
"3u@	c #57121A",
"4u@	c #200706",
"5u@	c #120E01",
"6u@	c #122D00",
"7u@	c #275D0C",
"8u@	c #E0F4BE",
"9u@	c #CCED9B",
"0u@	c #487913",
"au@	c #122B02",
"bu@	c #001105",
"cu@	c #04612A",
"du@	c #0B5622",
"eu@	c #13A048",
"fu@	c #22FA6F",
"gu@	c #17C338",
"hu@	c #098917",
"iu@	c #36F076",
"ju@	c #32DF5C",
"ku@	c #4C8A14",
"lu@	c #4B530A",
"mu@	c #361F07",
"nu@	c #460107",
"ou@	c #C55965",
"pu@	c #FEDEE0",
"qu@	c #E48C8D",
"ru@	c #82050C",
"su@	c #410804",
"tu@	c #341705",
"uu@	c #27200D",
"vu@	c #162705",
"wu@	c #1C5205",
"xu@	c #ABCB89",
"yu@	c #FBF8EC",
"zu@	c #C5F6AA",
"Au@	c #2F8421",
"Bu@	c #055703",
"Cu@	c #5BA84B",
"Du@	c #CFFDB3",
"Eu@	c #85BC6E",
"Fu@	c #075D01",
"Gu@	c #002301",
"Hu@	c #021A08",
"Iu@	c #031308",
"Ju@	c #010B04",
"Ku@	c #1E211B",
"Lu@	c #20231F",
"Mu@	c #0B0B0B",
"Nu@	c #36130F",
"Ou@	c #112200",
"Pu@	c #0B4400",
"Qu@	c #24610B",
"Ru@	c #AFD475",
"Su@	c #F5FBCB",
"Tu@	c #B3DBA1",
"Uu@	c #378018",
"Vu@	c #125600",
"Wu@	c #0A3304",
"Xu@	c #051A08",
"Yu@	c #051509",
"Zu@	c #081106",
"`u@	c #290106",
" v@	c #3E0409",
".v@	c #500305",
"+v@	c #580002",
"@v@	c #700805",
"#v@	c #7C070A",
"$v@	c #93191E",
"%v@	c #BB5458",
"&v@	c #E19AA0",
"*v@	c #F9D3DA",
"=v@	c #FCE2EC",
"-v@	c #EBACB7",
";v@	c #BA4252",
">v@	c #940414",
",v@	c #6A0202",
"'v@	c #210004",
")v@	c #022105",
"!v@	c #012507",
"~v@	c #012709",
"{v@	c #022809",
"]v@	c #012909",
"^v@	c #002807",
"/v@	c #002405",
"(v@	c #001E02",
"_v@	c #011602",
":v@	c #46862A",
"<v@	c #96E46F",
"[v@	c #0F5608",
"}v@	c #083409",
"|v@	c #8FC07A",
"1v@	c #639C4F",
"2v@	c #043A05",
"3v@	c #050006",
"4v@	c #125539",
"5v@	c #197B56",
"6v@	c #034D30",
"7v@	c #00301E",
"8v@	c #01311B",
"9v@	c #003A1B",
"0v@	c #0C9057",
"av@	c #18A064",
"bv@	c #01340F",
"cv@	c #062303",
"dv@	c #063B06",
"ev@	c #2B720C",
"fv@	c #82E52B",
"gv@	c #92E436",
"hv@	c #F5FDD6",
"iv@	c #B5E194",
"jv@	c #1E730E",
"kv@	c #052C03",
"lv@	c #061A00",
"mv@	c #040E03",
"nv@	c #2B1416",
"ov@	c #1B0207",
"pv@	c #1B0608",
"qv@	c #250A0B",
"rv@	c #19080A",
"sv@	c #3A0E15",
"tv@	c #481419",
"uv@	c #75181E",
"vv@	c #A71F23",
"wv@	c #F0AA96",
"xv@	c #8F211C",
"yv@	c #6C272D",
"zv@	c #4F1A1C",
"Av@	c #371217",
"Bv@	c #28080C",
"Cv@	c #2A1719",
"Dv@	c #291D1C",
"Ev@	c #2B0C10",
"Fv@	c #430C12",
"Gv@	c #621114",
"Hv@	c #83161B",
"Iv@	c #AF4233",
"Jv@	c #FCBD82",
"Kv@	c #D9907F",
"Lv@	c #8F121B",
"Mv@	c #561019",
"Nv@	c #200605",
"Ov@	c #150904",
"Pv@	c #185103",
"Qv@	c #CEE2AA",
"Rv@	c #D3F3A8",
"Sv@	c #4B7F14",
"Tv@	c #062D05",
"Uv@	c #020E05",
"Vv@	c #06451A",
"Wv@	c #04692C",
"Xv@	c #046821",
"Yv@	c #2EF375",
"Zv@	c #1CDD54",
"`v@	c #0E9718",
" w@	c #37D560",
".w@	c #3DF16E",
"+w@	c #389F23",
"@w@	c #516E0E",
"#w@	c #42340E",
"$w@	c #57010E",
"%w@	c #952124",
"&w@	c #F5B3BD",
"*w@	c #F5C2D1",
"=w@	c #A03339",
"-w@	c #590303",
";w@	c #3C1309",
">w@	c #2C1E0C",
",w@	c #233407",
"'w@	c #386C15",
")w@	c #D1F18D",
"!w@	c #B9ED83",
"~w@	c #DCF4B4",
"{w@	c #DAFBB8",
"]w@	c #5FB346",
"^w@	c #085901",
"/w@	c #136A0C",
"(w@	c #A8E38F",
"_w@	c #CDF2B0",
":w@	c #307C20",
"<w@	c #054803",
"[w@	c #002D00",
"}w@	c #011F05",
"|w@	c #0C110A",
"1w@	c #292E28",
"2w@	c #131614",
"3w@	c #0C0C0C",
"4w@	c #250D0A",
"5w@	c #261108",
"6w@	c #142A05",
"7w@	c #114502",
"8w@	c #366B1D",
"9w@	c #C3E18D",
"0w@	c #EDFCD2",
"aw@	c #A7CC88",
"bw@	c #2D7C10",
"cw@	c #0F5401",
"dw@	c #031F01",
"ew@	c #0A1302",
"fw@	c #120A02",
"gw@	c #3E0208",
"hw@	c #5F030A",
"iw@	c #7B0609",
"jw@	c #8B060C",
"kw@	c #8D0711",
"lw@	c #930914",
"mw@	c #9B0C19",
"nw@	c #B03C44",
"ow@	c #C76A6F",
"pw@	c #D7999D",
"qw@	c #F0C7CB",
"rw@	c #FDEAEC",
"sw@	c #FDE3E4",
"tw@	c #E8ABB4",
"uw@	c #C64F69",
"vw@	c #9F0E26",
"ww@	c #7F030D",
"xw@	c #560203",
"yw@	c #300300",
"zw@	c #002201",
"Aw@	c #002A03",
"Bw@	c #013007",
"Cw@	c #01360D",
"Dw@	c #013C11",
"Ew@	c #014214",
"Fw@	c #034819",
"Gw@	c #054C18",
"Hw@	c #044D17",
"Iw@	c #034C16",
"Jw@	c #034914",
"Kw@	c #01410E",
"Lw@	c #013407",
"Mw@	c #002B04",
"Nw@	c #012003",
"Ow@	c #4D8A2F",
"Pw@	c #AAEE7F",
"Qw@	c #1C680F",
"Rw@	c #064503",
"Sw@	c #051301",
"Tw@	c #87B16E",
"Uw@	c #93C76F",
"Vw@	c #125004",
"Ww@	c #032000",
"Xw@	c #010208",
"Yw@	c #070104",
"Zw@	c #050D04",
"`w@	c #072514",
" x@	c #185C41",
".x@	c #1F7153",
"+x@	c #09563E",
"@x@	c #033C2D",
"#x@	c #093329",
"$x@	c #093426",
"%x@	c #047145",
"&x@	c #15A467",
"*x@	c #013D16",
"=x@	c #0F1500",
"-x@	c #022A02",
";x@	c #074707",
">x@	c #6CBE32",
",x@	c #91E433",
"'x@	c #F0FBC7",
")x@	c #C4EAA2",
"!x@	c #247613",
"~x@	c #0F4800",
"{x@	c #061B01",
"]x@	c #190A05",
"^x@	c #1E040A",
"/x@	c #280D0F",
"(x@	c #34171B",
"_x@	c #471319",
":x@	c #A61F23",
"<x@	c #6F151B",
"[x@	c #440F10",
"}x@	c #3F0F15",
"|x@	c #280E11",
"1x@	c #33161B",
"2x@	c #120305",
"3x@	c #2B181A",
"4x@	c #1F080C",
"5x@	c #110509",
"6x@	c #1B161A",
"7x@	c #271A1B",
"8x@	c #30181B",
"9x@	c #2B0C0E",
"0x@	c #2A0B0E",
"ax@	c #321218",
"bx@	c #38070B",
"cx@	c #450D14",
"dx@	c #4F1A1F",
"ex@	c #651116",
"fx@	c #841820",
"gx@	c #AF4231",
"hx@	c #FCC79A",
"ix@	c #D88F7F",
"jx@	c #8F121D",
"kx@	c #771925",
"lx@	c #58131C",
"mx@	c #3B1213",
"nx@	c #2D0C0C",
"ox@	c #104201",
"px@	c #A8C689",
"qx@	c #E4F7A7",
"rx@	c #588120",
"sx@	c #023102",
"tx@	c #011007",
"ux@	c #001104",
"vx@	c #032C0C",
"wx@	c #0A6B2F",
"xx@	c #004708",
"yx@	c #24D569",
"zx@	c #25F16F",
"Ax@	c #09A829",
"Bx@	c #24B13E",
"Cx@	c #46F771",
"Dx@	c #32C23E",
"Ex@	c #508616",
"Fx@	c #515113",
"Gx@	c #2F1202",
"Hx@	c #370203",
"Ix@	c #4E0108",
"Jx@	c #6E0606",
"Kx@	c #D27283",
"Lx@	c #FEDCE7",
"Mx@	c #CF7479",
"Nx@	c #790203",
"Ox@	c #460C08",
"Px@	c #33180B",
"Qx@	c #254104",
"Rx@	c #74A744",
"Sx@	c #C5FA70",
"Tx@	c #6CCC25",
"Ux@	c #97D269",
"Vx@	c #EDFCCC",
"Wx@	c #8FDD71",
"Xx@	c #0C6C04",
"Yx@	c #055A01",
"Zx@	c #5F9D48",
"`x@	c #DBFABC",
" y@	c #98C97D",
".y@	c #126E04",
"+y@	c #013304",
"@y@	c #041706",
"#y@	c #011201",
"$y@	c #121612",
"%y@	c #2C322C",
"&y@	c #0A0708",
"*y@	c #0C090C",
"=y@	c #221408",
"-y@	c #0F4810",
";y@	c #447B23",
">y@	c #CAE5A4",
",y@	c #EFFDCF",
"'y@	c #A0C987",
")y@	c #377D15",
"!y@	c #195701",
"~y@	c #083103",
"{y@	c #082102",
"]y@	c #0B1B02",
"^y@	c #15100B",
"/y@	c #2C070B",
"(y@	c #550205",
"_y@	c #B36569",
":y@	c #F1C2C4",
"<y@	c #F5BDC8",
"[y@	c #F9C9CF",
"}y@	c #FAD5D9",
"|y@	c #FBE2E1",
"1y@	c #FDD9DA",
"2y@	c #F0BEC6",
"3y@	c #D78B9C",
"4y@	c #B54658",
"5y@	c #9C0C1E",
"6y@	c #7A0507",
"7y@	c #210300",
"8y@	c #170104",
"9y@	c #022905",
"0y@	c #043407",
"ay@	c #054005",
"by@	c #054A11",
"cy@	c #07561E",
"dy@	c #0C5C24",
"ey@	c #206634",
"fy@	c #468054",
"gy@	c #6FA179",
"hy@	c #84AE8D",
"iy@	c #89B28F",
"jy@	c #85B28A",
"ky@	c #7AAF7F",
"ly@	c #63A06A",
"my@	c #388044",
"ny@	c #155D1F",
"oy@	c #044309",
"py@	c #042703",
"qy@	c #5C8F32",
"ry@	c #C3F293",
"sy@	c #1E780F",
"ty@	c #084F03",
"uy@	c #031B02",
"vy@	c #061602",
"wy@	c #648D49",
"xy@	c #BAE588",
"yy@	c #266C11",
"zy@	c #0A3404",
"Ay@	c #050B06",
"By@	c #020506",
"Cy@	c #011307",
"Dy@	c #08100B",
"Ey@	c #051B11",
"Fy@	c #0D422D",
"Gy@	c #1E6C50",
"Hy@	c #1E7D5C",
"Iy@	c #166C4F",
"Jy@	c #08543A",
"Ky@	c #026E41",
"Ly@	c #129D66",
"My@	c #024B1E",
"Ny@	c #012006",
"Oy@	c #043606",
"Py@	c #4F9926",
"Qy@	c #8DE336",
"Ry@	c #E9FAB5",
"Sy@	c #D1F0B1",
"Ty@	c #297815",
"Uy@	c #0D4901",
"Vy@	c #0A2E02",
"Wy@	c #1A0A05",
"Xy@	c #1F050B",
"Yy@	c #1E0809",
"Zy@	c #270B0C",
"`y@	c #190709",
" z@	c #330C13",
".z@	c #461317",
"+z@	c #5B1D20",
"@z@	c #A81E22",
"#z@	c #F5C8B2",
"$z@	c #8D1F1B",
"%z@	c #6F151C",
"&z@	c #6C252D",
"*z@	c #461012",
"=z@	c #3E0D13",
"-z@	c #341014",
";z@	c #291013",
">z@	c #31161A",
",z@	c #110204",
"'z@	c #2A191B",
")z@	c #200B0E",
"!z@	c #281C1B",
"~z@	c #1A151A",
"{z@	c #30171B",
"]z@	c #2C0C0E",
"^z@	c #39070B",
"/z@	c #671217",
"(z@	c #861B24",
"_z@	c #AC402C",
":z@	c #D99080",
"<z@	c #901320",
"[z@	c #781926",
"}z@	c #5B151F",
"|z@	c #3C1112",
"1z@	c #2E0B0C",
"2z@	c #190402",
"3z@	c #0A3000",
"4z@	c #74975E",
"5z@	c #EAFBAB",
"6z@	c #688C39",
"7z@	c #040E07",
"8z@	c #001406",
"9z@	c #010E03",
"0z@	c #061905",
"az@	c #0A5C28",
"bz@	c #04460E",
"cz@	c #17A24A",
"dz@	c #31F979",
"ez@	c #16C842",
"fz@	c #09941E",
"gz@	c #42F26B",
"hz@	c #38DE51",
"iz@	c #409113",
"jz@	c #5F6C19",
"kz@	c #422A0C",
"lz@	c #5A0506",
"mz@	c #A62F3E",
"nz@	c #F8C8CB",
"oz@	c #F1BAB8",
"pz@	c #961820",
"qz@	c #510C08",
"rz@	c #37180B",
"sz@	c #304500",
"tz@	c #9ED151",
"uz@	c #97E547",
"vz@	c #52C003",
"wz@	c #48A61A",
"xz@	c #BEF5A2",
"yz@	c #379720",
"zz@	c #0B5503",
"Az@	c #145D06",
"Bz@	c #9CDC7B",
"Cz@	c #D5F9AD",
"Dz@	c #045403",
"Ez@	c #042A00",
"Fz@	c #012002",
"Gz@	c #011003",
"Hz@	c #030807",
"Iz@	c #0A0E0A",
"Jz@	c #192019",
"Kz@	c #242824",
"Lz@	c #100C0F",
"Mz@	c #070609",
"Nz@	c #2C180F",
"Oz@	c #0C2E01",
"Pz@	c #144D03",
"Qz@	c #45782C",
"Rz@	c #CCE6AA",
"Sz@	c #F2FAD4",
"Tz@	c #AFD08B",
"Uz@	c #468825",
"Vz@	c #1A5B06",
"Wz@	c #093704",
"Xz@	c #082607",
"Yz@	c #111B02",
"Zz@	c #2F0D04",
"`z@	c #570607",
" A@	c #9C4748",
".A@	c #EFAEAF",
"+A@	c #F9C7C4",
"@A@	c #FAD0CB",
"#A@	c #FBCCC8",
"$A@	c #F6C0BE",
"%A@	c #EEA9AD",
"&A@	c #E28791",
"*A@	c #CF5C6B",
"=A@	c #AC2F3F",
"-A@	c #930A1F",
";A@	c #820111",
">A@	c #6B040B",
",A@	c #530604",
"'A@	c #210200",
")A@	c #130004",
"!A@	c #021500",
"~A@	c #0A3806",
"{A@	c #044707",
"]A@	c #025D14",
"^A@	c #0A6525",
"/A@	c #3C7F44",
"(A@	c #87B48D",
"_A@	c #B6DFBA",
":A@	c #D7F6D6",
"<A@	c #F1FDE9",
"[A@	c #F9F9EF",
"}A@	c #F4FCF0",
"|A@	c #F0FDEC",
"1A@	c #EEFEE7",
"2A@	c #E5FEDF",
"3A@	c #DEFFD9",
"4A@	c #E0FCC8",
"5A@	c #CBF2B5",
"6A@	c #A9DF9A",
"7A@	c #7AB975",
"8A@	c #438647",
"9A@	c #155618",
"0A@	c #013703",
"aA@	c #011E00",
"bA@	c #020900",
"cA@	c #699A38",
"dA@	c #CFF39B",
"eA@	c #1C8010",
"fA@	c #0C5406",
"gA@	c #3E6A29",
"hA@	c #CBF398",
"iA@	c #59993D",
"jA@	c #175006",
"kA@	c #040709",
"lA@	c #011C08",
"mA@	c #093D25",
"nA@	c #03130B",
"oA@	c #011108",
"pA@	c #021509",
"qA@	c #042D1C",
"rA@	c #1E5C45",
"sA@	c #327F62",
"tA@	c #318963",
"uA@	c #147D55",
"vA@	c #05431D",
"wA@	c #061500",
"xA@	c #021403",
"yA@	c #011908",
"zA@	c #022D04",
"AA@	c #307A10",
"BA@	c #89E337",
"CA@	c #E3F9AE",
"DA@	c #D8F4B9",
"EA@	c #2F7C17",
"FA@	c #0B4902",
"GA@	c #0C2D02",
"HA@	c #1B0A05",
"IA@	c #2F1618",
"JA@	c #21060B",
"KA@	c #270A0A",
"LA@	c #1B0809",
"MA@	c #330C12",
"NA@	c #A81D22",
"OA@	c #F4CAB4",
"PA@	c #8B1F1B",
"QA@	c #6C232C",
"RA@	c #25070A",
"SA@	c #30151A",
"TA@	c #100304",
"UA@	c #190A0C",
"VA@	c #281B1A",
"WA@	c #1D080A",
"XA@	c #271B1C",
"YA@	c #30161B",
"ZA@	c #321118",
"`A@	c #38060A",
" B@	c #450E14",
".B@	c #602528",
"+B@	c #871D25",
"@B@	c #AC402E",
"#B@	c #FCD5BA",
"$B@	c #D99181",
"%B@	c #911420",
"&B@	c #59131E",
"*B@	c #330207",
"=B@	c #3D1213",
"-B@	c #0E0A05",
";B@	c #062101",
">B@	c #335724",
",B@	c #D4F3A1",
"'B@	c #72A04E",
")B@	c #012F02",
"!B@	c #010F05",
"~B@	c #000502",
"{B@	c #0E0C03",
"]B@	c #02481C",
"^B@	c #064A17",
"/B@	c #04631D",
"(B@	c #3BED71",
"_B@	c #2BE859",
":B@	c #05961A",
"<B@	c #2FD658",
"[B@	c #3AF061",
"}B@	c #30AA21",
"|B@	c #648120",
"1B@	c #564612",
"2B@	c #2E0A02",
"3B@	c #3E0109",
"4B@	c #490303",
"5B@	c #7D060B",
"6B@	c #E18B8C",
"7B@	c #FFE2E0",
"8B@	c #C7616E",
"9B@	c #680809",
"0B@	c #421609",
"aB@	c #404000",
"bB@	c #A6E249",
"cB@	c #6BD01C",
"dB@	c #54C112",
"eB@	c #3CA506",
"fB@	c #97D26B",
"gB@	c #E5FDC3",
"hB@	c #82C865",
"iB@	c #0E6602",
"jB@	c #0C5502",
"kB@	c #459729",
"lB@	c #CCF8AC",
"mB@	c #B7D79E",
"nB@	c #197709",
"oB@	c #013C02",
"pB@	c #002C01",
"qB@	c #051D06",
"rB@	c #040F07",
"sB@	c #0B140C",
"tB@	c #1C231E",
"uB@	c #1C201D",
"vB@	c #110C0F",
"wB@	c #180703",
"xB@	c #28160E",
"yB@	c #1A1502",
"zB@	c #152D03",
"AB@	c #174405",
"BB@	c #43772A",
"CB@	c #B5DE97",
"DB@	c #F3FCD5",
"EB@	c #CCE0B1",
"FB@	c #5BA241",
"GB@	c #226A09",
"HB@	c #163A09",
"IB@	c #172404",
"JB@	c #211C00",
"KB@	c #411403",
"LB@	c #6C070A",
"MB@	c #940517",
"NB@	c #A2081A",
"OB@	c #A50C18",
"PB@	c #A40819",
"QB@	c #9D0516",
"RB@	c #8F040F",
"SB@	c #85040A",
"TB@	c #7D0306",
"UB@	c #6F0206",
"VB@	c #540104",
"WB@	c #110002",
"XB@	c #062004",
"YB@	c #034C00",
"ZB@	c #025904",
"`B@	c #10661B",
" C@	c #5B975B",
".C@	c #A8D3A6",
"+C@	c #DEF5DD",
"@C@	c #EEFBE3",
"#C@	c #D5F9BF",
"$C@	c #B5F197",
"%C@	c #9EE97D",
"&C@	c #90E270",
"*C@	c #85D766",
"=C@	c #7DD25E",
"-C@	c #73D157",
";C@	c #70D258",
">C@	c #79D066",
",C@	c #7CD56B",
"'C@	c #80DC72",
")C@	c #87E27B",
"!C@	c #8AE57F",
"~C@	c #7ADF77",
"{C@	c #5BBF5F",
"]C@	c #27742E",
"^C@	c #060C00",
"/C@	c #063405",
"(C@	c #CEF399",
"_C@	c #1A810F",
":C@	c #0F5905",
"<C@	c #001E05",
"[C@	c #194B0B",
"}C@	c #BCE092",
"|C@	c #99CC6E",
"1C@	c #287005",
"2C@	c #030D08",
"3C@	c #01270E",
"4C@	c #13613D",
"5C@	c #042E1B",
"6C@	c #060107",
"7C@	c #040F08",
"8C@	c #05150B",
"9C@	c #032512",
"0C@	c #031E0B",
"aC@	c #071201",
"bC@	c #011D07",
"cC@	c #1E6005",
"dC@	c #83DC34",
"eC@	c #DDFAA5",
"fC@	c #DAF5B9",
"gC@	c #337D1A",
"hC@	c #0C4902",
"iC@	c #0D2C02",
"jC@	c #22060C",
"kC@	c #1F0909",
"lC@	c #2A0D0D",
"mC@	c #1A0708",
"nC@	c #771B1E",
"oC@	c #8C1F1C",
"pC@	c #6E141B",
"qC@	c #6E242D",
"rC@	c #25080B",
"sC@	c #2F1519",
"tC@	c #1D080B",
"uC@	c #1B0709",
"vC@	c #2D1418",
"wC@	c #240409",
"xC@	c #220203",
"yC@	c #370509",
"zC@	c #440C13",
"AC@	c #691319",
"BC@	c #881D26",
"CC@	c #D99081",
"DC@	c #921521",
"EC@	c #781A27",
"FC@	c #57121C",
"GC@	c #3E1214",
"HC@	c #2F0C0C",
"IC@	c #051400",
"JC@	c #A2C67C",
"KC@	c #6D9E52",
"LC@	c #032701",
"MC@	c #030D00",
"NC@	c #021206",
"OC@	c #001009",
"PC@	c #070601",
"QC@	c #023515",
"RC@	c #094B1F",
"SC@	c #023D07",
"TC@	c #36C55C",
"UC@	c #41F96F",
"VC@	c #06AD2C",
"WC@	c #14A837",
"XC@	c #39F66C",
"YC@	c #2DCD44",
"ZC@	c #579322",
"`C@	c #5F6C15",
" D@	c #372702",
".D@	c #360107",
"+D@	c #430408",
"@D@	c #570501",
"#D@	c #B13B42",
"$D@	c #FCCCD4",
"%D@	c #F3ACB9",
"&D@	c #8B1722",
"*D@	c #590B06",
"=D@	c #412F02",
"-D@	c #6DAA26",
";D@	c #69CF20",
">D@	c #52BA1A",
",D@	c #40A707",
"'D@	c #52AD20",
")D@	c #DBF4B4",
"!D@	c #CCF3B2",
"~D@	c #38901F",
"{D@	c #0F5C03",
"]D@	c #0F5503",
"^D@	c #87C571",
"/D@	c #DEFBC2",
"(D@	c #79AF5F",
"_D@	c #11560C",
":D@	c #013000",
"<D@	c #031E06",
"[D@	c #011A04",
"}D@	c #001303",
"|D@	c #020E06",
"1D@	c #101911",
"2D@	c #282F29",
"3D@	c #141815",
"4D@	c #100E0E",
"5D@	c #2F1613",
"6D@	c #142406",
"7D@	c #114402",
"8D@	c #2B6A18",
"9D@	c #A1C090",
"0D@	c #E8F7D5",
"aD@	c #E2F4CC",
"bD@	c #9ABE7D",
"cD@	c #377910",
"dD@	c #0F5302",
"eD@	c #182B06",
"fD@	c #500E07",
"gD@	c #5E0A0B",
"hD@	c #65080A",
"iD@	c #720307",
"jD@	c #710109",
"kD@	c #6B010A",
"lD@	c #580004",
"mD@	c #500002",
"nD@	c #024302",
"oD@	c #025703",
"pD@	c #106613",
"qD@	c #6E9F66",
"rD@	c #C3DFB3",
"sD@	c #F0FEE2",
"tD@	c #D7FABF",
"uD@	c #AAE785",
"vD@	c #7ECC52",
"wD@	c #63C229",
"xD@	c #63D01E",
"yD@	c #6ADC29",
"zD@	c #6FEA2C",
"AD@	c #75F031",
"BD@	c #79F135",
"CD@	c #74F036",
"DD@	c #6CEB34",
"ED@	c #69E22D",
"FD@	c #54D522",
"GD@	c #3BC217",
"HD@	c #21A605",
"ID@	c #1B9A06",
"JD@	c #2A9B1B",
"KD@	c #40B43F",
"LD@	c #4AB550",
"MD@	c #0A470E",
"ND@	c #063904",
"OD@	c #85BD57",
"PD@	c #CEF196",
"QD@	c #14800A",
"RD@	c #0D5E05",
"SD@	c #032302",
"TD@	c #011E0B",
"UD@	c #093902",
"VD@	c #95BC77",
"WD@	c #CBF198",
"XD@	c #468C1B",
"YD@	c #1C5B04",
"ZD@	c #031B01",
"`D@	c #030A05",
" E@	c #04260C",
".E@	c #1B7349",
"+E@	c #064528",
"@E@	c #031E10",
"#E@	c #011E0E",
"$E@	c #02140E",
"%E@	c #050703",
"&E@	c #010D03",
"*E@	c #050D07",
"=E@	c #021402",
"-E@	c #042E00",
";E@	c #032A01",
">E@	c #104C03",
",E@	c #78D031",
"'E@	c #DBFBA1",
")E@	c #DEF6BC",
"!E@	c #357D1B",
"~E@	c #0D4801",
"{E@	c #0C2900",
"]E@	c #041901",
"^E@	c #2C1416",
"/E@	c #220B0C",
"(E@	c #290C0C",
"_E@	c #341517",
":E@	c #340D13",
"<E@	c #3A0D15",
"[E@	c #48161A",
"}E@	c #5C1E21",
"|E@	c #771C1F",
"1E@	c #A91E22",
"2E@	c #EEA795",
"3E@	c #8F211E",
"4E@	c #6E252D",
"5E@	c #26080B",
"6E@	c #251819",
"7E@	c #29090C",
"8E@	c #4D191D",
"9E@	c #671117",
"0E@	c #891E27",
"aE@	c #AE4231",
"bE@	c #FCD5B9",
"cE@	c #D88F80",
"dE@	c #771926",
"eE@	c #56111B",
"fE@	c #110003",
"gE@	c #011A05",
"hE@	c #335024",
"iE@	c #2E5822",
"jE@	c #030F05",
"kE@	c #040C0A",
"lE@	c #0C1E0C",
"mE@	c #194423",
"nE@	c #07350E",
"oE@	c #197D32",
"pE@	c #40F775",
"qE@	c #1BCE4B",
"rE@	c #078219",
"sE@	c #28EA67",
"tE@	c #33EA68",
"uE@	c #3FA125",
"vE@	c #62911A",
"wE@	c #4D4B0D",
"xE@	c #310603",
"yE@	c #540209",
"zE@	c #770D0F",
"AE@	c #DF909D",
"BE@	c #FED7E2",
"CE@	c #BC5F69",
"DE@	c #71050A",
"EE@	c #421808",
"FE@	c #395205",
"GE@	c #6BBB29",
"HE@	c #4AB214",
"IE@	c #50AD16",
"JE@	c #41A80A",
"KE@	c #9ED17B",
"LE@	c #E1FECE",
"ME@	c #98C887",
"NE@	c #1B6E06",
"OE@	c #0B4D02",
"PE@	c #2C7522",
"QE@	c #B9EA9C",
"RE@	c #D8F2B1",
"SE@	c #378827",
"TE@	c #0A4700",
"UE@	c #001702",
"VE@	c #040A07",
"WE@	c #171F17",
"XE@	c #242C26",
"YE@	c #0B0F0C",
"ZE@	c #2C140F",
"`E@	c #1C0F04",
" F@	c #121F04",
".F@	c #165606",
"+F@	c #6A9D58",
"@F@	c #D1E8B9",
"#F@	c #C5E4AD",
"$F@	c #6BA151",
"%F@	c #326F0E",
"&F@	c #244801",
"*F@	c #282701",
"=F@	c #341101",
"-F@	c #390A03",
";F@	c #410505",
">F@	c #3F0504",
",F@	c #3C0403",
"'F@	c #200201",
")F@	c #012E05",
"!F@	c #014B09",
"~F@	c #036500",
"{F@	c #3E8833",
"]F@	c #B6D9A8",
"^F@	c #EFFAE2",
"/F@	c #DBF8B8",
"(F@	c #9ADE63",
"_F@	c #60CF20",
":F@	c #6CDE27",
"<F@	c #82EF32",
"[F@	c #88F736",
"}F@	c #80F036",
"|F@	c #73E235",
"1F@	c #63CB30",
"2F@	c #5BBC2D",
"3F@	c #58B22D",
"4F@	c #57B231",
"5F@	c #5BB839",
"6F@	c #5EC73D",
"7F@	c #6AD945",
"8F@	c #70E74B",
"9F@	c #68E648",
"0F@	c #52CC39",
"aF@	c #2AA017",
"bF@	c #0F8F01",
"cF@	c #16840F",
"dF@	c #064404",
"eF@	c #0A4406",
"fF@	c #90CC64",
"gF@	c #CBED8F",
"hF@	c #108007",
"iF@	c #0B6106",
"jF@	c #022202",
"kF@	c #05180D",
"lF@	c #0E3002",
"mF@	c #558540",
"nF@	c #E6FAB9",
"oF@	c #8CBE63",
"pF@	c #3E8714",
"qF@	c #183903",
"rF@	c #012B0C",
"sF@	c #1A8352",
"tF@	c #075431",
"uF@	c #021E0C",
"vF@	c #01200C",
"wF@	c #031E0E",
"xF@	c #012103",
"yF@	c #316A20",
"zF@	c #206814",
"AF@	c #043400",
"BF@	c #6FC42F",
"CF@	c #D7F99F",
"DF@	c #DDF5BA",
"EF@	c #327717",
"FF@	c #094300",
"GF@	c #050D02",
"HF@	c #22070D",
"IF@	c #5D1F22",
"JF@	c #761B1E",
"KF@	c #AA1F23",
"LF@	c #EFA996",
"MF@	c #70262E",
"NF@	c #26090C",
"OF@	c #110609",
"PF@	c #2A0A0B",
"QF@	c #2A0A0C",
"RF@	c #321217",
"SF@	c #8A1F27",
"TF@	c #D79080",
"UF@	c #901420",
"VF@	c #781B26",
"WF@	c #320F10",
"XF@	c #1D0407",
"YF@	c #26130C",
"ZF@	c #141109",
"`F@	c #2C3C23",
" G@	c #163818",
".G@	c #04430C",
"+G@	c #34D969",
"@G@	c #2AE661",
"#G@	c #068D1D",
"$G@	c #1ACF57",
"%G@	c #31F878",
"&G@	c #2CC242",
"*G@	c #589C11",
"=G@	c #646F23",
"-G@	c #37250A",
";G@	c #350606",
">G@	c #4D020A",
",G@	c #5A0804",
"'G@	c #A53D47",
")G@	c #FBCFD9",
"!G@	c #EDB1BE",
"~G@	c #94191F",
"{G@	c #540B0F",
"]G@	c #332206",
"^G@	c #477811",
"/G@	c #68C526",
"(G@	c #43A60D",
"_G@	c #48A50C",
":G@	c #51A326",
"<G@	c #CFF3B1",
"[G@	c #E6F3CB",
"}G@	c #559735",
"|G@	c #0C5D07",
"1G@	c #0B4701",
"2G@	c #5FA149",
"3G@	c #D5F7B2",
"4G@	c #AEE18F",
"5G@	c #287115",
"6G@	c #014100",
"7G@	c #012A01",
"8G@	c #041A06",
"9G@	c #192119",
"0G@	c #233223",
"aG@	c #081308",
"bG@	c #100C10",
"cG@	c #1D0608",
"dG@	c #220B03",
"eG@	c #141A01",
"fG@	c #0C3302",
"gG@	c #0F4B01",
"hG@	c #30721E",
"iG@	c #90B885",
"jG@	c #DEE9D1",
"kG@	c #EBF9D9",
"lG@	c #B9E49D",
"mG@	c #73B057",
"nG@	c #397418",
"oG@	c #334F04",
"pG@	c #303703",
"qG@	c #272302",
"rG@	c #2C1704",
"sG@	c #2F0D02",
"tG@	c #270400",
"uG@	c #210501",
"vG@	c #001202",
"wG@	c #011902",
"xG@	c #003201",
"yG@	c #015308",
"zG@	c #0C6C15",
"AG@	c #6EAD5F",
"BG@	c #D9F4BE",
"CG@	c #F5FBE2",
"DG@	c #E0F8C5",
"EG@	c #A2DC73",
"FG@	c #62D01E",
"GG@	c #6BEB25",
"HG@	c #7BF337",
"IG@	c #6EE03A",
"JG@	c #54B92C",
"KG@	c #378818",
"LG@	c #185C07",
"MG@	c #053201",
"NG@	c #032D02",
"OG@	c #043101",
"PG@	c #044A02",
"QG@	c #1F6F1A",
"RG@	c #469D3C",
"SG@	c #55BD44",
"TG@	c #3FB330",
"UG@	c #25841C",
"VG@	c #053A03",
"WG@	c #032503",
"XG@	c #135305",
"YG@	c #AFDD7F",
"ZG@	c #B1E582",
"`G@	c #117A04",
" H@	c #0F660D",
".H@	c #0C2706",
"+H@	c #144F08",
"@H@	c #C0D99B",
"#H@	c #D1EEAB",
"$H@	c #62A22B",
"%H@	c #3A7616",
"&H@	c #052301",
"*H@	c #022F0F",
"=H@	c #1F8F5E",
"-H@	c #0F663F",
";H@	c #022B10",
">H@	c #03321C",
",H@	c #042516",
"'H@	c #041208",
")H@	c #002211",
"!H@	c #02160A",
"~H@	c #154006",
"{H@	c #A6D771",
"]H@	c #4D9E2A",
"^H@	c #0A5403",
"/H@	c #083502",
"(H@	c #5DB924",
"_H@	c #DAF4A0",
":H@	c #D6F3B0",
"<H@	c #2B6D13",
"[H@	c #083A05",
"}H@	c #052500",
"|H@	c #0B1404",
"1H@	c #090304",
"2H@	c #2C1415",
"3H@	c #250A0C",
"4H@	c #2B0C0C",
"5H@	c #330E15",
"6H@	c #441317",
"7H@	c #5A1C22",
"8H@	c #781A21",
"9H@	c #A81F23",
"0H@	c #F0AC97",
"aH@	c #8E221B",
"bH@	c #6F151D",
"cH@	c #70272A",
"dH@	c #4F161D",
"eH@	c #471013",
"fH@	c #3E0C11",
"gH@	c #340E14",
"hH@	c #30161A",
"iH@	c #2B191A",
"jH@	c #14060A",
"kH@	c #251918",
"lH@	c #1D0A0E",
"mH@	c #261A1B",
"nH@	c #2F161A",
"oH@	c #311216",
"pH@	c #230307",
"qH@	c #380709",
"rH@	c #460B12",
"sH@	c #652628",
"tH@	c #AD402D",
"uH@	c #911521",
"vH@	c #5A151E",
"wH@	c #320308",
"xH@	c #3C1214",
"yH@	c #20070A",
"zH@	c #040604",
"AH@	c #1D1808",
"BH@	c #603324",
"CH@	c #370807",
"DH@	c #39371E",
"EH@	c #213B1B",
"FH@	c #0C3307",
"GH@	c #249644",
"HH@	c #3EF477",
"IH@	c #18AF39",
"JH@	c #09A02D",
"KH@	c #31F97A",
"LH@	c #29E95E",
"MH@	c #37970F",
"NH@	c #65921D",
"OH@	c #484F17",
"PH@	c #2F0B02",
"QH@	c #440108",
"RH@	c #540606",
"SH@	c #7E0D15",
"TH@	c #DE8F9B",
"UH@	c #FEDCE6",
"VH@	c #C86D74",
"WH@	c #71080C",
"XH@	c #381306",
"YH@	c #373D01",
"ZH@	c #5CA021",
"`H@	c #59BD1E",
" I@	c #3C9A07",
".I@	c #4CA315",
"+I@	c #85B95C",
"@I@	c #E8FEC8",
"#I@	c #ACD88C",
"$I@	c #1E7009",
"%I@	c #0E4701",
"&I@	c #105606",
"*I@	c #83C663",
"=I@	c #E9FBBB",
"-I@	c #9FC27F",
";I@	c #0F610C",
">I@	c #023802",
",I@	c #001A01",
"'I@	c #061308",
")I@	c #060F07",
"!I@	c #182717",
"~I@	c #263324",
"{I@	c #070E06",
"]I@	c #090708",
"^I@	c #100D11",
"/I@	c #230A05",
"(I@	c #1F0906",
"_I@	c #161002",
":I@	c #133200",
"<I@	c #1F5202",
"[I@	c #3C7829",
"}I@	c #88B77D",
"|I@	c #C7E5BA",
"1I@	c #E8FAD3",
"2I@	c #CCECB4",
"3I@	c #92C57C",
"4I@	c #376912",
"5I@	c #314905",
"6I@	c #261002",
"7I@	c #160401",
"8I@	c #053003",
"9I@	c #035406",
"0I@	c #1A750B",
"aI@	c #93C278",
"bI@	c #E8F9E2",
"cI@	c #EEFCE2",
"dI@	c #B8E989",
"eI@	c #72D13B",
"fI@	c #6EE92D",
"gI@	c #75EF3C",
"hI@	c #5AC42D",
"iI@	c #368614",
"jI@	c #165102",
"kI@	c #0B2D03",
"lI@	c #0F2F00",
"mI@	c #0F2C05",
"nI@	c #0C2A08",
"oI@	c #0A2B0B",
"pI@	c #042E0C",
"qI@	c #08300C",
"rI@	c #0C2F0D",
"sI@	c #092B09",
"tI@	c #022C01",
"uI@	c #023702",
"vI@	c #11560B",
"wI@	c #235E1C",
"xI@	c #236C11",
"yI@	c #CEEF98",
"zI@	c #9ADA71",
"AI@	c #107204",
"BI@	c #076409",
"CI@	c #012300",
"DI@	c #071C05",
"EI@	c #053801",
"FI@	c #5F913F",
"GI@	c #E0F9C0",
"HI@	c #B1CD8A",
"II@	c #5CA917",
"JI@	c #2B5618",
"KI@	c #043010",
"LI@	c #279667",
"MI@	c #116A44",
"NI@	c #04391A",
"OI@	c #0A4C33",
"PI@	c #053523",
"QI@	c #03180D",
"RI@	c #002916",
"SI@	c #011A0B",
"TI@	c #1D4C07",
"UI@	c #BCE885",
"VI@	c #8ACC69",
"WI@	c #277812",
"XI@	c #083102",
"YI@	c #51A71D",
"ZI@	c #D7F293",
"`I@	c #CBEDA3",
" J@	c #21600D",
".J@	c #0D1106",
"+J@	c #090204",
"@J@	c #2C1315",
"#J@	c #23090C",
"$J@	c #25090B",
"%J@	c #320F15",
"&J@	c #370E14",
"*J@	c #421315",
"=J@	c #5B1D23",
"-J@	c #A71E23",
";J@	c #EFAC97",
">J@	c #8E231A",
",J@	c #70151D",
"'J@	c #6F2727",
")J@	c #50171F",
"!J@	c #481013",
"~J@	c #240405",
"{J@	c #360E16",
"]J@	c #280E12",
"^J@	c #2C181B",
"/J@	c #241817",
"(J@	c #1B080C",
"_J@	c #2A0B0C",
":J@	c #370609",
"<J@	c #642527",
"[J@	c #671216",
"}J@	c #871C24",
"|J@	c #AC3F30",
"1J@	c #921622",
"2J@	c #58121B",
"3J@	c #3C1315",
"4J@	c #21080B",
"5J@	c #0E0003",
"6J@	c #060109",
"7J@	c #2E1808",
"8J@	c #7A2C1B",
"9J@	c #8C4244",
"0J@	c #781A23",
"aJ@	c #4D311B",
"bJ@	c #333E20",
"cJ@	c #14330C",
"dJ@	c #06460B",
"eJ@	c #3BE578",
"fJ@	c #29DD5E",
"gJ@	c #058516",
"hJ@	c #26E060",
"iJ@	c #30F676",
"jJ@	c #1DB62E",
"kJ@	c #589B0E",
"lJ@	c #547C17",
"mJ@	c #342A04",
"nJ@	c #3B0306",
"oJ@	c #490306",
"pJ@	c #680308",
"qJ@	c #A4323C",
"rJ@	c #FACCD6",
"sJ@	c #F3BEC6",
"tJ@	c #9A252D",
"uJ@	c #500A06",
"vJ@	c #471C04",
"wJ@	c #435C0F",
"xJ@	c #62B91F",
"yJ@	c #44A512",
"zJ@	c #56AB1A",
"AJ@	c #48970A",
"BJ@	c #B1DF92",
"CJ@	c #E0F9BA",
"DJ@	c #64A43F",
"EJ@	c #0A4407",
"FJ@	c #216713",
"GJ@	c #A5DA7C",
"HJ@	c #EAF9C5",
"IJ@	c #72AF5E",
"JJ@	c #0D5D06",
"KJ@	c #031806",
"LJ@	c #051506",
"MJ@	c #041107",
"NJ@	c #192617",
"OJ@	c #233023",
"PJ@	c #0C130C",
"QJ@	c #070908",
"RJ@	c #0F0D12",
"SJ@	c #1E0208",
"TJ@	c #24030B",
"UJ@	c #1A0404",
"VJ@	c #120C06",
"WJ@	c #102F01",
"XJ@	c #184904",
"YJ@	c #2A6413",
"ZJ@	c #5F9846",
"`J@	c #A0CD83",
" K@	c #D0EDB8",
".K@	c #DEF8C0",
"+K@	c #C3E595",
"@K@	c #8EC260",
"#K@	c #437023",
"$K@	c #182403",
"%K@	c #180B08",
"&K@	c #0C0502",
"*K@	c #020800",
"=K@	c #021A00",
"-K@	c #015A01",
";K@	c #247D17",
">K@	c #A5D193",
",K@	c #F0FCE0",
"'K@	c #E9FACC",
")K@	c #92DB68",
"!K@	c #67DD24",
"~K@	c #74F033",
"{K@	c #55CA27",
"]K@	c #297E0D",
"^K@	c #0C4701",
"/K@	c #112B03",
"(K@	c #0E260A",
"_K@	c #081F0C",
":K@	c #041A09",
"<K@	c #071605",
"[K@	c #150A03",
"}K@	c #091203",
"|K@	c #051404",
"1K@	c #071B05",
"2K@	c #0A1D08",
"3K@	c #0F170F",
"4K@	c #0B3805",
"5K@	c #468D32",
"6K@	c #E2FCAA",
"7K@	c #81C75C",
"8K@	c #10710B",
"9K@	c #025E06",
"0K@	c #011E01",
"aK@	c #051203",
"bK@	c #082A03",
"cK@	c #064508",
"dK@	c #93B868",
"eK@	c #E3FBB9",
"fK@	c #B0DB7F",
"gK@	c #578A2A",
"hK@	c #043614",
"iK@	c #2D9E71",
"jK@	c #136B47",
"kK@	c #023E20",
"lK@	c #08583E",
"mK@	c #08402C",
"nK@	c #032B19",
"oK@	c #053E26",
"pK@	c #042312",
"qK@	c #011E0C",
"rK@	c #134400",
"sK@	c #A9D882",
"tK@	c #BDEAA2",
"uK@	c #3E921D",
"vK@	c #0D3B05",
"wK@	c #4C921A",
"xK@	c #CEF081",
"yK@	c #B9E090",
"zK@	c #155205",
"AK@	c #061C01",
"BK@	c #0E0F09",
"CK@	c #2E1516",
"DK@	c #250C0F",
"EK@	c #2D0C0D",
"FK@	c #301415",
"GK@	c #451618",
"HK@	c #5C1E24",
"IK@	c #7A1B23",
"JK@	c #A71D23",
"KK@	c #EEAB96",
"LK@	c #90241B",
"MK@	c #722A2A",
"NK@	c #511820",
"OK@	c #2F1419",
"PK@	c #1E070A",
"QK@	c #20080B",
"RK@	c #130409",
"SK@	c #1A070B",
"TK@	c #2E1418",
"UK@	c #2C0C0D",
"VK@	c #341419",
"WK@	c #470C13",
"XK@	c #622324",
"YK@	c #AE402E",
"ZK@	c #7B1D28",
"`K@	c #57111A",
" L@	c #300D0E",
".L@	c #21070B",
"+L@	c #36170E",
"@L@	c #7B2716",
"#L@	c #D89294",
"$L@	c #AE555C",
"%L@	c #5D2618",
"&L@	c #4E432A",
"*L@	c #1D3914",
"=L@	c #092E07",
"-L@	c #2FB15E",
";L@	c #32F474",
">L@	c #13A931",
",L@	c #14A834",
"'L@	c #40F483",
")L@	c #25DE54",
"!L@	c #3A930E",
"~L@	c #60A218",
"{L@	c #485A0D",
"]L@	c #350F04",
"^L@	c #3D0409",
"/L@	c #D67D87",
"(L@	c #FFDEE8",
"_L@	c #D57C88",
":L@	c #500E08",
"<L@	c #3F2806",
"[L@	c #4F8312",
"}L@	c #68C232",
"|L@	c #469D0A",
"1L@	c #58B216",
"2L@	c #5CA22F",
"3L@	c #D6F4AB",
"4L@	c #B3E385",
"5L@	c #246B06",
"6L@	c #0E4903",
"7L@	c #053A05",
"8L@	c #2E7B20",
"9L@	c #BAE59B",
"0L@	c #D5F5AD",
"aL@	c #589946",
"bL@	c #033205",
"cL@	c #081A0B",
"dL@	c #041607",
"eL@	c #041109",
"fL@	c #061006",
"gL@	c #182519",
"hL@	c #2A372B",
"iL@	c #131B13",
"jL@	c #0D0D0E",
"kL@	c #120005",
"lL@	c #120208",
"mL@	c #0E0A01",
"nL@	c #121509",
"oL@	c #11260A",
"pL@	c #15360A",
"qL@	c #17450C",
"rL@	c #17560A",
"sL@	c #4C813C",
"tL@	c #88B06E",
"uL@	c #96CF77",
"vL@	c #659A4D",
"wL@	c #0F2B03",
"xL@	c #062B01",
"yL@	c #024E0F",
"zL@	c #228117",
"AL@	c #9FD481",
"BL@	c #DBF7C5",
"CL@	c #7ECE54",
"DL@	c #65EB27",
"EL@	c #67DE29",
"FL@	c #378713",
"GL@	c #0B3200",
"HL@	c #112C03",
"IL@	c #162F07",
"JL@	c #122204",
"KL@	c #0F1104",
"LL@	c #164E26",
"ML@	c #306339",
"NL@	c #2C5834",
"OL@	c #1E4527",
"PL@	c #14321B",
"QL@	c #0D1F0C",
"RL@	c #0C1302",
"SL@	c #061105",
"TL@	c #011B01",
"UL@	c #0C5006",
"VL@	c #81B969",
"WL@	c #DFFDAD",
"XL@	c #57A938",
"YL@	c #11760B",
"ZL@	c #045006",
"`L@	c #051405",
" M@	c #071C04",
".M@	c #082B03",
"+M@	c #16450D",
"@M@	c #90B173",
"#M@	c #CDE3A9",
"$M@	c #577B37",
"%M@	c #053D1C",
"&M@	c #31A278",
"*M@	c #0E6143",
"=M@	c #064127",
"-M@	c #065C43",
";M@	c #043D29",
">M@	c #003921",
",M@	c #0B5235",
"'M@	c #052F1B",
")M@	c #02341B",
"!M@	c #013016",
"~M@	c #103F00",
"{M@	c #95C676",
"]M@	c #D9F7BA",
"^M@	c #4FA732",
"/M@	c #144F03",
"(M@	c #437F14",
"_M@	c #C1EE74",
":M@	c #A2D078",
"<M@	c #0D4603",
"[M@	c #0B2104",
"}M@	c #091603",
"|M@	c #1D0C0E",
"1M@	c #240A0D",
"2M@	c #270B0D",
"3M@	c #310D14",
"4M@	c #451518",
"5M@	c #7C1C25",
"6M@	c #8F231B",
"7M@	c #702828",
"8M@	c #521921",
"9M@	c #450E11",
"0M@	c #420F13",
"aM@	c #230303",
"bM@	c #2F151A",
"cM@	c #1E070B",
"dM@	c #130509",
"eM@	c #39080A",
"fM@	c #480D13",
"gM@	c #831921",
"hM@	c #AF4132",
"iM@	c #7A1D27",
"jM@	c #551019",
"kM@	c #22090C",
"lM@	c #202F16",
"mM@	c #25411C",
"nM@	c #062203",
"oM@	c #2C190B",
"pM@	c #6F2A19",
"qM@	c #CA8B8D",
"rM@	c #D89797",
"sM@	c #651310",
"tM@	c #644633",
"uM@	c #2D3D1E",
"vM@	c #112B0F",
"wM@	c #14642C",
"xM@	c #3CEF76",
"yM@	c #23DA4E",
"zM@	c #037516",
"AM@	c #2CE46A",
"BM@	c #32F479",
"CM@	c #17AD25",
"DM@	c #5EAA19",
"EM@	c #5A8316",
"FM@	c #3E2E0D",
"GM@	c #34060A",
"HM@	c #450307",
"IM@	c #64000A",
"JM@	c #A52D30",
"KM@	c #F4BECD",
"LM@	c #FBC6D8",
"MM@	c #AA3741",
"NM@	c #5A0A08",
"OM@	c #491603",
"PM@	c #3A4C0B",
"QM@	c #62B426",
"RM@	c #51AD16",
"SM@	c #55B119",
"TM@	c #52A902",
"UM@	c #97CB6B",
"VM@	c #DDFBAF",
"WM@	c #64A742",
"XM@	c #044D02",
"YM@	c #0E3F01",
"ZM@	c #063106",
"`M@	c #508E3D",
" N@	c #D1EFAB",
".N@	c #D2F0B9",
"+N@	c #4C8D3C",
"@N@	c #085103",
"#N@	c #012503",
"$N@	c #011D06",
"%N@	c #080E0C",
"&N@	c #132314",
"*N@	c #233124",
"=N@	c #162018",
"-N@	c #0D0D0D",
";N@	c #100204",
">N@	c #100401",
",N@	c #080803",
"'N@	c #061302",
")N@	c #032B02",
"!N@	c #052001",
"~N@	c #000B02",
"{N@	c #012505",
"]N@	c #024608",
"^N@	c #1D7307",
"/N@	c #9CC985",
"(N@	c #EBFDCE",
"_N@	c #D8F6AB",
":N@	c #77D53B",
"<N@	c #6CEA21",
"[N@	c #5CC126",
"}N@	c #1F6505",
"|N@	c #063B02",
"1N@	c #072A01",
"2N@	c #0D2A06",
"3N@	c #102409",
"4N@	c #0A1603",
"5N@	c #091602",
"6N@	c #092406",
"7N@	c #0F3D16",
"8N@	c #24592D",
"9N@	c #265B2D",
"0N@	c #0E2E18",
"aN@	c #0D4018",
"bN@	c #478D50",
"cN@	c #6B814F",
"dN@	c #727450",
"eN@	c #6D7555",
"fN@	c #65765A",
"gN@	c #547052",
"hN@	c #3E5D3E",
"iN@	c #224024",
"jN@	c #051D07",
"kN@	c #156602",
"lN@	c #BADE99",
"mN@	c #CFF5A6",
"nN@	c #298711",
"oN@	c #18850C",
"pN@	c #061C06",
"qN@	c #061505",
"rN@	c #071A02",
"sN@	c #05250B",
"tN@	c #0A3B04",
"uN@	c #1E4511",
"vN@	c #0C240C",
"wN@	c #083F24",
"xN@	c #34A57E",
"yN@	c #0A573C",
"zN@	c #0C422B",
"AN@	c #0B5F47",
"BN@	c #043926",
"CN@	c #014228",
"DN@	c #095A39",
"EN@	c #02321B",
"FN@	c #014526",
"GN@	c #013A1F",
"HN@	c #05120B",
"IN@	c #001909",
"JN@	c #0F3B01",
"KN@	c #83B562",
"LN@	c #E5FDC1",
"MN@	c #65BD4E",
"NN@	c #1E6605",
"ON@	c #38700C",
"PN@	c #B3EA6C",
"QN@	c #85B75B",
"RN@	c #0A1902",
"SN@	c #091206",
"TN@	c #280B0E",
"UN@	c #2D0D0E",
"VN@	c #441518",
"WN@	c #7B1B24",
"XN@	c #A81F24",
"YN@	c #EFAB96",
"ZN@	c #F1C7B8",
"`N@	c #8E231B",
" O@	c #702929",
".O@	c #501720",
"+O@	c #1B070A",
"@O@	c #1D0609",
"#O@	c #290A0D",
"$O@	c #351518",
"%O@	c #3A0509",
"&O@	c #430D12",
"*O@	c #67282A",
"=O@	c #601314",
"-O@	c #AC4332",
";O@	c #FBD4BA",
">O@	c #DA9182",
",O@	c #8E1521",
"'O@	c #751C25",
")O@	c #320C10",
"!O@	c #526544",
"~O@	c #7AAD68",
"{O@	c #134302",
"]O@	c #090F03",
"^O@	c #221703",
"/O@	c #652D10",
"(O@	c #A05D5D",
"_O@	c #F2C1C2",
":O@	c #8D1E2E",
"<O@	c #623827",
"[O@	c #494C30",
"}O@	c #072E08",
"|O@	c #35C664",
"1O@	c #2AF766",
"2O@	c #078820",
"3O@	c #1CB64F",
"4O@	c #3FFD90",
"5O@	c #23DA4F",
"6O@	c #359A10",
"7O@	c #61B52C",
"8O@	c #476013",
"9O@	c #360D08",
"0O@	c #3D0209",
"aO@	c #7B0309",
"bO@	c #D1687A",
"cO@	c #FEDEE7",
"dO@	c #EC99AA",
"eO@	c #8C0E19",
"fO@	c #54070B",
"gO@	c #3D1C04",
"hO@	c #4E810F",
"iO@	c #7DD13B",
"jO@	c #7FC640",
"kO@	c #91D348",
"lO@	c #9DD554",
"mO@	c #CEFC8D",
"nO@	c #92CB60",
"oO@	c #155706",
"pO@	c #063A02",
"qO@	c #0F3A0F",
"rO@	c #043502",
"sO@	c #689A5A",
"tO@	c #D7F9BE",
"uO@	c #D0EAB2",
"vO@	c #418931",
"wO@	c #065303",
"xO@	c #053202",
"yO@	c #06160E",
"zO@	c #071207",
"AO@	c #0D1A0F",
"BO@	c #1E3022",
"CO@	c #232F26",
"DO@	c #0A0C0A",
"EO@	c #0C0C0D",
"FO@	c #050402",
"GO@	c #040501",
"HO@	c #000C05",
"IO@	c #001205",
"JO@	c #013906",
"KO@	c #106408",
"LO@	c #78B559",
"MO@	c #EBFCD7",
"NO@	c #E3FAC5",
"OO@	c #7BD344",
"PO@	c #70E92F",
"QO@	c #4DAD21",
"RO@	c #145000",
"SO@	c #103408",
"TO@	c #0E2503",
"UO@	c #0E230A",
"VO@	c #163C1C",
"WO@	c #256532",
"XO@	c #38813E",
"YO@	c #63884E",
"ZO@	c #4E602F",
"`O@	c #353827",
" P@	c #375833",
".P@	c #756A4D",
"+P@	c #D89EAB",
"@P@	c #DCA8B2",
"#P@	c #C68E95",
"$P@	c #A76362",
"%P@	c #834D3D",
"&P@	c #73563C",
"*P@	c #5F6540",
"=P@	c #3B522F",
"-P@	c #0B1F06",
";P@	c #0E3204",
">P@	c #428621",
",P@	c #E8FAC0",
"'P@	c #A2E17C",
")P@	c #117805",
"!P@	c #1E7E18",
"~P@	c #052C01",
"{P@	c #032204",
"]P@	c #03220C",
"^P@	c #0A1F0C",
"/P@	c #061106",
"(P@	c #041603",
"_P@	c #021801",
":P@	c #011701",
"<P@	c #000F02",
"[P@	c #08492D",
"}P@	c #30A679",
"|P@	c #06472D",
"1P@	c #08482F",
"2P@	c #0B6545",
"3P@	c #01341C",
"4P@	c #03462E",
"5P@	c #0A5C3B",
"6P@	c #012E15",
"7P@	c #024D30",
"8P@	c #013B21",
"9P@	c #03160B",
"0P@	c #011808",
"aP@	c #0C3800",
"bP@	c #64A547",
"cP@	c #E8FDC8",
"dP@	c #8BCE6C",
"eP@	c #2A760E",
"fP@	c #316008",
"gP@	c #9BE563",
"hP@	c #66A347",
"iP@	c #0B0E0B",
"jP@	c #0B070B",
"kP@	c #2A1114",
"lP@	c #25090E",
"mP@	c #2E1515",
"nP@	c #1D0A0B",
"oP@	c #320D13",
"pP@	c #5B1C21",
"qP@	c #791922",
"rP@	c #A61D26",
"sP@	c #EEAA9B",
"tP@	c #F3C9B9",
"uP@	c #8B201C",
"vP@	c #70181D",
"wP@	c #6E262E",
"xP@	c #50181F",
"yP@	c #4B1215",
"zP@	c #400C11",
"AP@	c #370E16",
"BP@	c #271315",
"CP@	c #1E0609",
"DP@	c #14060B",
"EP@	c #28090C",
"FP@	c #3C070B",
"GP@	c #430E12",
"HP@	c #672729",
"IP@	c #AC432C",
"JP@	c #DA9183",
"KP@	c #3A0F13",
"LP@	c #1C0205",
"MP@	c #263813",
"NP@	c #A7D689",
"OP@	c #105405",
"PP@	c #0E1C05",
"QP@	c #1B1001",
"RP@	c #592D10",
"SP@	c #711F20",
"TP@	c #F1B7BC",
"UP@	c #B45963",
"VP@	c #601911",
"WP@	c #5F523D",
"XP@	c #2E512E",
"YP@	c #082E0D",
"ZP@	c #1A752E",
"`P@	c #37ED6A",
" Q@	c #1EBA3C",
".Q@	c #0B7D2B",
"+Q@	c #49F185",
"@Q@	c #42F47C",
"#Q@	c #129D22",
"$Q@	c #52BD2E",
"%Q@	c #5A9D24",
"&Q@	c #313B01",
"*Q@	c #300507",
"=Q@	c #610203",
"-Q@	c #9A1827",
";Q@	c #EFA5B2",
">Q@	c #CC6776",
",Q@	c #770410",
"'Q@	c #451104",
")Q@	c #3B3F03",
"!Q@	c #74A83C",
"~Q@	c #90C85F",
"{Q@	c #83BB51",
"]Q@	c #7BB049",
"^Q@	c #2C620D",
"/Q@	c #144A04",
"(Q@	c #093402",
"_Q@	c #0D300A",
":Q@	c #0C3209",
"<Q@	c #033A01",
"[Q@	c #71B160",
"}Q@	c #D7FCC2",
"|Q@	c #C4E6AC",
"1Q@	c #408A2E",
"2Q@	c #032F09",
"3Q@	c #011905",
"4Q@	c #04110D",
"5Q@	c #030A06",
"6Q@	c #0A160C",
"7Q@	c #1D2820",
"8Q@	c #28332B",
"9Q@	c #09110B",
"0Q@	c #0A0A0B",
"aQ@	c #041604",
"bQ@	c #032D01",
"cQ@	c #035105",
"dQ@	c #48902B",
"eQ@	c #D5F2BF",
"fQ@	c #EAFDE2",
"gQ@	c #98DD5E",
"hQ@	c #69D62F",
"iQ@	c #4FAE24",
"jQ@	c #0B5101",
"kQ@	c #0C3305",
"lQ@	c #111D04",
"mQ@	c #0E1206",
"nQ@	c #153016",
"oQ@	c #1B5626",
"pQ@	c #337D3E",
"qQ@	c #538541",
"rQ@	c #85773E",
"sQ@	c #CAAE89",
"tQ@	c #CF8D85",
"uQ@	c #6A292B",
"vQ@	c #1B0D05",
"wQ@	c #2B361D",
"xQ@	c #663B29",
"yQ@	c #D3818B",
"zQ@	c #EFBCCA",
"AQ@	c #FBDBE1",
"BQ@	c #FEEBEA",
"CQ@	c #F8DADD",
"DQ@	c #E3B8C1",
"EQ@	c #B27972",
"FQ@	c #594A25",
"GQ@	c #0D320D",
"HQ@	c #0B5C01",
"IQ@	c #9ACB7C",
"JQ@	c #E3FDB4",
"KQ@	c #64B347",
"LQ@	c #15860A",
"MQ@	c #106A09",
"NQ@	c #022B06",
"OQ@	c #082708",
"PQ@	c #072404",
"QQ@	c #05280F",
"RQ@	c #051606",
"SQ@	c #070907",
"TQ@	c #010807",
"UQ@	c #000F07",
"VQ@	c #0E573A",
"WQ@	c #32A276",
"XQ@	c #043A23",
"YQ@	c #064C32",
"ZQ@	c #0D6244",
"`Q@	c #013017",
" R@	c #054C34",
".R@	c #0B5A3A",
"+R@	c #023117",
"@R@	c #075437",
"#R@	c #023820",
"$R@	c #05170B",
"%R@	c #0B3800",
"&R@	c #4C9330",
"*R@	c #E8FDCA",
"=R@	c #A1DA7E",
"-R@	c #307C0F",
";R@	c #295602",
">R@	c #95DE5D",
",R@	c #4E8A2F",
"'R@	c #022501",
")R@	c #070F06",
"!R@	c #0D0C08",
"~R@	c #0A0405",
"{R@	c #260A0F",
"]R@	c #280A0D",
"^R@	c #320E13",
"/R@	c #2B0204",
"(R@	c #5B1B20",
"_R@	c #A41B24",
":R@	c #EEAA9C",
"<R@	c #F3C9B8",
"[R@	c #8C211D",
"}R@	c #6D262E",
"|R@	c #4E171D",
"1R@	c #4A1014",
"2R@	c #360E15",
"3R@	c #250A0E",
"4R@	c #261315",
"5R@	c #19090A",
"6R@	c #1A0508",
"7R@	c #231716",
"8R@	c #351E1B",
"9R@	c #1A080B",
"0R@	c #29191B",
"aR@	c #3B060A",
"bR@	c #4F191C",
"cR@	c #652528",
"dR@	c #831C25",
"eR@	c #DA9082",
"fR@	c #8E1621",
"gR@	c #751E27",
"hR@	c #320D11",
"iR@	c #1C0306",
"jR@	c #152802",
"kR@	c #B3DC8E",
"lR@	c #2E7B26",
"mR@	c #16340B",
"nR@	c #160B01",
"oR@	c #40270C",
"pR@	c #5E1910",
"qR@	c #C88489",
"rR@	c #DD9A9D",
"sR@	c #70020C",
"tR@	c #572D25",
"uR@	c #486144",
"vR@	c #315338",
"wR@	c #163A0F",
"xR@	c #29C758",
"yR@	c #25E24F",
"zR@	c #02720F",
"AR@	c #38CC5C",
"BR@	c #54FC90",
"CR@	c #24CD50",
"DR@	c #259B10",
"ER@	c #67C82E",
"FR@	c #457806",
"GR@	c #2F1E04",
"HR@	c #36020B",
"IR@	c #B83E50",
"JR@	c #FBCBD8",
"KR@	c #F7CAD5",
"LR@	c #A43C46",
"MR@	c #66050B",
"NR@	c #421309",
"OR@	c #363A01",
"PR@	c #274702",
"QR@	c #234401",
"RR@	c #204101",
"SR@	c #193901",
"TR@	c #123100",
"UR@	c #0C2D00",
"VR@	c #112D06",
"WR@	c #092303",
"XR@	c #13300B",
"YR@	c #0D2D05",
"ZR@	c #064405",
"`R@	c #72B765",
" S@	c #E0F9C1",
".S@	c #CAE8B0",
"+S@	c #3E9034",
"@S@	c #013600",
"#S@	c #042608",
"$S@	c #061C09",
"%S@	c #050D05",
"&S@	c #07140C",
"*S@	c #101E15",
"=S@	c #171F19",
"-S@	c #040806",
";S@	c #020504",
">S@	c #041002",
",S@	c #044101",
"'S@	c #1C700C",
")S@	c #A9D895",
"!S@	c #F4FBE1",
"~S@	c #B8EA88",
"{S@	c #5BCE23",
"]S@	c #4FB626",
"^S@	c #0E5001",
"/S@	c #093104",
"(S@	c #0F200B",
"_S@	c #0E1704",
":S@	c #050D00",
"<S@	c #0D1504",
"[S@	c #133513",
"}S@	c #1B6025",
"|S@	c #4D7E3C",
"1S@	c #6E6D2F",
"2S@	c #A16E50",
"3S@	c #E8C8B3",
"4S@	c #FCEDD8",
"5S@	c #F3A9AD",
"6S@	c #832027",
"7S@	c #300504",
"8S@	c #1F0F07",
"9S@	c #571D12",
"0S@	c #7D0709",
"aS@	c #940E1A",
"bS@	c #AA2A38",
"cS@	c #C55B6A",
"dS@	c #D38698",
"eS@	c #E2A7B4",
"fS@	c #F0B2A9",
"gS@	c #94603D",
"hS@	c #1E3208",
"iS@	c #3B841F",
"jS@	c #D8F1B7",
"kS@	c #BBEF94",
"lS@	c #2D8C14",
"mS@	c #1A8F0F",
"nS@	c #034F01",
"oS@	c #082C09",
"pS@	c #023505",
"qS@	c #32632C",
"rS@	c #9CC595",
"sS@	c #89BD8E",
"tS@	c #35723D",
"uS@	c #113A13",
"vS@	c #1A6C4C",
"wS@	c #2D946D",
"xS@	c #063321",
"yS@	c #055137",
"zS@	c #115D44",
"AS@	c #002F17",
"BS@	c #055237",
"CS@	c #0F5539",
"DS@	c #02371B",
"ES@	c #0D583C",
"FS@	c #03341E",
"GS@	c #061709",
"HS@	c #0C3700",
"IS@	c #3D8722",
"JS@	c #E7FBC7",
"KS@	c #B4E28E",
"LS@	c #317B0D",
"MS@	c #1F4D00",
"NS@	c #8ACD5B",
"OS@	c #35691A",
"PS@	c #080A0C",
"QS@	c #431116",
"RS@	c #7A1B24",
"SS@	c #A31A23",
"TS@	c #F2C7B6",
"US@	c #8F2220",
"VS@	c #6E2730",
"WS@	c #4F181E",
"XS@	c #480E12",
"YS@	c #3E090E",
"ZS@	c #260305",
"`S@	c #260C10",
" T@	c #351D1B",
".T@	c #2D1317",
"+T@	c #2A0B0D",
"@T@	c #3A060A",
"#T@	c #632426",
"$T@	c #611314",
"%T@	c #831823",
"&T@	c #B04131",
"*T@	c #FCD3BA",
"=T@	c #8D1621",
"-T@	c #0A2401",
";T@	c #95BD7A",
">T@	c #7EBB67",
",T@	c #194A0C",
"'T@	c #0C1100",
")T@	c #2D2109",
"!T@	c #4D1F12",
"~T@	c #7B292F",
"{T@	c #DC9297",
"]T@	c #700817",
"^T@	c #3F0209",
"/T@	c #0E0B00",
"(T@	c #051005",
"_T@	c #031B03",
":T@	c #1E803B",
"<T@	c #36C058",
"[T@	c #0B6D19",
"}T@	c #108527",
"|T@	c #5AF58A",
"1T@	c #3AEE72",
"2T@	c #0B9D1D",
"3T@	c #52BA25",
"4T@	c #62B123",
"5T@	c #405206",
"6T@	c #3D0106",
"7T@	c #81040D",
"8T@	c #D76D7F",
"9T@	c #FBE4EC",
"0T@	c #E4A4B2",
"aT@	c #841624",
"bT@	c #560405",
"cT@	c #3C1101",
"dT@	c #301B02",
"eT@	c #2A1D02",
"fT@	c #211E04",
"gT@	c #1A1E07",
"hT@	c #0E2204",
"iT@	c #0C2704",
"jT@	c #093603",
"kT@	c #0C330A",
"lT@	c #10470B",
"mT@	c #78B163",
"nT@	c #D9FBC2",
"oT@	c #C6EDAF",
"pT@	c #50943B",
"qT@	c #0E5F08",
"rT@	c #013408",
"sT@	c #062006",
"tT@	c #071006",
"uT@	c #030B05",
"vT@	c #08130A",
"wT@	c #1D2920",
"xT@	c #1C2A1F",
"yT@	c #07100A",
"zT@	c #075601",
"AT@	c #63A14E",
"BT@	c #E0FAC9",
"CT@	c #D9F8B4",
"DT@	c #6BC925",
"ET@	c #5BC933",
"FT@	c #145D07",
"GT@	c #083703",
"HT@	c #0E240A",
"IT@	c #0C1207",
"JT@	c #0A2808",
"KT@	c #265727",
"LT@	c #507B41",
"MT@	c #696231",
"NT@	c #BF9F80",
"OT@	c #FAE1CB",
"PT@	c #F6DED7",
"QT@	c #DC8F9A",
"RT@	c #AC2D3B",
"ST@	c #730308",
"TT@	c #330A02",
"UT@	c #5C0808",
"VT@	c #660802",
"WT@	c #730503",
"XT@	c #850306",
"YT@	c #8E030B",
"ZT@	c #8E080F",
"`T@	c #8C2016",
" U@	c #673D0F",
".U@	c #164F02",
"+U@	c #92C96E",
"@U@	c #E8FEC3",
"#U@	c #77CB5E",
"$U@	c #1C870D",
"%U@	c #198513",
"&U@	c #043D02",
"*U@	c #043501",
"=U@	c #034B02",
"-U@	c #96BF8F",
";U@	c #FAF6F0",
">U@	c #F4F8F2",
",U@	c #A0DCA3",
"'U@	c #307130",
")U@	c #011C03",
"!U@	c #22835E",
"~U@	c #21815E",
"{U@	c #0B3225",
"]U@	c #05563C",
"^U@	c #125742",
"/U@	c #013018",
"(U@	c #07583C",
"_U@	c #104D34",
":U@	c #013F20",
"<U@	c #0E5A3E",
"[U@	c #022C18",
"}U@	c #061605",
"|U@	c #001C03",
"1U@	c #0A3600",
"2U@	c #358119",
"3U@	c #E6FAC3",
"4U@	c #C4E79C",
"5U@	c #30780D",
"6U@	c #164400",
"7U@	c #598C3B",
"8U@	c #27090C",
"9U@	c #2D1010",
"0U@	c #2C1515",
"aU@	c #370D14",
"bU@	c #421015",
"cU@	c #5A1B1F",
"dU@	c #771921",
"eU@	c #F2C6B6",
"fU@	c #8E2120",
"gU@	c #6D262F",
"hU@	c #4D151C",
"iU@	c #490F13",
"jU@	c #3F0B10",
"kU@	c #250305",
"lU@	c #350D15",
"mU@	c #2E1419",
"nU@	c #1C0507",
"oU@	c #1C080C",
"pU@	c #19060A",
"qU@	c #420D11",
"rU@	c #652627",
"sU@	c #641616",
"tU@	c #B1402C",
"uU@	c #FCD4BA",
"vU@	c #D88F7C",
"wU@	c #8B141F",
"xU@	c #320C11",
"yU@	c #031E01",
"zU@	c #538745",
"AU@	c #BBE590",
"BU@	c #1D590E",
"CU@	c #0B2403",
"DU@	c #1E1A06",
"EU@	c #3F2914",
"FU@	c #4D0309",
"GU@	c #1F0207",
"HU@	c #0F0409",
"IU@	c #020C05",
"JU@	c #0D0B00",
"KU@	c #024104",
"LU@	c #36BF5E",
"MU@	c #52FD8D",
"NU@	c #21C748",
"OU@	c #189106",
"PU@	c #68CC36",
"QU@	c #598F21",
"RU@	c #2D2900",
"SU@	c #5B0301",
"TU@	c #8C1521",
"UU@	c #E49EB1",
"VU@	c #FFDDEF",
"WU@	c #CC828D",
"XU@	c #760C0B",
"YU@	c #4B0504",
"ZU@	c #3A0902",
"`U@	c #300D02",
" V@	c #151102",
".V@	c #151603",
"+V@	c #131D08",
"@V@	c #113408",
"#V@	c #0C3E02",
"$V@	c #135008",
"%V@	c #165409",
"&V@	c #17410B",
"*V@	c #055004",
"=V@	c #71AC60",
"-V@	c #CDF0B4",
";V@	c #58A242",
">V@	c #0E6502",
",V@	c #003804",
"'V@	c #032C06",
")V@	c #032200",
"!V@	c #0A1B0E",
"~V@	c #1A2720",
"{V@	c #0F1813",
"]V@	c #034705",
"^V@	c #1F7310",
"/V@	c #B2DB90",
"(V@	c #F2FCD1",
"_V@	c #95DA69",
":V@	c #55CA22",
"<V@	c #2F8218",
"[V@	c #093B03",
"}V@	c #052E01",
"|V@	c #051600",
"1V@	c #070E04",
"2V@	c #091406",
"3V@	c #151B0A",
"4V@	c #0F3113",
"5V@	c #2C411E",
"6V@	c #834B3C",
"7V@	c #D3B09D",
"8V@	c #FDEAE0",
"9V@	c #EEBCBB",
"0V@	c #BB4A4D",
"aV@	c #900309",
"bV@	c #76020A",
"cV@	c #5D0108",
"dV@	c #240303",
"eV@	c #110500",
"fV@	c #440007",
"gV@	c #4B0406",
"hV@	c #540B05",
"iV@	c #5D0E04",
"jV@	c #691805",
"kV@	c #612E01",
"lV@	c #383C04",
"mV@	c #4A8931",
"nV@	c #D2F7B5",
"oV@	c #C7F1AA",
"pV@	c #24980C",
"qV@	c #179213",
"rV@	c #066406",
"sV@	c #093509",
"tV@	c #034401",
"uV@	c #235F17",
"vV@	c #C6EDB2",
"wV@	c #E3F9D0",
"xV@	c #C4E9A8",
"yV@	c #75B25E",
"zV@	c #144506",
"AV@	c #071002",
"BV@	c #012F12",
"CV@	c #28966B",
"DV@	c #0E6746",
"EV@	c #0E3528",
"FV@	c #095D43",
"GV@	c #0D4D3B",
"HV@	c #04351D",
"IV@	c #085E3F",
"JV@	c #09412A",
"KV@	c #024626",
"LV@	c #0D5A3D",
"MV@	c #022511",
"NV@	c #0A3700",
"OV@	c #327E14",
"PV@	c #E5F9C0",
"QV@	c #C8E8A1",
"RV@	c #2A6F0C",
"SV@	c #113D03",
"TV@	c #240D10",
"UV@	c #270B0F",
"VV@	c #2C0E0E",
"WV@	c #2D1616",
"XV@	c #380D14",
"YV@	c #5C1C21",
"ZV@	c #8D211F",
"`V@	c #70181C",
" W@	c #480E11",
".W@	c #250304",
"+W@	c #350C14",
"@W@	c #250B0E",
"#W@	c #2E1318",
"$W@	c #281417",
"%W@	c #171216",
"&W@	c #341D1A",
"*W@	c #19070A",
"=W@	c #190608",
"-W@	c #1C0609",
";W@	c #1E0508",
">W@	c #341316",
",W@	c #3B0609",
"'W@	c #672627",
")W@	c #641514",
"!W@	c #831923",
"~W@	c #AC3C31",
"{W@	c #D27F3B",
"]W@	c #8B131E",
"^W@	c #55141B",
"/W@	c #3E1317",
"(W@	c #340F13",
"_W@	c #021401",
":W@	c #114808",
"<W@	c #B6E889",
"[W@	c #4F8633",
"}W@	c #153C0C",
"|W@	c #071401",
"1W@	c #293213",
"2W@	c #3A1406",
"3W@	c #4E000B",
"4W@	c #120407",
"5W@	c #080704",
"6W@	c #011303",
"7W@	c #081806",
"8W@	c #032005",
"9W@	c #022909",
"0W@	c #082F05",
"aW@	c #0A6117",
"bW@	c #57E881",
"cW@	c #4CEE78",
"dW@	c #12A621",
"eW@	c #3EA822",
"fW@	c #76C142",
"gW@	c #40540C",
"hW@	c #2A0C00",
"iW@	c #4A0105",
"jW@	c #620101",
"kW@	c #A2353B",
"lW@	c #F2BFCC",
"mW@	c #FDD7E3",
"nW@	c #BB6068",
"oW@	c #640406",
"pW@	c #450605",
"qW@	c #3B0A04",
"rW@	c #2F1203",
"sW@	c #1F1C05",
"tW@	c #192A0E",
"uW@	c #122D09",
"vW@	c #153B0B",
"wW@	c #164B07",
"xW@	c #1E610C",
"yW@	c #2F721C",
"zW@	c #2E701A",
"AW@	c #0F5D05",
"BW@	c #034808",
"CW@	c #054A05",
"DW@	c #629E4F",
"EW@	c #D0F2BA",
"FW@	c #DDF7C6",
"GW@	c #78B762",
"HW@	c #186E0A",
"IW@	c #012C00",
"JW@	c #051A04",
"KW@	c #061503",
"LW@	c #061506",
"MW@	c #041306",
"NW@	c #111D12",
"OW@	c #18221A",
"PW@	c #0C130F",
"QW@	c #001602",
"RW@	c #05280A",
"SW@	c #035A02",
"TW@	c #53A03C",
"UW@	c #E5F9C6",
"VW@	c #D6F4B1",
"WW@	c #57C71D",
"XW@	c #4EB82A",
"YW@	c #0A4C01",
"ZW@	c #02300B",
"`W@	c #1F5A38",
" X@	c #355B40",
".X@	c #1D1D0A",
"+X@	c #1D2911",
"@X@	c #37220E",
"#X@	c #882128",
"$X@	c #F5C6BE",
"%X@	c #E8A9A1",
"&X@	c #9A2D2E",
"*X@	c #860105",
"=X@	c #790007",
"-X@	c #240404",
";X@	c #280A03",
">X@	c #2E1300",
",X@	c #392302",
"'X@	c #323C02",
")X@	c #175803",
"!X@	c #A8D792",
"~X@	c #E1FCC9",
"{X@	c #7CC460",
"]X@	c #118E09",
"^X@	c #1A8412",
"/X@	c #014502",
"(X@	c #033C05",
"_X@	c #054702",
":X@	c #71AA5D",
"<X@	c #E4FEC6",
"[X@	c #A8DC79",
"}X@	c #58A618",
"|X@	c #276E0D",
"1X@	c #0A2D01",
"2X@	c #080E02",
"3X@	c #034724",
"4X@	c #229F6D",
"5X@	c #0A4B32",
"6X@	c #013F2D",
"7X@	c #0F5D46",
"8X@	c #0B4231",
"9X@	c #013920",
"0X@	c #106040",
"aX@	c #043A22",
"bX@	c #054B2E",
"cX@	c #0D593A",
"dX@	c #022310",
"eX@	c #051A02",
"fX@	c #377B18",
"gX@	c #E2FABB",
"hX@	c #BFE6A3",
"iX@	c #29640B",
"jX@	c #0F3600",
"kX@	c #091C07",
"lX@	c #060704",
"mX@	c #080307",
"nX@	c #250D10",
"oX@	c #2C0D11",
"pX@	c #2B0D0D",
"qX@	c #311919",
"rX@	c #320C15",
"sX@	c #380C16",
"tX@	c #5B1B1E",
"uX@	c #7A1A20",
"vX@	c #A71A23",
"wX@	c #EFA999",
"xX@	c #F1C7B5",
"yX@	c #8F2120",
"zX@	c #70151B",
"AX@	c #6D252E",
"BX@	c #400C0E",
"CX@	c #260303",
"DX@	c #390E17",
"EX@	c #2A060C",
"FX@	c #321619",
"GX@	c #281517",
"HX@	c #190507",
"IX@	c #241819",
"JX@	c #19070B",
"KX@	c #1B0508",
"LX@	c #1E060A",
"MX@	c #331216",
"NX@	c #3C0609",
"OX@	c #50171A",
"PX@	c #841923",
"QX@	c #AB3C31",
"RX@	c #8A121D",
"SX@	c #1D0307",
"TX@	c #180003",
"UX@	c #063301",
"VX@	c #8DBF6B",
"WX@	c #82BD64",
"XX@	c #1E5110",
"YX@	c #001400",
"ZX@	c #132E0B",
"`X@	c #242909",
" Y@	c #270501",
".Y@	c #1A0302",
"+Y@	c #051B05",
"@Y@	c #06250B",
"#Y@	c #06290D",
"$Y@	c #04270B",
"%Y@	c #02240D",
"&Y@	c #03250E",
"*Y@	c #0E2307",
"=Y@	c #073603",
"-Y@	c #349E56",
";Y@	c #71F898",
">Y@	c #49DD63",
",Y@	c #199711",
"'Y@	c #67B239",
")Y@	c #47631A",
"!Y@	c #420205",
"~Y@	c #560000",
"{Y@	c #BA585F",
"]Y@	c #FCD6D8",
"^Y@	c #F8C9D3",
"/Y@	c #B03C4D",
"(Y@	c #5C0602",
"_Y@	c #3E0B03",
":Y@	c #3A1009",
"<Y@	c #2D1905",
"[Y@	c #1A3309",
"}Y@	c #174107",
"|Y@	c #18550A",
"1Y@	c #478335",
"2Y@	c #97BE82",
"3Y@	c #D1EAB5",
"4Y@	c #BCE5A1",
"5Y@	c #4CA03D",
"6Y@	c #1D6309",
"7Y@	c #124604",
"8Y@	c #044604",
"9Y@	c #529A4B",
"0Y@	c #C4F2B0",
"aY@	c #EAF8CC",
"bY@	c #A0C881",
"cY@	c #2C7C15",
"dY@	c #013002",
"eY@	c #012903",
"fY@	c #031807",
"gY@	c #031707",
"hY@	c #051409",
"iY@	c #040C06",
"jY@	c #070F07",
"kY@	c #121A13",
"lY@	c #030905",
"mY@	c #031702",
"nY@	c #053506",
"oY@	c #126D07",
"pY@	c #98CD82",
"qY@	c #EEFECC",
"rY@	c #9FDD70",
"sY@	c #5ACF26",
"tY@	c #268012",
"uY@	c #073D01",
"vY@	c #011F0C",
"wY@	c #116F37",
"xY@	c #86DBA9",
"yY@	c #DAECDC",
"zY@	c #8A9A8F",
"AY@	c #262613",
"BY@	c #381906",
"CY@	c #5B1107",
"DY@	c #D15F64",
"EY@	c #B4202A",
"FY@	c #890409",
"GY@	c #6A0305",
"HY@	c #110703",
"IY@	c #141203",
"JY@	c #0F2400",
"KY@	c #0F3701",
"LY@	c #0F5502",
"MY@	c #71AB5B",
"NY@	c #ECF9D9",
"OY@	c #BEE89E",
"PY@	c #28A113",
"QY@	c #25A51F",
"RY@	c #0F6008",
"SY@	c #034907",
"TY@	c #1C6414",
"UY@	c #C8E6AB",
"VY@	c #DAFAAD",
"WY@	c #66AF2E",
"XY@	c #40930B",
"YY@	c #164B05",
"ZY@	c #092101",
"`Y@	c #010D06",
" Z@	c #095635",
".Z@	c #22976A",
"+Z@	c #023A24",
"@Z@	c #024430",
"#Z@	c #145D47",
"$Z@	c #053726",
"%Z@	c #023E25",
"&Z@	c #115F3F",
"*Z@	c #01361D",
"=Z@	c #0E5437",
"-Z@	c #0A4C30",
";Z@	c #021D0A",
">Z@	c #051502",
",Z@	c #061C04",
"'Z@	c #084002",
")Z@	c #3B7C1E",
"!Z@	c #E4FBBB",
"~Z@	c #BBE39D",
"{Z@	c #225F05",
"]Z@	c #0D3200",
"^Z@	c #2B0E0E",
"/Z@	c #2F1717",
"(Z@	c #A71B23",
"_Z@	c #EFA898",
":Z@	c #6F141A",
"<Z@	c #4F181D",
"[Z@	c #410D10",
"}Z@	c #390D17",
"|Z@	c #2B070D",
"1Z@	c #270B0B",
"2Z@	c #271416",
"3Z@	c #190A0A",
"4Z@	c #1B0309",
"5Z@	c #1A0709",
"6Z@	c #460F13",
"7Z@	c #692828",
"8Z@	c #831822",
"9Z@	c #AA3B2E",
"0Z@	c #D07E39",
"aZ@	c #3D1216",
"bZ@	c #350F13",
"cZ@	c #031E00",
"dZ@	c #497B35",
"eZ@	c #A8E588",
"fZ@	c #2D6918",
"gZ@	c #0C2104",
"hZ@	c #173C11",
"iZ@	c #032102",
"jZ@	c #0E2116",
"kZ@	c #072513",
"lZ@	c #041D0B",
"mZ@	c #090501",
"nZ@	c #090500",
"oZ@	c #031500",
"pZ@	c #043F0D",
"qZ@	c #59BA6B",
"rZ@	c #4FB85F",
"sZ@	c #15650E",
"tZ@	c #2C4603",
"uZ@	c #2D2201",
"vZ@	c #2C0B01",
"wZ@	c #2D0303",
"xZ@	c #600003",
"yZ@	c #7D0706",
"zZ@	c #D86476",
"AZ@	c #FFDCEB",
"BZ@	c #EEB4B9",
"CZ@	c #9C212A",
"DZ@	c #5C0707",
"EZ@	c #410E08",
"FZ@	c #381502",
"GZ@	c #292F01",
"HZ@	c #5B8944",
"IZ@	c #B6D997",
"JZ@	c #F7F9E3",
"KZ@	c #D2F1BB",
"LZ@	c #599F40",
"MZ@	c #147204",
"NZ@	c #034C02",
"OZ@	c #074200",
"PZ@	c #368523",
"QZ@	c #A6E092",
"RZ@	c #E3FCD3",
"SZ@	c #BEE4AE",
"TZ@	c #499038",
"UZ@	c #136908",
"VZ@	c #022B03",
"WZ@	c #012403",
"XZ@	c #011C05",
"YZ@	c #061609",
"ZZ@	c #061208",
"`Z@	c #06100A",
" `@	c #041E02",
".`@	c #034002",
"+`@	c #257F18",
"@`@	c #D2EFBA",
"#`@	c #DEF8B7",
"$`@	c #6ACB2E",
"%`@	c #55BF25",
"&`@	c #065306",
"*`@	c #052D02",
"=`@	c #033A11",
"-`@	c #3EBC85",
";`@	c #99EFD5",
">`@	c #DDE5E1",
",`@	c #F4F5E7",
"'`@	c #959889",
")`@	c #3A170D",
"!`@	c #470502",
"~`@	c #7E0812",
"{`@	c #930614",
"]`@	c #3E0201",
"^`@	c #033A02",
"/`@	c #025406",
"(`@	c #3D812E",
"_`@	c #D3EFB9",
":`@	c #DFF8C7",
"<`@	c #53BE3D",
"[`@	c #15AA13",
"}`@	c #158A12",
"|`@	c #064102",
"1`@	c #083B08",
"2`@	c #045304",
"3`@	c #70AC5C",
"4`@	c #ADDA7B",
"5`@	c #429706",
"6`@	c #34800A",
"7`@	c #0A2E01",
"8`@	c #0B1703",
"9`@	c #010B07",
"0`@	c #11573C",
"a`@	c #20815D",
"b`@	c #003220",
"c`@	c #034936",
"d`@	c #175A45",
"e`@	c #022B19",
"f`@	c #05462B",
"g`@	c #0E5839",
"h`@	c #01371E",
"i`@	c #10583A",
"j`@	c #073E26",
"k`@	c #041A08",
"l`@	c #094602",
"m`@	c #428327",
"n`@	c #E7FCBF",
"o`@	c #B5DF91",
"p`@	c #1C5C02",
"q`@	c #092D00",
"r`@	c #071302",
"s`@	c #270F12",
"t`@	c #280C11",
"u`@	c #2D0F12",
"v`@	c #2E1717",
"w`@	c #330D16",
"x`@	c #78171D",
"y`@	c #A61A22",
"z`@	c #EEA899",
"A`@	c #4C1316",
"B`@	c #3F0B0D",
"C`@	c #270303",
"D`@	c #3A0E18",
"E`@	c #29060C",
"F`@	c #1E050B",
"G`@	c #1B070C",
"H`@	c #120406",
"I`@	c #351417",
"J`@	c #430C11",
"K`@	c #51181B",
"L`@	c #682727",
"M`@	c #651615",
"N`@	c #A83930",
"O`@	c #CF7D39",
"P`@	c #772029",
"Q`@	c #56151C",
"R`@	c #3C1115",
"S`@	c #350F14",
"T`@	c #040C01",
"U`@	c #104108",
"V`@	c #A6D785",
"W`@	c #669B4C",
"X`@	c #193F09",
"Y`@	c #0E3515",
"Z`@	c #05360D",
"``@	c #031A0C",
"  #	c #120007",
". #	c #150107",
"+ #	c #180307",
"@ #	c #033207",
"# #	c #131B01",
"$ #	c #291205",
"% #	c #2F0A03",
"& #	c #2B0802",
"* #	c #4C0203",
"= #	c #5D0304",
"- #	c #930C1F",
"; #	c #E98294",
"> #	c #FEE6E5",
", #	c #DF94A0",
"' #	c #881D2B",
") #	c #600705",
"! #	c #461200",
"~ #	c #452905",
"{ #	c #ADBB7C",
"] #	c #BCED8B",
"^ #	c #8AD151",
"/ #	c #D9F1B3",
"( #	c #FBF8F1",
"_ #	c #CCF1BB",
": #	c #52A93C",
"< #	c #187505",
"[ #	c #044C02",
"} #	c #246818",
"| #	c #8DCD79",
"1 #	c #DEFABF",
"2 #	c #CFF5AB",
"3 #	c #73B45B",
"4 #	c #258212",
"5 #	c #0F4B06",
"6 #	c #061306",
"7 #	c #064C04",
"8 #	c #5AA34C",
"9 #	c #BDEF8E",
"0 #	c #67D12A",
"a #	c #439619",
"b #	c #033D07",
"c #	c #032502",
"d #	c #045B33",
"e #	c #1E996E",
"f #	c #126449",
"g #	c #23622D",
"h #	c #A6C192",
"i #	c #E7EECB",
"j #	c #746B56",
"k #	c #450B09",
"l #	c #340201",
"m #	c #0D0301",
"n #	c #030902",
"o #	c #023200",
"p #	c #064E01",
"q #	c #2D7420",
"r #	c #BBE0A8",
"s #	c #EDFBDA",
"t #	c #7DCC5E",
"u #	c #13B51C",
"v #	c #23A51D",
"w #	c #015201",
"x #	c #024803",
"y #	c #C6EBA6",
"z #	c #D9F8A4",
"A #	c #65A736",
"B #	c #3D880E",
"C #	c #2A5D0A",
"D #	c #092402",
"E #	c #0B1102",
"F #	c #010A06",
"G #	c #090A04",
"H #	c #063825",
"I #	c #176148",
"J #	c #012F21",
"K #	c #064F39",
"L #	c #16533F",
"M #	c #002412",
"N #	c #105336",
"O #	c #084D30",
"P #	c #023B22",
"Q #	c #0F593A",
"R #	c #022E19",
"S #	c #041908",
"T #	c #022901",
"U #	c #0A5400",
"V #	c #509436",
"W #	c #E9FDC1",
"X #	c #A9D582",
"Y #	c #175801",
"Z #	c #071001",
"` #	c #2C0F0F",
" .#	c #2F1818",
"..#	c #340E17",
"+.#	c #3A0D18",
"@.#	c #451316",
"#.#	c #77161D",
"$.#	c #F2C8B6",
"%.#	c #70141A",
"&.#	c #6A212B",
"*.#	c #4E171C",
"=.#	c #491013",
"-.#	c #400C0F",
";.#	c #270404",
">.#	c #3A0F18",
",.#	c #311518",
"'.#	c #291517",
").#	c #1D050B",
"!.#	c #1A060B",
"~.#	c #120306",
"{.#	c #221517",
"].#	c #171317",
"^.#	c #4E1519",
"/.#	c #642425",
"(.#	c #811721",
"_.#	c #A83933",
":.#	c #FBD2BF",
"<.#	c #CE7C38",
"[.#	c #8A131D",
"}.#	c #79222A",
"|.#	c #3D1115",
"1.#	c #200408",
"2.#	c #739858",
"3.#	c #9DD47B",
"4.#	c #19590A",
"5.#	c #07190A",
"6.#	c #082106",
"7.#	c #020107",
"8.#	c #060309",
"9.#	c #190801",
"0.#	c #210902",
"a.#	c #260604",
"b.#	c #251309",
"c.#	c #271505",
"d.#	c #340702",
"e.#	c #52010A",
"f.#	c #610405",
"g.#	c #9B242E",
"h.#	c #EC9BAD",
"i.#	c #FDE1EA",
"j.#	c #D18690",
"k.#	c #601003",
"l.#	c #461B02",
"m.#	c #4B5012",
"n.#	c #98BC5F",
"o.#	c #97E157",
"p.#	c #5EC11C",
"q.#	c #4FBE0B",
"r.#	c #58B629",
"s.#	c #C9E799",
"t.#	c #F9FCE3",
"u.#	c #D2F1BC",
"v.#	c #5EAF39",
"w.#	c #217A06",
"x.#	c #104904",
"y.#	c #013F00",
"z.#	c #1C5E0F",
"A.#	c #6AB144",
"B.#	c #CDE4A2",
"C.#	c #ECF8CC",
"D.#	c #9CD889",
"E.#	c #41982F",
"F.#	c #1C640D",
"G.#	c #033600",
"H.#	c #022700",
"I.#	c #041D01",
"J.#	c #060F08",
"K.#	c #0B550A",
"L.#	c #8BC47A",
"M.#	c #F3FCD3",
"N.#	c #9CE467",
"O.#	c #6BD137",
"P.#	c #246806",
"Q.#	c #033203",
"R.#	c #01200A",
"S.#	c #035325",
"T.#	c #044E20",
"U.#	c #11361A",
"V.#	c #0F3313",
"W.#	c #274213",
"X.#	c #BEC390",
"Y.#	c #DEDBB1",
"Z.#	c #543E2D",
"`.#	c #2C0502",
" +#	c #012F01",
".+#	c #024D04",
"++#	c #1C6A0C",
"@+#	c #A4CF91",
"#+#	c #EAFBD7",
"$+#	c #A8DA8F",
"%+#	c #19B313",
"&+#	c #25B018",
"*+#	c #096606",
"=+#	c #023C04",
"-+#	c #0C5C05",
";+#	c #89C072",
">+#	c #EDFCC5",
",+#	c #A2DA70",
"'+#	c #398A0F",
")+#	c #367113",
"!+#	c #153403",
"~+#	c #072005",
"{+#	c #071409",
"]+#	c #0E0E06",
"^+#	c #031A0B",
"/+#	c #134835",
"(+#	c #063827",
"_+#	c #135942",
":+#	c #083C2A",
"<+#	c #022614",
"[+#	c #1D6043",
"}+#	c #034024",
"|+#	c #034027",
"1+#	c #0E5739",
"2+#	c #012110",
"3+#	c #001D00",
"4+#	c #104003",
"5+#	c #327D11",
"6+#	c #68AB4D",
"7+#	c #E9FEC0",
"8+#	c #98C76E",
"9+#	c #125302",
"0+#	c #052405",
"a+#	c #2D0F10",
"b+#	c #5E1D21",
"c+#	c #79171E",
"d+#	c #A91D26",
"e+#	c #F3CAB8",
"f+#	c #8B201E",
"g+#	c #6E1218",
"h+#	c #4A1013",
"i+#	c #390E18",
"j+#	c #29050C",
"k+#	c #270A0B",
"l+#	c #1C080D",
"m+#	c #180509",
"n+#	c #2A080D",
"o+#	c #370307",
"p+#	c #460A11",
"q+#	c #5F2223",
"r+#	c #821820",
"s+#	c #AA3B2A",
"t+#	c #FBBA62",
"u+#	c #D68973",
"v+#	c #8B121D",
"w+#	c #762028",
"x+#	c #55151C",
"y+#	c #3F1115",
"z+#	c #371113",
"A+#	c #190201",
"B+#	c #210909",
"C+#	c #000F01",
"D+#	c #1D410E",
"E+#	c #A4DE7D",
"F+#	c #407C25",
"G+#	c #0E030A",
"H+#	c #110803",
"I+#	c #181C0C",
"J+#	c #1B4E16",
"K+#	c #408332",
"L+#	c #4B571E",
"M+#	c #3D1804",
"N+#	c #5F0609",
"O+#	c #A72435",
"P+#	c #F1ACB6",
"Q+#	c #CC787E",
"R+#	c #870F12",
"S+#	c #5F0F08",
"T+#	c #4E1B03",
"U+#	c #433C02",
"V+#	c #5B8E27",
"W+#	c #77D741",
"X+#	c #41B811",
"Y+#	c #3FB00A",
"Z+#	c #4EAA1A",
"`+#	c #B4DD91",
" @#	c #69A746",
".@#	c #207703",
"+@#	c #0A4C05",
"@@#	c #0A3F04",
"#@#	c #367F1B",
"$@#	c #90CB6C",
"%@#	c #DAF9B9",
"&@#	c #CEF4AA",
"*@#	c #83BF67",
"=@#	c #2C7C17",
"-@#	c #0C5105",
";@#	c #022C03",
">@#	c #052403",
",@#	c #072100",
"'@#	c #001505",
")@#	c #031105",
"!@#	c #11640B",
"~@#	c #AED996",
"{@#	c #EAFCC8",
"]@#	c #7CD849",
"^@#	c #62C735",
"/@#	c #022B00",
"(@#	c #00280A",
"_@#	c #023E19",
":@#	c #022F12",
"<@#	c #082810",
"[@#	c #142E16",
"}@#	c #102B0D",
"|@#	c #455820",
"1@#	c #D6DAA3",
"2@#	c #BAAB8B",
"3@#	c #48200C",
"4@#	c #280401",
"5@#	c #170904",
"6@#	c #0C0702",
"7@#	c #080601",
"8@#	c #012104",
"9@#	c #014D0D",
"0@#	c #186A0E",
"a@#	c #A1CB84",
"b@#	c #EBFCD4",
"c@#	c #BCE7AA",
"d@#	c #2AB620",
"e@#	c #1DBD18",
"f@#	c #11770E",
"g@#	c #024204",
"h@#	c #065402",
"i@#	c #59934C",
"j@#	c #DAF9BE",
"k@#	c #D0F0AA",
"l@#	c #529E24",
"m@#	c #2C7606",
"n@#	c #224F07",
"o@#	c #0F2205",
"p@#	c #061808",
"q@#	c #090D01",
"r@#	c #2D482E",
"s@#	c #1E301D",
"t@#	c #060905",
"u@#	c #0C2A1C",
"v@#	c #0D492E",
"w@#	c #054026",
"x@#	c #021C0D",
"y@#	c #0C3C26",
"z@#	c #04442C",
"A@#	c #0B4D34",
"B@#	c #051B0D",
"C@#	c #477825",
"D@#	c #A4E364",
"E@#	c #8AC369",
"F@#	c #EEFFC6",
"G@#	c #85B457",
"H@#	c #0F4305",
"I@#	c #031C08",
"J@#	c #2B1111",
"K@#	c #2C0D0E",
"L@#	c #331819",
"M@#	c #1F080B",
"N@#	c #350E17",
"O@#	c #3B0E19",
"P@#	c #601C22",
"Q@#	c #7B1620",
"R@#	c #AC1D29",
"S@#	c #F0AA9B",
"T@#	c #F5CDBB",
"U@#	c #85201B",
"V@#	c #6D1218",
"W@#	c #68262C",
"X@#	c #50131B",
"Y@#	c #480D10",
"Z@#	c #260407",
"`@#	c #370D17",
" ##	c #29050D",
".##	c #270A0D",
"+##	c #170808",
"@##	c #1D090C",
"###	c #140508",
"$##	c #23171A",
"%##	c #390509",
"&##	c #480C13",
"*##	c #52191D",
"=##	c #602324",
"-##	c #651215",
";##	c #AC3C2B",
">##	c #FCB95D",
",##	c #D68A76",
"'##	c #8B121C",
")##	c #762029",
"!##	c #55161C",
"~##	c #300F11",
"{##	c #270708",
"]##	c #1B0202",
"^##	c #031D02",
"/##	c #65914D",
"(##	c #86C55F",
"_##	c #0E3702",
":##	c #0B2603",
"<##	c #2C783E",
"[##	c #6EE093",
"}##	c #84EA96",
"|##	c #6EAC43",
"1##	c #5B6711",
"2##	c #3E1809",
"3##	c #450112",
"4##	c #510503",
"5##	c #6C0506",
"6##	c #AB3843",
"7##	c #F8B5BE",
"8##	c #C16D73",
"9##	c #860A15",
"0##	c #610E10",
"a##	c #4C190B",
"b##	c #483103",
"c##	c #4D8118",
"d##	c #65D839",
"e##	c #46BC18",
"f##	c #40A415",
"g##	c #40A70B",
"h##	c #9BD674",
"i##	c #DBF2BF",
"j##	c #6AB04E",
"k##	c #1F7801",
"l##	c #145304",
"m##	c #61A83F",
"n##	c #C1E8A3",
"o##	c #EFFCD5",
"p##	c #C3E7A8",
"q##	c #6BAF54",
"r##	c #247A12",
"s##	c #084E03",
"t##	c #032E07",
"u##	c #062603",
"v##	c #062100",
"w##	c #001A04",
"x##	c #043B01",
"y##	c #187012",
"z##	c #C1EBA7",
"A##	c #E2FCBE",
"B##	c #6ACC34",
"C##	c #53B226",
"D##	c #053D01",
"E##	c #012800",
"F##	c #012308",
"G##	c #012A0D",
"H##	c #04250F",
"I##	c #0D250F",
"J##	c #102B11",
"K##	c #102707",
"L##	c #6F753C",
"M##	c #E7DDAE",
"N##	c #876453",
"O##	c #401105",
"P##	c #030D04",
"Q##	c #010F06",
"R##	c #001701",
"S##	c #002B03",
"T##	c #003B05",
"U##	c #034D08",
"V##	c #1D7316",
"W##	c #A6CA8F",
"X##	c #F2F9DE",
"Y##	c #C3EEA8",
"Z##	c #3AB62F",
"`##	c #19B717",
" $#	c #0A890A",
".$#	c #014C01",
"+$#	c #033A04",
"@$#	c #044203",
"#$#	c #2D7728",
"$$#	c #BCEAAC",
"%$#	c #EBFBC5",
"&$#	c #88B857",
"*$#	c #348105",
"=$#	c #225E07",
"-$#	c #121B03",
";$#	c #0A1305",
">$#	c #1D2B11",
",$#	c #476B3C",
"'$#	c #334D29",
")$#	c #070705",
"!$#	c #031109",
"~$#	c #0B422A",
"{$#	c #044026",
"]$#	c #052716",
"^$#	c #051B0E",
"/$#	c #03190A",
"($#	c #042716",
"_$#	c #094B32",
":$#	c #09442B",
"<$#	c #061A09",
"[$#	c #062903",
"}$#	c #76AA48",
"|$#	c #CFF588",
"1$#	c #96D76B",
"2$#	c #ECFDC6",
"3$#	c #6B8F45",
"4$#	c #00180A",
"5$#	c #2E1212",
"6$#	c #2C1014",
"7$#	c #290D12",
"8$#	c #451418",
"9$#	c #5F1C22",
"0$#	c #7D1721",
"a$#	c #EFAA9D",
"b$#	c #F5CCBA",
"c$#	c #84201B",
"d$#	c #6A272D",
"e$#	c #460B0F",
"f$#	c #280505",
"g$#	c #341C1A",
"h$#	c #2A1115",
"i$#	c #2B090D",
"j$#	c #470B12",
"k$#	c #642829",
"l$#	c #831821",
"m$#	c #AD3B30",
"n$#	c #F8B65A",
"o$#	c #D68976",
"p$#	c #53141A",
"q$#	c #421418",
"r$#	c #381215",
"s$#	c #200406",
"t$#	c #280708",
"u$#	c #1C0303",
"v$#	c #190509",
"w$#	c #81B761",
"x$#	c #264618",
"y$#	c #022604",
"z$#	c #389257",
"A$#	c #88EDAF",
"B$#	c #B9FCDD",
"C$#	c #C5F8D9",
"D$#	c #9DEA9C",
"E$#	c #72A334",
"F$#	c #585413",
"G$#	c #420B06",
"H$#	c #52010E",
"I$#	c #70040F",
"J$#	c #BE4045",
"K$#	c #F4C6CA",
"L$#	c #FAD7E5",
"M$#	c #BC6C68",
"N$#	c #7A140B",
"O$#	c #5A1206",
"P$#	c #521C08",
"Q$#	c #432E01",
"R$#	c #3C6A07",
"S$#	c #72D143",
"T$#	c #62CA3C",
"U$#	c #3BA304",
"V$#	c #41A708",
"W$#	c #82CC5A",
"X$#	c #DDF7C2",
"Y$#	c #DDF3B9",
"Z$#	c #71B844",
"`$#	c #1C6C06",
" %#	c #0F3F00",
".%#	c #0B3508",
"+%#	c #09280C",
"@%#	c #0F3503",
"#%#	c #2F762F",
"$%#	c #82C673",
"%%#	c #D0F1B7",
"&%#	c #EAFBCA",
"*%#	c #BBE09A",
"=%#	c #67A74D",
"-%#	c #0F5003",
";%#	c #022F03",
">%#	c #022707",
",%#	c #022404",
"'%#	c #020604",
")%#	c #010604",
"!%#	c #054303",
"~%#	c #237919",
"{%#	c #D4F3B8",
"]%#	c #D9FAB2",
"^%#	c #63C72A",
"/%#	c #46991C",
"(%#	c #0A3704",
"_%#	c #021D05",
":%#	c #031B06",
"<%#	c #041C0A",
"[%#	c #011706",
"}%#	c #0F2811",
"|%#	c #0D2513",
"1%#	c #242F02",
"2%#	c #A89C75",
"3%#	c #D3B8A4",
"4%#	c #561F12",
"5%#	c #280602",
"6%#	c #040A02",
"7%#	c #003F01",
"8%#	c #266D19",
"9%#	c #AFCE95",
"0%#	c #EFFAE1",
"a%#	c #C7F4BC",
"b%#	c #44B337",
"c%#	c #0DBB09",
"d%#	c #0D9813",
"e%#	c #025704",
"f%#	c #044107",
"g%#	c #0D5E0A",
"h%#	c #A3CB8D",
"i%#	c #EFFECB",
"j%#	c #408C0D",
"k%#	c #296E04",
"l%#	c #1A4109",
"m%#	c #141604",
"n%#	c #161505",
"o%#	c #071202",
"p%#	c #354A26",
"q%#	c #5F713E",
"r%#	c #4A5731",
"s%#	c #181E16",
"t%#	c #022010",
"u%#	c #134B32",
"v%#	c #054127",
"w%#	c #01351D",
"x%#	c #032815",
"y%#	c #01331B",
"z%#	c #0A5335",
"A%#	c #043D22",
"B%#	c #021D07",
"C%#	c #051703",
"D%#	c #073901",
"E%#	c #9AC762",
"F%#	c #D9F395",
"G%#	c #6BBC42",
"H%#	c #ABDE89",
"I%#	c #2E6113",
"J%#	c #301213",
"K%#	c #2D1115",
"L%#	c #2C0D0D",
"M%#	c #341819",
"N%#	c #601D23",
"O%#	c #AA1C27",
"P%#	c #EFAA9C",
"Q%#	c #F4CAB8",
"R%#	c #85211C",
"S%#	c #6E1319",
"T%#	c #6A272E",
"U%#	c #50141B",
"V%#	c #470C10",
"W%#	c #380E18",
"X%#	c #2A060D",
"Y%#	c #2A1014",
"Z%#	c #341216",
"`%#	c #3B070B",
" &#	c #450910",
".&#	c #66292B",
"+&#	c #651316",
"@&#	c #841922",
"#&#	c #AD3B2C",
"$&#	c #F5B253",
"%&#	c #D78A77",
"&&#	c #521319",
"*&#	c #421417",
"=&#	c #311012",
"-&#	c #290708",
";&#	c #240809",
">&#	c #1D060B",
",&#	c #010106",
"'&#	c #243B1C",
")&#	c #1E2F17",
"!&#	c #35914B",
"~&#	c #82F2AD",
"{&#	c #B4FCD8",
"]&#	c #A3F4BD",
"^&#	c #48B85E",
"/&#	c #A0E9AD",
"(&#	c #9BD585",
"_&#	c #6A9429",
":&#	c #514805",
"<&#	c #450804",
"[&#	c #5E0107",
"}&#	c #6F0B08",
"|&#	c #BE4C5B",
"1&#	c #F9C2CA",
"2&#	c #F9D7D7",
"3&#	c #C16B70",
"4&#	c #7F0F13",
"5&#	c #5D1003",
"6&#	c #411C01",
"7&#	c #3D2505",
"8&#	c #3C570E",
"9&#	c #67C336",
"0&#	c #67D638",
"a&#	c #3BA60B",
"b&#	c #3DA80B",
"c&#	c #79C34C",
"d&#	c #D5F2B5",
"e&#	c #D1F7A4",
"f&#	c #63A232",
"g&#	c #0C4F0A",
"h&#	c #063401",
"i&#	c #0B3407",
"j&#	c #053608",
"k&#	c #072D02",
"l&#	c #0F4806",
"m&#	c #3F8D30",
"n&#	c #93D37A",
"o&#	c #D8F8BD",
"p&#	c #EBFBCF",
"q&#	c #B8E192",
"r&#	c #6BA64B",
"s&#	c #2B7216",
"t&#	c #124F09",
"u&#	c #013207",
"v&#	c #002500",
"w&#	c #08120C",
"x&#	c #122115",
"y&#	c #1C2D1F",
"z&#	c #213124",
"A&#	c #1D2E21",
"B&#	c #1B2B1E",
"C&#	c #101F15",
"D&#	c #054504",
"E&#	c #2F7F21",
"F&#	c #E4F6C2",
"G&#	c #D1F6A4",
"H&#	c #6ACB2D",
"I&#	c #3E8314",
"J&#	c #11320A",
"K&#	c #060802",
"L&#	c #0A2112",
"M&#	c #0C1E07",
"N&#	c #0C210A",
"O&#	c #0F1A06",
"P&#	c #3F3517",
"Q&#	c #9A7E6B",
"R&#	c #4F2218",
"S&#	c #290E03",
"T&#	c #070C02",
"U&#	c #021B00",
"V&#	c #012700",
"W&#	c #023701",
"X&#	c #004500",
"Y&#	c #437B3B",
"Z&#	c #BDE3AB",
"`&#	c #C0EDB6",
" *#	c #41BE35",
".*#	c #15BC17",
"+*#	c #17A613",
"@*#	c #025B04",
"#*#	c #034300",
"$*#	c #025102",
"%*#	c #78AD6C",
"&*#	c #D1EEA5",
"**#	c #519C23",
"=*#	c #337C0E",
"-*#	c #184F03",
";*#	c #171307",
">*#	c #18250C",
",*#	c #525332",
"'*#	c #764630",
")*#	c #623E2F",
"!*#	c #373129",
"~*#	c #042011",
"{*#	c #194C35",
"]*#	c #235B42",
"^*#	c #19553B",
"/*#	c #13573B",
"(*#	c #17583C",
"_*#	c #043117",
":*#	c #011D05",
"<*#	c #031B07",
"[*#	c #084F01",
"}*#	c #BBDC84",
"|*#	c #C9E88E",
"1*#	c #267A09",
"2*#	c #20630F",
"3*#	c #033501",
"4*#	c #2B0D12",
"5*#	c #290C10",
"6*#	c #2D0E0F",
"7*#	c #340D16",
"8*#	c #5F1C21",
"9*#	c #7C1620",
"0*#	c #AB1D27",
"a*#	c #F0AB9D",
"b*#	c #69272D",
"c*#	c #490E11",
"d*#	c #420E11",
"e*#	c #1D040A",
"f*#	c #181317",
"g*#	c #170305",
"h*#	c #2C1216",
"i*#	c #341115",
"j*#	c #240105",
"k*#	c #4E1419",
"l*#	c #652829",
"m*#	c #681417",
"n*#	c #861B25",
"o*#	c #AD3D32",
"p*#	c #F9C69C",
"q*#	c #D78A6D",
"r*#	c #79212B",
"s*#	c #55141C",
"t*#	c #431418",
"u*#	c #321113",
"v*#	c #290909",
"w*#	c #25090F",
"x*#	c #150308",
"y*#	c #010508",
"z*#	c #151710",
"A*#	c #011600",
"B*#	c #268542",
"C*#	c #66EE93",
"D*#	c #79F69B",
"E*#	c #8DEBAD",
"F*#	c #7BE99B",
"G*#	c #10AE1E",
"H*#	c #24B231",
"I*#	c #91EA98",
"J*#	c #8FD76A",
"K*#	c #619422",
"L*#	c #52410B",
"M*#	c #420503",
"N*#	c #4F0200",
"O*#	c #5C010E",
"P*#	c #83040E",
"Q*#	c #B7494C",
"R*#	c #F5C4D3",
"S*#	c #F9D3DF",
"T*#	c #C47683",
"U*#	c #821213",
"V*#	c #5F1001",
"W*#	c #4B1607",
"X*#	c #382901",
"Y*#	c #334B01",
"Z*#	c #55A12D",
"`*#	c #7CE14E",
" =#	c #52BE24",
".=#	c #46B712",
"+=#	c #94E76E",
"@=#	c #CEF0A0",
"#=#	c #7BA54E",
"$=#	c #0D2E02",
"%=#	c #0C3003",
"&=#	c #0E4108",
"*=#	c #073E04",
"==#	c #043703",
"-=#	c #114B08",
";=#	c #4B9040",
">=#	c #9CDB8D",
",=#	c #DDFACD",
"'=#	c #E6FDC5",
")=#	c #C3E597",
"!=#	c #79B153",
"~=#	c #327E15",
"{=#	c #174F06",
"]=#	c #042801",
"^=#	c #012302",
"/=#	c #001F06",
"(=#	c #001D04",
"_=#	c #050506",
":=#	c #000505",
"<=#	c #030806",
"[=#	c #051A09",
"}=#	c #0A2210",
"|=#	c #1D3221",
"1=#	c #1A3021",
"2=#	c #041309",
"3=#	c #347E23",
"4=#	c #E2F6C0",
"5=#	c #D7F5A6",
"6=#	c #81D139",
"7=#	c #396D0D",
"8=#	c #153007",
"9=#	c #051802",
"0=#	c #011305",
"a=#	c #031103",
"b=#	c #0F1710",
"c=#	c #1C1A06",
"d=#	c #2C1808",
"e=#	c #191703",
"f=#	c #061704",
"g=#	c #023604",
"h=#	c #044102",
"i=#	c #014C00",
"j=#	c #0A5A07",
"k=#	c #6B9A5F",
"l=#	c #D3EFCA",
"m=#	c #EFFBEB",
"n=#	c #B5E5A8",
"o=#	c #36B327",
"p=#	c #14BC1B",
"q=#	c #18AA13",
"r=#	c #045D01",
"s=#	c #044E01",
"t=#	c #559041",
"u=#	c #DCF8C4",
"v=#	c #DCF9C5",
"w=#	c #65B143",
"x=#	c #37830B",
"y=#	c #2A6309",
"z=#	c #143A04",
"A=#	c #171D01",
"B=#	c #1F0F08",
"C=#	c #353B1E",
"D=#	c #704D34",
"E=#	c #D27181",
"F=#	c #B25867",
"G=#	c #4D322A",
"H=#	c #0E0904",
"I=#	c #000F04",
"J=#	c #042012",
"K=#	c #154932",
"L=#	c #184F38",
"M=#	c #07311D",
"N=#	c #021C06",
"O=#	c #032407",
"P=#	c #D3ED9B",
"Q=#	c #B4D97D",
"R=#	c #125C05",
"S=#	c #083508",
"T=#	c #050C06",
"U=#	c #150304",
"V=#	c #331215",
"W=#	c #2B0E13",
"X=#	c #471418",
"Y=#	c #5E1B21",
"Z=#	c #7A151F",
"`=#	c #AA1D27",
" -#	c #EFAC9F",
".-#	c #F4CDBA",
"+-#	c #86211B",
"@-#	c #6D1318",
"#-#	c #6B272E",
"$-#	c #3E0A0D",
"%-#	c #261215",
"&-#	c #190308",
"*-#	c #120405",
"=-#	c #1A1318",
"--#	c #361C1A",
";-#	c #1F0202",
">-#	c #1B060B",
",-#	c #2E1519",
"'-#	c #331115",
")-#	c #250105",
"!-#	c #480A12",
"~-#	c #50151A",
"{-#	c #891D27",
"]-#	c #AD3E35",
"^-#	c #FBD6C4",
"/-#	c #D7907C",
"(-#	c #8E171F",
"_-#	c #7C222D",
":-#	c #58141D",
"<-#	c #1E0405",
"[-#	c #331214",
"}-#	c #290A09",
"|-#	c #270909",
"1-#	c #301218",
"2-#	c #22050B",
"3-#	c #193011",
"4-#	c #0C0B06",
"5-#	c #140107",
"6-#	c #0D0107",
"7-#	c #071003",
"8-#	c #288943",
"9-#	c #5AD480",
"0-#	c #267735",
"a-#	c #128926",
"b-#	c #52E166",
"c-#	c #4CDF57",
"d-#	c #06AA18",
"e-#	c #35B539",
"f-#	c #9DF18C",
"g-#	c #84D569",
"h-#	c #5D9322",
"i-#	c #524407",
"j-#	c #460601",
"k-#	c #5B0206",
"l-#	c #72040A",
"m-#	c #B2434B",
"n-#	c #F6BBC3",
"o-#	c #FBDDE2",
"p-#	c #D08A94",
"q-#	c #901924",
"r-#	c #610E05",
"s-#	c #4D1405",
"t-#	c #342302",
"u-#	c #324102",
"v-#	c #498320",
"w-#	c #7CD250",
"x-#	c #7CD44D",
"y-#	c #63AC3D",
"z-#	c #386A13",
"A-#	c #1E4902",
"B-#	c #153E01",
"C-#	c #143803",
"D-#	c #0D3804",
"E-#	c #0B4809",
"F-#	c #136312",
"G-#	c #146B10",
"H-#	c #085A04",
"I-#	c #074E03",
"J-#	c #024300",
"K-#	c #12570D",
"L-#	c #4C953F",
"M-#	c #9DD888",
"N-#	c #D8F8BE",
"O-#	c #EBFCD3",
"P-#	c #D5ECC3",
"Q-#	c #9BC681",
"R-#	c #548E35",
"S-#	c #25630C",
"T-#	c #094003",
"U-#	c #043003",
"V-#	c #022401",
"W-#	c #021A07",
"X-#	c #050C08",
"Y-#	c #041404",
"Z-#	c #2A6B18",
"`-#	c #C5F0A6",
" ;#	c #DDFCAA",
".;#	c #92C94D",
"+;#	c #2C5306",
"@;#	c #162F02",
"#;#	c #030E05",
"$;#	c #081202",
"%;#	c #061200",
"&;#	c #071A01",
"*;#	c #032401",
"=;#	c #054203",
"-;#	c #055104",
";;#	c #43733A",
">;#	c #A8C89A",
",;#	c #DEFAD9",
"';#	c #DDF9CD",
");#	c #91D689",
"!;#	c #29B026",
"~;#	c #13BC15",
"{;#	c #169D17",
"];#	c #035404",
"^;#	c #023503",
"/;#	c #083F02",
"(;#	c #024B05",
"_;#	c #427E38",
":;#	c #C9EDAF",
"<;#	c #E6FDC4",
"[;#	c #8AC668",
"};#	c #2F8308",
"|;#	c #2E720E",
"1;#	c #184405",
"2;#	c #1A1007",
"3;#	c #1A1A09",
"4;#	c #524626",
"5;#	c #AC5E5F",
"6;#	c #FBBCC6",
"7;#	c #CB6370",
"8;#	c #561A17",
"9;#	c #043202",
"0;#	c #337815",
"a;#	c #E5FAA4",
"b;#	c #93C462",
"c;#	c #084C09",
"d;#	c #052E05",
"e;#	c #210509",
"f;#	c #2E1014",
"g;#	c #2C0F14",
"h;#	c #300E13",
"i;#	c #38171A",
"j;#	c #340E16",
"k;#	c #3A0C17",
"l;#	c #4A1418",
"m;#	c #A71D24",
"n;#	c #EDA99C",
"o;#	c #F3CFB9",
"p;#	c #8A221B",
"q;#	c #70171A",
"r;#	c #480F12",
"s;#	c #3F0B0E",
"t;#	c #360A14",
"u;#	c #2B060D",
"v;#	c #2B090B",
"w;#	c #331217",
"x;#	c #261114",
"y;#	c #1E0509",
"z;#	c #1A0809",
"A;#	c #18070A",
"B;#	c #1B050A",
"C;#	c #231317",
"D;#	c #470911",
"E;#	c #661214",
"F;#	c #FBD7C4",
"G;#	c #D7907D",
"H;#	c #7B212C",
"I;#	c #5C1821",
"J;#	c #1F0305",
"K;#	c #321012",
"L;#	c #2D0B0B",
"M;#	c #2C090B",
"N;#	c #060904",
"O;#	c #225B1B",
"P;#	c #093705",
"Q;#	c #130D0C",
"R;#	c #090804",
"S;#	c #210D06",
"T;#	c #2D0504",
"U;#	c #32000B",
"V;#	c #24000C",
"W;#	c #052702",
"X;#	c #0B6012",
"Y;#	c #1B7424",
"Z;#	c #054805",
"`;#	c #1B9118",
" >#	c #5AEF64",
".>#	c #51D962",
"+>#	c #09B518",
"@>#	c #33B63A",
"#>#	c #A7ED90",
"$>#	c #75DA5E",
"%>#	c #619918",
"&>#	c #4D4604",
"*>#	c #460204",
"=>#	c #550600",
"->#	c #7E0212",
";>#	c #B23E45",
">>#	c #F3B5B9",
",>#	c #E09DB1",
"'>#	c #8F2425",
")>#	c #6D0402",
"!>#	c #580B09",
"~>#	c #3E1C08",
"{>#	c #313403",
"]>#	c #304B04",
"^>#	c #30590B",
"/>#	c #234403",
"(>#	c #1F2C01",
"_>#	c #1D3506",
":>#	c #193E05",
"<>#	c #154E04",
"[>#	c #367B1D",
"}>#	c #7EBE59",
"|>#	c #63B545",
"1>#	c #2E8D1D",
"2>#	c #136D0E",
"3>#	c #0F5F0A",
"4>#	c #0F5406",
"5>#	c #044700",
"6>#	c #0B5105",
"7>#	c #39872F",
"8>#	c #88C87A",
"9>#	c #CBEFB8",
"0>#	c #E5F6CE",
"a>#	c #C3DFA2",
"b>#	c #86B35F",
"c>#	c #3F7B1D",
"d>#	c #175407",
"e>#	c #063C06",
"f>#	c #032A08",
"g>#	c #081F05",
"h>#	c #0B1A04",
"i>#	c #011705",
"j>#	c #080E07",
"k>#	c #052401",
"l>#	c #074502",
"m>#	c #578C40",
"n>#	c #75A150",
"o>#	c #2E5F10",
"p>#	c #143601",
"q>#	c #040807",
"r>#	c #041201",
"s>#	c #022F06",
"t>#	c #063602",
"u>#	c #074105",
"v>#	c #034E11",
"w>#	c #04580F",
"x>#	c #1E6816",
"y>#	c #85B375",
"z>#	c #DBEFC7",
"A>#	c #F6FBE8",
"B>#	c #C6F0B3",
"C>#	c #5FC04E",
"D>#	c #14BA0A",
"E>#	c #18B715",
"F>#	c #0C880D",
"G>#	c #014701",
"H>#	c #052D03",
"I>#	c #2A6E26",
"J>#	c #B6E39A",
"K>#	c #A1D57E",
"L>#	c #3C880C",
"M>#	c #276F0E",
"N>#	c #215407",
"O>#	c #173006",
"P>#	c #191701",
"Q>#	c #1E1004",
"R>#	c #140E07",
"S>#	c #322B18",
"T>#	c #784124",
"U>#	c #E4ABB9",
"V>#	c #A02C2F",
"W>#	c #520814",
"X>#	c #17030A",
"Y>#	c #0B0005",
"Z>#	c #090005",
"`>#	c #060105",
" ,#	c #084A03",
".,#	c #69A144",
"+,#	c #EDFEA6",
"@,#	c #6AAC49",
"#,#	c #083E02",
"$,#	c #2F0D11",
"%,#	c #340D10",
"&,#	c #350F18",
"*,#	c #EEA89A",
"=,#	c #F4CEBA",
"-,#	c #8E231D",
";,#	c #70161A",
">,#	c #6F282F",
",,#	c #350913",
"',#	c #341418",
"),#	c #281316",
"!,#	c #181116",
"~,#	c #1A050A",
"{,#	c #2B090E",
"],#	c #630F11",
"^,#	c #861A26",
"/,#	c #AC4034",
"(,#	c #D6917D",
"_,#	c #8D171F",
":,#	c #7D232E",
"<,#	c #5D1922",
"[,#	c #3A1114",
"},#	c #330F12",
"|,#	c #2F0B0C",
"1,#	c #2D090B",
"2,#	c #1E0608",
"3,#	c #296722",
"4,#	c #357828",
"5,#	c #0B1D07",
"6,#	c #1A1A01",
"7,#	c #0F0F05",
"8,#	c #421C13",
"9,#	c #550A0B",
"0,#	c #5F040E",
"a,#	c #4D0407",
"b,#	c #230604",
"c,#	c #022502",
"d,#	c #126B13",
"e,#	c #0E6B11",
"f,#	c #024A08",
"g,#	c #279928",
"h,#	c #6CF686",
"i,#	c #45D768",
"j,#	c #07A90F",
"k,#	c #32AA2C",
"l,#	c #96EF8A",
"m,#	c #72D55E",
"n,#	c #569515",
"o,#	c #4E490D",
"p,#	c #4A080A",
"q,#	c #500206",
"r,#	c #6F020F",
"s,#	c #A8282F",
"t,#	c #EAA8AF",
"u,#	c #EAAAB2",
"v,#	c #983130",
"w,#	c #6B0303",
"x,#	c #5D0503",
"y,#	c #431301",
"z,#	c #2E2301",
"A,#	c #262600",
"B,#	c #212401",
"C,#	c #201F01",
"D,#	c #212C02",
"E,#	c #1E3C06",
"F,#	c #195003",
"G,#	c #5A9748",
"H,#	c #C1EBA8",
"I,#	c #F2F8D8",
"J,#	c #C4EDA6",
"K,#	c #77C756",
"L,#	c #318E19",
"M,#	c #146711",
"N,#	c #075302",
"O,#	c #033F03",
"P,#	c #0A4103",
"Q,#	c #247110",
"R,#	c #63A751",
"S,#	c #A8DB8F",
"T,#	c #D6F7BE",
"U,#	c #E1F9B8",
"V,#	c #B7E08A",
"W,#	c #85B45E",
"X,#	c #49812C",
"Y,#	c #1B5A0A",
"Z,#	c #074701",
"`,#	c #041B06",
" '#	c #001805",
".'#	c #021806",
"+'#	c #041606",
"@'#	c #071607",
"#'#	c #071505",
"$'#	c #091407",
"%'#	c #002707",
"&'#	c #023900",
"*'#	c #063A01",
"='#	c #042E09",
"-'#	c #011500",
";'#	c #010E04",
">'#	c #021103",
",'#	c #051403",
"''#	c #051904",
")'#	c #021E03",
"!'#	c #062806",
"~'#	c #023105",
"{'#	c #023E07",
"]'#	c #024708",
"^'#	c #015519",
"/'#	c #035C19",
"('#	c #33712A",
"_'#	c #84AB72",
":'#	c #CBEABB",
"<'#	c #F1FFD7",
"['#	c #E2FBCF",
"}'#	c #9BDC83",
"|'#	c #34B223",
"1'#	c #0FB70C",
"2'#	c #18A717",
"3'#	c #066C06",
"4'#	c #033E03",
"5'#	c #052B04",
"6'#	c #092E03",
"7'#	c #1C6118",
"8'#	c #AAD398",
"9'#	c #E7FECF",
"0'#	c #B4DB90",
"a'#	c #3E8A1B",
"b'#	c #1F650B",
"c'#	c #215704",
"d'#	c #17340B",
"e'#	c #151E09",
"f'#	c #211007",
"g'#	c #1D0904",
"h'#	c #16130A",
"i'#	c #563B24",
"j'#	c #AC6A5C",
"k'#	c #FEDCE0",
"l'#	c #DC6F7E",
"m'#	c #3F0511",
"n'#	c #95C468",
"o'#	c #E3F9A1",
"p'#	c #050205",
"q'#	c #2E0C11",
"r'#	c #320B0F",
"s'#	c #361018",
"t'#	c #3D101B",
"u'#	c #441215",
"v'#	c #7A181F",
"w'#	c #AA1B24",
"x'#	c #EEA27F",
"y'#	c #93231F",
"z'#	c #72171B",
"A'#	c #6E282F",
"B'#	c #2A050B",
"C'#	c #36151A",
"D'#	c #271215",
"E'#	c #1C0307",
"F'#	c #100205",
"G'#	c #190409",
"H'#	c #51151A",
"I'#	c #630F12",
"J'#	c #AB3F35",
"K'#	c #D6927E",
"L'#	c #8D161E",
"M'#	c #5C1822",
"N'#	c #351013",
"O'#	c #2B0C0D",
"P'#	c #020309",
"Q'#	c #0D380B",
"R'#	c #61B648",
"S'#	c #044106",
"T'#	c #151D01",
"U'#	c #121303",
"V'#	c #200F06",
"W'#	c #562116",
"X'#	c #771317",
"Y'#	c #BD5968",
"Z'#	c #7A0D1A",
"`'#	c #570708",
" )#	c #0B0C06",
".)#	c #0D711B",
"+)#	c #09640D",
"@)#	c #33AC43",
"#)#	c #70F583",
"$)#	c #3FCF5A",
"%)#	c #06AF17",
"&)#	c #39B534",
"*)#	c #84E987",
"=)#	c #7ED26D",
"-)#	c #559E20",
";)#	c #4B5504",
">)#	c #4B0C02",
",)#	c #490302",
"')#	c #550207",
"))#	c #6E0309",
"!)#	c #9D272A",
"~)#	c #E19DA3",
"{)#	c #FEE4ED",
"])#	c #F0C4C4",
"^)#	c #B34B4C",
"/)#	c #770E05",
"()#	c #550601",
"_)#	c #4F0606",
":)#	c #371003",
"<)#	c #2C1304",
"[)#	c #2D2005",
"})#	c #283402",
"|)#	c #1F4C01",
"1)#	c #719853",
"2)#	c #D8F4B3",
"3)#	c #EBFECC",
"4)#	c #E6F8D4",
"5)#	c #EBFAE5",
"6)#	c #F2FAEC",
"7)#	c #F0F9E2",
"8)#	c #CCEEB1",
"9)#	c #87CA65",
"0)#	c #409127",
"a)#	c #196209",
"b)#	c #0B5304",
"c)#	c #074A02",
"d)#	c #033E00",
"e)#	c #0F5506",
"f)#	c #317C20",
"g)#	c #6FAF59",
"h)#	c #A7D58E",
"i)#	c #D8EFB3",
"j)#	c #EEFCD1",
"k)#	c #E9F8CA",
"l)#	c #CAE49D",
"m)#	c #9EC674",
"n)#	c #6D9B50",
"o)#	c #3E701E",
"p)#	c #1D5303",
"q)#	c #0B3F05",
"r)#	c #001503",
"s)#	c #031F04",
"t)#	c #011D08",
"u)#	c #012201",
"v)#	c #012802",
"w)#	c #023005",
"x)#	c #033808",
"y)#	c #01410A",
"z)#	c #014B0A",
"A)#	c #136416",
"B)#	c #528E47",
"C)#	c #9DC98C",
"D)#	c #D6F2BC",
"E)#	c #EDFED1",
"F)#	c #E8FDDA",
"G)#	c #B9EAB2",
"H)#	c #5FC24A",
"I)#	c #1EB918",
"J)#	c #23B725",
"K)#	c #1A8F19",
"L)#	c #044D05",
"M)#	c #063406",
"N)#	c #044502",
"O)#	c #1D5A18",
"P)#	c #A1CA95",
"Q)#	c #EBFDD2",
"R)#	c #C1DEA8",
"S)#	c #3F881F",
"T)#	c #21650A",
"U)#	c #14450A",
"V)#	c #133007",
"W)#	c #111E0C",
"X)#	c #111509",
"Y)#	c #1B0802",
"Z)#	c #262113",
"`)#	c #744329",
" !#	c #E5BAB7",
".!#	c #F5B4AF",
"+!#	c #AC1E2C",
"@!#	c #55050E",
"#!#	c #2C0508",
"$!#	c #0F0502",
"%!#	c #022A03",
"&!#	c #176C04",
"*!#	c #BEE088",
"=!#	c #C8E893",
"-!#	c #1B600B",
";!#	c #082703",
">!#	c #270B10",
",!#	c #350E11",
"'!#	c #431315",
")!#	c #7C1820",
"!!#	c #AB1B24",
"~!#	c #EEA27E",
"{!#	c #93211E",
"]!#	c #71151A",
"^!#	c #6B252C",
"/!#	c #491518",
"(!#	c #4C1215",
"_!#	c #180608",
":!#	c #1A0409",
"<!#	c #1B0307",
"[!#	c #291719",
"}!#	c #2C080C",
"|!#	c #480A11",
"1!#	c #51151B",
"2!#	c #661114",
"3!#	c #881A26",
"4!#	c #AA3D38",
"5!#	c #D7937F",
"6!#	c #7B232C",
"7!#	c #5A171F",
"8!#	c #461318",
"9!#	c #3D1117",
"0!#	c #250508",
"a!#	c #391116",
"b!#	c #2C1214",
"c!#	c #3D2427",
"d!#	c #372124",
"e!#	c #331E20",
"f!#	c #6DBC5C",
"g!#	c #3D8C38",
"h!#	c #0D3403",
"i!#	c #2E190E",
"j!#	c #582210",
"k!#	c #7B0C0A",
"l!#	c #E093AB",
"m!#	c #CB7B8D",
"n!#	c #910613",
"o!#	c #48030F",
"p!#	c #071011",
"q!#	c #127714",
"r!#	c #066614",
"s!#	c #085501",
"t!#	c #3CB241",
"u!#	c #7AF69A",
"v!#	c #40D562",
"w!#	c #0DB314",
"x!#	c #2CA731",
"y!#	c #8DE88D",
"z!#	c #76DF77",
"A!#	c #4DA524",
"B!#	c #555B07",
"C!#	c #470F01",
"D!#	c #4F0203",
"E!#	c #4E0605",
"F!#	c #6B040C",
"G!#	c #951F2B",
"H!#	c #D08991",
"I!#	c #FEDFE1",
"J!#	c #F6D6D8",
"K!#	c #CD6E76",
"L!#	c #930F10",
"M!#	c #710409",
"N!#	c #4F070C",
"O!#	c #390F07",
"P!#	c #371C05",
"Q!#	c #273401",
"R!#	c #648F4B",
"S!#	c #D8F5AF",
"T!#	c #E9F9AE",
"U!#	c #A9D16F",
"V!#	c #61B62D",
"W!#	c #86C760",
"X!#	c #C5E8A8",
"Y!#	c #F0F9E0",
"Z!#	c #F8FAF0",
"`!#	c #F1FAEA",
" ~#	c #D1F4BA",
".~#	c #93D26F",
"+~#	c #499728",
"@~#	c #083805",
"#~#	c #093002",
"$~#	c #0D5003",
"%~#	c #24791A",
"&~#	c #5F9E4A",
"*~#	c #97C279",
"=~#	c #DDF3B4",
"-~#	c #D9F4C4",
";~#	c #BFE1AE",
">~#	c #9AC374",
",~#	c #6DA045",
"'~#	c #36731B",
")~#	c #195405",
"!~#	c #104306",
"~~#	c #0B3906",
"{~#	c #053102",
"]~#	c #082605",
"^~#	c #042105",
"/~#	c #051E05",
"(~#	c #031F08",
"_~#	c #002700",
":~#	c #002900",
"<~#	c #002F05",
"[~#	c #003007",
"}~#	c #013006",
"|~#	c #064109",
"1~#	c #054C14",
"2~#	c #0B5A17",
"3~#	c #43823A",
"4~#	c #84B574",
"5~#	c #BBE2B0",
"6~#	c #DEFAD6",
"7~#	c #DFFCCA",
"8~#	c #B1F299",
"9~#	c #6FD24F",
"0~#	c #25B41F",
"a~#	c #1AB027",
"b~#	c #19A11F",
"c~#	c #056606",
"d~#	c #093A04",
"e~#	c #022803",
"f~#	c #031E03",
"g~#	c #062D03",
"h~#	c #0F540B",
"i~#	c #99C08D",
"j~#	c #E8FCE1",
"k~#	c #C1DFA9",
"l~#	c #498523",
"m~#	c #19610B",
"n~#	c #114304",
"o~#	c #0E2D03",
"p~#	c #091408",
"q~#	c #10180B",
"r~#	c #13190F",
"s~#	c #2D1E12",
"t~#	c #884235",
"u~#	c #FAB6B8",
"v~#	c #BB5C59",
"w~#	c #7B030B",
"x~#	c #1C0803",
"y~#	c #280901",
"z~#	c #073902",
"A~#	c #3C8428",
"B~#	c #DCF7AC",
"C~#	c #96C16E",
"D~#	c #0A4708",
"E~#	c #061E04",
"F~#	c #241017",
"G~#	c #362025",
"H~#	c #382227",
"I~#	c #352125",
"J~#	c #331F23",
"K~#	c #2C171B",
"L~#	c #2B0C11",
"M~#	c #310B11",
"N~#	c #340D11",
"O~#	c #361619",
"P~#	c #210709",
"Q~#	c #370F18",
"R~#	c #3E111A",
"S~#	c #471618",
"T~#	c #5F1E21",
"U~#	c #79161D",
"V~#	c #EEA486",
"W~#	c #F4C7B5",
"X~#	c #931F1D",
"Y~#	c #71161B",
"Z~#	c #6E272F",
"`~#	c #4F151B",
" {#	c #4D1317",
".{#	c #280303",
"+{#	c #380D15",
"@{#	c #29060B",
"#{#	c #2A090A",
"${#	c #291417",
"%{#	c #170509",
"&{#	c #231316",
"*{#	c #160E15",
"={#	c #361D1C",
"-{#	c #19060C",
";{#	c #1B0407",
">{#	c #2E090D",
",{#	c #380408",
"'{#	c #460810",
"){#	c #650D11",
"!{#	c #891825",
"~{#	c #AB3E34",
"{{#	c #D8957F",
"]{#	c #8D171D",
"^{#	c #762026",
"/{#	c #58161B",
"({#	c #461219",
"_{#	c #3D1018",
":{#	c #260508",
"<{#	c #391117",
"[{#	c #310B0E",
"}{#	c #2A0809",
"|{#	c #371B1F",
"1{#	c #33171B",
"2{#	c #2D1216",
"3{#	c #230C0E",
"4{#	c #3C7436",
"5{#	c #85D87C",
"6{#	c #195A11",
"7{#	c #23200B",
"8{#	c #49220B",
"9{#	c #731009",
"0{#	c #AE4756",
"a{#	c #F8BED3",
"b{#	c #A85265",
"c{#	c #860912",
"d{#	c #090506",
"e{#	c #061203",
"f{#	c #033303",
"g{#	c #207127",
"h{#	c #0C5E12",
"i{#	c #055202",
"j{#	c #3BB352",
"k{#	c #75F8A0",
"l{#	c #41C85D",
"m{#	c #03AC11",
"n{#	c #19A81F",
"o{#	c #8AE88D",
"p{#	c #8DDD85",
"q{#	c #55AC30",
"r{#	c #526715",
"s{#	c #441C01",
"t{#	c #630403",
"u{#	c #850910",
"v{#	c #CA676A",
"w{#	c #FDD8D1",
"x{#	c #FEE4E4",
"y{#	c #DA8E97",
"z{#	c #902524",
"A{#	c #760406",
"B{#	c #61030E",
"C{#	c #530B0C",
"D{#	c #362B04",
"E{#	c #659444",
"F{#	c #A4D97A",
"G{#	c #8BD65E",
"H{#	c #5AC529",
"I{#	c #40A507",
"J{#	c #419F07",
"K{#	c #45A20F",
"L{#	c #76BA4E",
"M{#	c #C2E59B",
"N{#	c #EDF9CE",
"O{#	c #FAF8E4",
"P{#	c #DCF6C2",
"Q{#	c #9FD677",
"R{#	c #469528",
"S{#	c #236611",
"T{#	c #0C3B04",
"U{#	c #062808",
"V{#	c #052408",
"W{#	c #061D03",
"X{#	c #22650F",
"Y{#	c #3E8522",
"Z{#	c #5CA83E",
"`{#	c #87C76C",
" ]#	c #B1DF94",
".]#	c #D1F3B6",
"+]#	c #E1FDC7",
"@]#	c #DBF9BC",
"#]#	c #AFD793",
"$]#	c #96C47A",
"%]#	c #7BAA62",
"&]#	c #5D8F46",
"*]#	c #40792D",
"=]#	c #276917",
"-]#	c #155F09",
";]#	c #0F5204",
">]#	c #0A4D02",
",]#	c #074801",
"']#	c #054400",
")]#	c #064301",
"!]#	c #064701",
"~]#	c #094903",
"{]#	c #0C4B05",
"]]#	c #215B0E",
"^]#	c #407629",
"/]#	c #3F702D",
"(]#	c #053D05",
"_]#	c #0B5810",
":]#	c #377F3E",
"<]#	c #7FBF7E",
"[]#	c #B7E7B1",
"}]#	c #E4FAE0",
"|]#	c #F3FEE8",
"1]#	c #EFFFD8",
"2]#	c #D1FCA0",
"3]#	c #96E674",
"4]#	c #5DCF65",
"5]#	c #6ADD86",
"6]#	c #45C15F",
"7]#	c #06720E",
"8]#	c #085005",
"9]#	c #0D410A",
"0]#	c #023208",
"a]#	c #002603",
"b]#	c #072C08",
"c]#	c #063703",
"d]#	c #124A08",
"e]#	c #8DB088",
"f]#	c #DBFBD3",
"g]#	c #B1D48A",
"h]#	c #3C7521",
"i]#	c #145609",
"j]#	c #114401",
"k]#	c #0B3922",
"l]#	c #022412",
"m]#	c #090F07",
"n]#	c #0A0904",
"o]#	c #100C07",
"p]#	c #200A03",
"q]#	c #8F3133",
"r]#	c #710C11",
"s]#	c #0C0B04",
"t]#	c #383614",
"u]#	c #9B885C",
"v]#	c #4E1E0E",
"w]#	c #370904",
"x]#	c #012900",
"y]#	c #0C4A00",
"z]#	c #80B460",
"A]#	c #D9FAAE",
"B]#	c #508D36",
"C]#	c #043C07",
"D]#	c #140206",
"E]#	c #1E070D",
"F]#	c #291016",
"G]#	c #33191F",
"H]#	c #391F26",
"I]#	c #42282B",
"J]#	c #3E2428",
"K]#	c #330B10",
"L]#	c #230709",
"M]#	c #391018",
"N]#	c #3F111A",
"O]#	c #2F0200",
"P]#	c #5D1A1E",
"Q]#	c #79181F",
"R]#	c #941F1D",
"S]#	c #71181C",
"T]#	c #70272F",
"U]#	c #52141B",
"V]#	c #410A10",
"W]#	c #290304",
"X]#	c #350B12",
"Y]#	c #29090A",
"Z]#	c #190708",
"`]#	c #160408",
" ^#	c #1C060C",
".^#	c #160E14",
"+^#	c #1A060C",
"@^#	c #190306",
"#^#	c #1D0207",
"$^#	c #1B0306",
"%^#	c #54181E",
"&^#	c #68292B",
"*^#	c #650E12",
"=^#	c #871623",
"-^#	c #AC3F36",
";^#	c #D99680",
">^#	c #782228",
",^#	c #59171D",
"'^#	c #360307",
")^#	c #47131A",
"!^#	c #3E1219",
"~^#	c #370F15",
"{^#	c #320C0F",
"]^#	c #2A0A0F",
"^^#	c #27070D",
"/^#	c #010409",
"(^#	c #8BCD7F",
"_^#	c #72B562",
":^#	c #0E6305",
"<^#	c #0C3001",
"[^#	c #3B250D",
"}^#	c #5F1209",
"|^#	c #860504",
"1^#	c #D77B99",
"2^#	c #EDBFD3",
"3^#	c #A73037",
"4^#	c #790713",
"5^#	c #2E0306",
"6^#	c #062C05",
"7^#	c #157927",
"8^#	c #066310",
"9^#	c #3AA556",
"0^#	c #6CF49E",
"a^#	c #45D56B",
"b^#	c #0AB81E",
"c^#	c #259F26",
"d^#	c #88E385",
"e^#	c #91E88B",
"f^#	c #56B63E",
"g^#	c #50721C",
"h^#	c #482605",
"i^#	c #4D0502",
"j^#	c #800507",
"k^#	c #C24B4C",
"l^#	c #EFBFBF",
"m^#	c #EEAEB5",
"n^#	c #B94A52",
"o^#	c #8A0516",
"p^#	c #64060A",
"q^#	c #491201",
"r^#	c #452403",
"s^#	c #453D06",
"t^#	c #4A7717",
"u^#	c #66BD30",
"v^#	c #7BDE38",
"w^#	c #5ACA26",
"x^#	c #39AA06",
"y^#	c #3D9E0A",
"z^#	c #3F950F",
"A^#	c #6AAE44",
"B^#	c #B3DC97",
"C^#	c #E4F6CA",
"D^#	c #D1F3A3",
"E^#	c #509B2D",
"F^#	c #165208",
"G^#	c #092508",
"H^#	c #0A200A",
"I^#	c #04220B",
"J^#	c #072009",
"K^#	c #09180A",
"L^#	c #071E0C",
"M^#	c #093308",
"N^#	c #1A5D05",
"O^#	c #307B20",
"P^#	c #5B9D4A",
"Q^#	c #89BE77",
"R^#	c #A6D094",
"S^#	c #C2E1AA",
"T^#	c #DBF1BE",
"U^#	c #EAF8D0",
"V^#	c #ECFDD1",
"W^#	c #E7FDC3",
"X^#	c #DAF5AF",
"Y^#	c #D0EA9E",
"Z^#	c #BBDE8C",
"`^#	c #B0D683",
" /#	c #AACE7E",
"./#	c #A7CA7D",
"+/#	c #A6C87B",
"@/#	c #9FC479",
"#/#	c #9FC67A",
"$/#	c #A4CB7F",
"%/#	c #ABD285",
"&/#	c #AED88C",
"*/#	c #B0E19A",
"=/#	c #BCEAA1",
"-/#	c #CBF3A9",
";/#	c #C1EBA5",
">/#	c #136212",
",/#	c #326F2C",
"'/#	c #AADA96",
")/#	c #E0FABD",
"!/#	c #EFFCD0",
"~/#	c #F1FCD7",
"{/#	c #E9FDC8",
"]/#	c #C3F39E",
"^/#	c #85D761",
"//#	c #4ACE59",
"(/#	c #5FE98B",
"_/#	c #75F8AA",
":/#	c #62F4AF",
"</#	c #5DF2B2",
"[/#	c #3FBC7D",
"}/#	c #065C27",
"|/#	c #04320D",
"1/#	c #062C0F",
"2/#	c #062A0E",
"3/#	c #033005",
"4/#	c #084006",
"5/#	c #72985E",
"6/#	c #DCF5BC",
"7/#	c #9EC581",
"8/#	c #346818",
"9/#	c #0F4B04",
"0/#	c #15410B",
"a/#	c #0A3B27",
"b/#	c #1F6D4E",
"c/#	c #125036",
"d/#	c #042311",
"e/#	c #091C0D",
"f/#	c #3E0205",
"g/#	c #100C06",
"h/#	c #576C2D",
"i/#	c #EDEC9D",
"j/#	c #764622",
"k/#	c #4B130B",
"l/#	c #1E6206",
"m/#	c #BEE087",
"n/#	c #BBE18C",
"o/#	c #0F5B07",
"p/#	c #1B0208",
"q/#	c #22030A",
"r/#	c #27060C",
"s/#	c #29080F",
"t/#	c #2C0C12",
"u/#	c #2A0910",
"v/#	c #2F090D",
"w/#	c #330B11",
"x/#	c #371519",
"y/#	c #3B1019",
"z/#	c #41111B",
"A/#	c #5E1C1F",
"B/#	c #A91B24",
"C/#	c #EEA699",
"D/#	c #96211E",
"E/#	c #70171B",
"F/#	c #4F1118",
"G/#	c #410A0F",
"H/#	c #360C13",
"I/#	c #351316",
"J/#	c #180609",
"K/#	c #170F15",
"L/#	c #19060B",
"M/#	c #2B181B",
"N/#	c #53171D",
"O/#	c #670F13",
"P/#	c #881623",
"Q/#	c #AC3F33",
"R/#	c #FBD8C5",
"S/#	c #921C22",
"T/#	c #5A171D",
"U/#	c #370409",
"V/#	c #47141B",
"W/#	c #40131B",
"X/#	c #340C10",
"Y/#	c #320B0D",
"Z/#	c #2F090C",
"`/#	c #2D090D",
" (#	c #250107",
".(#	c #200105",
"+(#	c #011604",
"@(#	c #39682F",
"#(#	c #ACED96",
"$(#	c #569A43",
"%(#	c #1C5E0C",
"&(#	c #292E06",
"*(#	c #4D200A",
"=(#	c #651008",
"-(#	c #8D1219",
";(#	c #E190A2",
">(#	c #E6A7BA",
",(#	c #961C29",
"'(#	c #660510",
")(#	c #010805",
"!(#	c #0D7619",
"~(#	c #085B11",
"{(#	c #024C05",
"](#	c #309951",
"^(#	c #73F1AF",
"/(#	c #47D770",
"((#	c #06AA10",
"_(#	c #14A016",
":(#	c #75D479",
"<(#	c #9EF19A",
"[(#	c #68B94F",
"}(#	c #518420",
"|(#	c #413206",
"1(#	c #4A050A",
"2(#	c #4E0202",
"3(#	c #5B0207",
"4(#	c #9F2429",
"5(#	c #D68D8D",
"6(#	c #FBE3E9",
"7(#	c #FBD8DE",
"8(#	c #D58584",
"9(#	c #922523",
"0(#	c #770707",
"a(#	c #61090C",
"b(#	c #4B1206",
"c(#	c #472402",
"d(#	c #3D3C07",
"e(#	c #3A6F10",
"f(#	c #6FC037",
"g(#	c #87DF48",
"h(#	c #5EC226",
"i(#	c #3BA707",
"j(#	c #369D03",
"k(#	c #3A9302",
"l(#	c #57A030",
"m(#	c #A1D086",
"n(#	c #DFF6BE",
"o(#	c #88CB5A",
"p(#	c #105501",
"q(#	c #0C2C06",
"r(#	c #0C1C06",
"s(#	c #102210",
"t(#	c #0A1E05",
"u(#	c #0D2806",
"v(#	c #053006",
"w(#	c #023009",
"x(#	c #012208",
"y(#	c #002407",
"z(#	c #0A4605",
"A(#	c #105308",
"B(#	c #1E6B13",
"C(#	c #2D8021",
"D(#	c #459638",
"E(#	c #65AC55",
"F(#	c #7EB768",
"G(#	c #96C27C",
"H(#	c #ACCE8F",
"I(#	c #B8D59A",
"J(#	c #C2E0A3",
"K(#	c #C9E9AA",
"L(#	c #CAECA9",
"M(#	c #CAEFAB",
"N(#	c #CBF3B0",
"O(#	c #CAF1B1",
"P(#	c #C5EDAE",
"Q(#	c #C2E8AC",
"R(#	c #BDE3A9",
"S(#	c #B7E0A3",
"T(#	c #A8D892",
"U(#	c #92CB7C",
"V(#	c #7FBE6B",
"W(#	c #5FA553",
"X(#	c #04600B",
"Y(#	c #347932",
"Z(#	c #BCF6AC",
"`(#	c #D5FDB3",
" _#	c #CDF4A3",
"._#	c #9EDD79",
"+_#	c #63C24C",
"@_#	c #3BC25A",
"#_#	c #5DE695",
"$_#	c #77F9B2",
"%_#	c #66F7B6",
"&_#	c #5FF5B6",
"*_#	c #64F6B6",
"=_#	c #4CD78E",
"-_#	c #21A05A",
";_#	c #046022",
">_#	c #023F08",
",_#	c #023804",
"'_#	c #053805",
")_#	c #0E340E",
"!_#	c #0C340E",
"~_#	c #154B0C",
"{_#	c #A0D486",
"]_#	c #7E9E5E",
"^_#	c #2D5A06",
"/_#	c #124609",
"(_#	c #0E3903",
"__#	c #0B2602",
":_#	c #06130B",
"<_#	c #0D3426",
"[_#	c #1E6A52",
"}_#	c #094935",
"|_#	c #0D422E",
"1_#	c #246046",
"2_#	c #20553C",
"3_#	c #06371D",
"4_#	c #080B07",
"5_#	c #688C3D",
"6_#	c #EAF194",
"7_#	c #72471E",
"8_#	c #4E180A",
"9_#	c #111704",
"0_#	c #518C32",
"a_#	c #D8F89C",
"b_#	c #7EAB57",
"c_#	c #053E07",
"d_#	c #230409",
"e_#	c #29080D",
"f_#	c #2C0B10",
"g_#	c #2F0D13",
"h_#	c #310A0F",
"i_#	c #361216",
"j_#	c #3C0F19",
"k_#	c #410F1B",
"l_#	c #471316",
"m_#	c #78171E",
"n_#	c #A71A22",
"o_#	c #EFA89A",
"p_#	c #992321",
"q_#	c #72191C",
"r_#	c #4D0F17",
"s_#	c #480D12",
"t_#	c #390F15",
"u_#	c #2B0B0C",
"v_#	c #361417",
"w_#	c #150305",
"x_#	c #241417",
"y_#	c #1E0409",
"z_#	c #3C080C",
"A_#	c #681014",
"B_#	c #871622",
"C_#	c #941D23",
"D_#	c #792228",
"E_#	c #5C1A20",
"F_#	c #360308",
"G_#	c #2A050C",
"H_#	c #082E04",
"I_#	c #74A262",
"J_#	c #B4EE97",
"K_#	c #3D912D",
"L_#	c #155003",
"M_#	c #323107",
"N_#	c #472006",
"O_#	c #6D0B05",
"P_#	c #9B1220",
"Q_#	c #DD9DB5",
"R_#	c #DC90A6",
"S_#	c #830916",
"T_#	c #4E0306",
"U_#	c #042E03",
"V_#	c #137323",
"W_#	c #085E10",
"X_#	c #318B54",
"Y_#	c #6FEEA1",
"Z_#	c #46E075",
"`_#	c #06AF22",
" :#	c #07A20D",
".:#	c #66C169",
"+:#	c #9EF5A1",
"@:#	c #7EC96C",
"#:#	c #5B9130",
"$:#	c #454E0E",
"%:#	c #441101",
"&:#	c #560406",
"*:#	c #660304",
"=:#	c #8C0F15",
"-:#	c #CA5D69",
";:#	c #F6C0C5",
">:#	c #FDECEC",
",:#	c #F0B1C0",
"':#	c #BC4D58",
"):#	c #840C12",
"!:#	c #610B02",
"~:#	c #4B0E02",
"{:#	c #47120E",
"]:#	c #3E240B",
"^:#	c #333A00",
"/:#	c #487216",
"(:#	c #72C03B",
"_:#	c #84E24F",
"::#	c #66C432",
"<:#	c #42A407",
"[:#	c #3C9E06",
"}:#	c #3B9504",
"|:#	c #5EA42C",
"1:#	c #AEE578",
"2:#	c #ABE075",
"3:#	c #1F640A",
"4:#	c #0F3A03",
"5:#	c #0D1B01",
"6:#	c #062309",
"7:#	c #052D09",
"8:#	c #022906",
"9:#	c #073607",
"0:#	c #083609",
"a:#	c #08350D",
"b:#	c #093310",
"c:#	c #062D10",
"d:#	c #04280D",
"e:#	c #042806",
"f:#	c #0A2B0A",
"g:#	c #0D350B",
"h:#	c #0E440F",
"i:#	c #0C5012",
"j:#	c #0E5D17",
"k:#	c #186716",
"l:#	c #1D6C17",
"m:#	c #1E7018",
"n:#	c #207419",
"o:#	c #207318",
"p:#	c #277521",
"q:#	c #267322",
"r:#	c #216E1F",
"s:#	c #1B661C",
"t:#	c #19611A",
"u:#	c #145610",
"v:#	c #0F4F0B",
"w:#	c #074408",
"x:#	c #063D0F",
"y:#	c #10441A",
"z:#	c #0B440F",
"A:#	c #0D4C10",
"B:#	c #468D48",
"C:#	c #46A449",
"D:#	c #29A334",
"E:#	c #3FC360",
"F:#	c #66EA93",
"G:#	c #76FBAD",
"H:#	c #71F5AB",
"I:#	c #70F7B1",
"J:#	c #7CF4B6",
"K:#	c #57D191",
"L:#	c #1E924C",
"M:#	c #09701F",
"N:#	c #0A5D19",
"O:#	c #0A4908",
"P:#	c #114F09",
"Q:#	c #10550B",
"R:#	c #094C06",
"S:#	c #094806",
"T:#	c #14450C",
"U:#	c #174806",
"V:#	c #255411",
"W:#	c #2F5517",
"X:#	c #1A3D08",
"Y:#	c #040F06",
"Z:#	c #032F1A",
"`:#	c #20644C",
" <#	c #0F4937",
".<#	c #0A2C24",
"+<#	c #062D21",
"@<#	c #0C452F",
"#<#	c #3B7B61",
"$<#	c #093A22",
"%<#	c #070401",
"&<#	c #080C01",
"*<#	c #0B3002",
"=<#	c #83AD4C",
"-<#	c #DDEC84",
";<#	c #634214",
"><#	c #4A200A",
",<#	c #062405",
"'<#	c #134E02",
")<#	c #9ACD6F",
"!<#	c #CDF09B",
"~<#	c #2C6E17",
"{<#	c #0B2105",
"]<#	c #270509",
"^<#	c #3E101A",
"/<#	c #43101B",
"(<#	c #461215",
"_<#	c #5E1B1F",
":<#	c #982220",
"<<#	c #712930",
"[<#	c #4E1118",
"}<#	c #490D13",
"|<#	c #280204",
"1<#	c #181118",
"2<#	c #351B1B",
"3<#	c #1A060A",
"4<#	c #2B1014",
"5<#	c #3B060C",
"6<#	c #672628",
"7<#	c #691116",
"8<#	c #84151F",
"9<#	c #AD4035",
"0<#	c #FCD6C3",
"a<#	c #DB957D",
"b<#	c #921E20",
"c<#	c #7A2128",
"d<#	c #5F1A21",
"e<#	c #380307",
"f<#	c #48141A",
"g<#	c #40141C",
"h<#	c #230107",
"i<#	c #184012",
"j<#	c #97C57E",
"k<#	c #A6E58E",
"l<#	c #297B20",
"m<#	c #204905",
"n<#	c #333505",
"o<#	c #532005",
"p<#	c #700B01",
"q<#	c #8D1C2D",
"r<#	c #E092A8",
"s<#	c #BC5366",
"t<#	c #5C0008",
"u<#	c #020807",
"v<#	c #11711F",
"w<#	c #056516",
"x<#	c #054201",
"y<#	c #217539",
"z<#	c #5DE69B",
"A<#	c #4DEB80",
"B<#	c #1AAF2B",
"C<#	c #05A106",
"D<#	c #4FB253",
"E<#	c #9DEE9F",
"F<#	c #7DD97B",
"G<#	c #56A035",
"H<#	c #556C1D",
"I<#	c #492804",
"J<#	c #5E0406",
"K<#	c #880309",
"L<#	c #AB2430",
"M<#	c #DD8593",
"N<#	c #F9DCDC",
"O<#	c #FCDAE2",
"P<#	c #E08D9A",
"Q<#	c #A33135",
"R<#	c #7E0809",
"S<#	c #610504",
"T<#	c #4D0B04",
"U<#	c #3D1D02",
"V<#	c #392906",
"W<#	c #353504",
"X<#	c #3A6113",
"Y<#	c #6BB745",
"Z<#	c #80DD4E",
"`<#	c #6CCF3A",
" [#	c #4DAE16",
".[#	c #449904",
"+[#	c #5FAE24",
"@[#	c #B0F175",
"#[#	c #478825",
"$[#	c #0D2504",
"%[#	c #0D1E09",
"&[#	c #0A1C0F",
"*[#	c #061D13",
"=[#	c #083202",
"-[#	c #094605",
";[#	c #07540F",
">[#	c #064F08",
",[#	c #094B0B",
"'[#	c #0A4614",
")[#	c #064210",
"![#	c #05410C",
"~[#	c #084414",
"{[#	c #0A451A",
"][#	c #054118",
"^[#	c #033A14",
"/[#	c #023410",
"([#	c #01300F",
"_[#	c #02300F",
":[#	c #022E0D",
"<[#	c #012D0B",
"[[#	c #03300D",
"}[#	c #063411",
"|[#	c #063511",
"1[#	c #01340C",
"2[#	c #02350E",
"3[#	c #02350F",
"4[#	c #043713",
"5[#	c #043813",
"6[#	c #02390C",
"7[#	c #023F0E",
"8[#	c #024310",
"9[#	c #03400E",
"0[#	c #043F0E",
"a[#	c #094715",
"b[#	c #094E17",
"c[#	c #22793C",
"d[#	c #4EC676",
"e[#	c #68F19A",
"f[#	c #6DF8A5",
"g[#	c #63F09F",
"h[#	c #6BF2AA",
"i[#	c #78F5B4",
"j[#	c #60CE9F",
"k[#	c #1F8A56",
"l[#	c #06691B",
"m[#	c #085F0F",
"n[#	c #06570E",
"o[#	c #0F620C",
"p[#	c #196813",
"q[#	c #377835",
"r[#	c #74A570",
"s[#	c #99C592",
"t[#	c #A0CB99",
"u[#	c #88B687",
"v[#	c #51864D",
"w[#	c #194D10",
"x[#	c #1B3B0E",
"y[#	c #254510",
"z[#	c #123207",
"A[#	c #0B1408",
"B[#	c #092414",
"C[#	c #1F5C49",
"D[#	c #074432",
"E[#	c #063B2C",
"F[#	c #0C2D25",
"G[#	c #02271F",
"H[#	c #013B27",
"I[#	c #043C24",
"J[#	c #011D0D",
"K[#	c #030F08",
"L[#	c #A0CE64",
"M[#	c #D6E57D",
"N[#	c #49490C",
"O[#	c #47250C",
"P[#	c #111902",
"Q[#	c #022F01",
"R[#	c #46782B",
"S[#	c #C8F699",
"T[#	c #89BF68",
"U[#	c #054200",
"V[#	c #3B1118",
"W[#	c #41131B",
"X[#	c #621D21",
"Y[#	c #79171D",
"Z[#	c #A61B22",
"`[#	c #EEA898",
" }#	c #F3C5B2",
".}#	c #992521",
"+}#	c #70181A",
"@}#	c #511319",
"#}#	c #4B0D12",
"$}#	c #41080D",
"%}#	c #3A0F17",
"&}#	c #190408",
"*}#	c #1C040A",
"=}#	c #181218",
"-}#	c #341A1A",
";}#	c #1A0509",
">}#	c #240206",
",}#	c #3B040B",
"'}#	c #56191D",
")}#	c #662628",
"!}#	c #691016",
"~}#	c #85151D",
"{}#	c #AF4234",
"]}#	c #FCD7C5",
"^}#	c #921D1E",
"/}#	c #7B1F27",
"(}#	c #621A22",
"_}#	c #4A1317",
":}#	c #441418",
"<}#	c #000B00",
"[}#	c #2A5A21",
"}}#	c #BCDE99",
"|}#	c #A2D184",
"1}#	c #176F13",
"2}#	c #274C04",
"3}#	c #373801",
"4}#	c #4F2002",
"5}#	c #690A0C",
"6}#	c #741523",
"7}#	c #832C3A",
"8}#	c #1A0401",
"9}#	c #030900",
"0}#	c #125F20",
"a}#	c #0D5E1C",
"b}#	c #014002",
"c}#	c #156828",
"d}#	c #4DD484",
"e}#	c #48EC88",
"f}#	c #1AB73B",
"g}#	c #03980F",
"h}#	c #249B26",
"i}#	c #7ADC7C",
"j}#	c #84E485",
"k}#	c #53AC42",
"l}#	c #588528",
"m}#	c #4A4813",
"n}#	c #4D0C06",
"o}#	c #540301",
"p}#	c #6C0504",
"q}#	c #960711",
"r}#	c #C94953",
"s}#	c #EEB1B4",
"t}#	c #FDE7EF",
"u}#	c #F3CCD6",
"v}#	c #CA797A",
"w}#	c #A32629",
"x}#	c #80080B",
"y}#	c #5F0503",
"z}#	c #470C01",
"A}#	c #3C1A05",
"B}#	c #382803",
"C}#	c #303601",
"D}#	c #2A5907",
"E}#	c #55A034",
"F}#	c #72CD48",
"G}#	c #71D043",
"H}#	c #5EBF36",
"I}#	c #A1E969",
"J}#	c #67A941",
"K}#	c #154D02",
"L}#	c #0D2F03",
"M}#	c #0A270B",
"N}#	c #061E08",
"O}#	c #0F2D05",
"P}#	c #1D5F22",
"Q}#	c #91C79C",
"R}#	c #BBE7BD",
"S}#	c #A4D4AC",
"T}#	c #7DB87F",
"U}#	c #559D46",
"V}#	c #358127",
"W}#	c #196318",
"X}#	c #0F5510",
"Y}#	c #0F4D13",
"Z}#	c #104A17",
"`}#	c #10481B",
" |#	c #114A1E",
".|#	c #104A1A",
"+|#	c #0E4813",
"@|#	c #104B13",
"#|#	c #104C24",
"$|#	c #0E4A26",
"%|#	c #0C4823",
"&|#	c #0B4722",
"*|#	c #13491E",
"=|#	c #134A1D",
"-|#	c #164F21",
";|#	c #155022",
">|#	c #145122",
",|#	c #105522",
"'|#	c #0C571E",
")|#	c #0B5F1D",
"!|#	c #126D20",
"~|#	c #2D863A",
"{|#	c #58B36E",
"]|#	c #6BDA91",
"^|#	c #70EFA6",
"/|#	c #6AEBA7",
"(|#	c #6BE9A8",
"_|#	c #75F1B4",
":|#	c #78EFBB",
"<|#	c #5BC994",
"[|#	c #228F49",
"}|#	c #066D15",
"||#	c #025B0F",
"1|#	c #0B6715",
"2|#	c #0C6D12",
"3|#	c #45903F",
"4|#	c #99D093",
"5|#	c #D6F5D2",
"6|#	c #F0FADC",
"7|#	c #F4FAE8",
"8|#	c #EBF9D5",
"9|#	c #B6D99F",
"0|#	c #548349",
"a|#	c #103A06",
"b|#	c #233B11",
"c|#	c #1C4334",
"d|#	c #0F3C2B",
"e|#	c #053126",
"f|#	c #09372C",
"g|#	c #012E22",
"h|#	c #05382B",
"i|#	c #093C2B",
"j|#	c #022413",
"k|#	c #001306",
"l|#	c #041E10",
"m|#	c #06190E",
"n|#	c #0B2502",
"o|#	c #165C03",
"p|#	c #C3EA7B",
"q|#	c #B6DA6E",
"r|#	c #3E4C0D",
"s|#	c #3B280B",
"t|#	c #0E1A02",
"u|#	c #083700",
"v|#	c #9FCA74",
"w|#	c #CEEF96",
"x|#	c #36711F",
"y|#	c #280004",
"z|#	c #40131A",
"A|#	c #4D1418",
"B|#	c #611B20",
"C|#	c #79161B",
"D|#	c #EFAA99",
"E|#	c #9B2722",
"F|#	c #6F1618",
"G|#	c #6F272D",
"H|#	c #4F0F14",
"I|#	c #42090E",
"J|#	c #2A0409",
"K|#	c #3A0E17",
"L|#	c #2B050A",
"M|#	c #2E0B0D",
"N|#	c #371015",
"O|#	c #3C040C",
"P|#	c #692629",
"Q|#	c #6D1319",
"R|#	c #89171F",
"S|#	c #B04232",
"T|#	c #FCD7C4",
"U|#	c #DB937D",
"V|#	c #951C1F",
"W|#	c #641B23",
"X|#	c #4C1013",
"Y|#	c #481214",
"Z|#	c #010F00",
"`|#	c #4A793D",
" 1#	c #C1F0A4",
".1#	c #97C678",
"+1#	c #1D690A",
"@1#	c #1F5401",
"#1#	c #263C04",
"$1#	c #3E2109",
"%1#	c #4B0A05",
"&1#	c #0C5B1F",
"*1#	c #0C6817",
"=1#	c #094D19",
"-1#	c #3AB465",
";1#	c #50F495",
">1#	c #24D35A",
",1#	c #07A31A",
"'1#	c #0B960C",
")1#	c #4ABF53",
"!1#	c #83EA88",
"~1#	c #6AC266",
"{1#	c #4E9518",
"]1#	c #506913",
"^1#	c #3F2305",
"/1#	c #690103",
"(1#	c #8B020B",
"_1#	c #A22227",
":1#	c #CD727C",
"<1#	c #F6C8CF",
"[1#	c #FEEAF2",
"}1#	c #F3C7CF",
"|1#	c #CF797E",
"11#	c #A4242E",
"21#	c #7E0814",
"31#	c #5F0509",
"41#	c #510803",
"51#	c #4A1303",
"61#	c #432009",
"71#	c #332F03",
"81#	c #2B4401",
"91#	c #3B6513",
"01#	c #518929",
"a1#	c #508327",
"b1#	c #396719",
"c1#	c #1C4006",
"d1#	c #172D07",
"e1#	c #0E1C04",
"f1#	c #12230A",
"g1#	c #192D04",
"h1#	c #175920",
"i1#	c #97D7A1",
"j1#	c #E2FDDD",
"k1#	c #DCFDDC",
"l1#	c #E2FFE8",
"m1#	c #EAFEEE",
"n1#	c #ECF7E8",
"o1#	c #C5E5B3",
"p1#	c #A8CF98",
"q1#	c #88B875",
"r1#	c #669F4F",
"s1#	c #478731",
"t1#	c #2A7019",
"u1#	c #1E6514",
"v1#	c #145D12",
"w1#	c #115912",
"x1#	c #0C5512",
"y1#	c #0A5311",
"z1#	c #07500F",
"A1#	c #054E0D",
"B1#	c #044D0C",
"C1#	c #05570C",
"D1#	c #06570D",
"E1#	c #0B5910",
"F1#	c #1E641C",
"G1#	c #3C7B38",
"H1#	c #639D64",
"I1#	c #84BA82",
"J1#	c #99CF96",
"K1#	c #A7E7A9",
"L1#	c #ADF8BA",
"M1#	c #A3F9C3",
"N1#	c #90F9BF",
"O1#	c #84F7BE",
"P1#	c #83F8C1",
"Q1#	c #77E2AF",
"R1#	c #48B27B",
"S1#	c #15813E",
"T1#	c #02641C",
"U1#	c #085411",
"V1#	c #075917",
"W1#	c #0F691B",
"X1#	c #136D0C",
"Y1#	c #458436",
"Z1#	c #99CC87",
"`1#	c #DDF7C9",
" 2#	c #EEFED8",
".2#	c #E6F9CC",
"+2#	c #BFE6A1",
"@2#	c #8CD26B",
"#2#	c #79CB57",
"$2#	c #A3D783",
"%2#	c #D8F1BB",
"&2#	c #DCF0C9",
"*2#	c #709462",
"=2#	c #143A05",
"-2#	c #1A3C09",
";2#	c #0F2F17",
">2#	c #012712",
",2#	c #072A1F",
"'2#	c #082922",
")2#	c #023E2E",
"!2#	c #0D4534",
"~2#	c #082319",
"{2#	c #032212",
"]2#	c #092A1A",
"^2#	c #061504",
"/2#	c #113C04",
"(2#	c #398B21",
"_2#	c #DDFA8E",
":2#	c #88C853",
"<2#	c #3D4D0D",
"[2#	c #2F2307",
"}2#	c #1E4C14",
"|2#	c #B8EC94",
"12#	c #7FA658",
"22#	c #0D3502",
"32#	c #011403",
"42#	c #2A0203",
"52#	c #2F0303",
"62#	c #411119",
"72#	c #501419",
"82#	c #621A1F",
"92#	c #7B161C",
"02#	c #F1AC9A",
"a2#	c #F2C6B3",
"b2#	c #9C2723",
"c2#	c #71292F",
"d2#	c #511318",
"e2#	c #430B0F",
"f2#	c #2B0509",
"g2#	c #1C0309",
"h2#	c #2E060C",
"i2#	c #3D030B",
"j2#	c #490811",
"k2#	c #56161B",
"l2#	c #6B272A",
"m2#	c #6D1017",
"n2#	c #B04132",
"o2#	c #FCD9C6",
"p2#	c #981B1F",
"q2#	c #661C24",
"r2#	c #4F1214",
"s2#	c #4E1617",
"t2#	c #000A02",
"u2#	c #013603",
"v2#	c #558E4A",
"w2#	c #C9F5A8",
"x2#	c #8CB66D",
"y2#	c #1B6209",
"z2#	c #125403",
"A2#	c #213C03",
"B2#	c #2D2602",
"C2#	c #2E1401",
"D2#	c #2A0603",
"E2#	c #1A0105",
"F2#	c #000807",
"G2#	c #010407",
"H2#	c #0C4F15",
"I2#	c #13641B",
"J2#	c #034603",
"K2#	c #024003",
"L2#	c #268A46",
"M2#	c #4FEB86",
"N2#	c #3DE87D",
"O2#	c #16AF35",
"P2#	c #028E03",
"Q2#	c #22A22B",
"R2#	c #6EE175",
"S2#	c #89E28B",
"T2#	c #64AA46",
"U2#	c #527F1D",
"V2#	c #37410C",
"W2#	c #391201",
"X2#	c #6D0108",
"Y2#	c #81070A",
"Z2#	c #A3262C",
"`2#	c #D7888D",
" 3#	c #F6D9D9",
".3#	c #FEECF5",
"+3#	c #F6CACD",
"@3#	c #C97E7E",
"#3#	c #A82B38",
"$3#	c #8C0614",
"%3#	c #600C04",
"&3#	c #530D02",
"*3#	c #461903",
"=3#	c #3B2003",
"-3#	c #382504",
";3#	c #322A06",
">3#	c #2E2902",
",3#	c #2C2806",
"'3#	c #181C05",
")3#	c #15290A",
"!3#	c #13460D",
"~3#	c #7EC789",
"{3#	c #BDFDD6",
"]3#	c #7ECE89",
"^3#	c #41AB40",
"/3#	c #5BBE56",
"(3#	c #83D581",
"_3#	c #A8E8B0",
":3#	c #CAF5D1",
"<3#	c #E1FBE2",
"[3#	c #E9FEE4",
"}3#	c #EEFDE5",
"|3#	c #F3FCE7",
"13#	c #E8FCDE",
"23#	c #DEF6D5",
"33#	c #D6EEC7",
"43#	c #CCE5B8",
"53#	c #C3DDAA",
"63#	c #B2DAA7",
"73#	c #ADD7A6",
"83#	c #ABD5A4",
"93#	c #AAD3A3",
"03#	c #AAD4A4",
"a3#	c #B5DCB3",
"b3#	c #BCE5B9",
"c3#	c #C7F0C2",
"d3#	c #D1FACA",
"e3#	c #D7FECE",
"f3#	c #D5FED0",
"g3#	c #C3FDCF",
"h3#	c #A8F9CA",
"i3#	c #8EF5C6",
"j3#	c #7EF4C5",
"k3#	c #80F5C9",
"l3#	c #7EE8BA",
"m3#	c #62C692",
"n3#	c #249156",
"o3#	c #066722",
"p3#	c #015009",
"q3#	c #014E0F",
"r3#	c #055C16",
"s3#	c #086C18",
"t3#	c #107516",
"u3#	c #4A9041",
"v3#	c #A0CE93",
"w3#	c #D9F8C3",
"x3#	c #E4F6C3",
"y3#	c #ADDA87",
"z3#	c #5FAF2F",
"A3#	c #408F05",
"B3#	c #49800D",
"C3#	c #3E7912",
"D3#	c #2E7906",
"E3#	c #499312",
"F3#	c #9DD366",
"G3#	c #DDFBBD",
"H3#	c #D2F2B7",
"I3#	c #477838",
"J3#	c #1E3D0B",
"K3#	c #1B2C01",
"L3#	c #072619",
"M3#	c #0A352A",
"N3#	c #144B3D",
"O3#	c #052C1F",
"P3#	c #021D0E",
"Q3#	c #09331F",
"R3#	c #042111",
"S3#	c #021004",
"T3#	c #040802",
"U3#	c #031101",
"V3#	c #042502",
"W3#	c #145202",
"X3#	c #76BB49",
"Y3#	c #E1FD98",
"Z3#	c #53A029",
"`3#	c #3A490E",
" 4#	c #271A04",
".4#	c #071104",
"+4#	c #11390F",
"@4#	c #447738",
"#4#	c #0C3C04",
"$4#	c #000304",
"%4#	c #150201",
"&4#	c #260301",
"*4#	c #3D1118",
"=4#	c #46141D",
"-4#	c #4F1016",
";4#	c #641A1F",
">4#	c #7E171E",
",4#	c #AB1D24",
"'4#	c #F1AB99",
")4#	c #9D2924",
"!4#	c #6F262C",
"~4#	c #501218",
"{4#	c #490A0F",
"]4#	c #450D11",
"^4#	c #140305",
"/4#	c #2B161A",
"(4#	c #3E030C",
"_4#	c #4B0811",
":4#	c #56141A",
"<4#	c #6D272B",
"[4#	c #6F1118",
"}4#	c #901622",
"|4#	c #DC937C",
"14#	c #9A1A1F",
"24#	c #7F1E28",
"34#	c #671C24",
"44#	c #3F030A",
"54#	c #3B0105",
"64#	c #4C0E11",
"74#	c #642E2D",
"84#	c #553333",
"94#	c #4E2D2F",
"04#	c #4F2F32",
"a4#	c #492B2D",
"b4#	c #46252C",
"c4#	c #442429",
"d4#	c #422429",
"e4#	c #412429",
"f4#	c #402228",
"g4#	c #3D2027",
"h4#	c #3A1F25",
"i4#	c #32181F",
"j4#	c #2B0F14",
"k4#	c #280A0F",
"l4#	c #0D0004",
"m4#	c #5D9551",
"n4#	c #C6F2AB",
"o4#	c #86BB74",
"p4#	c #1D6609",
"q4#	c #185200",
"r4#	c #102D07",
"s4#	c #141103",
"t4#	c #06380B",
"u4#	c #105E1A",
"v4#	c #04560B",
"w4#	c #054302",
"x4#	c #116822",
"y4#	c #39C66F",
"z4#	c #50F394",
"A4#	c #34CF67",
"B4#	c #06A31A",
"C4#	c #08A212",
"D4#	c #50C961",
"E4#	c #9DEF9B",
"F4#	c #96CE7C",
"G4#	c #5E8E2E",
"H4#	c #585B19",
"I4#	c #451E02",
"J4#	c #4C0208",
"K4#	c #5E0009",
"L4#	c #6F0105",
"M4#	c #8E0709",
"N4#	c #AF343A",
"O4#	c #DC929A",
"P4#	c #F8D3D9",
"Q4#	c #FFEAE9",
"R4#	c #F6D2CB",
"S4#	c #D89490",
"T4#	c #AD4045",
"U4#	c #890712",
"V4#	c #690304",
"W4#	c #540902",
"X4#	c #481003",
"Y4#	c #3E1804",
"Z4#	c #3E1907",
"`4#	c #37180A",
" 5#	c #291206",
".5#	c #1F1504",
"+5#	c #25200A",
"@5#	c #183803",
"#5#	c #39A757",
"$5#	c #79F2AB",
"%5#	c #62F3A4",
"&5#	c #31E77E",
"*5#	c #29D866",
"=5#	c #1FCF64",
"-5#	c #1BC055",
";5#	c #18B340",
">5#	c #23B031",
",5#	c #40B63F",
"'5#	c #65C064",
")5#	c #88CB8A",
"!5#	c #A3DAA8",
"~5#	c #BAE8BB",
"{5#	c #C4F2C4",
"]5#	c #C9F6CB",
"^5#	c #CEF9D4",
"/5#	c #D2FAD9",
"(5#	c #D6FBDD",
"_5#	c #D9FBDF",
":5#	c #DAFCE2",
"<5#	c #DBFDE3",
"[5#	c #DAFCE1",
"}5#	c #D0F9DF",
"|5#	c #C4F8D9",
"15#	c #B3F6D3",
"25#	c #A0F2C9",
"35#	c #8DECBC",
"45#	c #7CECB5",
"55#	c #69F0AF",
"65#	c #5AEBA6",
"75#	c #52DB97",
"85#	c #41BE7D",
"95#	c #209555",
"05#	c #046A2D",
"a5#	c #04541A",
"b5#	c #03490F",
"c5#	c #064D12",
"d5#	c #095614",
"e5#	c #095E0D",
"f5#	c #14660D",
"g5#	c #4E913A",
"h5#	c #9ED088",
"i5#	c #EEFDD4",
"j5#	c #ADD680",
"k5#	c #67A133",
"l5#	c #457E0D",
"m5#	c #437410",
"n5#	c #39680E",
"o5#	c #275707",
"p5#	c #1E4C06",
"q5#	c #2C790E",
"r5#	c #3A8A0B",
"s5#	c #83C153",
"t5#	c #DCF9B9",
"u5#	c #ACD08F",
"v5#	c #1D4703",
"w5#	c #183106",
"x5#	c #132209",
"y5#	c #082717",
"z5#	c #0D4536",
"A5#	c #092F27",
"B5#	c #03190C",
"C5#	c #0F3724",
"D5#	c #04301B",
"E5#	c #060D05",
"F5#	c #053B02",
"G5#	c #1E6806",
"H5#	c #B9E572",
"I5#	c #C7E88E",
"J5#	c #2F7E09",
"K5#	c #30400A",
"L5#	c #1C1301",
"M5#	c #050D06",
"N5#	c #1C0207",
"O5#	c #2A0C12",
"P5#	c #34151C",
"Q5#	c #37191E",
"R5#	c #432428",
"S5#	c #4A252A",
"T5#	c #4C2528",
"U5#	c #4E262B",
"V5#	c #4F262C",
"W5#	c #522728",
"X5#	c #5A2E33",
"Y5#	c #5F362F",
"Z5#	c #4E2228",
"`5#	c #380004",
" 6#	c #4F0F15",
".6#	c #65191F",
"+6#	c #80181F",
"@6#	c #AD1D24",
"#6#	c #F1AA99",
"$6#	c #6D1416",
"%6#	c #6D242A",
"&6#	c #4F1116",
"*6#	c #4A0B10",
"=6#	c #450C11",
"-6#	c #271114",
";6#	c #180F17",
">6#	c #351A1A",
",6#	c #2C161A",
"'6#	c #2D060B",
")6#	c #391217",
"!6#	c #3E060C",
"~6#	c #54141A",
"{6#	c #6D262A",
"]6#	c #701016",
"^6#	c #B34135",
"/6#	c #FCD8C2",
"(6#	c #DC8F77",
"_6#	c #9D1E20",
":6#	c #7E2027",
"<6#	c #671E21",
"[6#	c #400405",
"}6#	c #46040C",
"|6#	c #53292A",
"16#	c #502829",
"26#	c #50292A",
"36#	c #4B2427",
"46#	c #4B2325",
"56#	c #472122",
"66#	c #452022",
"76#	c #451E23",
"86#	c #441F24",
"96#	c #432125",
"06#	c #431F24",
"a6#	c #3C181B",
"b6#	c #300F13",
"c6#	c #2A040B",
"d6#	c #023B02",
"e6#	c #5E8D52",
"f6#	c #BDF0A7",
"g6#	c #92C97C",
"h6#	c #205E0D",
"i6#	c #18500B",
"j6#	c #13410E",
"k6#	c #040505",
"l6#	c #012303",
"m6#	c #13581B",
"n6#	c #0E6319",
"o6#	c #024604",
"p6#	c #014606",
"q6#	c #218F4D",
"r6#	c #4AE78F",
"s6#	c #3FEC82",
"t6#	c #14B537",
"u6#	c #019206",
"v6#	c #3AA641",
"w6#	c #98E69C",
"x6#	c #A6E699",
"y6#	c #74A941",
"z6#	c #5E6A17",
"A6#	c #442B05",
"B6#	c #3D0602",
"C6#	c #460104",
"D6#	c #790008",
"E6#	c #90060D",
"F6#	c #B2323D",
"G6#	c #D38486",
"H6#	c #F4CDC8",
"I6#	c #FFECEA",
"J6#	c #FADCDE",
"K6#	c #E6A2A1",
"L6#	c #B0585C",
"M6#	c #85131B",
"N6#	c #740808",
"O6#	c #630804",
"P6#	c #520805",
"Q6#	c #460A03",
"R6#	c #3C1506",
"S6#	c #301C08",
"T6#	c #2C2409",
"U6#	c #2A4A0B",
"V6#	c #278931",
"W6#	c #129237",
"X6#	c #10AA49",
"Y6#	c #1BC463",
"Z6#	c #2CDC7F",
"`6#	c #39EF9F",
" 7#	c #3FF7B0",
".7#	c #34F7AC",
"+7#	c #2CF4A6",
"@7#	c #2DF0A1",
"#7#	c #2DE999",
"$7#	c #31E593",
"%7#	c #33E28E",
"&7#	c #36DE8A",
"*7#	c #37DA8B",
"=7#	c #3AD68E",
"-7#	c #3CD48D",
";7#	c #41D58E",
">7#	c #48D78F",
",7#	c #4ADB92",
"'7#	c #4FE19C",
")7#	c #52E3A0",
"!7#	c #55E4A4",
"~7#	c #53E5A5",
"{7#	c #56ECA9",
"]7#	c #5AEEAD",
"^7#	c #5AEAAB",
"/7#	c #51D99F",
"(7#	c #47C189",
"_7#	c #309F62",
":7#	c #14773C",
"<7#	c #055B21",
"[7#	c #044E10",
"}7#	c #034707",
"|7#	c #074F0F",
"17#	c #0C5A17",
"27#	c #0B5C16",
"37#	c #055612",
"47#	c #1F6819",
"57#	c #67A458",
"67#	c #ACDB97",
"77#	c #DFF8C5",
"87#	c #F0FEDC",
"97#	c #DEF7BE",
"07#	c #B0D57C",
"a7#	c #6C9B38",
"b7#	c #477A11",
"c7#	c #3F7310",
"d7#	c #355E0D",
"e7#	c #223D04",
"f7#	c #1F3109",
"g7#	c #202706",
"h7#	c #1D2003",
"i7#	c #111E08",
"j7#	c #143E03",
"k7#	c #307604",
"l7#	c #41970B",
"m7#	c #9ECD74",
"n7#	c #E0F6AC",
"o7#	c #528432",
"p7#	c #18340A",
"q7#	c #182405",
"r7#	c #0B210F",
"s7#	c #000806",
"t7#	c #02170A",
"u7#	c #082E1C",
"v7#	c #113121",
"w7#	c #001607",
"x7#	c #040E06",
"y7#	c #042A01",
"z7#	c #095103",
"A7#	c #61993D",
"B7#	c #E5FA9E",
"C7#	c #83BA5E",
"D7#	c #336408",
"E7#	c #242906",
"F7#	c #11100A",
"G7#	c #3A0C13",
"H7#	c #2D0B11",
"I7#	c #351519",
"J7#	c #411B1F",
"K7#	c #421D20",
"L7#	c #452221",
"M7#	c #4A2425",
"N7#	c #4F2324",
"O7#	c #522327",
"P7#	c #552428",
"Q7#	c #57262C",
"R7#	c #572429",
"S7#	c #572121",
"T7#	c #5B2427",
"U7#	c #5E2B24",
"V7#	c #44070B",
"W7#	c #430406",
"X7#	c #450507",
"Y7#	c #550D17",
"Z7#	c #6A1720",
"`7#	c #871822",
" 8#	c #AF1C24",
".8#	c #F1A999",
"+8#	c #F1C4B7",
"@8#	c #992923",
"#8#	c #70121A",
"$8#	c #732426",
"%8#	c #53131A",
"&8#	c #4B0C10",
"*8#	c #41080F",
"=8#	c #2B0207",
"-8#	c #280207",
";8#	c #380C14",
">8#	c #381318",
",8#	c #170507",
"'8#	c #1C0408",
")8#	c #231219",
"!8#	c #180E16",
"~8#	c #2D161A",
"{8#	c #3A1318",
"]8#	c #3D060B",
"^8#	c #480910",
"/8#	c #531319",
"(8#	c #6E272B",
"_8#	c #6F0F14",
":8#	c #901825",
"<8#	c #B44134",
"[8#	c #FCD6C0",
"}8#	c #DB8C76",
"|8#	c #A01F22",
"18#	c #851F27",
"28#	c #6C191E",
"38#	c #4B0307",
"48#	c #510810",
"58#	c #4D030D",
"68#	c #44030B",
"78#	c #3D0208",
"88#	c #390207",
"98#	c #370207",
"08#	c #350207",
"a8#	c #36050B",
"b8#	c #33070B",
"c8#	c #30070A",
"d8#	c #300509",
"e8#	c #4C8545",
"f8#	c #C3EDA4",
"g8#	c #A7D287",
"h8#	c #29631A",
"i8#	c #154706",
"j8#	c #103B08",
"k8#	c #073F0E",
"l8#	c #125F23",
"m8#	c #0A5119",
"n8#	c #023C03",
"o8#	c #0F6327",
"p8#	c #39C573",
"q8#	c #44F092",
"r8#	c #25C661",
"s8#	c #039120",
"t8#	c #109419",
"u8#	c #59C755",
"v8#	c #8FE270",
"w8#	c #6C9E3D",
"x8#	c #474B16",
"y8#	c #301804",
"z8#	c #330902",
"A8#	c #380601",
"B8#	c #420501",
"C8#	c #580301",
"D8#	c #6C0002",
"E8#	c #830009",
"F8#	c #98020F",
"G8#	c #D07176",
"H8#	c #F1BEBD",
"I8#	c #FEE9F2",
"J8#	c #FEE3EF",
"K8#	c #F4BCC4",
"L8#	c #CF7D83",
"M8#	c #A43940",
"N8#	c #7F0D0F",
"O8#	c #6B0A07",
"P8#	c #570E07",
"Q8#	c #471107",
"R8#	c #3E1608",
"S8#	c #2C2404",
"T8#	c #203C08",
"U8#	c #224C0A",
"V8#	c #184A02",
"W8#	c #015E07",
"X8#	c #026E23",
"Y8#	c #06813E",
"Z8#	c #0A9C56",
"`8#	c #11B36B",
" 9#	c #1BC47C",
".9#	c #25D58C",
"+9#	c #28DE97",
"@9#	c #29E49E",
"#9#	c #2CE7A5",
"$9#	c #2EE7AA",
"%9#	c #30E7AF",
"&9#	c #30E6AF",
"*9#	c #34E7AF",
"=9#	c #34E8AA",
"-9#	c #32E6A3",
";9#	c #34E29C",
">9#	c #35D78F",
",9#	c #35CA85",
"'9#	c #31B681",
")9#	c #24A46D",
"!9#	c #158B4F",
"~9#	c #076F30",
"{9#	c #01581A",
"]9#	c #02420E",
"^9#	c #023E0E",
"/9#	c #044212",
"(9#	c #064C11",
"_9#	c #065310",
":9#	c #075410",
"<9#	c #084E04",
"[9#	c #085007",
"}9#	c #2A7127",
"|9#	c #76B76D",
"19#	c #C0EBAA",
"29#	c #EEFBD3",
"39#	c #D2F3B2",
"49#	c #9CC978",
"59#	c #5F9235",
"69#	c #3B7508",
"79#	c #396C0D",
"89#	c #2D530B",
"99#	c #233805",
"09#	c #1D2D09",
"a9#	c #1D290C",
"b9#	c #1B1E03",
"c9#	c #122410",
"d9#	c #1E1E0B",
"e9#	c #1F1B08",
"f9#	c #194202",
"g9#	c #348909",
"h9#	c #549C25",
"i9#	c #CEF194",
"j9#	c #85BF5C",
"k9#	c #183A06",
"l9#	c #192207",
"m9#	c #0A1404",
"n9#	c #00140B",
"o9#	c #092A1B",
"p9#	c #0F3120",
"q9#	c #002202",
"r9#	c #0B4604",
"s9#	c #1E620A",
"t9#	c #AFD885",
"u9#	c #C2EC8C",
"v9#	c #3C7D18",
"w9#	c #2E510C",
"x9#	c #151502",
"y9#	c #380710",
"z9#	c #3B0309",
"A9#	c #3B0109",
"B9#	c #3C0108",
"C9#	c #42020B",
"D9#	c #47040C",
"E9#	c #48030A",
"F9#	c #480309",
"G9#	c #480209",
"H9#	c #4A030A",
"I9#	c #490108",
"J9#	c #4D030C",
"K9#	c #590F17",
"L9#	c #6C1921",
"M9#	c #B01F27",
"N9#	c #F1C5B8",
"O9#	c #952721",
"P9#	c #752525",
"Q9#	c #4E0F12",
"R9#	c #420911",
"S9#	c #2B0208",
"T9#	c #380B13",
"U9#	c #2D080B",
"V9#	c #391318",
"W9#	c #23121A",
"X9#	c #180D15",
"Y9#	c #361B1B",
"Z9#	c #2D050B",
"`9#	c #240305",
" 0#	c #6F282D",
".0#	c #6C0C13",
"+0#	c #8F1A28",
"@0#	c #B34133",
"#0#	c #FCD7C2",
"$0#	c #DB8A76",
"%0#	c #A32025",
"&0#	c #89252B",
"*0#	c #731F22",
"=0#	c #5C1417",
"-0#	c #540E13",
";0#	c #550F16",
">0#	c #511217",
",0#	c #4E1418",
"'0#	c #47161A",
")0#	c #48181C",
"!0#	c #3E0B11",
"~0#	c #360408",
"{0#	c #340609",
"]0#	c #350609",
"^0#	c #30050B",
"/0#	c #073102",
"(0#	c #306C2E",
"_0#	c #93D585",
":0#	c #99D686",
"<0#	c #26601D",
"[0#	c #094301",
"}0#	c #053A04",
"|0#	c #082B08",
"10#	c #090007",
"20#	c #114C21",
"30#	c #155C26",
"40#	c #04490F",
"50#	c #004705",
"60#	c #16833B",
"70#	c #3CD078",
"80#	c #49E78B",
"90#	c #3DBE67",
"00#	c #096F14",
"a0#	c #1B650D",
"b0#	c #264E06",
"c0#	c #232302",
"d0#	c #250E03",
"e0#	c #2E0906",
"f0#	c #320C04",
"g0#	c #381201",
"h0#	c #440B00",
"i0#	c #520301",
"j0#	c #570208",
"k0#	c #660305",
"l0#	c #7D0201",
"m0#	c #910208",
"n0#	c #A31423",
"o0#	c #C05661",
"p0#	c #DFA1A3",
"q0#	c #F8D8D7",
"r0#	c #FEE9F0",
"s0#	c #F9DBE9",
"t0#	c #E6B0B5",
"u0#	c #C06E7B",
"v0#	c #952D3F",
"w0#	c #710C15",
"x0#	c #560903",
"y0#	c #460B02",
"z0#	c #3C1006",
"A0#	c #2D220B",
"B0#	c #163106",
"C0#	c #0B4006",
"D0#	c #084C08",
"E0#	c #025604",
"F0#	c #055D02",
"G0#	c #066604",
"H0#	c #066C0A",
"I0#	c #066A0C",
"J0#	c #076C10",
"K0#	c #086D16",
"L0#	c #076F1C",
"M0#	c #077312",
"N0#	c #067410",
"O0#	c #057215",
"P0#	c #04721A",
"Q0#	c #087123",
"R0#	c #066F21",
"S0#	c #056C18",
"T0#	c #056710",
"U0#	c #06630C",
"V0#	c #075E0A",
"W0#	c #055A09",
"X0#	c #08590C",
"Y0#	c #09500D",
"Z0#	c #094A0A",
"`0#	c #074508",
" a#	c #064114",
".a#	c #053F12",
"+a#	c #043F05",
"@a#	c #084307",
"#a#	c #1D5914",
"$a#	c #528C41",
"%a#	c #96C784",
"&a#	c #CFEFB9",
"*a#	c #F0FCD7",
"=a#	c #EEFACC",
"-a#	c #C7EB9E",
";a#	c #8DC560",
">a#	c #589928",
",a#	c #40800D",
"'a#	c #2F6703",
")a#	c #1E4802",
"!a#	c #173003",
"~a#	c #1E2A08",
"{a#	c #20280A",
"]a#	c #132208",
"^a#	c #15180A",
"/a#	c #1E2E1F",
"(a#	c #3A6C53",
"_a#	c #96B3AD",
":a#	c #5E6B58",
"<a#	c #27281F",
"[a#	c #2D6D06",
"}a#	c #3D9006",
"|a#	c #98D160",
"1a#	c #A3E271",
"2a#	c #26520C",
"3a#	c #010E09",
"4a#	c #06291C",
"5a#	c #0A3120",
"6a#	c #0F5C02",
"7a#	c #71A54F",
"8a#	c #E0FAB2",
"9a#	c #77B959",
"0a#	c #2E5F09",
"aa#	c #1B2704",
"ba#	c #0D0C03",
"ca#	c #34060D",
"da#	c #3C0813",
"ea#	c #2F0308",
"fa#	c #340408",
"ga#	c #31060B",
"ha#	c #31070D",
"ia#	c #37090E",
"ja#	c #42171A",
"ka#	c #431A1B",
"la#	c #471A1B",
"ma#	c #4B191B",
"na#	c #4D181C",
"oa#	c #4F141B",
"pa#	c #511017",
"qa#	c #530C14",
"ra#	c #540D15",
"sa#	c #63181D",
"ta#	c #731F24",
"ua#	c #8D1F27",
"va#	c #B12029",
"wa#	c #F2AC9B",
"xa#	c #F2C8BC",
"ya#	c #942720",
"za#	c #72131C",
"Aa#	c #742425",
"Ba#	c #54131B",
"Ca#	c #4B0C0F",
"Da#	c #2B0308",
"Ea#	c #390C14",
"Fa#	c #2C080A",
"Ga#	c #371216",
"Ha#	c #281115",
"Ia#	c #120205",
"Ja#	c #211017",
"Ka#	c #170C14",
"La#	c #2C151A",
"Ma#	c #360F14",
"Na#	c #3F080D",
"Oa#	c #511117",
"Pa#	c #8F1B29",
"Qa#	c #B04030",
"Ra#	c #DC8A62",
"Sa#	c #A72228",
"Ta#	c #8B2629",
"Ua#	c #882F32",
"Va#	c #87383B",
"Wa#	c #7D3237",
"Xa#	c #80383C",
"Ya#	c #7B393B",
"Za#	c #7A3B3D",
"`a#	c #7A3C3E",
" b#	c #7A393C",
".b#	c #7C393C",
"+b#	c #78363A",
"@b#	c #773639",
"#b#	c #763438",
"$b#	c #6E2D31",
"%b#	c #6B2B30",
"&b#	c #5B1F26",
"*b#	c #3B060B",
"=b#	c #350407",
"-b#	c #350508",
";b#	c #340407",
">b#	c #2E080C",
",b#	c #052200",
"'b#	c #144B14",
")b#	c #69AE6B",
"!b#	c #6BA86A",
"~b#	c #0B3D06",
"{b#	c #083403",
"]b#	c #122F0D",
"^b#	c #0C0B01",
"/b#	c #052E0B",
"(b#	c #0F5522",
"_b#	c #0E531E",
":b#	c #043C0E",
"<b#	c #064110",
"[b#	c #1D7F42",
"}b#	c #31924F",
"|b#	c #0D450F",
"1b#	c #142C08",
"2b#	c #1B1B00",
"3b#	c #240D05",
"4b#	c #2C0D08",
"5b#	c #311609",
"6b#	c #302206",
"7b#	c #393E07",
"8b#	c #585D21",
"9b#	c #574D1C",
"0b#	c #532506",
"ab#	c #5A0A01",
"bb#	c #6A0301",
"cb#	c #740004",
"db#	c #750006",
"eb#	c #810207",
"fb#	c #960815",
"gb#	c #AD313E",
"hb#	c #C8737B",
"ib#	c #E8B2B4",
"jb#	c #FFE3E9",
"kb#	c #F8D3DA",
"lb#	c #E1ACAF",
"mb#	c #BB7375",
"nb#	c #952E37",
"ob#	c #63080E",
"pb#	c #350F06",
"qb#	c #1C1609",
"rb#	c #161B0C",
"sb#	c #0A2F0D",
"tb#	c #084C0A",
"ub#	c #0C5E07",
"vb#	c #0D6D11",
"wb#	c #0E7514",
"xb#	c #137916",
"yb#	c #137C14",
"zb#	c #157F12",
"Ab#	c #14800E",
"Bb#	c #198012",
"Cb#	c #197F15",
"Db#	c #187E1A",
"Eb#	c #167D1A",
"Fb#	c #177F1A",
"Gb#	c #1D8015",
"Hb#	c #198014",
"Ib#	c #15811B",
"Jb#	c #178122",
"Kb#	c #147D21",
"Lb#	c #0B7C18",
"Mb#	c #0A7314",
"Nb#	c #0E6713",
"Ob#	c #0E530A",
"Pb#	c #093F04",
"Qb#	c #04310F",
"Rb#	c #033912",
"Sb#	c #0F5104",
"Tb#	c #3D7E21",
"Ub#	c #7BB75D",
"Vb#	c #B8E496",
"Wb#	c #E1FAC5",
"Xb#	c #F2FED2",
"Yb#	c #E5F7BC",
"Zb#	c #B8DC8A",
"`b#	c #75B049",
" c#	c #458716",
".c#	c #306B06",
"+c#	c #285108",
"@c#	c #1A4203",
"#c#	c #143606",
"$c#	c #18290D",
"%c#	c #19230B",
"&c#	c #162306",
"*c#	c #0F2604",
"=c#	c #1D2B10",
"-c#	c #46704A",
";c#	c #6C9D74",
">c#	c #8D9479",
",c#	c #B38C68",
"'c#	c #96653A",
")c#	c #4A2A13",
"!c#	c #181806",
"~c#	c #1E4809",
"{c#	c #3C870C",
"]c#	c #63A930",
"^c#	c #B5F17A",
"/c#	c #3E7217",
"(c#	c #1D230D",
"_c#	c #062017",
":c#	c #0D2C20",
"<c#	c #01190C",
"[c#	c #023101",
"}c#	c #095A02",
"|c#	c #478431",
"1c#	c #CAF19D",
"2c#	c #BFDD92",
"3c#	c #2D7219",
"4c#	c #254307",
"5c#	c #141003",
"6c#	c #310309",
"7c#	c #310508",
"8c#	c #2F080A",
"9c#	c #632E2F",
"0c#	c #6F3C3A",
"ac#	c #733D38",
"bc#	c #783E3B",
"cc#	c #7D4041",
"dc#	c #82413F",
"ec#	c #864248",
"fc#	c #8A4341",
"gc#	c #8C4448",
"hc#	c #8B4146",
"ic#	c #893D3F",
"jc#	c #8D3F45",
"kc#	c #96423D",
"lc#	c #862B2F",
"mc#	c #952229",
"nc#	c #B5212B",
"oc#	c #F2AB9B",
"pc#	c #F3C8BB",
"qc#	c #952821",
"rc#	c #74151E",
"sc#	c #732323",
"tc#	c #4D0D10",
"uc#	c #410810",
"vc#	c #2B0709",
"wc#	c #1E0308",
"xc#	c #1E0D14",
"yc#	c #170D15",
"zc#	c #291317",
"Ac#	c #480810",
"Bc#	c #6B2529",
"Cc#	c #6D0E14",
"Dc#	c #8D1A29",
"Ec#	c #AE4033",
"Fc#	c #FCD6C5",
"Gc#	c #DC8644",
"Hc#	c #AA2129",
"Ic#	c #942830",
"Jc#	c #933038",
"Kc#	c #90323C",
"Lc#	c #892E38",
"Mc#	c #812F36",
"Nc#	c #7C2A32",
"Oc#	c #7C2730",
"Pc#	c #7F242D",
"Qc#	c #85262F",
"Rc#	c #86262F",
"Sc#	c #882831",
"Tc#	c #80242C",
"Uc#	c #731D27",
"Vc#	c #5E151D",
"Wc#	c #450A0F",
"Xc#	c #340506",
"Yc#	c #310707",
"Zc#	c #310407",
"`c#	c #2F0207",
" d#	c #092F0A",
".d#	c #052904",
"+d#	c #071D00",
"@d#	c #071701",
"#d#	c #010907",
"$d#	c #0B1702",
"%d#	c #104918",
"&d#	c #0E4A13",
"*d#	c #023202",
"=d#	c #0A2505",
"-d#	c #0F1B07",
";d#	c #0D0D01",
">d#	c #190C01",
",d#	c #261C04",
"'d#	c #253604",
")d#	c #5E863E",
"!d#	c #97CF6B",
"~d#	c #8DCA5A",
"{d#	c #72A73F",
"]d#	c #789A3C",
"^d#	c #68722E",
"/d#	c #573816",
"(d#	c #5A0D03",
"_d#	c #640601",
":d#	c #690404",
"<d#	c #6F0305",
"[d#	c #7A0204",
"}d#	c #890308",
"|d#	c #960D11",
"1d#	c #B03B40",
"2d#	c #D08085",
"3d#	c #EEBEC5",
"4d#	c #FFE4EB",
"5d#	c #FEEEF0",
"6d#	c #F6D0D3",
"7d#	c #D27B87",
"8d#	c #771E20",
"9d#	c #2C0F02",
"0d#	c #0D1E03",
"ad#	c #20491C",
"bd#	c #88B67D",
"cd#	c #BCE4AD",
"dd#	c #CBEBC3",
"ed#	c #C9EBC5",
"fd#	c #C2E8BD",
"gd#	c #BBE3BB",
"hd#	c #B3DFBC",
"id#	c #ABDBB9",
"jd#	c #ADD9B1",
"kd#	c #AED8AF",
"ld#	c #ADD8B1",
"md#	c #AAD8AD",
"nd#	c #AADBAC",
"od#	c #A8DCB1",
"pd#	c #A9DFB4",
"qd#	c #B1E1B8",
"rd#	c #BAE1BB",
"sd#	c #C2E2BF",
"td#	c #C6E3CA",
"ud#	c #BDE3C3",
"vd#	c #A8D8AA",
"wd#	c #6DA266",
"xd#	c #19620E",
"yd#	c #10500D",
"zd#	c #0F4108",
"Ad#	c #9AC16B",
"Bd#	c #DAF7A5",
"Cd#	c #DCF0A7",
"Dd#	c #A8CA70",
"Ed#	c #609131",
"Fd#	c #32690C",
"Gd#	c #295605",
"Hd#	c #234605",
"Id#	c #20400B",
"Jd#	c #183909",
"Kd#	c #0E2E06",
"Ld#	c #082103",
"Md#	c #0D2106",
"Nd#	c #0B2E0D",
"Od#	c #44644D",
"Pd#	c #78A47B",
"Qd#	c #89A26F",
"Rd#	c #998152",
"Sd#	c #CEA77F",
"Td#	c #F6D5C2",
"Ud#	c #F7BBC3",
"Vd#	c #87404A",
"Wd#	c #2B0F02",
"Xd#	c #0B2704",
"Yd#	c #35750D",
"Zd#	c #438C10",
"`d#	c #B3ED72",
" e#	c #568E26",
".e#	c #1C260A",
"+e#	c #0B1806",
"@e#	c #022110",
"#e#	c #072A1E",
"$e#	c #020D03",
"%e#	c #002302",
"&e#	c #0A4D05",
"*e#	c #226E12",
"=e#	c #ADDF8D",
"-e#	c #DBF2AF",
";e#	c #5A8639",
">e#	c #1A4E0B",
",e#	c #141904",
"'e#	c #0F0600",
")e#	c #1F0105",
"!e#	c #270005",
"~e#	c #2B0607",
"{e#	c #300C0C",
"]e#	c #3B090C",
"^e#	c #5C161B",
"/e#	c #691A1F",
"(e#	c #823637",
"_e#	c #7F3430",
":e#	c #833533",
"<e#	c #843333",
"[e#	c #8A3539",
"}e#	c #8C343B",
"|e#	c #8C3539",
"1e#	c #8F363A",
"2e#	c #8F353A",
"3e#	c #94383C",
"4e#	c #993C40",
"5e#	c #98393C",
"6e#	c #993439",
"7e#	c #A72C36",
"8e#	c #C12632",
"9e#	c #F3A99A",
"0e#	c #F3C7BA",
"ae#	c #972A23",
"be#	c #73141C",
"ce#	c #430A11",
"de#	c #2C0408",
"ee#	c #160C14",
"fe#	c #361C1C",
"ge#	c #271015",
"he#	c #30050C",
"ie#	c #290005",
"je#	c #3D050A",
"ke#	c #480911",
"le#	c #672427",
"me#	c #6D1116",
"ne#	c #921D2B",
"oe#	c #AB403C",
"pe#	c #FBD6CA",
"qe#	c #D87E39",
"re#	c #C95F3B",
"se#	c #DD8549",
"te#	c #DA874C",
"ue#	c #DA8847",
"ve#	c #DE8D4C",
"we#	c #E08D41",
"xe#	c #DF9257",
"ye#	c #E0944E",
"ze#	c #DC9657",
"Ae#	c #E09248",
"Be#	c #E29C6F",
"Ce#	c #E2AE9C",
"De#	c #E3A792",
"Ee#	c #E3966D",
"Fe#	c #D59873",
"Ge#	c #A64137",
"He#	c #79171B",
"Ie#	c #520C10",
"Je#	c #2A0607",
"Ke#	c #1E0107",
"Le#	c #180006",
"Me#	c #000B01",
"Ne#	c #040208",
"Oe#	c #040007",
"Pe#	c #080604",
"Qe#	c #070901",
"Re#	c #0F280B",
"Se#	c #0A2107",
"Te#	c #090A01",
"Ue#	c #1A0F0A",
"Ve#	c #203009",
"We#	c #568235",
"Xe#	c #9CD475",
"Ye#	c #CBF9A7",
"Ze#	c #E7FDC5",
"`e#	c #EAFDCC",
" f#	c #CEEEB4",
".f#	c #A3CE80",
"+f#	c #7AB445",
"@f#	c #77A73B",
"#f#	c #748932",
"$f#	c #69652F",
"%f#	c #5A3E1E",
"&f#	c #501904",
"*f#	c #5B0600",
"=f#	c #73010A",
"-f#	c #790102",
";f#	c #890107",
">f#	c #990B1A",
",f#	c #AD3746",
"'f#	c #C87F85",
")f#	c #E1ABB4",
"!f#	c #E28CA8",
"~f#	c #7F3235",
"{f#	c #301D08",
"]f#	c #5D744B",
"^f#	c #C1E3AB",
"/f#	c #E5FECA",
"(f#	c #EDFCD0",
"_f#	c #EBFBD0",
":f#	c #E7FDCF",
"<f#	c #E4FECF",
"[f#	c #E6FED3",
"}f#	c #E8FEDB",
"|f#	c #EAFDE1",
"1f#	c #EAFFE0",
"2f#	c #EAFFDE",
"3f#	c #E9FFDE",
"4f#	c #E8FEDD",
"5f#	c #E3FDDA",
"6f#	c #E5FDDA",
"7f#	c #E9FDD9",
"8f#	c #E9FDD8",
"9f#	c #E5FED5",
"0f#	c #E2FDD1",
"af#	c #EFFCE9",
"bf#	c #F5FCF3",
"cf#	c #E6FDDB",
"df#	c #AFD69F",
"ef#	c #3B792C",
"ff#	c #8AA366",
"gf#	c #C1E892",
"hf#	c #B6CC87",
"if#	c #7A9E47",
"jf#	c #426C12",
"kf#	c #255501",
"lf#	c #1E4D03",
"mf#	c #204605",
"nf#	c #1F3C06",
"of#	c #163007",
"pf#	c #0A2408",
"qf#	c #021907",
"rf#	c #052011",
"sf#	c #081D0A",
"tf#	c #1C4221",
"uf#	c #6A9667",
"vf#	c #88A67B",
"wf#	c #8D7A52",
"xf#	c #CDA989",
"yf#	c #FADCC1",
"zf#	c #FDE2D9",
"Af#	c #EAA3A2",
"Bf#	c #C74B59",
"Cf#	c #7F111E",
"Df#	c #280D03",
"Ef#	c #061601",
"Ff#	c #2B6210",
"Gf#	c #377B02",
"Hf#	c #9DDC59",
"If#	c #6AA435",
"Jf#	c #1E2A05",
"Kf#	c #0D2108",
"Lf#	c #0B2615",
"Mf#	c #010F08",
"Nf#	c #09430B",
"Of#	c #15680C",
"Pf#	c #8FC778",
"Qf#	c #DBFABD",
"Rf#	c #7B9E60",
"Sf#	c #21580C",
"Tf#	c #092801",
"Uf#	c #060702",
"Vf#	c #400A11",
"Wf#	c #0F0202",
"Xf#	c #1F0206",
"Yf#	c #230406",
"Zf#	c #370202",
"`f#	c #6A080D",
" g#	c #932228",
".g#	c #D99064",
"+g#	c #DA9A6D",
"@g#	c #DE9354",
"#g#	c #DF975A",
"$g#	c #DC8E43",
"%g#	c #DD9558",
"&g#	c #D89969",
"*g#	c #D99C70",
"=g#	c #DAA285",
"-g#	c #DB9E7E",
";g#	c #DB9F8B",
">g#	c #DA9F8E",
",g#	c #D49685",
"'g#	c #DC875F",
")g#	c #DF5C49",
"!g#	c #F19547",
"~g#	c #F5BEAB",
"{g#	c #972824",
"]g#	c #781218",
"^g#	c #73272E",
"/g#	c #58151D",
"(g#	c #4B0C11",
"_g#	c #440B10",
":g#	c #3A0D16",
"<g#	c #291115",
"[g#	c #200308",
"}g#	c #1B0206",
"|g#	c #1F0D14",
"1g#	c #291217",
"2g#	c #2D080E",
"3g#	c #31060D",
"4g#	c #370D13",
"5g#	c #3E060B",
"6g#	c #53151C",
"7g#	c #652225",
"8g#	c #6D1217",
"9g#	c #921D2A",
"0g#	c #AF4036",
"ag#	c #FBD5C8",
"bg#	c #D97D3A",
"cg#	c #F1996A",
"dg#	c #FEDDC8",
"eg#	c #FFDCC9",
"fg#	c #FDD7BA",
"gg#	c #FAC58E",
"hg#	c #FEC48E",
"ig#	c #FDDAC2",
"jg#	c #FFDBC2",
"kg#	c #FDDBC2",
"lg#	c #FECEA7",
"mg#	c #FBC083",
"ng#	c #FBD6B1",
"og#	c #FEDBBC",
"pg#	c #FAC38D",
"qg#	c #FECC9A",
"rg#	c #D7744F",
"sg#	c #911A22",
"tg#	c #5F0D14",
"ug#	c #3D090E",
"vg#	c #593034",
"wg#	c #5D3536",
"xg#	c #51292C",
"yg#	c #482428",
"zg#	c #442328",
"Ag#	c #391A1F",
"Bg#	c #2A1217",
"Cg#	c #070109",
"Dg#	c #060009",
"Eg#	c #36000B",
"Fg#	c #160202",
"Gg#	c #120401",
"Hg#	c #160107",
"Ig#	c #170E05",
"Jg#	c #3A5F24",
"Kg#	c #87C969",
"Lg#	c #B2F391",
"Mg#	c #CEFCA3",
"Ng#	c #B3E58C",
"Og#	c #6BB055",
"Pg#	c #8BCA71",
"Qg#	c #C8EFA0",
"Rg#	c #E6FBCB",
"Sg#	c #D8F8BF",
"Tg#	c #B1E193",
"Ug#	c #89C45D",
"Vg#	c #6CAB2E",
"Wg#	c #6AA028",
"Xg#	c #708A2B",
"Yg#	c #6C692B",
"Zg#	c #5D451D",
"`g#	c #502608",
" h#	c #5E0901",
".h#	c #620400",
"+h#	c #670300",
"@h#	c #6D0308",
"#h#	c #70060A",
"$h#	c #3E1503",
"%h#	c #5C7334",
"&h#	c #D5EFAD",
"*h#	c #E1F6B4",
"=h#	c #9ED670",
"-h#	c #73C946",
";h#	c #68C13D",
">h#	c #6EBC3E",
",h#	c #78BF43",
"'h#	c #81C64B",
")h#	c #87C953",
"!h#	c #8BCC59",
"~h#	c #8CCF5F",
"{h#	c #8BD060",
"]h#	c #8BD15F",
"^h#	c #8CD25F",
"/h#	c #88D55B",
"(h#	c #84D057",
"_h#	c #81CA53",
":h#	c #7CC64E",
"<h#	c #75C34A",
"[h#	c #71BF49",
"}h#	c #7CC257",
"|h#	c #A0D27E",
"1h#	c #D9F3C3",
"2h#	c #F3FDEA",
"3h#	c #B2DA9F",
"4h#	c #256F0F",
"5h#	c #204C09",
"6h#	c #336009",
"7h#	c #2B530D",
"8h#	c #214E07",
"9h#	c #1F4709",
"0h#	c #1D3E0C",
"ah#	c #153309",
"bh#	c #072803",
"ch#	c #092A17",
"dh#	c #1A5E42",
"eh#	c #0E5D40",
"fh#	c #032B1A",
"gh#	c #0C1509",
"hh#	c #3F6342",
"ih#	c #857258",
"jh#	c #CC8A74",
"kh#	c #F0CFBC",
"lh#	c #FDE2E3",
"mh#	c #EFACB4",
"nh#	c #CE4F59",
"oh#	c #B20923",
"ph#	c #890415",
"qh#	c #200803",
"rh#	c #0D0D02",
"sh#	c #23510C",
"th#	c #2E7005",
"uh#	c #83C647",
"vh#	c #75B442",
"wh#	c #1C2A01",
"xh#	c #030907",
"yh#	c #013E00",
"zh#	c #066500",
"Ah#	c #82AC70",
"Bh#	c #DEF7BF",
"Ch#	c #89B96F",
"Dh#	c #165C07",
"Eh#	c #020505",
"Fh#	c #3C040A",
"Gh#	c #400710",
"Hh#	c #3C151C",
"Ih#	c #4E1D26",
"Jh#	c #562B32",
"Kh#	c #5E3135",
"Lh#	c #643539",
"Mh#	c #6B3A38",
"Nh#	c #703D41",
"Oh#	c #410A0C",
"Ph#	c #BA3233",
"Qh#	c #FCD3B4",
"Rh#	c #FADEC4",
"Sh#	c #FFC792",
"Th#	c #FFC37F",
"Uh#	c #FFC286",
"Vh#	c #FCD5B7",
"Wh#	c #FFD8B8",
"Xh#	c #FDDABD",
"Yh#	c #FED5B7",
"Zh#	c #FFD7BB",
"`h#	c #FCD9B6",
" i#	c #FCE8D1",
".i#	c #FED5BE",
"+i#	c #F49063",
"@i#	c #F09965",
"#i#	c #F5C0AF",
"$i#	c #952622",
"%i#	c #781217",
"&i#	c #74282F",
"*i#	c #59161E",
"=i#	c #390C16",
"-i#	c #291014",
";i#	c #31060C",
">i#	c #370E13",
",i#	c #40080D",
"'i#	c #4B0B13",
")i#	c #55171D",
"!i#	c #69272A",
"~i#	c #6A0F14",
"{i#	c #901C29",
"]i#	c #B64135",
"^i#	c #D77D39",
"/i#	c #CA4F3B",
"(i#	c #DC7056",
"_i#	c #DE6856",
":i#	c #DC613B",
"<i#	c #DA5E3E",
"[i#	c #DB5A3E",
"}i#	c #E05534",
"|i#	c #DE5533",
"1i#	c #E0553D",
"2i#	c #E45138",
"3i#	c #E44E36",
"4i#	c #E25035",
"5i#	c #E85032",
"6i#	c #E75D3E",
"7i#	c #F19E74",
"8i#	c #D75748",
"9i#	c #9D1521",
"0i#	c #660912",
"ai#	c #3F0D10",
"bi#	c #3B0B0E",
"ci#	c #34080A",
"di#	c #2F0609",
"ei#	c #2D060A",
"fi#	c #250208",
"gi#	c #100C02",
"hi#	c #230603",
"ii#	c #370104",
"ji#	c #3E0004",
"ki#	c #3F0205",
"li#	c #7E3C3C",
"mi#	c #70030B",
"ni#	c #500105",
"oi#	c #170B04",
"pi#	c #2A4314",
"qi#	c #72A659",
"ri#	c #A3E186",
"si#	c #7DD460",
"ti#	c #47B32D",
"ui#	c #359F15",
"vi#	c #2B930A",
"wi#	c #319212",
"xi#	c #66B04F",
"yi#	c #A8D990",
"zi#	c #DDF5BF",
"Ai#	c #E9FDCB",
"Bi#	c #D5F8BB",
"Ci#	c #BBEA9D",
"Di#	c #8FCC6A",
"Ei#	c #61A732",
"Fi#	c #558D25",
"Gi#	c #608632",
"Hi#	c #657936",
"Ii#	c #636129",
"Ji#	c #5F4018",
"Ki#	c #4F2008",
"Li#	c #460706",
"Mi#	c #3D020D",
"Ni#	c #262409",
"Oi#	c #A5C667",
"Pi#	c #C9FA8C",
"Qi#	c #76C241",
"Ri#	c #3A820B",
"Si#	c #2F7402",
"Ti#	c #2C6F03",
"Ui#	c #2C6F05",
"Vi#	c #2E7107",
"Wi#	c #2F7308",
"Xi#	c #317505",
"Yi#	c #357A04",
"Zi#	c #3A7B07",
"`i#	c #3A7706",
" j#	c #397404",
".j#	c #397204",
"+j#	c #387005",
"@j#	c #367004",
"#j#	c #366D02",
"$j#	c #356901",
"%j#	c #346A02",
"&j#	c #356E03",
"*j#	c #3E7007",
"=j#	c #317E03",
"-j#	c #2E8A04",
";j#	c #5BA23D",
">j#	c #C4EDA5",
",j#	c #E7FECD",
"'j#	c #7BB663",
")j#	c #1A5103",
"!j#	c #1F3709",
"~j#	c #1D3A06",
"{j#	c #163209",
"]j#	c #102405",
"^j#	c #0C1B04",
"/j#	c #091307",
"(j#	c #052518",
"_j#	c #166749",
":j#	c #247F5D",
"<j#	c #1A6546",
"[j#	c #05482F",
"}j#	c #083324",
"|j#	c #071208",
"1j#	c #26311C",
"2j#	c #631C17",
"3j#	c #CE7889",
"4j#	c #EFAAB0",
"5j#	c #C3565C",
"6j#	c #AB1420",
"7j#	c #830306",
"8j#	c #5C0205",
"9j#	c #1F0400",
"0j#	c #0E0C04",
"aj#	c #1B400B",
"bj#	c #2C6908",
"cj#	c #68AC35",
"dj#	c #79BD48",
"ej#	c #202C02",
"fj#	c #083907",
"gj#	c #0A5D02",
"hj#	c #6DA95E",
"ij#	c #D4F8B3",
"jj#	c #95BD7C",
"kj#	c #175A06",
"lj#	c #073506",
"mj#	c #080007",
"nj#	c #360206",
"oj#	c #2A0207",
"pj#	c #2C0909",
"qj#	c #35080C",
"rj#	c #450F12",
"sj#	c #410908",
"tj#	c #7B0408",
"uj#	c #C73A32",
"vj#	c #F4A05A",
"wj#	c #E25D49",
"xj#	c #E3543C",
"yj#	c #DF5046",
"zj#	c #DB4D32",
"Aj#	c #DD4E3E",
"Bj#	c #DC4E39",
"Cj#	c #DE4E3B",
"Dj#	c #DC4C41",
"Ej#	c #D94936",
"Fj#	c #D94841",
"Gj#	c #DC4935",
"Hj#	c #DC5144",
"Ij#	c #DB5038",
"Jj#	c #CA3030",
"Kj#	c #F0985C",
"Lj#	c #F5C4B2",
"Mj#	c #932521",
"Nj#	c #791218",
"Oj#	c #742930",
"Pj#	c #4C0D11",
"Qj#	c #430A0F",
"Rj#	c #340E13",
"Sj#	c #160305",
"Tj#	c #2B1317",
"Uj#	c #210E16",
"Vj#	c #250307",
"Wj#	c #3D050B",
"Xj#	c #682629",
"Yj#	c #911C29",
"Zj#	c #BB3F32",
"`j#	c #FCD8C9",
" k#	c #DD813C",
".k#	c #AC0E14",
"+k#	c #AE0C1B",
"@k#	c #AE0918",
"#k#	c #AC0C17",
"$k#	c #D4553A",
"%k#	c #E87647",
"&k#	c #EF8A79",
"*k#	c #F1917E",
"=k#	c #F19284",
"-k#	c #F19080",
";k#	c #F2865F",
">k#	c #F28D76",
",k#	c #ED8F79",
"'k#	c #EC8B43",
")k#	c #FCAF60",
"!k#	c #D55447",
"~k#	c #9E141F",
"{k#	c #680B13",
"]k#	c #36060B",
"^k#	c #33070C",
"/k#	c #2E050B",
"(k#	c #230105",
"_k#	c #051801",
":k#	c #321006",
"<k#	c #510303",
"[k#	c #B56964",
"}k#	c #E9BBB1",
"|k#	c #BB7C7F",
"1k#	c #8F1F2B",
"2k#	c #72030C",
"3k#	c #0F0401",
"4k#	c #130403",
"5k#	c #151507",
"6k#	c #122E04",
"7k#	c #327425",
"8k#	c #61BD4B",
"9k#	c #6FDC4F",
"0k#	c #5ED143",
"ak#	c #38A924",
"bk#	c #269107",
"ck#	c #218E00",
"dk#	c #2F9610",
"ek#	c #6AB553",
"fk#	c #9FD88A",
"gk#	c #C7F1A6",
"hk#	c #DAFCBC",
"ik#	c #DDFCC8",
"jk#	c #C5ECB0",
"kk#	c #A2D18A",
"lk#	c #7AB162",
"mk#	c #52953A",
"nk#	c #4C8A27",
"ok#	c #567B22",
"pk#	c #5D6D1E",
"qk#	c #535316",
"rk#	c #291E05",
"sk#	c #193301",
"tk#	c #5FA036",
"uk#	c #5FAC35",
"vk#	c #1E5F02",
"wk#	c #113801",
"xk#	c #1B3808",
"yk#	c #1D4502",
"zk#	c #1D3E04",
"Ak#	c #1B3D06",
"Bk#	c #1E4106",
"Ck#	c #234906",
"Dk#	c #215203",
"Ek#	c #215502",
"Fk#	c #255603",
"Gk#	c #285605",
"Hk#	c #2C5606",
"Ik#	c #2C5806",
"Jk#	c #2F5606",
"Kk#	c #315507",
"Lk#	c #305609",
"Mk#	c #2F580B",
"Nk#	c #325C07",
"Ok#	c #306510",
"Pk#	c #367619",
"Qk#	c #3A8310",
"Rk#	c #64A635",
"Sk#	c #D2F4B4",
"Tk#	c #BFEBA1",
"Uk#	c #2C6A12",
"Vk#	c #182B0D",
"Wk#	c #141B00",
"Xk#	c #0E1804",
"Yk#	c #071804",
"Zk#	c #032711",
"`k#	c #11583D",
" l#	c #267A5D",
".l#	c #1A664B",
"+l#	c #054227",
"@l#	c #053922",
"#l#	c #07331E",
"$l#	c #093723",
"%l#	c #101106",
"&l#	c #450F0F",
"*l#	c #7A0911",
"=l#	c #8C0D16",
"-l#	c #720004",
";l#	c #4D0103",
">l#	c #270004",
",l#	c #081001",
"'l#	c #173506",
")l#	c #2A6108",
"!l#	c #529126",
"~l#	c #76B346",
"{l#	c #001E01",
"]l#	c #135805",
"^l#	c #6EA653",
"/l#	c #D3F6B4",
"(l#	c #8EC27C",
"_l#	c #115305",
":l#	c #480913",
"<l#	c #260807",
"[l#	c #30090B",
"}l#	c #360B0E",
"|l#	c #3D0D10",
"1l#	c #430F12",
"2l#	c #4B0B12",
"3l#	c #540309",
"4l#	c #7C0107",
"5l#	c #C34A34",
"6l#	c #FCBF9D",
"7l#	c #EF724F",
"8l#	c #F97E4E",
"9l#	c #F68566",
"0l#	c #EF8452",
"al#	c #F3875D",
"bl#	c #EF865B",
"cl#	c #F2865B",
"dl#	c #F08162",
"el#	c #EC7953",
"fl#	c #E26B52",
"gl#	c #BA2B1D",
"hl#	c #B0090E",
"il#	c #B20511",
"jl#	c #BA1721",
"kl#	c #ECAA9B",
"ll#	c #F5C8BB",
"ml#	c #932520",
"nl#	c #7B1419",
"ol#	c #4C0D12",
"pl#	c #380B15",
"ql#	c #330E12",
"rl#	c #210F17",
"sl#	c #2F050B",
"tl#	c #380F16",
"ul#	c #490A12",
"vl#	c #6B292C",
"wl#	c #6B1116",
"xl#	c #BB4031",
"yl#	c #FCD5C2",
"zl#	c #DD813B",
"Al#	c #B31218",
"Bl#	c #A80E15",
"Cl#	c #9B0309",
"Dl#	c #9B1213",
"El#	c #D26737",
"Fl#	c #DE8352",
"Gl#	c #E1926E",
"Hl#	c #E39770",
"Il#	c #E2997A",
"Jl#	c #E19870",
"Kl#	c #E49574",
"Ll#	c #E89078",
"Ml#	c #E6826B",
"Nl#	c #E68244",
"Ol#	c #FECDA1",
"Pl#	c #CE5A47",
"Ql#	c #9D161F",
"Rl#	c #670D12",
"Sl#	c #470C11",
"Tl#	c #420C12",
"Ul#	c #37080E",
"Vl#	c #340910",
"Wl#	c #2F070D",
"Xl#	c #0B0301",
"Yl#	c #0A2B06",
"Zl#	c #54894D",
"`l#	c #26621F",
" m#	c #082101",
".m#	c #231A06",
"+m#	c #411A0D",
"@m#	c #520A02",
"#m#	c #760708",
"$m#	c #A04851",
"%m#	c #E0A4B1",
"&m#	c #ECB6BB",
"*m#	c #C77478",
"=m#	c #951B29",
"-m#	c #290402",
";m#	c #0A0301",
">m#	c #142002",
",m#	c #144407",
"'m#	c #3B882C",
")m#	c #5EC244",
"!m#	c #65D34E",
"~m#	c #5BC742",
"{m#	c #3BA921",
"]m#	c #279808",
"^m#	c #259005",
"/m#	c #379412",
"(m#	c #5AAC40",
"_m#	c #80C36F",
":m#	c #ADDE98",
"<m#	c #D3F4BD",
"[m#	c #DBFECF",
"}m#	c #D4F9C4",
"|m#	c #C9EDB0",
"1m#	c #B3DB97",
"2m#	c #8DBF6E",
"3m#	c #598D2F",
"4m#	c #313311",
"5m#	c #1D1804",
"6m#	c #1C3510",
"7m#	c #183A03",
"8m#	c #0C2A03",
"9m#	c #113908",
"0m#	c #143506",
"am#	c #152803",
"bm#	c #122502",
"cm#	c #08290B",
"dm#	c #0A3111",
"em#	c #142E03",
"fm#	c #182D02",
"gm#	c #1B2F02",
"hm#	c #213005",
"im#	c #233006",
"jm#	c #1D2E09",
"km#	c #1C2B0A",
"lm#	c #1E2A0B",
"mm#	c #202C0F",
"nm#	c #202E12",
"om#	c #1C2710",
"pm#	c #161F05",
"qm#	c #163004",
"rm#	c #2D6F12",
"sm#	c #2D910D",
"tm#	c #86C161",
"um#	c #D4FBA7",
"vm#	c #60A045",
"wm#	c #173901",
"xm#	c #161803",
"ym#	c #042010",
"zm#	c #23533F",
"Am#	c #27674D",
"Bm#	c #135A3D",
"Cm#	c #024429",
"Dm#	c #033D24",
"Em#	c #053A23",
"Fm#	c #033B21",
"Gm#	c #033B20",
"Hm#	c #063821",
"Im#	c #061F13",
"Jm#	c #370107",
"Km#	c #3F0003",
"Lm#	c #210401",
"Mm#	c #140205",
"Nm#	c #150503",
"Om#	c #1B1309",
"Pm#	c #131006",
"Qm#	c #142E04",
"Rm#	c #265805",
"Sm#	c #5D8F2B",
"Tm#	c #272006",
"Um#	c #0C5B03",
"Vm#	c #76B359",
"Wm#	c #C4F29B",
"Xm#	c #8AB26A",
"Ym#	c #124806",
"Zm#	c #052E09",
"`m#	c #040A08",
" n#	c #270305",
".n#	c #4A0A15",
"+n#	c #290205",
"@n#	c #190707",
"#n#	c #270606",
"$n#	c #34080E",
"%n#	c #39090F",
"&n#	c #410B12",
"*n#	c #4A0B12",
"=n#	c #480C09",
"-n#	c #7D0409",
";n#	c #D04B34",
">n#	c #FED4B2",
",n#	c #E68150",
"'n#	c #E67E53",
")n#	c #E58C75",
"!n#	c #E39170",
"~n#	c #E69273",
"{n#	c #E19271",
"]n#	c #E49270",
"^n#	c #E38D70",
"/n#	c #E78B6A",
"(n#	c #E58266",
"_n#	c #C43F30",
":n#	c #980511",
"<n#	c #A10F18",
"[n#	c #BA191F",
"}n#	c #F1A698",
"|n#	c #F5C6B9",
"1n#	c #942620",
"2n#	c #7A1319",
"3n#	c #742931",
"4n#	c #59161D",
"5n#	c #450B10",
"6n#	c #390C15",
"7n#	c #330E13",
"8n#	c #130104",
"9n#	c #210F16",
"0n#	c #170B13",
"an#	c #2B1217",
"bn#	c #2E060A",
"cn#	c #2D050A",
"dn#	c #6A262A",
"en#	c #911F29",
"fn#	c #B64232",
"gn#	c #FCBA66",
"hn#	c #DC8039",
"in#	c #B2151C",
"jn#	c #A11217",
"kn#	c #880207",
"ln#	c #950810",
"mn#	c #A10F13",
"nn#	c #A21213",
"on#	c #A9141C",
"pn#	c #A8141B",
"qn#	c #A9151D",
"rn#	c #AA1521",
"sn#	c #A8161D",
"tn#	c #AD1715",
"un#	c #C54F33",
"vn#	c #FECEB1",
"wn#	c #D55A45",
"xn#	c #A2151E",
"yn#	c #6B0C14",
"zn#	c #3E0B10",
"An#	c #3B0B0F",
"Bn#	c #35090C",
"Cn#	c #32090B",
"Dn#	c #2A0505",
"En#	c #270506",
"Fn#	c #200405",
"Gn#	c #180202",
"Hn#	c #28060C",
"In#	c #041702",
"Jn#	c #66985C",
"Kn#	c #92DF84",
"Ln#	c #367629",
"Mn#	c #054202",
"Nn#	c #3F1B06",
"On#	c #5A0905",
"Pn#	c #8C0C13",
"Qn#	c #B36769",
"Rn#	c #ECC4C3",
"Sn#	c #F2C4C3",
"Tn#	c #AD5C60",
"Un#	c #61050F",
"Vn#	c #110902",
"Wn#	c #120F01",
"Xn#	c #0B1900",
"Yn#	c #062801",
"Zn#	c #1C530F",
"`n#	c #489032",
" o#	c #68C450",
".o#	c #6FD852",
"+o#	c #67D147",
"@o#	c #47B227",
"#o#	c #279204",
"$o#	c #238B03",
"%o#	c #248805",
"&o#	c #35901E",
"*o#	c #60A34A",
"=o#	c #94C284",
"-o#	c #C5E5B6",
";o#	c #DDFCC4",
">o#	c #C2E9A1",
",o#	c #62933B",
"'o#	c #2B2E02",
")o#	c #0C1304",
"!o#	c #0F1E01",
"~o#	c #072601",
"{o#	c #0C1C01",
"]o#	c #073313",
"^o#	c #076E47",
"/o#	c #29A27A",
"(o#	c #3DC59D",
"_o#	c #40C59A",
":o#	c #11523B",
"<o#	c #051406",
"[o#	c #141506",
"}o#	c #0D2105",
"|o#	c #1D2108",
"1o#	c #21210C",
"2o#	c #1A220A",
"3o#	c #1C260D",
"4o#	c #1C2B10",
"5o#	c #1B3012",
"6o#	c #1F3618",
"7o#	c #2B331F",
"8o#	c #30291D",
"9o#	c #1E160B",
"0o#	c #0C3402",
"ao#	c #338819",
"bo#	c #3D9318",
"co#	c #B9F185",
"do#	c #8EC461",
"eo#	c #1B1D07",
"fo#	c #0C1D09",
"go#	c #25563E",
"ho#	c #17543C",
"io#	c #043E28",
"jo#	c #053D27",
"ko#	c #013B23",
"lo#	c #033922",
"mo#	c #043822",
"no#	c #023C25",
"oo#	c #023D27",
"po#	c #022C1B",
"qo#	c #03140C",
"ro#	c #211A05",
"so#	c #1C1504",
"to#	c #0A0E07",
"uo#	c #162E05",
"vo#	c #244D04",
"wo#	c #31690F",
"xo#	c #496C18",
"yo#	c #25170A",
"zo#	c #012101",
"Ao#	c #205910",
"Bo#	c #92C16C",
"Co#	c #C4F499",
"Do#	c #749F5A",
"Eo#	c #0D3F06",
"Fo#	c #430815",
"Go#	c #33070A",
"Ho#	c #3D0B0F",
"Io#	c #410A0E",
"Jo#	c #460E11",
"Ko#	c #4E0C11",
"Lo#	c #4E060B",
"Mo#	c #7B020B",
"No#	c #CA4934",
"Oo#	c #FECDAB",
"Po#	c #D05C3F",
"Qo#	c #C41D27",
"Ro#	c #BE1824",
"So#	c #BA151F",
"To#	c #B8141B",
"Uo#	c #B4141A",
"Vo#	c #B3151B",
"Wo#	c #B1161B",
"Xo#	c #B0181C",
"Yo#	c #AA1519",
"Zo#	c #9C0E16",
"`o#	c #930211",
" p#	c #960917",
".p#	c #BB212A",
"+p#	c #EFA289",
"@p#	c #F5C6B5",
"#p#	c #94261D",
"$p#	c #7C151D",
"%p#	c #742932",
"&p#	c #5B181C",
"*p#	c #4C0C11",
"=p#	c #43090E",
"-p#	c #3C0E18",
";p#	c #1B0408",
">p#	c #1B0106",
",p#	c #18060A",
"'p#	c #1A0504",
")p#	c #2D0509",
"!p#	c #2E070B",
"~p#	c #280106",
"{p#	c #390307",
"]p#	c #52141A",
"^p#	c #6B1117",
"/p#	c #B5422F",
"(p#	c #FCBA5E",
"_p#	c #D97E38",
":p#	c #B1141D",
"<p#	c #A71923",
"[p#	c #9D2528",
"}p#	c #B53537",
"|p#	c #C63A3B",
"1p#	c #C43B3A",
"2p#	c #BF3937",
"3p#	c #BD3537",
"4p#	c #BB3339",
"5p#	c #BD343C",
"6p#	c #BA363C",
"7p#	c #BA3638",
"8p#	c #C22A2C",
"9p#	c #CD4E3D",
"0p#	c #FCBA7E",
"ap#	c #D85445",
"bp#	c #420008",
"cp#	c #44090E",
"dp#	c #400C12",
"ep#	c #3B0A0E",
"fp#	c #34090C",
"gp#	c #2D060D",
"hp#	c #042501",
"ip#	c #5B8F51",
"jp#	c #93DE7E",
"kp#	c #488F39",
"lp#	c #145509",
"mp#	c #0E3605",
"np#	c #0F1C04",
"op#	c #2C270E",
"pp#	c #401606",
"qp#	c #6C0404",
"rp#	c #981825",
"sp#	c #CF8B8B",
"tp#	c #F3B9B6",
"up#	c #A3414C",
"vp#	c #100D0A",
"wp#	c #0F1607",
"xp#	c #0A2A01",
"yp#	c #418327",
"zp#	c #5CBE45",
"Ap#	c #6FD855",
"Bp#	c #6DD053",
"Cp#	c #4EB733",
"Dp#	c #34A115",
"Ep#	c #2B9406",
"Fp#	c #268F05",
"Gp#	c #2B8A10",
"Hp#	c #388220",
"Ip#	c #326613",
"Jp#	c #2E3903",
"Kp#	c #1E1501",
"Lp#	c #070B01",
"Mp#	c #0E1200",
"Np#	c #071D04",
"Op#	c #065734",
"Pp#	c #29B282",
"Qp#	c #4FEAC1",
"Rp#	c #4EDDBF",
"Sp#	c #2DB391",
"Tp#	c #0E805C",
"Up#	c #093E25",
"Vp#	c #0F1504",
"Wp#	c #1D3219",
"Xp#	c #699A72",
"Yp#	c #99BA93",
"Zp#	c #92AE8B",
"`p#	c #93A891",
" q#	c #95A893",
".q#	c #96A894",
"+q#	c #98A995",
"@q#	c #9BAB96",
"#q#	c #9EAB8B",
"$q#	c #9A9A81",
"%q#	c #676658",
"&q#	c #286914",
"*q#	c #31910E",
"=q#	c #8FD35D",
"-q#	c #9EE06C",
";q#	c #2D560E",
">q#	c #0D1604",
",q#	c #042310",
"'q#	c #023824",
")q#	c #043522",
"!q#	c #083622",
"~q#	c #063B24",
"{q#	c #033F26",
"]q#	c #04462B",
"^q#	c #085034",
"/q#	c #13523A",
"(q#	c #11402E",
"_q#	c #031A10",
":q#	c #1A0B0C",
"<q#	c #1B1305",
"[q#	c #111005",
"}q#	c #0E1208",
"|q#	c #1B4602",
"1q#	c #315C0B",
"2q#	c #3C4D0D",
"3q#	c #230F04",
"4q#	c #012005",
"5q#	c #2D6219",
"6q#	c #A4D17D",
"7q#	c #507F3C",
"8q#	c #083B05",
"9q#	c #450715",
"0q#	c #3D0C10",
"aq#	c #3F0C10",
"bq#	c #420B0F",
"cq#	c #4B1115",
"dq#	c #4F0E13",
"eq#	c #4E070B",
"fq#	c #7C010B",
"gq#	c #CE4534",
"hq#	c #FEC394",
"iq#	c #CE573E",
"jq#	c #C1222A",
"kq#	c #B71F2B",
"lq#	c #B0202B",
"mq#	c #AF252D",
"nq#	c #B82E32",
"oq#	c #BE3437",
"pq#	c #C03739",
"qq#	c #C23A3C",
"rq#	c #C13B3B",
"sq#	c #BA3633",
"tq#	c #AD242E",
"uq#	c #9A101D",
"vq#	c #BD262D",
"wq#	c #EFA596",
"xq#	c #7D151E",
"yq#	c #5A161A",
"zq#	c #4D0C12",
"Aq#	c #160A12",
"Bq#	c #2E0F15",
"Cq#	c #2E0609",
"Dq#	c #381018",
"Eq#	c #3C060A",
"Fq#	c #51141A",
"Gq#	c #6D2A2D",
"Hq#	c #911E28",
"Iq#	c #B3402B",
"Jq#	c #DB7F39",
"Kq#	c #B3161F",
"Lq#	c #B42531",
"Mq#	c #BA363D",
"Nq#	c #B92A32",
"Oq#	c #BD2431",
"Pq#	c #BD2730",
"Qq#	c #C32D2D",
"Rq#	c #C32C30",
"Sq#	c #C52D36",
"Tq#	c #C42C38",
"Uq#	c #C42C37",
"Vq#	c #C82A32",
"Wq#	c #CE2C33",
"Xq#	c #CB5642",
"Yq#	c #FCC6A2",
"Zq#	c #D9553D",
"`q#	c #A1151E",
" r#	c #6C0D15",
".r#	c #420108",
"+r#	c #440B11",
"@r#	c #3F090F",
"#r#	c #3A0B0F",
"$r#	c #360A0D",
"%r#	c #2F0508",
"&r#	c #3C7636",
"*r#	c #A0E18F",
"=r#	c #76BB6B",
"-r#	c #1B6315",
";r#	c #104308",
">r#	c #131F02",
",r#	c #2D1D0B",
"'r#	c #40180C",
")r#	c #530906",
"!r#	c #650607",
"~r#	c #8E121F",
"{r#	c #6F1620",
"]r#	c #0F0D04",
"^r#	c #121307",
"/r#	c #14190A",
"(r#	c #172103",
"_r#	c #173402",
":r#	c #2F661E",
"<r#	c #55A440",
"[r#	c #6ACB51",
"}r#	c #75CF51",
"|r#	c #62BB42",
"1r#	c #28770D",
"2r#	c #194203",
"3r#	c #202D0B",
"4r#	c #110E06",
"5r#	c #0D0802",
"6r#	c #051100",
"7r#	c #0E8054",
"8r#	c #2ED69D",
"9r#	c #42D9AB",
"0r#	c #248B6B",
"ar#	c #025236",
"br#	c #07432E",
"cr#	c #0F3E2C",
"dr#	c #0A2816",
"er#	c #061A05",
"fr#	c #3E5C3F",
"gr#	c #B0C5A3",
"hr#	c #A58975",
"ir#	c #A17768",
"jr#	c #A17765",
"kr#	c #A57867",
"lr#	c #AB7569",
"mr#	c #AD6D65",
"nr#	c #AB6863",
"or#	c #AE6861",
"pr#	c #9C5A51",
"qr#	c #6A463E",
"rr#	c #171908",
"sr#	c #164908",
"tr#	c #399819",
"ur#	c #61AE32",
"vr#	c #A1EF6C",
"wr#	c #3E6E1B",
"xr#	c #202206",
"yr#	c #141908",
"zr#	c #0D1F11",
"Ar#	c #072B1E",
"Br#	c #013320",
"Cr#	c #013D25",
"Dr#	c #04452A",
"Er#	c #135339",
"Fr#	c #24664B",
"Gr#	c #256D50",
"Hr#	c #25614A",
"Ir#	c #164231",
"Jr#	c #031D11",
"Kr#	c #0D2E0A",
"Lr#	c #11420D",
"Mr#	c #16430A",
"Nr#	c #164103",
"Or#	c #344B07",
"Pr#	c #322E07",
"Qr#	c #064004",
"Rr#	c #447E31",
"Sr#	c #AAE085",
"Tr#	c #9ACB78",
"Ur#	c #2B5D1F",
"Vr#	c #070E00",
"Wr#	c #270108",
"Xr#	c #31050A",
"Yr#	c #35070B",
"Zr#	c #39080C",
"`r#	c #3E0A10",
" s#	c #410B11",
".s#	c #480F14",
"+s#	c #4B0F14",
"@s#	c #4E0E12",
"#s#	c #4D060A",
"$s#	c #7D020B",
"%s#	c #CD4234",
"&s#	c #FEC28B",
"*s#	c #C85939",
"=s#	c #B9292A",
"-s#	c #B22029",
";s#	c #B41F2C",
">s#	c #B6222D",
",s#	c #AF302D",
"'s#	c #B23530",
")s#	c #B83834",
"!s#	c #B93734",
"~s#	c #BB3A36",
"{s#	c #C3403D",
"]s#	c #C73A43",
"^s#	c #AB202A",
"/s#	c #BD282D",
"(s#	c #F5C7B6",
"_s#	c #94271D",
":s#	c #7B141C",
"<s#	c #732831",
"[s#	c #59161A",
"}s#	c #4E0D12",
"|s#	c #42080D",
"1s#	c #330D12",
"2s#	c #140104",
"3s#	c #210208",
"4s#	c #1F0D15",
"5s#	c #1D0204",
"6s#	c #2E0E14",
"7s#	c #290208",
"8s#	c #3F090D",
"9s#	c #51131A",
"0s#	c #6A272A",
"as#	c #6C1217",
"bs#	c #921F29",
"cs#	c #B13E2F",
"ds#	c #FAB75C",
"es#	c #DC7F39",
"fs#	c #B2171E",
"gs#	c #B62C33",
"hs#	c #B03432",
"is#	c #DB8247",
"js#	c #E0A487",
"ks#	c #E4A288",
"ls#	c #E09F84",
"ms#	c #E0A18A",
"ns#	c #DE9E84",
"os#	c #E09C86",
"ps#	c #E59479",
"qs#	c #E08447",
"rs#	c #DD8D4A",
"ss#	c #FCCBAF",
"ts#	c #DA503D",
"us#	c #9D111A",
"vs#	c #44090F",
"ws#	c #3D090F",
"xs#	c #36090C",
"ys#	c #300708",
"zs#	c #270107",
"As#	c #041403",
"Bs#	c #275A2A",
"Cs#	c #86C67E",
"Ds#	c #9ED98D",
"Es#	c #3D7A33",
"Fs#	c #0E5107",
"Gs#	c #0D3402",
"Hs#	c #1B2108",
"Is#	c #321E0A",
"Js#	c #461104",
"Ks#	c #4D0604",
"Ls#	c #3D0204",
"Ms#	c #130602",
"Ns#	c #170E01",
"Os#	c #1B1100",
"Ps#	c #1B1400",
"Qs#	c #1A1C07",
"Rs#	c #1B240A",
"Ss#	c #183906",
"Ts#	c #1A3102",
"Us#	c #1F2102",
"Vs#	c #0F1005",
"Ws#	c #090905",
"Xs#	c #0C0405",
"Ys#	c #054225",
"Zs#	c #21996D",
"`s#	c #35DBA2",
" t#	c #24AC7F",
".t#	c #0D6040",
"+t#	c #085530",
"@t#	c #025D30",
"#t#	c #036439",
"$t#	c #095031",
"%t#	c #0A2312",
"&t#	c #091704",
"*t#	c #2A3922",
"=t#	c #57432F",
"-t#	c #C3807D",
";t#	c #F3CEC0",
">t#	c #F5CAC2",
",t#	c #F5CCC4",
"'t#	c #F6D3CC",
")t#	c #F6D8D2",
"!t#	c #F5DDD7",
"~t#	c #F6DCD1",
"{t#	c #E19290",
"]t#	c #6B0F15",
"^t#	c #2B0B08",
"/t#	c #3B8C1E",
"(t#	c #459417",
"_t#	c #9AEF64",
":t#	c #488022",
"<t#	c #222404",
"[t#	c #151707",
"}t#	c #062010",
"|t#	c #0B3927",
"1t#	c #1A4E3A",
"2t#	c #226147",
"3t#	c #216A4C",
"4t#	c #205A42",
"5t#	c #173D2C",
"6t#	c #081F13",
"7t#	c #041207",
"8t#	c #06160A",
"9t#	c #4D8A33",
"0t#	c #73C84D",
"at#	c #1A5801",
"bt#	c #164706",
"ct#	c #1A4106",
"dt#	c #394206",
"et#	c #281406",
"ft#	c #180408",
"gt#	c #103F04",
"ht#	c #67A451",
"it#	c #A0E283",
"jt#	c #679A4F",
"kt#	c #134109",
"lt#	c #290008",
"mt#	c #2E040A",
"nt#	c #34080B",
"ot#	c #39090D",
"pt#	c #400B11",
"qt#	c #4A1015",
"rt#	c #4D1014",
"st#	c #500D13",
"tt#	c #4D050A",
"ut#	c #C74535",
"vt#	c #FECBA8",
"wt#	c #E5A684",
"xt#	c #E2A993",
"yt#	c #DFA68C",
"zt#	c #DFA487",
"At#	c #E2A586",
"Bt#	c #E2A485",
"Ct#	c #E4A083",
"Dt#	c #E49A82",
"Et#	c #E39581",
"Ft#	c #DA7E50",
"Gt#	c #BA3E30",
"Ht#	c #C7363E",
"It#	c #B0202A",
"Jt#	c #C1292D",
"Kt#	c #71252E",
"Lt#	c #4D0C11",
"Mt#	c #380A14",
"Nt#	c #281014",
"Ot#	c #160409",
"Pt#	c #3E080C",
"Qt#	c #682528",
"Rt#	c #6B1219",
"St#	c #921E29",
"Tt#	c #B23C29",
"Ut#	c #F6B355",
"Vt#	c #E1833C",
"Wt#	c #B01A20",
"Xt#	c #B43132",
"Yt#	c #BC5D44",
"Zt#	c #FCCC9D",
"`t#	c #F9C8A7",
" u#	c #F8AF63",
".u#	c #FDAB55",
"+u#	c #F8AD63",
"@u#	c #FCA754",
"#u#	c #FAB783",
"$u#	c #FCBA8E",
"%u#	c #F7A64F",
"&u#	c #F9A44B",
"*u#	c #F79950",
"=u#	c #C83633",
"-u#	c #64060D",
";u#	c #45090E",
">u#	c #38090C",
",u#	c #32090C",
"'u#	c #2F070B",
")u#	c #290308",
"!u#	c #0D390C",
"~u#	c #629A5C",
"{u#	c #A7E497",
"]u#	c #6AAF5D",
"^u#	c #1C5C0E",
"/u#	c #124A09",
"(u#	c #0C2601",
"_u#	c #271F04",
":u#	c #3B2109",
"<u#	c #3E0F04",
"[u#	c #100500",
"}u#	c #130901",
"|u#	c #170E02",
"1u#	c #191102",
"2u#	c #1D1600",
"3u#	c #181403",
"4u#	c #120A03",
"5u#	c #100906",
"6u#	c #045233",
"7u#	c #26AB7C",
"8u#	c #47D8A8",
"9u#	c #1F8665",
"0u#	c #013C25",
"au#	c #07371E",
"bu#	c #093921",
"cu#	c #083D27",
"du#	c #09422A",
"eu#	c #0B3720",
"fu#	c #05250C",
"gu#	c #201507",
"hu#	c #5C1713",
"iu#	c #C37375",
"ju#	c #E9B9AC",
"ku#	c #EBB7AD",
"lu#	c #EBB8AF",
"mu#	c #EBB5B0",
"nu#	c #E8B1B0",
"ou#	c #E6ADAF",
"pu#	c #E2A0A4",
"qu#	c #BF6065",
"ru#	c #5B060B",
"su#	c #357A18",
"tu#	c #3A8A0D",
"uu#	c #90E75A",
"vu#	c #528E29",
"wu#	c #232404",
"xu#	c #161707",
"yu#	c #072413",
"zu#	c #123E2D",
"Au#	c #14402F",
"Bu#	c #0C2C1E",
"Cu#	c #02150B",
"Du#	c #04180D",
"Eu#	c #061A0D",
"Fu#	c #05180A",
"Gu#	c #030D0B",
"Hu#	c #367222",
"Iu#	c #8FDF64",
"Ju#	c #185504",
"Ku#	c #164605",
"Lu#	c #22460D",
"Mu#	c #302F02",
"Nu#	c #081C04",
"Ou#	c #79B267",
"Pu#	c #86C96C",
"Qu#	c #2F5F20",
"Ru#	c #042301",
"Su#	c #2A0206",
"Tu#	c #31060A",
"Uu#	c #3F0910",
"Vu#	c #440C12",
"Wu#	c #4F1215",
"Xu#	c #4F0D12",
"Yu#	c #730108",
"Zu#	c #B2312B",
"`u#	c #F5A16E",
" v#	c #FAA75B",
".v#	c #F8A454",
"+v#	c #FCAE68",
"@v#	c #FABF9B",
"#v#	c #FEC9AD",
"$v#	c #FCD4C0",
"%v#	c #FED3BF",
"&v#	c #FCCFB7",
"*v#	c #FDCAB6",
"=v#	c #FCDECD",
"-v#	c #DA7138",
";v#	c #C8323D",
">v#	c #AA1924",
",v#	c #C2292D",
"'v#	c #F3C3B2",
")v#	c #98251F",
"!v#	c #79131B",
"~v#	c #732630",
"{v#	c #59151A",
"]v#	c #440A0F",
"^v#	c #3A0B15",
"/v#	c #2C0308",
"(v#	c #2C0609",
"_v#	c #210C14",
":v#	c #150913",
"<v#	c #32181A",
"[v#	c #16030A",
"}v#	c #1C0106",
"|v#	c #1D0106",
"1v#	c #1D0206",
"2v#	c #291015",
"3v#	c #100206",
"4v#	c #2F1015",
"5v#	c #2E0409",
"6v#	c #2E050A",
"7v#	c #391118",
"8v#	c #2A0208",
"9v#	c #4B080F",
"0v#	c #57151A",
"av#	c #662326",
"bv#	c #6A141C",
"cv#	c #901B27",
"dv#	c #B43B2C",
"ev#	c #F6B153",
"fv#	c #DE823D",
"gv#	c #AA1920",
"hv#	c #B23637",
"iv#	c #9F1E24",
"jv#	c #C66043",
"kv#	c #F6B24B",
"lv#	c #D2573C",
"mv#	c #C53336",
"nv#	c #B82C2C",
"ov#	c #B22631",
"pv#	c #B6242C",
"qv#	c #B6242D",
"rv#	c #B0252F",
"sv#	c #AF282E",
"tv#	c #AF262C",
"uv#	c #AB1C25",
"vv#	c #950818",
"wv#	c #790410",
"xv#	c #560206",
"yv#	c #420203",
"zv#	c #490B0F",
"Av#	c #470E15",
"Bv#	c #3E0C0F",
"Cv#	c #3A090C",
"Dv#	c #38070A",
"Ev#	c #34050C",
"Fv#	c #285923",
"Gv#	c #83C077",
"Hv#	c #86D47C",
"Iv#	c #418C3B",
"Jv#	c #14540E",
"Kv#	c #123F0A",
"Lv#	c #231A05",
"Mv#	c #2E130A",
"Nv#	c #0A0005",
"Ov#	c #2B0009",
"Pv#	c #210105",
"Qv#	c #1D0202",
"Rv#	c #1C0702",
"Sv#	c #190701",
"Tv#	c #160600",
"Uv#	c #115235",
"Vv#	c #27AF81",
"Wv#	c #3DC99F",
"Xv#	c #177252",
"Yv#	c #022716",
"Zv#	c #002713",
"`v#	c #012A11",
" w#	c #032613",
".w#	c #022513",
"+w#	c #022612",
"@w#	c #071C0B",
"#w#	c #6A0406",
"$w#	c #880706",
"%w#	c #8F0508",
"&w#	c #8F0609",
"*w#	c #8E0609",
"=w#	c #8A0507",
"-w#	c #860305",
";w#	c #7D0307",
">w#	c #0B1201",
",w#	c #296C0A",
"'w#	c #2D8406",
")w#	c #83D64B",
"!w#	c #599A2C",
"~w#	c #282304",
"{w#	c #180C03",
"]w#	c #040D07",
"^w#	c #05130C",
"/w#	c #071A12",
"(w#	c #051A11",
"_w#	c #040606",
":w#	c #639C49",
"<w#	c #8CCF64",
"[w#	c #185300",
"}w#	c #1C4404",
"|w#	c #2E3F0C",
"1w#	c #251100",
"2w#	c #0D1E0A",
"3w#	c #385F32",
"4w#	c #300508",
"5w#	c #3C090D",
"6w#	c #420C14",
"7w#	c #4B1214",
"8w#	c #4D1212",
"9w#	c #4F1113",
"0w#	c #4D0208",
"aw#	c #630108",
"bw#	c #860611",
"cw#	c #AF1E28",
"dw#	c #B6252D",
"ew#	c #B5262F",
"fw#	c #B4252F",
"gw#	c #B4262C",
"hw#	c #B3262B",
"iw#	c #B4262D",
"jw#	c #B22626",
"kw#	c #B22A32",
"lw#	c #DB6653",
"mw#	c #FEE2D5",
"nw#	c #D6723A",
"ow#	c #CA303C",
"pw#	c #A71C25",
"qw#	c #C32B2F",
"rw#	c #EFAF9E",
"sw#	c #F2C3B3",
"tw#	c #A02224",
"uw#	c #76131A",
"vw#	c #752731",
"ww#	c #59151E",
"xw#	c #460C11",
"yw#	c #3C0B16",
"zw#	c #2E0108",
"Aw#	c #230C14",
"Bw#	c #280F14",
"Cw#	c #110306",
"Dw#	c #4C0910",
"Ew#	c #58161C",
"Fw#	c #8D1D28",
"Gw#	c #B33B2D",
"Hw#	c #F7B255",
"Iw#	c #DF833D",
"Jw#	c #A81920",
"Kw#	c #A63636",
"Lw#	c #9C2227",
"Mw#	c #CB6443",
"Nw#	c #F7B44F",
"Ow#	c #D15236",
"Pw#	c #B11B24",
"Qw#	c #97141B",
"Rw#	c #8E181E",
"Sw#	c #8F111E",
"Tw#	c #8B111C",
"Uw#	c #87101A",
"Vw#	c #820B15",
"Ww#	c #740811",
"Xw#	c #62060D",
"Yw#	c #4E0105",
"Zw#	c #470306",
"`w#	c #49050A",
" x#	c #3C0509",
".x#	c #411214",
"+x#	c #4C1D20",
"@x#	c #4F1F22",
"#x#	c #4B1C22",
"$x#	c #491B21",
"%x#	c #471B20",
"&x#	c #42171D",
"*x#	c #3C1318",
"=x#	c #381213",
"-x#	c #341012",
";x#	c #27070C",
">x#	c #063003",
",x#	c #407A3A",
"'x#	c #80CF77",
")x#	c #79C96D",
"!x#	c #39802F",
"~x#	c #14520F",
"{x#	c #123C0D",
"]x#	c #112307",
"^x#	c #181302",
"/x#	c #1B1303",
"(x#	c #130B02",
"_x#	c #3E0407",
":x#	c #60040B",
"<x#	c #510101",
"[x#	c #1D0006",
"}x#	c #032311",
"|x#	c #2B8C64",
"1x#	c #27A578",
"2x#	c #147152",
"3x#	c #10593E",
"4x#	c #115238",
"5x#	c #085C39",
"6x#	c #065E37",
"7x#	c #0F573A",
"8x#	c #0F533A",
"9x#	c #115337",
"0x#	c #084329",
"ax#	c #022411",
"bx#	c #2F0202",
"cx#	c #480002",
"dx#	c #360502",
"ex#	c #130503",
"fx#	c #0B1001",
"gx#	c #226307",
"hx#	c #287E04",
"ix#	c #71C238",
"jx#	c #5A982A",
"kx#	c #281F03",
"lx#	c #011008",
"mx#	c #02190F",
"nx#	c #051E14",
"ox#	c #061D14",
"px#	c #061911",
"qx#	c #02120B",
"rx#	c #0E3E03",
"sx#	c #96D568",
"tx#	c #5CA73A",
"ux#	c #1A4C01",
"vx#	c #2D4107",
"wx#	c #050405",
"xx#	c #25060C",
"yx#	c #2A080E",
"zx#	c #330D13",
"Ax#	c #381115",
"Bx#	c #3D1418",
"Cx#	c #3F171B",
"Dx#	c #44191D",
"Ex#	c #481A1D",
"Fx#	c #4C1B1F",
"Gx#	c #4E1C20",
"Hx#	c #501B21",
"Ix#	c #410406",
"Jx#	c #470607",
"Kx#	c #4C070A",
"Lx#	c #4F040A",
"Mx#	c #59010A",
"Nx#	c #67010B",
"Ox#	c #780613",
"Px#	c #840915",
"Qx#	c #8B0B18",
"Rx#	c #8F0C18",
"Sx#	c #940C18",
"Tx#	c #990F1C",
"Ux#	c #990E1E",
"Vx#	c #9C0E1E",
"Wx#	c #D66140",
"Xx#	c #FFE1D4",
"Yx#	c #D77337",
"Zx#	c #CC303D",
"`x#	c #A91C26",
" y#	c #C83034",
".y#	c #F1B2A2",
"+y#	c #F2C4B4",
"@y#	c #9F2123",
"#y#	c #3D0C16",
"$y#	c #180205",
"%y#	c #150912",
"&y#	c #33191A",
"*y#	c #18050C",
"=y#	c #1B0105",
"-y#	c #2A1116",
";y#	c #3A1119",
">y#	c #4D0A12",
",y#	c #68121A",
"'y#	c #8C1B26",
")y#	c #B13A2E",
"!y#	c #F6B356",
"~y#	c #E2873F",
"{y#	c #A13A39",
"]y#	c #952226",
"^y#	c #CC663F",
"/y#	c #F9B651",
"(y#	c #D9563A",
"_y#	c #CB2432",
":y#	c #AE212C",
"<y#	c #AA313A",
"[y#	c #AB353C",
"}y#	c #AB333D",
"|y#	c #AA3540",
"1y#	c #A8353C",
"2y#	c #A1343C",
"3y#	c #9A3338",
"4y#	c #923539",
"5y#	c #8D3537",
"6y#	c #8F3A3D",
"7y#	c #95423D",
"8y#	c #954444",
"9y#	c #823B3E",
"0y#	c #56191B",
"ay#	c #471113",
"by#	c #3F0E11",
"cy#	c #3C0B10",
"dy#	c #36070B",
"ey#	c #300608",
"fy#	c #2D0607",
"gy#	c #2A0507",
"hy#	c #1B0104",
"iy#	c #06010B",
"jy#	c #05010A",
"ky#	c #020606",
"ly#	c #0C3807",
"my#	c #59954F",
"ny#	c #96E084",
"oy#	c #81CB6C",
"py#	c #2B6D22",
"qy#	c #073F05",
"ry#	c #122108",
"sy#	c #111D07",
"ty#	c #090D02",
"uy#	c #090503",
"vy#	c #370405",
"wy#	c #6A030A",
"xy#	c #963A3D",
"yy#	c #D4948F",
"zy#	c #B57873",
"Ay#	c #983136",
"By#	c #910514",
"Cy#	c #7C0209",
"Dy#	c #5F0506",
"Ey#	c #50030B",
"Fy#	c #130007",
"Gy#	c #022D19",
"Hy#	c #165A3D",
"Iy#	c #02301B",
"Jy#	c #083422",
"Ky#	c #0C3C28",
"Ly#	c #0F442E",
"My#	c #0F4D33",
"Ny#	c #164E35",
"Oy#	c #194E39",
"Py#	c #1A5440",
"Qy#	c #205742",
"Ry#	c #235540",
"Sy#	c #194631",
"Ty#	c #062011",
"Uy#	c #225F08",
"Vy#	c #2D7D09",
"Wy#	c #62AB28",
"Xy#	c #578D24",
"Yy#	c #291A01",
"Zy#	c #150803",
"`y#	c #000A07",
" z#	c #030C0A",
".z#	c #02150C",
"+z#	c #011D11",
"@z#	c #051E13",
"#z#	c #0A1F16",
"$z#	c #061A11",
"%z#	c #02110A",
"&z#	c #000905",
"*z#	c #65A34C",
"=z#	c #9CE571",
"-z#	c #207008",
";z#	c #25440B",
">z#	c #2C2A04",
",z#	c #17010A",
"'z#	c #040006",
")z#	c #070007",
"!z#	c #2D070B",
"~z#	c #30080C",
"{z#	c #37090D",
"]z#	c #3B0A0D",
"^z#	c #3D0C0F",
"/z#	c #490B10",
"(z#	c #883838",
"_z#	c #9E4945",
":z#	c #994242",
"<z#	c #93373C",
"[z#	c #93333A",
"}z#	c #99343A",
"|z#	c #9C343A",
"1z#	c #9F3538",
"2z#	c #A6363D",
"3z#	c #B23B3D",
"4z#	c #B5393F",
"5z#	c #B83D43",
"6z#	c #AC3032",
"7z#	c #9B1824",
"8z#	c #CD6054",
"9z#	c #FEE4D6",
"0z#	c #D77C6B",
"az#	c #CE313E",
"bz#	c #AF1E29",
"cz#	c #C93236",
"dz#	c #EEAFA0",
"ez#	c #78151D",
"fz#	c #73252E",
"gz#	c #57141C",
"hz#	c #4B0A10",
"iz#	c #470D12",
"jz#	c #2D0406",
"kz#	c #3D0C17",
"lz#	c #2F0209",
"mz#	c #220B12",
"nz#	c #16040B",
"oz#	c #4D0A11",
"pz#	c #672326",
"qz#	c #911B28",
"rz#	c #B23929",
"sz#	c #F6B052",
"tz#	c #DF8F76",
"uz#	c #A01D21",
"vz#	c #9F3A3A",
"wz#	c #922126",
"xz#	c #CB6742",
"yz#	c #CF5533",
"zz#	c #971B22",
"Az#	c #80151B",
"Bz#	c #8A1E26",
"Cz#	c #921E27",
"Dz#	c #99202B",
"Ez#	c #9C212D",
"Fz#	c #98272F",
"Gz#	c #95292F",
"Hz#	c #98292F",
"Iz#	c #9A2930",
"Jz#	c #952A2E",
"Kz#	c #892728",
"Lz#	c #7C2328",
"Mz#	c #6F2126",
"Nz#	c #4E0F13",
"Oz#	c #050106",
"Pz#	c #12430D",
"Qz#	c #589E50",
"Rz#	c #7FD075",
"Sz#	c #60A654",
"Tz#	c #19450C",
"Uz#	c #092501",
"Vz#	c #042403",
"Wz#	c #310905",
"Xz#	c #5A0403",
"Yz#	c #751010",
"Zz#	c #C47D79",
"`z#	c #EDBEBF",
" A#	c #FCDAD5",
".A#	c #EFC9BA",
"+A#	c #D58E88",
"@A#	c #BA4D52",
"#A#	c #87211F",
"$A#	c #74040A",
"%A#	c #450402",
"&A#	c #130300",
"*A#	c #0B3B27",
"=A#	c #041609",
"-A#	c #010F04",
";A#	c #060803",
">A#	c #020A04",
",A#	c #000D03",
"'A#	c #0B0505",
")A#	c #0C0D07",
"!A#	c #245808",
"~A#	c #2D7308",
"{A#	c #539219",
"]A#	c #487217",
"^A#	c #2A1102",
"/A#	c #130801",
"(A#	c #081B13",
"_A#	c #0B1911",
":A#	c #061910",
"<A#	c #01140B",
"[A#	c #054401",
"}A#	c #598F42",
"|A#	c #AEEF87",
"1A#	c #599D3B",
"2A#	c #2B4D0A",
"3A#	c #363212",
"4A#	c #240702",
"5A#	c #530E14",
"6A#	c #691119",
"7A#	c #841B27",
"8A#	c #972A33",
"9A#	c #9E3139",
"0A#	c #A02F36",
"aA#	c #9E292F",
"bA#	c #A1282E",
"cA#	c #A22A2F",
"dA#	c #A52C30",
"eA#	c #A82B2F",
"fA#	c #AD2A2F",
"gA#	c #AE292E",
"hA#	c #A9262C",
"iA#	c #AA2725",
"jA#	c #9E1823",
"kA#	c #CF5E53",
"lA#	c #FEE4D8",
"mA#	c #D77D6C",
"nA#	c #CF323D",
"oA#	c #B21E2A",
"pA#	c #CA3135",
"qA#	c #EEAF9F",
"rA#	c #F2C2B1",
"sA#	c #A12224",
"tA#	c #78151C",
"uA#	c #73242E",
"vA#	c #56131C",
"wA#	c #480E13",
"xA#	c #220A12",
"yA#	c #150812",
"zA#	c #170105",
"AA#	c #1A0004",
"BA#	c #2F0E15",
"CA#	c #2B0307",
"DA#	c #4E0B12",
"EA#	c #6B111B",
"FA#	c #911727",
"GA#	c #AF382F",
"HA#	c #F8C49E",
"IA#	c #DD8851",
"JA#	c #9F1F21",
"KA#	c #A23B3B",
"LA#	c #942527",
"MA#	c #CD693A",
"NA#	c #F9B34B",
"OA#	c #CF552F",
"PA#	c #C12229",
"QA#	c #A71622",
"RA#	c #991822",
"SA#	c #BD5F44",
"TA#	c #C98360",
"UA#	c #D07E49",
"VA#	c #CD7C42",
"WA#	c #CF8C75",
"XA#	c #CC9074",
"YA#	c #CE9378",
"ZA#	c #D48B62",
"`A#	c #D38D65",
" B#	c #CE8559",
".B#	c #BC653C",
"+B#	c #8E2225",
"@B#	c #531214",
"#B#	c #1B5312",
"$B#	c #15450E",
"%B#	c #032702",
"&B#	c #021E02",
"*B#	c #070603",
"=B#	c #201002",
"-B#	c #3E1100",
";B#	c #5C0802",
">B#	c #A64E4C",
",B#	c #CC948D",
"'B#	c #E6BDBA",
")B#	c #F4CDCD",
"!B#	c #F3C2BD",
"~B#	c #D18387",
"{B#	c #06120D",
"]B#	c #06301D",
"^B#	c #062C19",
"/B#	c #052E1C",
"(B#	c #062F1D",
"_B#	c #0A2E1E",
":B#	c #072C1B",
"<B#	c #052818",
"[B#	c #052617",
"}B#	c #032515",
"|B#	c #022211",
"1B#	c #02200F",
"2B#	c #021309",
"3B#	c #080C04",
"4B#	c #0A0C04",
"5B#	c #0B1108",
"6B#	c #13150C",
"7B#	c #15160D",
"8B#	c #275611",
"9B#	c #236202",
"0B#	c #447910",
"aB#	c #3A520C",
"bB#	c #270902",
"cB#	c #050C05",
"dB#	c #085204",
"eB#	c #64A54E",
"fB#	c #B2F08D",
"gB#	c #7BA854",
"hB#	c #25510B",
"iB#	c #33310D",
"jB#	c #1C0005",
"kB#	c #580B12",
"lB#	c #6E0914",
"mB#	c #97252A",
"nB#	c #C67442",
"oB#	c #D7926B",
"pB#	c #D99979",
"qB#	c #D78752",
"rB#	c #DB8145",
"sB#	c #D79177",
"tB#	c #D79172",
"uB#	c #D88F6E",
"vB#	c #D98E6E",
"wB#	c #D66A3F",
"xB#	c #B83133",
"yB#	c #CE403E",
"zB#	c #A81924",
"AB#	c #D35D45",
"BB#	c #FAC99C",
"CB#	c #D97958",
"DB#	c #CF313C",
"EB#	c #B41F2A",
"FB#	c #C83035",
"GB#	c #EFB09D",
"HB#	c #F1BFAF",
"IB#	c #79141B",
"JB#	c #74252E",
"KB#	c #5A151D",
"LB#	c #4F0D11",
"MB#	c #2C0307",
"NB#	c #3F0D16",
"OB#	c #351016",
"PB#	c #281015",
"QB#	c #220A13",
"RB#	c #140812",
"SB#	c #321819",
"TB#	c #140209",
"UB#	c #180107",
"VB#	c #1A0206",
"WB#	c #110105",
"XB#	c #2F0E14",
"YB#	c #2F080C",
"ZB#	c #2C0306",
"`B#	c #4C0810",
" C#	c #57161C",
".C#	c #662225",
"+C#	c #911728",
"@C#	c #AC3834",
"#C#	c #FBD6C9",
"$C#	c #D7803E",
"%C#	c #A02020",
"&C#	c #A03B38",
"*C#	c #912324",
"=C#	c #CC6B39",
"-C#	c #FBB44E",
";C#	c #D15437",
">C#	c #C1242C",
",C#	c #AE1A28",
"'C#	c #AF212B",
")C#	c #F8AE81",
"!C#	c #FBCAA1",
"~C#	c #FFD4B7",
"{C#	c #FDD6B4",
"]C#	c #FDDDBD",
"^C#	c #FFE1BD",
"/C#	c #FFE3C6",
"(C#	c #FFDCC3",
"_C#	c #FEE1C4",
":C#	c #FCE1C9",
"<C#	c #F2CABC",
"[C#	c #9D2C29",
"}C#	c #591517",
"|C#	c #511618",
"1C#	c #501F1E",
"2C#	c #582829",
"3C#	c #5A2C2E",
"4C#	c #5C302F",
"5C#	c #5B3035",
"6C#	c #572E2E",
"7C#	c #4E2A29",
"8C#	c #482424",
"9C#	c #482526",
"0C#	c #452426",
"aC#	c #391819",
"bC#	c #341315",
"cC#	c #2D0F13",
"dC#	c #270C11",
"eC#	c #2E0109",
"fC#	c #3D030F",
"gC#	c #290107",
"hC#	c #351F0A",
"iC#	c #471507",
"jC#	c #570705",
"kC#	c #630402",
"lC#	c #7A0304",
"mC#	c #8F030A",
"nC#	c #900913",
"oC#	c #952C30",
"pC#	c #B0555D",
"qC#	c #CF6B76",
"rC#	c #82272F",
"sC#	c #01110A",
"tC#	c #00160A",
"uC#	c #011A0C",
"vC#	c #032112",
"wC#	c #09291A",
"xC#	c #0E2E1F",
"yC#	c #133224",
"zC#	c #183728",
"AC#	c #1B3B2C",
"BC#	c #1C3C2D",
"CC#	c #1E3E2F",
"DC#	c #213F30",
"EC#	c #1C3628",
"FC#	c #15291D",
"GC#	c #101E13",
"HC#	c #0E1910",
"IC#	c #07140E",
"JC#	c #07130C",
"KC#	c #09130C",
"LC#	c #0C140B",
"MC#	c #0E140C",
"NC#	c #10150C",
"OC#	c #0B160E",
"PC#	c #0F1107",
"QC#	c #051B03",
"RC#	c #285815",
"SC#	c #245D03",
"TC#	c #3F6910",
"UC#	c #2E3305",
"VC#	c #1E0400",
"WC#	c #001903",
"XC#	c #012C05",
"YC#	c #064006",
"ZC#	c #054F05",
"`C#	c #3E792A",
" D#	c #9CCD78",
".D#	c #B6E991",
"+D#	c #5C9847",
"@D#	c #2E4309",
"#D#	c #3C2A0C",
"$D#	c #200801",
"%D#	c #0F0500",
"&D#	c #360810",
"*D#	c #360A11",
"=D#	c #20060A",
"-D#	c #280B0F",
";D#	c #431E22",
">D#	c #482024",
",D#	c #4B2024",
"'D#	c #4F2225",
")D#	c #532527",
"!D#	c #572426",
"~D#	c #62292B",
"{D#	c #591F22",
"]D#	c #5B0910",
"^D#	c #750B14",
"/D#	c #B23E34",
"(D#	c #F9D6C4",
"_D#	c #FEE3D1",
":D#	c #FDE6CE",
"<D#	c #F9DAB8",
"[D#	c #FCDDB8",
"}D#	c #FDE1C7",
"|D#	c #FEDEBF",
"1D#	c #FFE0C0",
"2D#	c #FEE1C8",
"3D#	c #FDE0C6",
"4D#	c #CA5F49",
"5D#	c #AB1A25",
"6D#	c #F9BA5A",
"7D#	c #DA763D",
"8D#	c #CD303C",
"9D#	c #B21F29",
"0D#	c #C52F33",
"aD#	c #EFB2A1",
"bD#	c #F2BFAE",
"cD#	c #A52425",
"dD#	c #7A151B",
"eD#	c #75262F",
"fD#	c #5C161D",
"gD#	c #4D0A0E",
"hD#	c #430911",
"iD#	c #2D0307",
"jD#	c #400C14",
"kD#	c #350F17",
"lD#	c #220A14",
"mD#	c #170106",
"nD#	c #271316",
"oD#	c #2F070C",
"pD#	c #3B1316",
"qD#	c #3E0309",
"rD#	c #55151A",
"sD#	c #642124",
"tD#	c #6D111A",
"uD#	c #901728",
"vD#	c #AD3932",
"wD#	c #D6803B",
"xD#	c #9E1F20",
"yD#	c #9F3C39",
"zD#	c #902324",
"AD#	c #CD6A3A",
"BD#	c #FAB654",
"CD#	c #D35532",
"DD#	c #C12433",
"ED#	c #A31C29",
"FD#	c #B21C27",
"GD#	c #F5B9A3",
"HD#	c #E26D46",
"ID#	c #D54335",
"JD#	c #D14532",
"KD#	c #D14A3B",
"LD#	c #D34C38",
"MD#	c #D2493E",
"ND#	c #D04632",
"OD#	c #CA4938",
"PD#	c #E28E43",
"QD#	c #F9AD73",
"RD#	c #AB2E2C",
"SD#	c #881F23",
"TD#	c #661518",
"UD#	c #62171C",
"VD#	c #611D1F",
"WD#	c #5E2225",
"XD#	c #5B2026",
"YD#	c #4A1A1A",
"ZD#	c #421616",
"`D#	c #3F1316",
" E#	c #3C0D11",
".E#	c #3A0A0C",
"+E#	c #33060A",
"@E#	c #30050A",
"#E#	c #2D0408",
"$E#	c #260205",
"%E#	c #42020E",
"&E#	c #570715",
"*E#	c #620918",
"=E#	c #40030A",
"-E#	c #060402",
";E#	c #05000C",
">E#	c #11410F",
",E#	c #072F02",
"'E#	c #132601",
")E#	c #2C2508",
"!E#	c #39290D",
"~E#	c #441D09",
"{E#	c #4A1002",
"]E#	c #570802",
"^E#	c #6A0309",
"/E#	c #6D0609",
"(E#	c #000902",
"_E#	c #001800",
":E#	c #0E2104",
"<E#	c #0A3002",
"[E#	c #1F5206",
"}E#	c #295201",
"|E#	c #40510E",
"1E#	c #261A01",
"2E#	c #022106",
"3E#	c #063606",
"4E#	c #064B04",
"5E#	c #085C04",
"6E#	c #348026",
"7E#	c #8BC463",
"8E#	c #BFF48B",
"9E#	c #9CCA74",
"0E#	c #356624",
"aE#	c #2E3C0E",
"bE#	c #292507",
"cE#	c #3C0207",
"dE#	c #690B1C",
"eE#	c #680B1C",
"fE#	c #250006",
"gE#	c #2C030A",
"hE#	c #2E030A",
"iE#	c #451218",
"jE#	c #4E1318",
"kE#	c #521317",
"lE#	c #561317",
"mE#	c #581519",
"nE#	c #5A1417",
"oE#	c #5F1619",
"pE#	c #691D20",
"qE#	c #631B1D",
"rE#	c #672124",
"sE#	c #780B13",
"tE#	c #B53D33",
"uE#	c #FAC8B1",
"vE#	c #DF7646",
"wE#	c #D8513D",
"xE#	c #DE4A3B",
"yE#	c #DE4630",
"zE#	c #D6483E",
"AE#	c #D84633",
"BE#	c #DE403C",
"CE#	c #D44B3A",
"DE#	c #F8B46F",
"EE#	c #CE6449",
"FE#	c #C02F30",
"GE#	c #AE1E29",
"HE#	c #CE5E42",
"IE#	c #D9763A",
"JE#	c #B02129",
"KE#	c #C02F32",
"LE#	c #EFB5A6",
"ME#	c #F3C2B1",
"NE#	c #7C171D",
"OE#	c #76272F",
"PE#	c #5B151C",
"QE#	c #2E050C",
"RE#	c #140811",
"SE#	c #33191B",
"TE#	c #140109",
"UE#	c #160005",
"VE#	c #241013",
"WE#	c #300F15",
"XE#	c #2E070A",
"YE#	c #380F13",
"ZE#	c #4C080F",
"`E#	c #6D111B",
" F#	c #911828",
".F#	c #AF3933",
"+F#	c #D8813C",
"@F#	c #9F2121",
"#F#	c #9F3F3A",
"$F#	c #8B1F1F",
"%F#	c #CA683A",
"&F#	c #FAC591",
"*F#	c #D25837",
"=F#	c #C12736",
"-F#	c #A41F2C",
";F#	c #AE1A24",
">F#	c #F3B19B",
",F#	c #D95B40",
"'F#	c #C71019",
")F#	c #BE0C16",
"!F#	c #BF0C19",
"~F#	c #C30B1C",
"{F#	c #C6081F",
"]F#	c #C50C1B",
"^F#	c #D00D17",
"/F#	c #E6843A",
"(F#	c #F7CDC0",
"_F#	c #B1322E",
":F#	c #942326",
"<F#	c #701115",
"[F#	c #7C1821",
"}F#	c #87222C",
"|F#	c #842931",
"1F#	c #852830",
"2F#	c #82272E",
"3F#	c #75252C",
"4F#	c #4E0A0F",
"5F#	c #3B0304",
"6F#	c #3D0709",
"7F#	c #390507",
"8F#	c #330706",
"9F#	c #310606",
"0F#	c #2D0506",
"aF#	c #2B0406",
"bF#	c #690514",
"cF#	c #901129",
"dF#	c #8E1A2F",
"eF#	c #680E1B",
"fF#	c #06000A",
"gF#	c #092908",
"hF#	c #569A51",
"iF#	c #64AB5F",
"jF#	c #357332",
"kF#	c #0C3F03",
"lF#	c #102E01",
"mF#	c #262B06",
"nF#	c #353110",
"oF#	c #3E2A0F",
"pF#	c #49230D",
"qF#	c #4D1605",
"rF#	c #510804",
"sF#	c #330705",
"tF#	c #110206",
"uF#	c #070605",
"vF#	c #080606",
"wF#	c #090907",
"xF#	c #090806",
"yF#	c #0B0909",
"zF#	c #10140C",
"AF#	c #163513",
"BF#	c #458136",
"CF#	c #337421",
"DF#	c #184E0A",
"EF#	c #134701",
"FF#	c #234C03",
"GF#	c #374308",
"HF#	c #3A2E08",
"IF#	c #1F0701",
"JF#	c #140006",
"KF#	c #030005",
"LF#	c #074104",
"MF#	c #0C5002",
"NF#	c #206409",
"OF#	c #5C9941",
"PF#	c #96D276",
"QF#	c #96D272",
"RF#	c #488430",
"SF#	c #234406",
"TF#	c #2A2A09",
"UF#	c #060004",
"VF#	c #0F0006",
"WF#	c #610515",
"XF#	c #93132B",
"YF#	c #97172D",
"ZF#	c #700B1B",
"`F#	c #450006",
" G#	c #2E0408",
".G#	c #37060A",
"+G#	c #3B080B",
"@G#	c #470B0F",
"#G#	c #682023",
"$G#	c #7A272A",
"%G#	c #822A2F",
"&G#	c #822A36",
"*G#	c #862B37",
"=G#	c #892C35",
"-G#	c #903035",
";G#	c #811F28",
">G#	c #78161B",
",G#	c #771019",
"'G#	c #820E16",
")G#	c #B93E31",
"!G#	c #F9CFB7",
"~G#	c #DC6F43",
"{G#	c #C80B14",
"]G#	c #C50A16",
"^G#	c #C70D19",
"/G#	c #BC0C12",
"(G#	c #BE0D16",
"_G#	c #C70C13",
":G#	c #BB2822",
"<G#	c #F6B47E",
"[G#	c #D06549",
"}G#	c #BF2E2F",
"|G#	c #B1202C",
"1G#	c #CB5C41",
"2G#	c #F8BA63",
"3G#	c #D9763D",
"4G#	c #C82F3B",
"5G#	c #B02029",
"6G#	c #BF2D31",
"7G#	c #EEB4A6",
"8G#	c #F5C4B3",
"9G#	c #A12121",
"0G#	c #74252D",
"aG#	c #5D181F",
"bG#	c #4F0C10",
"cG#	c #41070F",
"dG#	c #3F0C13",
"eG#	c #340E15",
"fG#	c #150202",
"gG#	c #1C0404",
"hG#	c #0D0105",
"iG#	c #251114",
"jG#	c #4D0911",
"kG#	c #58171C",
"lG#	c #901727",
"mG#	c #AF3A30",
"nG#	c #FBD4C7",
"oG#	c #9F2322",
"pG#	c #9E423B",
"qG#	c #8A1F1F",
"rG#	c #C96738",
"sG#	c #FAC894",
"tG#	c #D25D3A",
"uG#	c #C32835",
"vG#	c #A51927",
"wG#	c #A11920",
"xG#	c #F3A36B",
"yG#	c #F2A552",
"zG#	c #F09D4F",
"AG#	c #F19D48",
"BG#	c #EC9A49",
"CG#	c #F09C4E",
"DG#	c #EC954F",
"EG#	c #E8813D",
"FG#	c #CC2124",
"GG#	c #E9873E",
"HG#	c #F9C6AE",
"IG#	c #B4312F",
"JG#	c #992426",
"KG#	c #7C1419",
"LG#	c #8C1421",
"MG#	c #9B1A29",
"NG#	c #9F2632",
"OG#	c #A32A35",
"PG#	c #A42832",
"QG#	c #A4272F",
"RG#	c #A0232C",
"SG#	c #8C1928",
"TG#	c #630610",
"UG#	c #3B0405",
"VG#	c #3C0809",
"WG#	c #38090B",
"XG#	c #32050A",
"YG#	c #2C0108",
"ZG#	c #90091E",
"`G#	c #BD1933",
" H#	c #AA1F34",
".H#	c #6E0A19",
"+H#	c #092106",
"@H#	c #41743D",
"#H#	c #76C673",
"$H#	c #85D27E",
"%H#	c #6AA160",
"&H#	c #2E5A1F",
"*H#	c #1E3701",
"=H#	c #213303",
"-H#	c #283205",
";H#	c #2C3004",
">H#	c #312506",
",H#	c #342007",
"'H#	c #331605",
")H#	c #311106",
"!H#	c #270A03",
"~H#	c #021904",
"{H#	c #398623",
"]H#	c #52B237",
"^H#	c #125901",
"/H#	c #245006",
"(H#	c #273D02",
"_H#	c #3A2B08",
":H#	c #2F0C01",
"<H#	c #042C01",
"[H#	c #0A4106",
"}H#	c #0B4C06",
"|H#	c #115906",
"1H#	c #4D8634",
"2H#	c #87C461",
"3H#	c #A7E87B",
"4H#	c #A7E280",
"5H#	c #81B065",
"6H#	c #3E6B2D",
"7H#	c #103903",
"8H#	c #1A2607",
"9H#	c #1C0D03",
"0H#	c #390204",
"aH#	c #7B071E",
"bH#	c #AE1632",
"cH#	c #BD1A36",
"dH#	c #A20C26",
"eH#	c #67010F",
"fH#	c #1F0003",
"gH#	c #310307",
"hH#	c #330206",
"iH#	c #3D0609",
"jH#	c #3F0509",
"kH#	c #4F060B",
"lH#	c #73171D",
"mH#	c #8B1D24",
"nH#	c #9A232B",
"oH#	c #9F2731",
"pH#	c #A12731",
"qH#	c #A2252D",
"rH#	c #A6272D",
"sH#	c #9C1D25",
"tH#	c #991E28",
"uH#	c #890E16",
"vH#	c #BC3F2F",
"wH#	c #FACFB7",
"xH#	c #DF7C45",
"yH#	c #C82C2A",
"zH#	c #F0A47D",
"AH#	c #F5BBA0",
"BH#	c #F2B89F",
"CH#	c #F4A970",
"DH#	c #F6AD6E",
"EH#	c #F2BCA6",
"FH#	c #FEC69E",
"GH#	c #CB5E4A",
"HH#	c #BD2C2D",
"IH#	c #B3222D",
"JH#	c #CC5D41",
"KH#	c #F8C089",
"LH#	c #DA763B",
"MH#	c #B31F29",
"NH#	c #C22C30",
"OH#	c #F0B3A1",
"PH#	c #330D14",
"QH#	c #270E13",
"RH#	c #140813",
"SH#	c #140207",
"TH#	c #150004",
"UH#	c #31050C",
"VH#	c #2A0305",
"WH#	c #4F0911",
"XH#	c #682427",
"YH#	c #6A1017",
"ZH#	c #8E1627",
"`H#	c #B13A35",
" I#	c #FBD5C4",
".I#	c #DC8A68",
"+I#	c #A02423",
"@I#	c #A5413B",
"#I#	c #8E211F",
"$I#	c #C86736",
"%I#	c #FBB958",
"&I#	c #D1623B",
"*I#	c #C12B33",
"=I#	c #A21C28",
"-I#	c #99111A",
";I#	c #CE563A",
">I#	c #D77744",
",I#	c #DC7F4A",
"'I#	c #DE7D3C",
")I#	c #DE8145",
"!I#	c #DD7D48",
"~I#	c #DE7948",
"{I#	c #DF6542",
"]I#	c #BB1A1F",
"^I#	c #EC8B41",
"/I#	c #FBB583",
"(I#	c #BA302C",
"_I#	c #9A2E28",
":I#	c #931725",
"<I#	c #C76D40",
"[I#	c #F5B288",
"}I#	c #F6B582",
"|I#	c #F6A962",
"1I#	c #F2B484",
"2I#	c #F4B991",
"3I#	c #EC9B55",
"4I#	c #B43D39",
"5I#	c #851120",
"6I#	c #56050E",
"7I#	c #44050A",
"8I#	c #40090C",
"9I#	c #3D070B",
"0I#	c #32040A",
"aI#	c #300409",
"bI#	c #260406",
"cI#	c #240506",
"dI#	c #440102",
"eI#	c #90061C",
"fI#	c #A8132F",
"gI#	c #82192F",
"hI#	c #306A2C",
"iI#	c #76B772",
"jI#	c #95E190",
"kI#	c #8DD480",
"lI#	c #64A053",
"mI#	c #204C06",
"nI#	c #193D02",
"oI#	c #193102",
"pI#	c #202C05",
"qI#	c #1E2304",
"rI#	c #191D04",
"sI#	c #101401",
"tI#	c #040503",
"uI#	c #030D01",
"vI#	c #184A09",
"wI#	c #7BC758",
"xI#	c #68B745",
"yI#	c #1F5803",
"zI#	c #284006",
"AI#	c #3A2A05",
"BI#	c #341001",
"CI#	c #050B05",
"DI#	c #082002",
"EI#	c #103302",
"FI#	c #0E4102",
"GI#	c #094902",
"HI#	c #105208",
"II#	c #276419",
"JI#	c #599145",
"KI#	c #8AC26D",
"LI#	c #AAE587",
"MI#	c #A3E47E",
"NI#	c #81BD5F",
"OI#	c #4A7C30",
"PI#	c #0C1601",
"QI#	c #4B0C1A",
"RI#	c #931C32",
"SI#	c #A71634",
"TI#	c #950622",
"UI#	c #63020A",
"VI#	c #330208",
"WI#	c #340309",
"XI#	c #38050A",
"YI#	c #48030E",
"ZI#	c #5A0910",
"`I#	c #B34131",
" J#	c #F1A55D",
".J#	c #F3C4AE",
"+J#	c #F6B688",
"@J#	c #F6BA95",
"#J#	c #F5BB95",
"$J#	c #F3C2A3",
"%J#	c #E3724E",
"&J#	c #C2303B",
"*J#	c #9B212C",
"=J#	c #8E1014",
"-J#	c #BC412B",
";J#	c #FCD1BB",
">J#	c #DE8054",
",J#	c #B8171F",
"'J#	c #D86740",
")J#	c #E27A5A",
"!J#	c #DE7A5C",
"~J#	c #DD7744",
"{J#	c #DB7650",
"]J#	c #D97547",
"^J#	c #D86646",
"/J#	c #BA3135",
"(J#	c #BC2728",
"_J#	c #B3242F",
":J#	c #CC6041",
"<J#	c #F9B759",
"[J#	c #DC763B",
"}J#	c #CD2F3C",
"|J#	c #B5202B",
"1J#	c #C0292F",
"2J#	c #F0B49B",
"3J#	c #F5C4B1",
"4J#	c #9F201E",
"5J#	c #762629",
"6J#	c #4F0C0F",
"7J#	c #2D0306",
"8J#	c #3F0D13",
"9J#	c #340D15",
"0J#	c #200B12",
"aJ#	c #290404",
"bJ#	c #4D070E",
"cJ#	c #672327",
"dJ#	c #6B1217",
"eJ#	c #8F1727",
"fJ#	c #B33B37",
"gJ#	c #FCD6C4",
"hJ#	c #DE8F77",
"iJ#	c #9D2221",
"jJ#	c #A63F38",
"kJ#	c #8E1F1D",
"lJ#	c #C66434",
"mJ#	c #D36138",
"nJ#	c #BF2F33",
"oJ#	c #9D2129",
"pJ#	c #96101A",
"qJ#	c #A11113",
"rJ#	c #AB1115",
"sJ#	c #AF0D1A",
"tJ#	c #B00F1B",
"uJ#	c #B2101D",
"vJ#	c #B2101C",
"wJ#	c #AE141F",
"xJ#	c #B5111D",
"yJ#	c #AC0C12",
"zJ#	c #E98D45",
"AJ#	c #FBAC59",
"BJ#	c #BB322E",
"CJ#	c #9E352C",
"DJ#	c #A11C2A",
"EJ#	c #DF8545",
"FJ#	c #FBC189",
"GJ#	c #F2BFA7",
"HJ#	c #F9C6B0",
"IJ#	c #FAD0B3",
"JJ#	c #FBD7B8",
"KJ#	c #FBCCAA",
"LJ#	c #C84F43",
"MJ#	c #A62736",
"NJ#	c #600814",
"OJ#	c #360103",
"PJ#	c #0E0407",
"QJ#	c #051E00",
"RJ#	c #11370B",
"SJ#	c #4F7D45",
"TJ#	c #83BF76",
"UJ#	c #95DC89",
"VJ#	c #89D281",
"WJ#	c #7EB472",
"XJ#	c #316125",
"YJ#	c #163003",
"ZJ#	c #182A06",
"`J#	c #111D05",
" K#	c #020B00",
".K#	c #082A00",
"+K#	c #053E00",
"@K#	c #1E6510",
"#K#	c #79BE58",
"$K#	c #9CE47A",
"%K#	c #357116",
"&K#	c #333D01",
"*K#	c #401E05",
"=K#	c #3B0F0A",
"-K#	c #0A3809",
";K#	c #245D1C",
">K#	c #468333",
",K#	c #63A646",
"'K#	c #7FC65D",
")K#	c #92D86F",
"!K#	c #9DD677",
"~K#	c #93CB70",
"{K#	c #70A355",
"]K#	c #376A24",
"^K#	c #123C05",
"/K#	c #54030B",
"(K#	c #740C13",
"_K#	c #C44B34",
":K#	c #FFC79A",
"<K#	c #FAC8B6",
"[K#	c #F5CFBA",
"}K#	c #FBD2B9",
"|K#	c #FAD3BA",
"1K#	c #F6F4D5",
"2K#	c #E78452",
"3K#	c #D0383F",
"4K#	c #A22630",
"5K#	c #921317",
"6K#	c #BE432E",
"7K#	c #DC8674",
"8K#	c #B1101E",
"9K#	c #AD131D",
"0K#	c #B5151B",
"aK#	c #B41A1F",
"bK#	c #B41C1F",
"cK#	c #B21A1F",
"dK#	c #B21A21",
"eK#	c #B61D26",
"fK#	c #B61F2D",
"gK#	c #BA2226",
"hK#	c #B42530",
"iK#	c #CD613E",
"jK#	c #F9C48D",
"kK#	c #DD773D",
"lK#	c #CB2D3B",
"mK#	c #B5212C",
"nK#	c #BD262E",
"oK#	c #EFB59B",
"pK#	c #9F201D",
"qK#	c #7B1520",
"rK#	c #772626",
"sK#	c #5D161D",
"tK#	c #4E0A0D",
"uK#	c #440A10",
"vK#	c #2C0305",
"wK#	c #3F0C12",
"xK#	c #1F0B11",
"yK#	c #32191A",
"zK#	c #160105",
"AK#	c #2E0F13",
"BK#	c #33050D",
"CK#	c #460509",
"DK#	c #500810",
"EK#	c #551218",
"FK#	c #682227",
"GK#	c #6E1318",
"HK#	c #911827",
"IK#	c #B23B36",
"JK#	c #FCD8C4",
"KK#	c #DE9078",
"LK#	c #9F2324",
"MK#	c #A33E39",
"NK#	c #8F1C1E",
"OK#	c #C86034",
"PK#	c #D35F36",
"QK#	c #A4232A",
"RK#	c #960F18",
"SK#	c #9C1214",
"TK#	c #9C1014",
"UK#	c #9D0E19",
"VK#	c #9C0D18",
"WK#	c #9D0E18",
"XK#	c #9D0F1A",
"YK#	c #A90F1B",
"ZK#	c #A50E15",
"`K#	c #E78E46",
" L#	c #FAAA58",
".L#	c #BA3331",
"+L#	c #A83630",
"@L#	c #A51E28",
"#L#	c #E8947B",
"$L#	c #F6B277",
"%L#	c #C52320",
"&L#	c #B52628",
"*L#	c #C42B28",
"=L#	c #CF5042",
"-L#	c #FDBE9B",
";L#	c #D05642",
">L#	c #B22C3A",
",L#	c #690B17",
"'L#	c #450108",
")L#	c #130003",
"!L#	c #100007",
"~L#	c #16000B",
"{L#	c #150007",
"]L#	c #0B1302",
"^L#	c #0E400B",
"/L#	c #40773F",
"(L#	c #75AB6C",
"_L#	c #4E7E45",
":L#	c #1A3D0C",
"<L#	c #1A2E09",
"[L#	c #151E03",
"}L#	c #060B03",
"|L#	c #0C2D05",
"1L#	c #0B3302",
"2L#	c #0A3504",
"3L#	c #0C3604",
"4L#	c #0B3504",
"5L#	c #0C3605",
"6L#	c #0B3606",
"7L#	c #0C3907",
"8L#	c #0E3F0A",
"9L#	c #0E440A",
"0L#	c #0B4408",
"aL#	c #034803",
"bL#	c #226612",
"cL#	c #67A54A",
"dL#	c #A4E278",
"eL#	c #A2E075",
"fL#	c #527D2F",
"gL#	c #3A3C07",
"hL#	c #411D08",
"iL#	c #400604",
"jL#	c #0B0107",
"kL#	c #0D2005",
"lL#	c #55944C",
"mL#	c #72BC57",
"nL#	c #76BA58",
"oL#	c #639E44",
"pL#	c #4D8232",
"qL#	c #2B5D16",
"rL#	c #103A05",
"sL#	c #062503",
"tL#	c #090B0B",
"uL#	c #0F050A",
"vL#	c #11020A",
"wL#	c #11020B",
"xL#	c #58020A",
"yL#	c #850714",
"zL#	c #CF6648",
"AL#	c #FBCEB6",
"BL#	c #C44935",
"CL#	c #BD3B2E",
"DL#	c #BE3625",
"EL#	c #C94C38",
"FL#	c #FDCCB2",
"GL#	c #E3754C",
"HL#	c #CA313A",
"IL#	c #A3252F",
"JL#	c #96151A",
"KL#	c #C14333",
"LL#	c #DB8676",
"ML#	c #B11725",
"NL#	c #AA1925",
"OL#	c #AB161C",
"PL#	c #AA1720",
"QL#	c #AB1820",
"RL#	c #A2151D",
"SL#	c #A81926",
"TL#	c #AF1D21",
"UL#	c #B32630",
"VL#	c #CE6140",
"WL#	c #FED3B1",
"XL#	c #D9743D",
"YL#	c #C92B39",
"ZL#	c #B5202C",
"`L#	c #F0B69B",
" M#	c #9E1F1D",
".M#	c #7C1622",
"+M#	c #762524",
"@M#	c #5D151D",
"#M#	c #500A0E",
"$M#	c #450A10",
"%M#	c #1E0B11",
"&M#	c #130712",
"*M#	c #311718",
"=M#	c #150307",
"-M#	c #2A1214",
";M#	c #34060E",
">M#	c #440206",
",M#	c #4F050E",
"'M#	c #5A141C",
")M#	c #6A2227",
"!M#	c #6F1218",
"~M#	c #951A27",
"{M#	c #B23C34",
"]M#	c #DF917B",
"^M#	c #A12227",
"/M#	c #A03937",
"(M#	c #C65E35",
"_M#	c #FAB552",
":M#	c #D26535",
"<M#	c #C72E34",
"[M#	c #B62E34",
"}M#	c #B0252E",
"|M#	c #B1242A",
"1M#	c #B2272D",
"2M#	c #B42731",
"3M#	c #B52731",
"4M#	c #B12C33",
"5M#	c #BA2D35",
"6M#	c #AA2024",
"7M#	c #E69146",
"8M#	c #F9AA5A",
"9M#	c #BA3432",
"0M#	c #B13633",
"aM#	c #E99789",
"bM#	c #FAAF7B",
"cM#	c #CF1F1F",
"dM#	c #C32B3A",
"eM#	c #BA0C1A",
"fM#	c #D05641",
"gM#	c #FFD7C6",
"hM#	c #D25C3E",
"iM#	c #AA2131",
"jM#	c #6C0814",
"kM#	c #480106",
"lM#	c #150300",
"mM#	c #110802",
"nM#	c #091A01",
"oM#	c #0D1201",
"pM#	c #1E4510",
"qM#	c #2B6418",
"rM#	c #2C6812",
"sM#	c #2C6A10",
"tM#	c #296A0F",
"uM#	c #27680D",
"vM#	c #226409",
"wM#	c #206208",
"xM#	c #23660A",
"yM#	c #276B10",
"zM#	c #2D7216",
"AM#	c #397F23",
"BM#	c #53973E",
"CM#	c #7DB75B",
"DM#	c #9ED376",
"EM#	c #BBEF91",
"FM#	c #AEDE8B",
"GM#	c #77A359",
"HM#	c #39510D",
"IM#	c #443308",
"JM#	c #400F03",
"KM#	c #2E0302",
"LM#	c #0C0400",
"MM#	c #0A0108",
"NM#	c #0B0404",
"OM#	c #031A05",
"PM#	c #0A0A02",
"QM#	c #0C0604",
"RM#	c #0E0107",
"SM#	c #3F0206",
"TM#	c #84071C",
"UM#	c #CA6F52",
"VM#	c #FBCFB2",
"WM#	c #D04438",
"XM#	c #CC3A3A",
"YM#	c #B31718",
"ZM#	c #C53829",
"`M#	c #FCCEAF",
" N#	c #E07F4C",
".N#	c #C82E37",
"+N#	c #A52531",
"@N#	c #99161D",
"#N#	c #C24236",
"$N#	c #DB8671",
"%N#	c #B9252F",
"&N#	c #B12931",
"*N#	c #AB2326",
"=N#	c #A9232B",
"-N#	c #AB262C",
";N#	c #AB282C",
">N#	c #AD2C2E",
",N#	c #AB2C2E",
"'N#	c #AF302F",
")N#	c #B62F2D",
"!N#	c #AD272F",
"~N#	c #CB603D",
"{N#	c #FEBE62",
"]N#	c #DA753D",
"^N#	c #C42736",
"/N#	c #BE272E",
"(N#	c #EFB49A",
"_N#	c #F4C5B2",
":N#	c #9D1E1B",
"<N#	c #7C1621",
"[N#	c #752323",
"}N#	c #470910",
"|N#	c #3E0A11",
"1N#	c #30060D",
"2N#	c #130611",
"3N#	c #130206",
"4N#	c #2E080D",
"5N#	c #3B0F13",
"6N#	c #470308",
"7N#	c #550A13",
"8N#	c #73141A",
"9N#	c #951926",
"0N#	c #B43E36",
"aN#	c #FBDBC7",
"bN#	c #A32128",
"cN#	c #9E3435",
"dN#	c #931B20",
"eN#	c #C25E37",
"fN#	c #FBC796",
"gN#	c #DB8066",
"hN#	c #C84D39",
"iN#	c #C2523E",
"jN#	c #BF483B",
"kN#	c #BC4938",
"lN#	c #C04A3D",
"mN#	c #C34D3D",
"nN#	c #C14C3C",
"oN#	c #C24B3E",
"pN#	c #C04C3D",
"qN#	c #C6493A",
"rN#	c #C1473A",
"sN#	c #EF9C48",
"tN#	c #F7A859",
"uN#	c #B7322F",
"vN#	c #B53232",
"wN#	c #A31E29",
"xN#	c #E89A8C",
"yN#	c #FBB07C",
"zN#	c #CA2D26",
"AN#	c #D44650",
"BN#	c #B01924",
"CN#	c #CA6344",
"DN#	c #FBCFAF",
"EN#	c #A51C2B",
"FN#	c #740C18",
"GN#	c #53050B",
"HN#	c #562022",
"IN#	c #622E2D",
"JN#	c #613032",
"KN#	c #562A31",
"LN#	c #572B30",
"MN#	c #58292C",
"NN#	c #54262B",
"ON#	c #532729",
"PN#	c #51272A",
"QN#	c #4F2529",
"RN#	c #4D2428",
"SN#	c #4A2025",
"TN#	c #3C1016",
"UN#	c #390D13",
"VN#	c #360D12",
"WN#	c #340B10",
"XN#	c #32090E",
"YN#	c #30070C",
"ZN#	c #180105",
"`N#	c #1D1B05",
" O#	c #5C8148",
".O#	c #90CB74",
"+O#	c #9EDA77",
"@O#	c #ADE27B",
"#O#	c #B7E980",
"$O#	c #B4E87D",
"%O#	c #B2E67B",
"&O#	c #B2E77C",
"*O#	c #B6E67B",
"=O#	c #B9E57C",
"-O#	c #BAE481",
";O#	c #B9E184",
">O#	c #B4D981",
",O#	c #A7C776",
"'O#	c #84A75C",
")O#	c #4C6C2A",
"!O#	c #373E07",
"~O#	c #3C2C08",
"{O#	c #3A1908",
"]O#	c #2F0701",
"^O#	c #330A0F",
"/O#	c #370F13",
"(O#	c #3F171C",
"_O#	c #441A20",
":O#	c #461C21",
"<O#	c #491E23",
"[O#	c #4D2126",
"}O#	c #522429",
"|O#	c #55262A",
"1O#	c #57272A",
"2O#	c #5D2931",
"3O#	c #643033",
"4O#	c #663035",
"5O#	c #672B31",
"6O#	c #58171D",
"7O#	c #590305",
"8O#	c #850E1A",
"9O#	c #CF6B4F",
"0O#	c #F8C294",
"aO#	c #CF4D3B",
"bO#	c #D34842",
"cO#	c #B0211D",
"dO#	c #C4382C",
"eO#	c #FCCEAE",
"fO#	c #E2814C",
"gO#	c #C62A34",
"hO#	c #A62230",
"iO#	c #9D1820",
"jO#	c #C24133",
"kO#	c #FCD2BA",
"lO#	c #E18C76",
"mO#	c #D04A41",
"nO#	c #C14B3A",
"oO#	c #C14A3B",
"pO#	c #BE4D3F",
"qO#	c #C15041",
"rO#	c #C45444",
"sO#	c #C7543E",
"tO#	c #C85240",
"uO#	c #C5563F",
"vO#	c #C54F39",
"wO#	c #C14A44",
"xO#	c #DA7348",
"yO#	c #FEBF60",
"zO#	c #D7733C",
"AO#	c #C32637",
"BO#	c #B7222F",
"CO#	c #EFB399",
"DO#	c #F4C4B1",
"EO#	c #9C1D1A",
"FO#	c #742222",
"GO#	c #5D141C",
"HO#	c #530B0F",
"IO#	c #3E080F",
"JO#	c #120811",
"KO#	c #130208",
"LO#	c #291114",
"MO#	c #310E13",
"NO#	c #36060C",
"OO#	c #470409",
"PO#	c #56070F",
"QO#	c #63161C",
"RO#	c #73252A",
"SO#	c #700E16",
"TO#	c #951B28",
"UO#	c #B63F32",
"VO#	c #FCDAC9",
"WO#	c #DF9057",
"XO#	c #A92429",
"YO#	c #A6343D",
"ZO#	c #951C21",
"`O#	c #BD583A",
" P#	c #FED6BF",
".P#	c #FDE1CD",
"+P#	c #FFD3B2",
"@P#	c #FCD1B1",
"#P#	c #FED2B1",
"$P#	c #FCE2D4",
"%P#	c #FDE4D5",
"&P#	c #FDE3D5",
"*P#	c #FDE4D6",
"=P#	c #FDDECB",
"-P#	c #FED1B2",
";P#	c #FDDFCE",
">P#	c #FDE0CA",
",P#	c #F6A86D",
"'P#	c #B82931",
")P#	c #B82F32",
"!P#	c #A61B25",
"~P#	c #E69C8C",
"{P#	c #F8B07B",
"]P#	c #CB2B29",
"^P#	c #D43F4A",
"/P#	c #A71A20",
"(P#	c #D16447",
"_P#	c #FEE0CC",
":P#	c #CF6335",
"<P#	c #A01F2E",
"[P#	c #7A0E1D",
"}P#	c #5E0711",
"|P#	c #5B171B",
"1P#	c #56151B",
"2P#	c #521419",
"3P#	c #4F1419",
"4P#	c #491115",
"5P#	c #4B1216",
"6P#	c #450F13",
"7P#	c #3A080C",
"8P#	c #3B090D",
"9P#	c #3C070C",
"0P#	c #350408",
"aP#	c #360106",
"bP#	c #1C0500",
"cP#	c #182000",
"dP#	c #213002",
"eP#	c #214108",
"fP#	c #1B4B09",
"gP#	c #1D4C08",
"hP#	c #20520B",
"iP#	c #21540C",
"jP#	c #24510A",
"kP#	c #254D08",
"lP#	c #254706",
"mP#	c #274206",
"nP#	c #263B03",
"oP#	c #31340B",
"pP#	c #302707",
"qP#	c #301803",
"rP#	c #300901",
"sP#	c #130006",
"tP#	c #2B0302",
"uP#	c #2E0404",
"vP#	c #310304",
"wP#	c #39060B",
"xP#	c #3B080D",
"yP#	c #3F0B11",
"zP#	c #420E13",
"AP#	c #440F16",
"BP#	c #4D151A",
"CP#	c #51171B",
"DP#	c #571B1F",
"EP#	c #601F23",
"FP#	c #672225",
"GP#	c #691E20",
"HP#	c #5F0208",
"IP#	c #891216",
"JP#	c #D76F5B",
"KP#	c #FED0B2",
"LP#	c #D14F37",
"MP#	c #D44445",
"NP#	c #B1241D",
"OP#	c #C53A2B",
"PP#	c #FCD0BD",
"QP#	c #E4834D",
"RP#	c #C72B35",
"SP#	c #AD2231",
"TP#	c #9F171D",
"UP#	c #B83E30",
"VP#	c #FCCEB1",
"WP#	c #FEDBC8",
"XP#	c #FFD8C3",
"YP#	c #FED9C4",
"ZP#	c #FEDBCB",
"`P#	c #FCD6BE",
" Q#	c #FFE0D2",
".Q#	c #FFE2D2",
"+Q#	c #FEE2CF",
"@Q#	c #FFE0CE",
"#Q#	c #FDDDC8",
"$Q#	c #FCDDC9",
"%Q#	c #FBDDCE",
"&Q#	c #FED7C0",
"*Q#	c #FEBD63",
"=Q#	c #D25A39",
"-Q#	c #BC2634",
";Q#	c #B92434",
">Q#	c #BE2731",
",Q#	c #EFB09A",
"'Q#	c #F4C1AF",
")Q#	c #9E1A1D",
"!Q#	c #7E141E",
"~Q#	c #62161D",
"{Q#	c #560A0F",
"]Q#	c #4A080E",
"^Q#	c #3D0811",
"/Q#	c #310209",
"(Q#	c #360D14",
"_Q#	c #250F11",
":Q#	c #200B14",
"<Q#	c #31191A",
"[Q#	c #37060C",
"}Q#	c #460308",
"|Q#	c #57080F",
"1Q#	c #64171C",
"2Q#	c #75262B",
"3Q#	c #961D29",
"4Q#	c #B33E33",
"5Q#	c #DE904B",
"6Q#	c #AB2528",
"7Q#	c #A83339",
"8Q#	c #991A1A",
"9Q#	c #B82E28",
"0Q#	c #D96A4E",
"aQ#	c #DE835C",
"bQ#	c #E0855D",
"cQ#	c #E08663",
"dQ#	c #DE855E",
"eQ#	c #DF8760",
"fQ#	c #E3865F",
"gQ#	c #E58563",
"hQ#	c #E5845E",
"iQ#	c #E3835E",
"jQ#	c #E58461",
"kQ#	c #E18760",
"lQ#	c #E58760",
"mQ#	c #E18A71",
"nQ#	c #D68171",
"oQ#	c #D75946",
"pQ#	c #B61F29",
"qQ#	c #B52E30",
"rQ#	c #A81B25",
"sQ#	c #E99E8E",
"tQ#	c #F9B17A",
"uQ#	c #CB2B2B",
"vQ#	c #D23C47",
"wQ#	c #A61A1F",
"xQ#	c #D26345",
"yQ#	c #FFE4D2",
"zQ#	c #D3623A",
"AQ#	c #810F1A",
"BQ#	c #66060C",
"CQ#	c #5F0F13",
"DQ#	c #570913",
"EQ#	c #530810",
"FQ#	c #4D060E",
"GQ#	c #4F0A11",
"HQ#	c #48070E",
"IQ#	c #4B0C13",
"JQ#	c #46080F",
"KQ#	c #42060C",
"LQ#	c #3F070C",
"MQ#	c #3C060B",
"NQ#	c #3A0409",
"OQ#	c #3A0207",
"PQ#	c #340205",
"QQ#	c #1E0200",
"RQ#	c #220300",
"SQ#	c #230600",
"TQ#	c #280702",
"UQ#	c #280701",
"VQ#	c #270900",
"WQ#	c #260900",
"XQ#	c #240D01",
"YQ#	c #240E02",
"ZQ#	c #250C01",
"`Q#	c #250A00",
" R#	c #270700",
".R#	c #2B0400",
"+R#	c #340404",
"@R#	c #390308",
"#R#	c #3C0409",
"$R#	c #3B0308",
"%R#	c #430910",
"&R#	c #43070F",
"*R#	c #45090F",
"=R#	c #480B10",
"-R#	c #520B14",
";R#	c #5B111A",
">R#	c #5F0F18",
",R#	c #630D17",
"'R#	c #69141C",
")R#	c #6C1118",
"!R#	c #8B1617",
"~R#	c #D7705B",
"{R#	c #FECEAF",
"]R#	c #D45038",
"^R#	c #D34043",
"/R#	c #B2221C",
"(R#	c #C7382C",
"_R#	c #FCCFBD",
":R#	c #E8864E",
"<R#	c #C82932",
"[R#	c #AA2230",
"}R#	c #A0181F",
"|R#	c #A92224",
"1R#	c #DE7456",
"2R#	c #E8866D",
"3R#	c #E9877A",
"4R#	c #EC8979",
"5R#	c #ED8964",
"6R#	c #E98860",
"7R#	c #E98B65",
"8R#	c #E88B6B",
"9R#	c #E58759",
"0R#	c #E68765",
"aR#	c #E8845A",
"bR#	c #E88764",
"cR#	c #E68868",
"dR#	c #E58055",
"eR#	c #DA674B",
"fR#	c #BD2B2C",
"gR#	c #BA2532",
"hR#	c #BA2534",
"iR#	c #BD2430",
"jR#	c #F4C1AD",
"kR#	c #9E191D",
"lR#	c #7F151D",
"mR#	c #751F27",
"nR#	c #64151C",
"oR#	c #5A0B11",
"pR#	c #4B070E",
"qR#	c #3D0813",
"rR#	c #120911",
"sR#	c #320E14",
"tR#	c #4A0309",
"uR#	c #590911",
"vR#	c #631319",
"wR#	c #7A292F",
"xR#	c #741018",
"yR#	c #9A1B2A",
"zR#	c #B13C2F",
"AR#	c #E0904B",
"BR#	c #AF2429",
"CR#	c #A9333D",
"DR#	c #931A1C",
"ER#	c #B9262A",
"FR#	c #CD252E",
"GR#	c #CC272D",
"HR#	c #C82B2A",
"IR#	c #C72A2A",
"JR#	c #C82B2B",
"KR#	c #C32B29",
"LR#	c #BF2B27",
"MR#	c #BE2A26",
"NR#	c #BD2925",
"OR#	c #BE2A25",
"PR#	c #BE2925",
"QR#	c #C42225",
"RR#	c #C3202A",
"SR#	c #BA242B",
"TR#	c #BA2127",
"UR#	c #AF1E26",
"VR#	c #B22D2F",
"WR#	c #AB1B26",
"XR#	c #ED9E8E",
"YR#	c #FAB27B",
"ZR#	c #CD302F",
"`R#	c #D43D46",
" S#	c #AB1B20",
".S#	c #D46144",
"+S#	c #FFE3D1",
"@S#	c #D26339",
"#S#	c #A7222F",
"$S#	c #871522",
"%S#	c #6D0B15",
"&S#	c #620F15",
"*S#	c #5C0C13",
"=S#	c #5C0E15",
"-S#	c #5C1116",
";S#	c #581115",
">S#	c #571015",
",S#	c #561016",
"'S#	c #530F14",
")S#	c #510E13",
"!S#	c #500E13",
"~S#	c #4C0B11",
"{S#	c #49080F",
"]S#	c #4A0A10",
"^S#	c #46040B",
"/S#	c #440309",
"(S#	c #420309",
"_S#	c #42040A",
":S#	c #410409",
"<S#	c #3F0309",
"[S#	c #3B0206",
"}S#	c #450506",
"|S#	c #4C0709",
"1S#	c #4D0307",
"2S#	c #52070D",
"3S#	c #52080D",
"4S#	c #50060C",
"5S#	c #4E050B",
"6S#	c #4F060D",
"7S#	c #51050F",
"8S#	c #52050F",
"9S#	c #470309",
"0S#	c #430207",
"aS#	c #400206",
"bS#	c #340104",
"cS#	c #2E0004",
"dS#	c #2E0005",
"eS#	c #400105",
"fS#	c #400307",
"gS#	c #4F0308",
"hS#	c #4F0309",
"iS#	c #4D040A",
"jS#	c #4C040A",
"kS#	c #4B0409",
"lS#	c #4C050B",
"mS#	c #4C060B",
"nS#	c #4B050B",
"oS#	c #4A0409",
"pS#	c #490409",
"qS#	c #47030B",
"rS#	c #49010B",
"sS#	c #460109",
"tS#	c #3B020A",
"uS#	c #3C010A",
"vS#	c #3E010B",
"wS#	c #3F020A",
"xS#	c #3E0207",
"yS#	c #3D0206",
"zS#	c #3F0308",
"AS#	c #400409",
"BS#	c #44060C",
"CS#	c #47070D",
"DS#	c #48080E",
"ES#	c #47080E",
"FS#	c #4C0911",
"GS#	c #4D0810",
"HS#	c #510A0F",
"IS#	c #530A10",
"JS#	c #580B16",
"KS#	c #5C0C17",
"LS#	c #610D18",
"MS#	c #660E18",
"NS#	c #6A131A",
"OS#	c #901A1B",
"PS#	c #D66F5A",
"QS#	c #FECDAF",
"RS#	c #D8503B",
"SS#	c #D13F41",
"TS#	c #B5211D",
"US#	c #CB392D",
"VS#	c #FBCFBD",
"WS#	c #EB8549",
"XS#	c #AB2833",
"YS#	c #9E161E",
"ZS#	c #B01825",
"`S#	c #BF1D2C",
" T#	c #C41E26",
".T#	c #C82023",
"+T#	c #CA1F21",
"@T#	c #CB1E22",
"#T#	c #C81E26",
"$T#	c #C71E27",
"%T#	c #C61E25",
"&T#	c #C51D22",
"*T#	c #C51F22",
"=T#	c #BD2624",
"-T#	c #B92925",
";T#	c #B72A27",
">T#	c #BA2C2A",
",T#	c #B82727",
"'T#	c #BE292F",
")T#	c #B92431",
"!T#	c #BC2435",
"~T#	c #C12432",
"{T#	c #F0AC98",
"]T#	c #F4C0AA",
"^T#	c #9F1B1D",
"/T#	c #851920",
"(T#	c #7B2129",
"_T#	c #6B1920",
":T#	c #4F070E",
"<T#	c #330205",
"[T#	c #3E0813",
"}T#	c #30060A",
"|T#	c #350D13",
"1T#	c #1F0A14",
"2T#	c #120107",
"3T#	c #331015",
"4T#	c #37050C",
"5T#	c #350307",
"6T#	c #51050D",
"7T#	c #600812",
"8T#	c #6A131C",
"9T#	c #7C242C",
"0T#	c #7B0F1A",
"aT#	c #A21A2C",
"bT#	c #B53931",
"cT#	c #FAD7C7",
"dT#	c #E28E4B",
"eT#	c #BA252D",
"fT#	c #AF313D",
"gT#	c #8F1920",
"hT#	c #A32026",
"iT#	c #B12226",
"jT#	c #B12525",
"kT#	c #B32627",
"lT#	c #B42627",
"mT#	c #B42426",
"nT#	c #B62425",
"oT#	c #B92425",
"pT#	c #B82424",
"qT#	c #B92324",
"rT#	c #BA2425",
"sT#	c #B52825",
"tT#	c #B42728",
"uT#	c #B7262D",
"vT#	c #B62A30",
"wT#	c #B12D30",
"xT#	c #B32930",
"yT#	c #B12A2D",
"zT#	c #B31F2B",
"AT#	c #EE9F8C",
"BT#	c #FAB87E",
"CT#	c #CD3331",
"DT#	c #D43B45",
"ET#	c #B11B22",
"FT#	c #D65D40",
"GT#	c #FEE0CF",
"HT#	c #D06543",
"IT#	c #B0313C",
"JT#	c #A63140",
"KT#	c #982E3C",
"LT#	c #903239",
"MT#	c #8F3437",
"NT#	c #8A3135",
"OT#	c #883234",
"PT#	c #853233",
"QT#	c #863134",
"RT#	c #832B30",
"ST#	c #7F292D",
"TT#	c #7B282C",
"UT#	c #79272A",
"VT#	c #79252A",
"WT#	c #7A262C",
"XT#	c #782329",
"YT#	c #762127",
"ZT#	c #721D24",
"`T#	c #741F25",
" U#	c #6E1C21",
".U#	c #6A1A1F",
"+U#	c #67171C",
"@U#	c #69151D",
"#U#	c #68131B",
"$U#	c #66111A",
"%U#	c #641018",
"&U#	c #621016",
"*U#	c #5D0A12",
"=U#	c #580A14",
"-U#	c #4A0911",
";U#	c #2B0303",
">U#	c #410204",
",U#	c #440407",
"'U#	c #450407",
")U#	c #440307",
"!U#	c #440308",
"~U#	c #430307",
"{U#	c #460309",
"]U#	c #4A040C",
"^U#	c #500209",
"/U#	c #51030B",
"(U#	c #53050E",
"_U#	c #57020D",
":U#	c #55020C",
"<U#	c #4D0008",
"[U#	c #450005",
"}U#	c #480307",
"|U#	c #4D0505",
"1U#	c #4F0505",
"2U#	c #520506",
"3U#	c #540506",
"4U#	c #530508",
"5U#	c #4D050B",
"6U#	c #4B0309",
"7U#	c #4A0308",
"8U#	c #480306",
"9U#	c #480308",
"0U#	c #47040A",
"aU#	c #46040A",
"bU#	c #420308",
"cU#	c #3E0206",
"dU#	c #320203",
"eU#	c #4B080C",
"fU#	c #5A0E14",
"gU#	c #5D0D15",
"hU#	c #5F0E16",
"iU#	c #66121A",
"jU#	c #68131C",
"kU#	c #69151C",
"lU#	c #6B181D",
"mU#	c #6B191E",
"nU#	c #6D1A1F",
"oU#	c #6D1C21",
"pU#	c #6E1E23",
"qU#	c #702025",
"rU#	c #742428",
"sU#	c #742328",
"tU#	c #7B252B",
"uU#	c #7F272C",
"vU#	c #81272D",
"wU#	c #84292D",
"xU#	c #872B2E",
"yU#	c #8A2D34",
"zU#	c #8F3136",
"AU#	c #903135",
"BU#	c #933235",
"CU#	c #A02E38",
"DU#	c #A8272C",
"EU#	c #D86950",
"FU#	c #F9B876",
"GU#	c #D84F3C",
"HU#	c #D24241",
"IU#	c #B5201C",
"JU#	c #CE382F",
"KU#	c #FACFBD",
"LU#	c #EC884B",
"MU#	c #CA2C32",
"NU#	c #B52C38",
"OU#	c #A91C27",
"PU#	c #B01A27",
"QU#	c #B31E2C",
"RU#	c #B52029",
"SU#	c #B82327",
"TU#	c #B82225",
"UU#	c #B82128",
"VU#	c #B9242C",
"WU#	c #B8232B",
"XU#	c #B72328",
"YU#	c #B92427",
"ZU#	c #BC272A",
"`U#	c #BD292A",
" V#	c #BA2829",
".V#	c #B82729",
"+V#	c #B9292B",
"@V#	c #B7262A",
"#V#	c #B52227",
"$V#	c #B31C29",
"%V#	c #BE2335",
"&V#	c #C62534",
"*V#	c #F1AA97",
"=V#	c #F5BDA8",
"-V#	c #A51B1C",
";V#	c #8D1921",
">V#	c #831F28",
",V#	c #741B23",
"'V#	c #600A13",
")V#	c #560B14",
"!V#	c #400713",
"~V#	c #360E14",
"{V#	c #271113",
"]V#	c #1E0912",
"^V#	c #120207",
"/V#	c #30060B",
"(V#	c #471117",
"_V#	c #370408",
":V#	c #3F0006",
"<V#	c #6C0E1A",
"[V#	c #761621",
"}V#	c #83222D",
"|V#	c #810E1B",
"1V#	c #AC1B2F",
"2V#	c #BC3A2E",
"3V#	c #FBD4C6",
"4V#	c #E58E4D",
"5V#	c #C92E36",
"6V#	c #BC393A",
"7V#	c #A92F2E",
"8V#	c #B02D2D",
"9V#	c #AF2C2B",
"0V#	c #AA2C29",
"aV#	c #AB2A2C",
"bV#	c #AD2A2C",
"cV#	c #AF292C",
"dV#	c #B0272B",
"eV#	c #AF2628",
"fV#	c #AE2626",
"gV#	c #AF2727",
"hV#	c #B02828",
"iV#	c #B12929",
"jV#	c #AF2C27",
"kV#	c #AA2E28",
"lV#	c #AD2D2B",
"mV#	c #B52B2C",
"nV#	c #B52C2A",
"oV#	c #B3292E",
"pV#	c #B12B2F",
"qV#	c #B82934",
"rV#	c #EFA391",
"sV#	c #FBBE8C",
"tV#	c #D13B37",
"uV#	c #D13943",
"vV#	c #C83137",
"wV#	c #DC5E46",
"xV#	c #FEE0D3",
"yV#	c #D76B5B",
"zV#	c #AF2E2F",
"AV#	c #A12429",
"BV#	c #9C2228",
"CV#	c #962427",
"DV#	c #932429",
"EV#	c #902428",
"FV#	c #8B2225",
"GV#	c #872022",
"HV#	c #841F22",
"IV#	c #801C1F",
"JV#	c #7D1A1D",
"KV#	c #7D1C1D",
"LV#	c #7A1B1C",
"MV#	c #7B191C",
"NV#	c #7A171B",
"OV#	c #781519",
"PV#	c #761318",
"QV#	c #751317",
"RV#	c #751417",
"SV#	c #731417",
"TV#	c #721417",
"UV#	c #711416",
"VV#	c #751015",
"WV#	c #740D13",
"XV#	c #750E14",
"YV#	c #720C11",
"ZV#	c #6D0B0F",
"`V#	c #6D070F",
" W#	c #67040F",
".W#	c #58040D",
"+W#	c #3E0203",
"@W#	c #380104",
"#W#	c #3B0002",
"$W#	c #3E0003",
"%W#	c #400004",
"&W#	c #490304",
"*W#	c #430204",
"=W#	c #3F0005",
"-W#	c #550309",
";W#	c #65040C",
">W#	c #6D070A",
",W#	c #700B0E",
"'W#	c #720C10",
")W#	c #771014",
"!W#	c #771015",
"~W#	c #761216",
"{W#	c #751116",
"]W#	c #741015",
"^W#	c #721215",
"/W#	c #711417",
"(W#	c #731618",
"_W#	c #74191B",
":W#	c #74191A",
"<W#	c #7A171A",
"[W#	c #7C1518",
"}W#	c #80181A",
"|W#	c #801718",
"1W#	c #811718",
"2W#	c #86171A",
"3W#	c #8A1A1D",
"4W#	c #8E1D1F",
"5W#	c #922122",
"6W#	c #A72935",
"7W#	c #B12A31",
"8W#	c #DA6E55",
"9W#	c #DB523F",
"0W#	c #D54746",
"aW#	c #BB2723",
"bW#	c #D23C35",
"cW#	c #F9CDB9",
"dW#	c #EB9263",
"eW#	c #CB3739",
"fW#	c #BA313D",
"gW#	c #B12731",
"hW#	c #AA252E",
"iW#	c #AC272E",
"jW#	c #B02729",
"kW#	c #B02728",
"lW#	c #AD292D",
"mW#	c #AC2829",
"nW#	c #AD2A29",
"oW#	c #AE2C29",
"pW#	c #B02D2A",
"qW#	c #B12D29",
"rW#	c #B42D2A",
"sW#	c #B62D2D",
"tW#	c #B72E30",
"uW#	c #B7292F",
"vW#	c #B82633",
"wW#	c #BF2A3A",
"xW#	c #C82C3A",
"yW#	c #F1A88E",
"zW#	c #F7BAA7",
"AW#	c #B01F21",
"BW#	c #961921",
"CW#	c #8B1C27",
"DW#	c #7A1C24",
"EW#	c #680F19",
"FW#	c #380206",
"GW#	c #410713",
"HW#	c #0F080D",
"IW#	c #2E171B",
"JW#	c #330E14",
"KW#	c #32060A",
"LW#	c #39040C",
"MW#	c #481018",
"NW#	c #3A0408",
"OW#	c #610514",
"PW#	c #731018",
"QW#	c #8D1723",
"RW#	c #AB2036",
"SW#	c #A71424",
"TW#	c #DC2D41",
"UW#	c #CA3831",
"VW#	c #F2CEA6",
"WW#	c #FABE99",
"XW#	c #F4C29E",
"YW#	c #F6C39F",
"ZW#	c #F3C2A5",
"`W#	c #F3C6AE",
" X#	c #F3CDBB",
".X#	c #F3CFBE",
"+X#	c #F1CFC0",
"@X#	c #F1D0BE",
"#X#	c #F2D0BD",
"$X#	c #F3CFBD",
"%X#	c #F2CDBA",
"&X#	c #F2CDBC",
"*X#	c #F4D1BE",
"=X#	c #F4D1BD",
"-X#	c #F2D0BC",
";X#	c #F2CFBB",
">X#	c #F4D1BA",
",X#	c #F4D0BD",
"'X#	c #F5C4A3",
")X#	c #F2C6A5",
"!X#	c #FBE0D1",
"~X#	c #F6CEB8",
"{X#	c #E75143",
"]X#	c #F37D4F",
"^X#	c #F38150",
"/X#	c #E25F4B",
"(X#	c #FEE5CA",
"_X#	c #F4C7A2",
":X#	c #F5C8AA",
"<X#	c #F5CEBB",
"[X#	c #F4CEBD",
"}X#	c #F1CBBB",
"|X#	c #F0CABB",
"1X#	c #EFC1A0",
"2X#	c #EEC2A0",
"3X#	c #EDC9B2",
"4X#	c #EECDB8",
"5X#	c #EECDBB",
"6X#	c #EECCB7",
"7X#	c #EECCBA",
"8X#	c #EDCCB9",
"9X#	c #EDCBB8",
"0X#	c #EDCAB5",
"aX#	c #EDC9B7",
"bX#	c #ECC8B4",
"cX#	c #ECC8B6",
"dX#	c #EEC9B5",
"eX#	c #EDC7B5",
"fX#	c #EDC7B2",
"gX#	c #EECAB7",
"hX#	c #ECC8B7",
"iX#	c #ECC7B6",
"jX#	c #EBC6B4",
"kX#	c #EAC1AB",
"lX#	c #E4AB86",
"mX#	c #AB453A",
"nX#	c #931428",
"oX#	c #690917",
"pX#	c #56060F",
"qX#	c #4F050C",
"rX#	c #460207",
"sX#	c #460209",
"tX#	c #44020D",
"uX#	c #45020D",
"vX#	c #47040F",
"wX#	c #47030C",
"xX#	c #47020B",
"yX#	c #420107",
"zX#	c #420207",
"AX#	c #490002",
"BX#	c #470001",
"CX#	c #490004",
"DX#	c #490105",
"EX#	c #490204",
"FX#	c #480104",
"GX#	c #4B0105",
"HX#	c #4D0004",
"IX#	c #4C0003",
"JX#	c #4B0003",
"KX#	c #4B0205",
"LX#	c #4A0206",
"MX#	c #480207",
"NX#	c #480208",
"OX#	c #45020C",
"PX#	c #45020B",
"QX#	c #44020B",
"RX#	c #440009",
"SX#	c #430009",
"TX#	c #44000A",
"UX#	c #45010B",
"VX#	c #400209",
"WX#	c #41020A",
"XX#	c #46030C",
"YX#	c #48030C",
"ZX#	c #490509",
"`X#	c #500611",
" Y#	c #630816",
".Y#	c #7E0A14",
"+Y#	c #B7593B",
"@Y#	c #E8B19F",
"#Y#	c #EDBFAA",
"$Y#	c #ECC4AD",
"%Y#	c #EDC3AD",
"&Y#	c #ECC3AE",
"*Y#	c #EBC7B1",
"=Y#	c #ECCAB7",
"-Y#	c #EBCAB4",
";Y#	c #EAC7B5",
">Y#	c #EAC7B8",
",Y#	c #ECCBBB",
"'Y#	c #EDCEB8",
")Y#	c #EDCFBE",
"!Y#	c #ECCEBB",
"~Y#	c #ECCAB9",
"{Y#	c #EDC8B9",
"]Y#	c #EDC7B8",
"^Y#	c #ECC1A6",
"/Y#	c #ECBC97",
"(Y#	c #EFCBBA",
"_Y#	c #EECAB9",
":Y#	c #EFCAB7",
"<Y#	c #F0CCBA",
"[Y#	c #F2CDB9",
"}Y#	c #F1B27B",
"|Y#	c #F2CCAC",
"1Y#	c #FDDCC1",
"2Y#	c #DD614C",
"3Y#	c #F37B53",
"4Y#	c #F27A4B",
"5Y#	c #E56050",
"6Y#	c #FBCCB3",
"7Y#	c #F3DECA",
"8Y#	c #F6C29C",
"9Y#	c #F5C9A8",
"0Y#	c #F6D0BE",
"aY#	c #F5D0BB",
"bY#	c #F5D1BF",
"cY#	c #F4D0BE",
"dY#	c #F2CEBE",
"eY#	c #F2CFBD",
"fY#	c #F2D0BE",
"gY#	c #F3D1BD",
"hY#	c #F3D0BB",
"iY#	c #F4D5C4",
"jY#	c #F5D7C7",
"kY#	c #F5D5C0",
"lY#	c #F5D3BF",
"mY#	c #F6D1BF",
"nY#	c #F6D1BB",
"oY#	c #F6CFBB",
"pY#	c #F4C196",
"qY#	c #F5C4A0",
"rY#	c #F3BE9B",
"sY#	c #F4BF9E",
"tY#	c #F8CDA8",
"uY#	c #FBBD9B",
"vY#	c #C72329",
"wY#	c #BA232B",
"xY#	c #A41826",
"yY#	c #852225",
"zY#	c #710E16",
"AY#	c #5F0512",
"BY#	c #3A050A",
"CY#	c #440710",
"DY#	c #330108",
"EY#	c #1C0911",
"FY#	c #320409",
"GY#	c #4A121A",
"HY#	c #4D0106",
"IY#	c #6D0817",
"JY#	c #881219",
"KY#	c #B22A35",
"LY#	c #D42F48",
"MY#	c #DE1B37",
"NY#	c #D91C31",
"OY#	c #D3292D",
"PY#	c #F8A783",
"QY#	c #F7C3A9",
"RY#	c #F3C8AB",
"SY#	c #F1B792",
"TY#	c #F2B58E",
"UY#	c #F1B188",
"VY#	c #F2B088",
"WY#	c #F3B085",
"XY#	c #F2B28E",
"YY#	c #F1AE87",
"ZY#	c #F0B28E",
"`Y#	c #F1B089",
" Z#	c #F1B088",
".Z#	c #F2B28C",
"+Z#	c #F4B088",
"@Z#	c #F2B18B",
"#Z#	c #F4B087",
"$Z#	c #F4B691",
"%Z#	c #F2B38F",
"&Z#	c #EFAD86",
"*Z#	c #F1B18E",
"=Z#	c #EFB08B",
"-Z#	c #F2AF8B",
";Z#	c #EEAF8E",
">Z#	c #F1B28C",
",Z#	c #F4A681",
"'Z#	c #D23D36",
")Z#	c #D55043",
"!Z#	c #D85C44",
"~Z#	c #D74B40",
"{Z#	c #F4A06C",
"]Z#	c #F3B08B",
"^Z#	c #F0AD8B",
"/Z#	c #F4B089",
"(Z#	c #F3B18A",
"_Z#	c #F5B089",
":Z#	c #F1AD86",
"<Z#	c #F4B28D",
"[Z#	c #F3AC83",
"}Z#	c #F3B18D",
"|Z#	c #F0B497",
"1Z#	c #F1B8A1",
"2Z#	c #EFAD83",
"3Z#	c #EFB08A",
"4Z#	c #F0B290",
"5Z#	c #F0B28D",
"6Z#	c #EEAD85",
"7Z#	c #F0AF89",
"8Z#	c #F1AD88",
"9Z#	c #EEAD8B",
"0Z#	c #EFAC85",
"aZ#	c #F0AE8A",
"bZ#	c #F0AC83",
"cZ#	c #F1AE88",
"dZ#	c #F0AF88",
"eZ#	c #F3AD82",
"fZ#	c #F1AF89",
"gZ#	c #F2B190",
"hZ#	c #F2B49C",
"iZ#	c #F4A384",
"jZ#	c #D44F3E",
"kZ#	c #C61F35",
"lZ#	c #970D1E",
"mZ#	c #710A12",
"nZ#	c #6A090F",
"oZ#	c #660A0F",
"pZ#	c #64090D",
"qZ#	c #64070D",
"rZ#	c #62060C",
"sZ#	c #60040A",
"tZ#	c #60050A",
"uZ#	c #60060A",
"vZ#	c #5E0408",
"wZ#	c #5D0407",
"xZ#	c #5D0307",
"yZ#	c #630407",
"zZ#	c #620306",
"AZ#	c #600205",
"BZ#	c #610205",
"CZ#	c #630103",
"DZ#	c #660205",
"EZ#	c #680205",
"FZ#	c #6A0203",
"GZ#	c #680303",
"HZ#	c #690303",
"IZ#	c #6C0102",
"JZ#	c #6E0002",
"KZ#	c #6F0002",
"LZ#	c #680201",
"MZ#	c #640301",
"NZ#	c #630201",
"OZ#	c #640201",
"PZ#	c #670102",
"QZ#	c #680103",
"RZ#	c #680002",
"SZ#	c #670004",
"TZ#	c #640104",
"UZ#	c #610107",
"VZ#	c #600005",
"WZ#	c #5D0207",
"XZ#	c #5C0208",
"YZ#	c #5D050B",
"ZZ#	c #60060D",
"`Z#	c #62070E",
" `#	c #650810",
".`#	c #670B11",
"+`#	c #680F10",
"@`#	c #77111A",
"#`#	c #90101F",
"$`#	c #C4262F",
"%`#	c #F1624C",
"&`#	c #ED9B78",
"*`#	c #F0A781",
"=`#	c #F1A87B",
"-`#	c #F2AC85",
";`#	c #F1A97F",
">`#	c #F2B08A",
",`#	c #F1AB83",
"'`#	c #F2AF8A",
")`#	c #F2AC83",
"!`#	c #F2B08E",
"~`#	c #EFAC86",
"{`#	c #F0B494",
"]`#	c #F2B292",
"^`#	c #F1B08D",
"/`#	c #F2AD86",
"(`#	c #F2AD8C",
"_`#	c #F1A677",
":`#	c #F2B38D",
"<`#	c #F0B58D",
"[`#	c #F2B187",
"}`#	c #EFB28C",
"|`#	c #F0B18B",
"1`#	c #F1B9AA",
"2`#	c #F1A570",
"3`#	c #F69D59",
"4`#	c #F4925B",
"5`#	c #D54141",
"6`#	c #E76346",
"7`#	c #E56B43",
"8`#	c #D74F43",
"9`#	c #F9A986",
"0`#	c #F4C0A7",
"a`#	c #F1AF88",
"b`#	c #F0B189",
"c`#	c #F3B38C",
"d`#	c #F4B388",
"e`#	c #F5B38C",
"f`#	c #F2AF85",
"g`#	c #F4B38C",
"h`#	c #F0B38C",
"i`#	c #F2B58F",
"j`#	c #EFB085",
"k`#	c #F2B28B",
"l`#	c #F1B38B",
"m`#	c #F3B58E",
"n`#	c #F1B590",
"o`#	c #F0B185",
"p`#	c #F1B697",
"q`#	c #F1B9A2",
"r`#	c #F1BCA9",
"s`#	c #F2BFAB",
"t`#	c #F6C4AE",
"u`#	c #F5C2AA",
"v`#	c #F2906F",
"w`#	c #D71F2A",
"x`#	c #D42635",
"y`#	c #CA2D3C",
"z`#	c #C73A40",
"A`#	c #620913",
"B`#	c #44040C",
"C`#	c #3D0308",
"D`#	c #420810",
"E`#	c #32040C",
"F`#	c #350C15",
"G`#	c #33050A",
"H`#	c #38040C",
"I`#	c #44060D",
"J`#	c #560108",
"K`#	c #760614",
"L`#	c #AA101D",
"M`#	c #E04E48",
"N`#	c #EF906C",
"O`#	c #EF9772",
"P`#	c #DA4938",
"Q`#	c #CE151F",
"R`#	c #D12931",
"S`#	c #D41E2B",
"T`#	c #CB1F27",
"U`#	c #CB1F24",
"V`#	c #CB1D24",
"W`#	c #CD1D24",
"X`#	c #CC1C23",
"Y`#	c #CA1A22",
"Z`#	c #C71421",
"``#	c #C51220",
"  $	c #C51622",
". $	c #C51722",
"+ $	c #C51A24",
"@ $	c #C61C26",
"# $	c #C71C26",
"$ $	c #C31923",
"% $	c #C41A24",
"& $	c #CA1C26",
"* $	c #CC1C24",
"= $	c #CA1B23",
"- $	c #C91A22",
"; $	c #CA1B20",
"> $	c #CD181E",
", $	c #CA1A1E",
"' $	c #CA1D20",
") $	c #D92027",
"! $	c #B80710",
"~ $	c #AF0311",
"{ $	c #A9040B",
"] $	c #B51016",
"^ $	c #D4232D",
"/ $	c #D21D20",
"( $	c #D11B1F",
"_ $	c #D21B1F",
": $	c #D11A21",
"< $	c #D11920",
"[ $	c #D21821",
"} $	c #D21921",
"| $	c #D31A22",
"1 $	c #D21B24",
"2 $	c #CD1A24",
"3 $	c #CB1923",
"4 $	c #CA1721",
"5 $	c #CB1822",
"6 $	c #CA1722",
"7 $	c #CA1621",
"8 $	c #CB1621",
"9 $	c #CC1823",
"0 $	c #CC1723",
"a $	c #CA141F",
"b $	c #C9131E",
"c $	c #CD1621",
"d $	c #D01725",
"e $	c #CD1421",
"f $	c #CC0C1E",
"g $	c #C30D22",
"h $	c #A3071B",
"i $	c #8C0516",
"j $	c #880717",
"k $	c #840A17",
"l $	c #860B18",
"m $	c #860E1A",
"n $	c #84111A",
"o $	c #831119",
"p $	c #841219",
"q $	c #84121A",
"r $	c #82131A",
"s $	c #801319",
"t $	c #81141A",
"u $	c #82151B",
"v $	c #82151C",
"w $	c #801219",
"x $	c #811319",
"y $	c #801419",
"z $	c #80141A",
"A $	c #80151A",
"B $	c #81161B",
"C $	c #81151C",
"D $	c #84161D",
"E $	c #87151C",
"F $	c #881216",
"G $	c #8D1217",
"H $	c #961319",
"I $	c #97141A",
"J $	c #97151B",
"K $	c #91151A",
"L $	c #8C161B",
"M $	c #8E181C",
"N $	c #8E171C",
"O $	c #901319",
"P $	c #911219",
"Q $	c #92141B",
"R $	c #91131A",
"S $	c #8A171C",
"T $	c #87161B",
"U $	c #86141A",
"V $	c #861319",
"W $	c #861318",
"X $	c #89151B",
"Y $	c #8B171D",
"Z $	c #8C181F",
"` $	c #8C181E",
" .$	c #881419",
"..$	c #891319",
"+.$	c #871219",
"@.$	c #831118",
"#.$	c #821017",
"$.$	c #831218",
"%.$	c #821218",
"&.$	c #811117",
"*.$	c #811217",
"=.$	c #84151B",
"-.$	c #821419",
";.$	c #801116",
">.$	c #801217",
",.$	c #81131A",
"'.$	c #81131B",
").$	c #81121A",
"!.$	c #7F0F17",
"~.$	c #800B15",
"{.$	c #800913",
"].$	c #810914",
"^.$	c #850B17",
"/.$	c #860B16",
"(.$	c #8B0C17",
"_.$	c #920C1A",
":.$	c #A00B1A",
"<.$	c #B40E1D",
"[.$	c #C91423",
"}.$	c #D01524",
"|.$	c #CF1926",
"1.$	c #CC1925",
"2.$	c #CC1724",
"3.$	c #CC1422",
"4.$	c #CB1321",
"5.$	c #CB1421",
"6.$	c #CD1724",
"7.$	c #CC1725",
"8.$	c #CC1826",
"9.$	c #C9151F",
"0.$	c #C8131C",
"a.$	c #C8151D",
"b.$	c #C9161E",
"c.$	c #CA1620",
"d.$	c #C91821",
"e.$	c #C91922",
"f.$	c #CA1A24",
"g.$	c #CB1B24",
"h.$	c #CC1A22",
"i.$	c #D2181E",
"j.$	c #C91B21",
"k.$	c #CE1923",
"l.$	c #D01A22",
"m.$	c #AA090B",
"n.$	c #9D0C10",
"o.$	c #A30A11",
"p.$	c #B40713",
"q.$	c #E13532",
"r.$	c #C91E22",
"s.$	c #CA181C",
"t.$	c #C6191E",
"u.$	c #C51A21",
"v.$	c #C61B22",
"w.$	c #C71C23",
"x.$	c #C51B21",
"y.$	c #C41B22",
"z.$	c #C41921",
"A.$	c #C31921",
"B.$	c #C11922",
"C.$	c #C01821",
"D.$	c #C11621",
"E.$	c #C21520",
"F.$	c #C31521",
"G.$	c #C41621",
"H.$	c #C61821",
"I.$	c #C7181F",
"J.$	c #C8181F",
"K.$	c #CE1723",
"L.$	c #CC1927",
"M.$	c #CC1D2A",
"N.$	c #D02230",
"O.$	c #D62430",
"P.$	c #D51C2E",
"Q.$	c #C8312C",
"R.$	c #EA9878",
"S.$	c #EF956F",
"T.$	c #DF4E42",
"U.$	c #B83337",
"V.$	c #740D17",
"W.$	c #52040D",
"X.$	c #420208",
"Y.$	c #320008",
"Z.$	c #34050A",
"`.$	c #4B131B",
" +$	c #47060D",
".+$	c #680614",
"++$	c #AC2E37",
"@+$	c #DC2D3D",
"#+$	c #EB7B55",
"$+$	c #F9EDDE",
"%+$	c #F5F9F2",
"&+$	c #F7E1CE",
"*+$	c #D4603F",
"=+$	c #D12E39",
"-+$	c #E35B37",
";+$	c #D96842",
">+$	c #DE6F46",
",+$	c #E2754B",
"'+$	c #E37743",
")+$	c #E67B49",
"!+$	c #E67945",
"~+$	c #E37A41",
"{+$	c #E37B3F",
"]+$	c #DF7C4B",
"^+$	c #E17C45",
"/+$	c #E17D4A",
"(+$	c #E38051",
"_+$	c #E67E49",
":+$	c #E27F51",
"<+$	c #E47C45",
"[+$	c #E38255",
"}+$	c #E27C3D",
"|+$	c #E6834C",
"1+$	c #E37E3E",
"2+$	c #E7834D",
"3+$	c #E3814A",
"4+$	c #E77D43",
"5+$	c #E48456",
"6+$	c #E17B42",
"7+$	c #E37450",
"8+$	c #D56C42",
"9+$	c #D37046",
"0+$	c #D36B40",
"a+$	c #D57646",
"b+$	c #E57541",
"c+$	c #E67A40",
"d+$	c #E47D4C",
"e+$	c #E98051",
"f+$	c #E7804F",
"g+$	c #E9804F",
"h+$	c #E37D4B",
"i+$	c #E47E4C",
"j+$	c #E77F46",
"k+$	c #E88457",
"l+$	c #E6804A",
"m+$	c #E68355",
"n+$	c #E88556",
"o+$	c #E8814B",
"p+$	c #E88557",
"q+$	c #E98249",
"r+$	c #EA8756",
"s+$	c #E7834E",
"t+$	c #EB8752",
"u+$	c #E98652",
"v+$	c #EA8852",
"w+$	c #E78B5B",
"x+$	c #EA874A",
"y+$	c #EB8D59",
"z+$	c #E7894D",
"A+$	c #EB8E58",
"B+$	c #E89058",
"C+$	c #EE8E51",
"D+$	c #EA915B",
"E+$	c #EE9159",
"F+$	c #ECA48E",
"G+$	c #EFA48A",
"H+$	c #F1A892",
"I+$	c #F1AD93",
"J+$	c #EBA88D",
"K+$	c #ECA16F",
"L+$	c #ECB69B",
"M+$	c #EDB89B",
"N+$	c #EFB897",
"O+$	c #F0BB9C",
"P+$	c #ECBB9A",
"Q+$	c #ECBC9B",
"R+$	c #EEBC9B",
"S+$	c #EEBF9F",
"T+$	c #ECBC9A",
"U+$	c #EEBD9D",
"V+$	c #ECBC9C",
"W+$	c #EFBC9B",
"X+$	c #EDBE9D",
"Y+$	c #EFBC9A",
"Z+$	c #EFBF9F",
"`+$	c #EDBA96",
" @$	c #EFBE9D",
".@$	c #EEBF9C",
"+@$	c #F0C09B",
"@@$	c #F0C3A1",
"#@$	c #F1C5A2",
"$@$	c #F1D1C1",
"%@$	c #EFCDBB",
"&@$	c #F2C198",
"*@$	c #F2C29D",
"=@$	c #EFC09B",
"-@$	c #F1C19D",
";@$	c #EEBE98",
">@$	c #EFC19C",
",@$	c #EFC4A7",
"'@$	c #F1D0C1",
")@$	c #F1D1C2",
"!@$	c #F2D1C1",
"~@$	c #F0CFC0",
"{@$	c #EDBFA0",
"]@$	c #EFA64C",
"^@$	c #EBA54D",
"/@$	c #EFA448",
"(@$	c #EBAA59",
"_@$	c #F0BE99",
":@$	c #F1C6AE",
"<@$	c #F2CEBF",
"[@$	c #F2CCB8",
"}@$	c #EFC09A",
"|@$	c #F0BC96",
"1@$	c #F0C09E",
"2@$	c #EEBB96",
"3@$	c #F1C19C",
"4@$	c #EFBD98",
"5@$	c #F1BF9B",
"6@$	c #EEBA93",
"7@$	c #F1BD97",
"8@$	c #EEC09D",
"9@$	c #F0C09D",
"0@$	c #EDBE9B",
"a@$	c #EDBF9D",
"b@$	c #EEBD9B",
"c@$	c #ECBA95",
"d@$	c #EEBA94",
"e@$	c #ECBB99",
"f@$	c #EDBE99",
"g@$	c #EEC19E",
"h@$	c #F0C09A",
"i@$	c #EDBD99",
"j@$	c #EFBB94",
"k@$	c #EEC0A0",
"l@$	c #ECBB98",
"m@$	c #EFBE9B",
"n@$	c #EDBC97",
"o@$	c #EFBF9D",
"p@$	c #EEBE99",
"q@$	c #F1BD96",
"r@$	c #F0C09C",
"s@$	c #EDBB94",
"t@$	c #ECBA98",
"u@$	c #EDBA98",
"v@$	c #EAB797",
"w@$	c #EBB697",
"x@$	c #E9B395",
"y@$	c #ECAF90",
"z@$	c #E9AD92",
"A@$	c #E9AD8F",
"B@$	c #E7AE90",
"C@$	c #EAA784",
"D@$	c #E89050",
"E@$	c #E78F51",
"F@$	c #EA8C42",
"G@$	c #EA8F54",
"H@$	c #E88A47",
"I@$	c #E88C56",
"J@$	c #EA8D57",
"K@$	c #E6884B",
"L@$	c #E78B56",
"M@$	c #E98544",
"N@$	c #EA8854",
"O@$	c #E7854E",
"P@$	c #EA864D",
"Q@$	c #E7854C",
"R@$	c #EA8651",
"S@$	c #E88858",
"T@$	c #E88348",
"U@$	c #E68657",
"V@$	c #E2814A",
"W@$	c #E88455",
"X@$	c #E58354",
"Y@$	c #E8804B",
"Z@$	c #E58455",
"`@$	c #E88452",
" #$	c #E7855C",
".#$	c #EA7E3F",
"+#$	c #E68053",
"@#$	c #EA7246",
"##$	c #DA6F49",
"$#$	c #DD6E3F",
"%#$	c #D96D41",
"&#$	c #DC7242",
"*#$	c #E4793D",
"=#$	c #E77F4B",
"-#$	c #E27C44",
";#$	c #E2804E",
">#$	c #E6854F",
",#$	c #E5834A",
"'#$	c #E78552",
")#$	c #E38044",
"!#$	c #E4834C",
"~#$	c #E1834F",
"{#$	c #E28350",
"]#$	c #E48147",
"^#$	c #E3875A",
"/#$	c #E17E43",
"(#$	c #E48250",
"_#$	c #E3834E",
":#$	c #E5814C",
"<#$	c #E48157",
"[#$	c #E2783D",
"}#$	c #E37551",
"|#$	c #E37451",
"1#$	c #E17246",
"2#$	c #E16A39",
"3#$	c #E15844",
"4#$	c #DD3C3F",
"5#$	c #E03C41",
"6#$	c #E5A07F",
"7#$	c #F3F9E8",
"8#$	c #FBF3E6",
"9#$	c #F5B891",
"0#$	c #CF4742",
"a#$	c #B12738",
"b#$	c #620B15",
"c#$	c #320007",
"d#$	c #360D15",
"e#$	c #33050B",
"f#$	c #740F1D",
"g#$	c #B22439",
"h#$	c #C8182E",
"i#$	c #F69F6A",
"j#$	c #F2FAF5",
"k#$	c #F9F5F9",
"l#$	c #FAC69A",
"m#$	c #DE5348",
"n#$	c #CC2F40",
"o#$	c #DD6A48",
"p#$	c #DD784A",
"q#$	c #DF804E",
"r#$	c #DD834A",
"s#$	c #DD894D",
"t#$	c #E18942",
"u#$	c #E28B46",
"v#$	c #E58D44",
"w#$	c #E18E54",
"x#$	c #E3925D",
"y#$	c #E2976A",
"z#$	c #E39F88",
"A#$	c #E4A07F",
"B#$	c #E6A281",
"C#$	c #E8A27E",
"D#$	c #E69B6F",
"E#$	c #E39447",
"F#$	c #E89952",
"G#$	c #E59547",
"H#$	c #E99A58",
"I#$	c #E59752",
"J#$	c #EA9B6C",
"K#$	c #EBA385",
"L#$	c #E9A079",
"M#$	c #EC945A",
"N#$	c #E99562",
"O#$	c #E98F50",
"P#$	c #E89549",
"Q#$	c #E7964B",
"R#$	c #EA9847",
"S#$	c #EAA36D",
"T#$	c #ECAD87",
"U#$	c #EAAF8D",
"V#$	c #ECB3A3",
"W#$	c #EBB5A4",
"X#$	c #EBB7A7",
"Y#$	c #EBB7A5",
"Z#$	c #EAB6A8",
"`#$	c #EBB6A3",
" $$	c #ECB28B",
".$$	c #EDB28C",
"+$$	c #EBB18A",
"@$$	c #ECB089",
"#$$	c #EDAE85",
"$$$	c #EEB18B",
"%$$	c #ECAE88",
"&$$	c #EEB089",
"*$$	c #EDB088",
"=$$	c #EFB58E",
"-$$	c #F1B388",
";$$	c #F3B892",
">$$	c #F1B996",
",$$	c #F1C7B3",
"'$$	c #F2C8B3",
")$$	c #F0BE98",
"!$$	c #F4B987",
"~$$	c #F1BC8D",
"{$$	c #F3BD95",
"]$$	c #F7C196",
"^$$	c #F5C191",
"/$$	c #F5C396",
"($$	c #F7C392",
"_$$	c #F7C598",
":$$	c #F1C297",
"<$$	c #F6C598",
"[$$	c #F7C294",
"}$$	c #F4C498",
"|$$	c #F4C093",
"1$$	c #F8C397",
"2$$	c #F4C397",
"3$$	c #F6C295",
"4$$	c #F4C398",
"5$$	c #F7C396",
"6$$	c #F6BD7D",
"7$$	c #F4B67A",
"8$$	c #F7C18E",
"9$$	c #F5C398",
"0$$	c #F9C397",
"a$$	c #F7C89D",
"b$$	c #F8C194",
"c$$	c #F9C69B",
"d$$	c #F6C192",
"e$$	c #F8C192",
"f$$	c #F9C698",
"g$$	c #F8C69A",
"h$$	c #F4C396",
"i$$	c #F4C295",
"j$$	c #F7C496",
"k$$	c #F4C092",
"l$$	c #F7C194",
"m$$	c #F3C198",
"n$$	c #F7C295",
"o$$	c #F7C092",
"p$$	c #F6BC90",
"q$$	c #F7BF9B",
"r$$	c #F4BE9C",
"s$$	c #F6BD9B",
"t$$	c #F7BC9B",
"u$$	c #F6BB9C",
"v$$	c #F7BA99",
"w$$	c #F8BD9F",
"x$$	c #F4B17D",
"y$$	c #F5BB94",
"z$$	c #F3BF9F",
"A$$	c #F6B680",
"B$$	c #F8B463",
"C$$	c #F6BC95",
"D$$	c #F8C4A1",
"E$$	c #F5C09C",
"F$$	c #F7B87B",
"G$$	c #F2A741",
"H$$	c #F7B15E",
"I$$	c #F4C296",
"J$$	c #F8C497",
"K$$	c #F3C196",
"L$$	c #F6B97F",
"M$$	c #F2A949",
"N$$	c #F6AB47",
"O$$	c #F2AE5A",
"P$$	c #F3AA4C",
"Q$$	c #F4B878",
"R$$	c #F6C79D",
"S$$	c #F3BF92",
"T$$	c #F1AB4C",
"U$$	c #F6A943",
"V$$	c #F6C397",
"W$$	c #F4BF90",
"X$$	c #F4BF91",
"Y$$	c #F7CAA3",
"Z$$	c #F8CDAD",
"`$$	c #F7C9A7",
" %$	c #F7CBA4",
".%$	c #F4C292",
"+%$	c #F8C393",
"@%$	c #F5C091",
"#%$	c #F8BF8E",
"$%$	c #F6C08D",
"%%$	c #F2C49E",
"&%$	c #F5BE8E",
"*%$	c #F2BD8E",
"=%$	c #F4C19C",
"-%$	c #F2CBB5",
";%$	c #F2C9B6",
">%$	c #F2B88F",
",%$	c #F2AF70",
"'%$	c #EEAB6D",
")%$	c #F4BA90",
"!%$	c #F3BA92",
"~%$	c #F0B78F",
"{%$	c #EFB68D",
"]%$	c #F0A766",
"^%$	c #F1A86C",
"/%$	c #EFAC7F",
"(%$	c #F0A464",
"_%$	c #ECA467",
":%$	c #ECAB79",
"<%$	c #ECAC8B",
"[%$	c #ECB0A1",
"}%$	c #EBAF9D",
"|%$	c #EBAF9E",
"1%$	c #EAAE9D",
"2%$	c #E9AC9A",
"3%$	c #E8AA99",
"4%$	c #E6A995",
"5%$	c #E6A283",
"6%$	c #EB9454",
"7%$	c #E09E8F",
"8%$	c #E58946",
"9%$	c #E48B53",
"0%$	c #E58D5D",
"a%$	c #E58643",
"b%$	c #E48749",
"c%$	c #E78F64",
"d%$	c #E9926D",
"e%$	c #E39569",
"f%$	c #E8A082",
"g%$	c #E9A380",
"h%$	c #E9A18B",
"i%$	c #E7A290",
"j%$	c #E5A391",
"k%$	c #E5A291",
"l%$	c #E4A190",
"m%$	c #E5A292",
"n%$	c #E7A28C",
"o%$	c #E7A189",
"p%$	c #E5A190",
"q%$	c #E3A290",
"r%$	c #E1A092",
"s%$	c #DF9C80",
"t%$	c #DF967A",
"u%$	c #DD8F77",
"v%$	c #DC803E",
"w%$	c #DC8152",
"x%$	c #DA7E65",
"y%$	c #D6784A",
"z%$	c #D56E3D",
"A%$	c #D65A47",
"B%$	c #C53838",
"C%$	c #D43942",
"D%$	c #F08C68",
"E%$	c #F6DABE",
"F%$	c #FEF8FC",
"G%$	c #FDE6DC",
"H%$	c #D5583B",
"I%$	c #BB192E",
"J%$	c #6F161F",
"K%$	c #3B0607",
"L%$	c #320107",
"M%$	c #31040C",
"N%$	c #280F12",
"O%$	c #1B0811",
"P%$	c #2D181C",
"Q%$	c #30060C",
"R%$	c #35070C",
"S%$	c #481518",
"T%$	c #420406",
"U%$	c #5F020C",
"V%$	c #920A20",
"W%$	c #BC112D",
"X%$	c #D56B50",
"Y%$	c #F8D5B6",
"Z%$	c #F6C59A",
"`%$	c #D46344",
" &$	c #C02433",
".&$	c #9A071C",
"+&$	c #89101F",
"@&$	c #890F1D",
"#&$	c #870C1C",
"$&$	c #8A101F",
"%&$	c #8D1625",
"&&$	c #8A1423",
"*&$	c #881622",
"=&$	c #881923",
"-&$	c #891A24",
";&$	c #8A1B24",
">&$	c #8B1D27",
",&$	c #8A1D27",
"'&$	c #871A23",
")&$	c #881B24",
"!&$	c #8A1B25",
"~&$	c #891923",
"{&$	c #881822",
"]&$	c #861620",
"^&$	c #861821",
"/&$	c #881A22",
"(&$	c #881B23",
"_&$	c #881A24",
":&$	c #841A23",
"<&$	c #811720",
"[&$	c #831922",
"}&$	c #81171F",
"|&$	c #831820",
"1&$	c #83171F",
"2&$	c #83161F",
"3&$	c #841720",
"4&$	c #851821",
"5&$	c #841620",
"6&$	c #83151F",
"7&$	c #85141D",
"8&$	c #87141E",
"9&$	c #8B1720",
"0&$	c #8F1A25",
"a&$	c #901922",
"b&$	c #921A24",
"c&$	c #921922",
"d&$	c #911821",
"e&$	c #911922",
"f&$	c #91191F",
"g&$	c #92171E",
"h&$	c #93181E",
"i&$	c #961B23",
"j&$	c #971C22",
"k&$	c #971C23",
"l&$	c #981E24",
"m&$	c #991F20",
"n&$	c #981F24",
"o&$	c #981E1F",
"p&$	c #961F27",
"q&$	c #942026",
"r&$	c #962227",
"s&$	c #982527",
"t&$	c #98252D",
"u&$	c #972325",
"v&$	c #962123",
"w&$	c #96212C",
"x&$	c #951F28",
"y&$	c #951E25",
"z&$	c #971F28",
"A&$	c #982026",
"B&$	c #98202C",
"C&$	c #992022",
"D&$	c #99202A",
"E&$	c #9B232A",
"F&$	c #9B232E",
"G&$	c #9C2430",
"H&$	c #9C2527",
"I&$	c #9B2423",
"J&$	c #9B2429",
"K&$	c #9C252A",
"L&$	c #9C2428",
"M&$	c #9E232D",
"N&$	c #9E2227",
"O&$	c #9E2226",
"P&$	c #9F2328",
"Q&$	c #A02324",
"R&$	c #A02128",
"S&$	c #A0212C",
"T&$	c #A02329",
"U&$	c #A02330",
"V&$	c #9B1E29",
"W&$	c #9E1E23",
"X&$	c #9F1D2A",
"Y&$	c #9F1E25",
"Z&$	c #A01E2D",
"`&$	c #A01E26",
" *$	c #9F1E28",
".*$	c #9E1E29",
"+*$	c #A1202A",
"@*$	c #A42331",
"#*$	c #A32427",
"$*$	c #9D252C",
"%*$	c #9D2527",
"&*$	c #9E252B",
"**$	c #9E2524",
"=*$	c #9B2428",
"-*$	c #9B242C",
";*$	c #992127",
">*$	c #972026",
",*$	c #972024",
"'*$	c #962124",
")*$	c #95202B",
"!*$	c #952024",
"~*$	c #952023",
"{*$	c #941F29",
"]*$	c #921E23",
"^*$	c #942023",
"/*$	c #94212A",
"(*$	c #952121",
"_*$	c #942129",
":*$	c #932021",
"<*$	c #93202A",
"[*$	c #972428",
"}*$	c #982525",
"|*$	c #97232C",
"1*$	c #952126",
"2*$	c #94202A",
"3*$	c #942128",
"4*$	c #952227",
"5*$	c #962225",
"6*$	c #952222",
"7*$	c #961F25",
"8*$	c #971D23",
"9*$	c #951B21",
"0*$	c #951920",
"a*$	c #941822",
"b*$	c #941721",
"c*$	c #951623",
"d*$	c #931723",
"e*$	c #911724",
"f*$	c #8E1723",
"g*$	c #8E1823",
"h*$	c #8E1824",
"i*$	c #8F1825",
"j*$	c #8E1724",
"k*$	c #8A1724",
"l*$	c #8A1826",
"m*$	c #8B1927",
"n*$	c #8D1B28",
"o*$	c #8D1C28",
"p*$	c #861D24",
"q*$	c #821A21",
"r*$	c #831B22",
"s*$	c #841C23",
"t*$	c #881824",
"u*$	c #851A25",
"v*$	c #851B26",
"w*$	c #851B25",
"x*$	c #821722",
"y*$	c #801520",
"z*$	c #821520",
"A*$	c #83141E",
"B*$	c #81151D",
"C*$	c #80151C",
"D*$	c #831321",
"E*$	c #841323",
"F*$	c #851323",
"G*$	c #851424",
"H*$	c #871525",
"I*$	c #861725",
"J*$	c #841623",
"K*$	c #841523",
"L*$	c #851523",
"M*$	c #8A1924",
"N*$	c #891521",
"O*$	c #8A121F",
"P*$	c #8C111F",
"Q*$	c #880D1A",
"R*$	c #910917",
"S*$	c #CB3241",
"T*$	c #E1966E",
"U*$	c #FDD5AE",
"V*$	c #EFAA7F",
"W*$	c #BA2631",
"X*$	c #98071C",
"Y*$	c #380407",
"Z*$	c #1A0810",
"`*$	c #2D171C",
" =$	c #32040B",
".=$	c #37040B",
"+=$	c #3C0407",
"@=$	c #850312",
"#=$	c #AF1C2D",
"$=$	c #D04946",
"%=$	c #C93C3C",
"&=$	c #BB2733",
"*=$	c #920615",
"==$	c #6E010D",
"-=$	c #58050A",
";=$	c #57070B",
">=$	c #5B070E",
",=$	c #5A070D",
"'=$	c #5A080F",
")=$	c #5A0B10",
"!=$	c #57090E",
"~=$	c #550B11",
"{=$	c #560C12",
"]=$	c #550B10",
"^=$	c #54090F",
"/=$	c #550910",
"(=$	c #560A10",
"_=$	c #580C12",
":=$	c #590A11",
"<=$	c #580810",
"[=$	c #56080F",
"}=$	c #580A11",
"|=$	c #5A0C12",
"1=$	c #590D13",
"2=$	c #590E14",
"3=$	c #55090F",
"4=$	c #570C12",
"5=$	c #560C11",
"6=$	c #560B11",
"7=$	c #550A10",
"8=$	c #560A11",
"9=$	c #56080E",
"0=$	c #57070E",
"a=$	c #56060D",
"b=$	c #55050C",
"c=$	c #5B050C",
"d=$	c #5B040C",
"e=$	c #5C020A",
"f=$	c #610109",
"g=$	c #62010A",
"h=$	c #630006",
"i=$	c #630005",
"j=$	c #640007",
"k=$	c #660109",
"l=$	c #670109",
"m=$	c #660108",
"n=$	c #660007",
"o=$	c #660006",
"p=$	c #650005",
"q=$	c #670006",
"r=$	c #680106",
"s=$	c #670105",
"t=$	c #6A0005",
"u=$	c #6B0005",
"v=$	c #6C0007",
"w=$	c #6E0108",
"x=$	c #6F0109",
"y=$	c #6D0007",
"z=$	c #6C0107",
"A=$	c #680107",
"B=$	c #680108",
"C=$	c #690109",
"D=$	c #680109",
"E=$	c #660107",
"F=$	c #670209",
"G=$	c #660209",
"H=$	c #650108",
"I=$	c #5F0004",
"J=$	c #630008",
"K=$	c #610006",
"L=$	c #640008",
"M=$	c #67000A",
"N=$	c #65010B",
"O=$	c #64010A",
"P=$	c #61010A",
"Q=$	c #5B0109",
"R=$	c #59030A",
"S=$	c #55040B",
"T=$	c #56030C",
"U=$	c #56040C",
"V=$	c #56030B",
"W=$	c #53050C",
"X=$	c #55070E",
"Y=$	c #54060D",
"Z=$	c #53060C",
"`=$	c #540A0F",
" -$	c #53090E",
".-$	c #53080E",
"+-$	c #52090F",
"@-$	c #540910",
"#-$	c #560B12",
"$-$	c #550C17",
"%-$	c #540B16",
"&-$	c #530A15",
"*-$	c #530B16",
"=-$	c #550A12",
"--$	c #54080E",
";-$	c #550A0F",
">-$	c #5A0B14",
",-$	c #5B0A14",
"'-$	c #5A0A13",
")-$	c #590812",
"!-$	c #580711",
"~-$	c #580911",
"{-$	c #590B12",
"]-$	c #570910",
"^-$	c #58090F",
"/-$	c #5E0A10",
"(-$	c #600A10",
"_-$	c #630910",
":-$	c #63060F",
"<-$	c #650710",
"[-$	c #69020A",
"}-$	c #8F0E1E",
"|-$	c #B82838",
"1-$	c #CB463F",
"2-$	c #B62C31",
"3-$	c #9C0E1F",
"4-$	c #74000D",
"5-$	c #340C14",
"6-$	c #1B0810",
"7-$	c #0D070D",
"8-$	c #281113",
"9-$	c #37030B",
"0-$	c #3C0006",
"a-$	c #9A0112",
"b-$	c #96091A",
"c-$	c #810412",
"d-$	c #430409",
"e-$	c #400408",
"f-$	c #45050C",
"g-$	c #4B040F",
"h-$	c #4A030E",
"i-$	c #4A020D",
"j-$	c #4C020D",
"k-$	c #4D030E",
"l-$	c #4D030F",
"m-$	c #47040D",
"n-$	c #45050D",
"o-$	c #45050E",
"p-$	c #43040C",
"q-$	c #42050C",
"r-$	c #42040C",
"s-$	c #44070E",
"t-$	c #43060D",
"u-$	c #43060E",
"v-$	c #43050C",
"w-$	c #49020C",
"x-$	c #48030D",
"y-$	c #46020C",
"z-$	c #47020C",
"A-$	c #47010C",
"B-$	c #49030D",
"C-$	c #470008",
"D-$	c #410005",
"E-$	c #450205",
"F-$	c #440205",
"G-$	c #450306",
"H-$	c #430104",
"I-$	c #480304",
"J-$	c #470000",
"K-$	c #480000",
"L-$	c #490102",
"M-$	c #480203",
"N-$	c #4C0204",
"O-$	c #4C0104",
"P-$	c #4D0204",
"Q-$	c #4E0205",
"R-$	c #4A0204",
"S-$	c #480404",
"T-$	c #480405",
"U-$	c #420202",
"V-$	c #440104",
"W-$	c #440106",
"X-$	c #470107",
"Y-$	c #450207",
"Z-$	c #450208",
"`-$	c #460208",
" ;$	c #4B000A",
".;$	c #4A000A",
"+;$	c #49010A",
"@;$	c #44010A",
"#;$	c #460009",
"$;$	c #470009",
"%;$	c #47000A",
"&;$	c #45030C",
"*;$	c #420209",
"=;$	c #3D0309",
"-;$	c #40050B",
";;$	c #40060B",
">;$	c #44020C",
",;$	c #46030E",
"';$	c #470209",
");$	c #47030A",
"!;$	c #49020B",
"~;$	c #4B020D",
"{;$	c #4A010C",
"];$	c #4B010D",
"^;$	c #43030B",
"/;$	c #44040A",
"(;$	c #440409",
"_;$	c #53060D",
":;$	c #54040D",
"<;$	c #5A0510",
"[;$	c #64010B",
"};$	c #8C0519",
"|;$	c #9B071D",
"1;$	c #880413",
"2;$	c #75010F",
"3;$	c #340303",
"4;$	c #340C15",
"5;$	c #250F12",
"6;$	c #1A0710",
"7;$	c #0B060C",
"8;$	c #130303",
"9;$	c #441219",
"0;$	c #3F0106",
"a;$	c #550003",
"b;$	c #5E0207",
"c;$	c #5B040B",
"d;$	c #5C0610",
"e;$	c #5F1926",
"f;$	c #601723",
"g;$	c #55161E",
"h;$	c #53151F",
"i;$	c #51151E",
"j;$	c #51161F",
"k;$	c #4F161F",
"l;$	c #48181D",
"m;$	c #49191E",
"n;$	c #49191D",
"o;$	c #4B1B1F",
"p;$	c #4F151C",
"q;$	c #50161D",
"r;$	c #4E151C",
"s;$	c #4F161E",
"t;$	c #4B141A",
"u;$	c #431619",
"v;$	c #43171A",
"w;$	c #421619",
"x;$	c #411417",
"y;$	c #3F0F13",
"z;$	c #410D13",
"A;$	c #430C13",
"B;$	c #430B12",
"C;$	c #40080F",
"D;$	c #390B0D",
"E;$	c #390A0C",
"F;$	c #3B0106",
"G;$	c #3E0102",
"H;$	c #3F0004",
"I;$	c #3A0107",
"J;$	c #3D0109",
"K;$	c #3D0207",
"L;$	c #380609",
"M;$	c #390609",
"N;$	c #3E080E",
"O;$	c #3F070E",
"P;$	c #40070F",
"Q;$	c #431215",
"R;$	c #441316",
"S;$	c #491119",
"T;$	c #4B131A",
"U;$	c #4D161C",
"V;$	c #4D161B",
"W;$	c #4E141B",
"X;$	c #4F131B",
"Y;$	c #49101A",
"Z;$	c #480F19",
"`;$	c #481019",
" >$	c #491017",
".>$	c #4A171B",
"+>$	c #4F191F",
"@>$	c #521920",
"#>$	c #51171F",
"$>$	c #51161E",
"%>$	c #53161F",
"&>$	c #541820",
"*>$	c #531820",
"=>$	c #53171F",
"->$	c #5A1822",
";>$	c #5E1924",
">>$	c #611824",
",>$	c #651724",
"'>$	c #691621",
")>$	c #61101A",
"!>$	c #5A060F",
"~>$	c #58030B",
"{>$	c #570309",
"]>$	c #500007",
"^>$	c #3C0A10",
"/>$	c #1A070F",
"(>$	c #0A040B",
"_>$	c #271013",
":>$	c #310C13",
"<>$	c #3D0F14",
"[>$	c #4F010C",
"}>$	c #520914",
"|>$	c #50141D",
"1>$	c #56111D",
"2>$	c #4E141D",
"3>$	c #4D141C",
"4>$	c #4C151D",
"5>$	c #49131A",
"6>$	c #4C131A",
"7>$	c #4C141B",
"8>$	c #4B151B",
"9>$	c #4A141B",
"0>$	c #4A151C",
"a>$	c #4A151B",
"b>$	c #49141A",
"c>$	c #47141A",
"d>$	c #471419",
"e>$	c #440C14",
"f>$	c #410911",
"g>$	c #400810",
"h>$	c #42070F",
"i>$	c #42060E",
"j>$	c #42050D",
"k>$	c #3C0308",
"l>$	c #3B0207",
"m>$	c #360006",
"n>$	c #390004",
"o>$	c #380003",
"p>$	c #3A0003",
"q>$	c #340006",
"r>$	c #360207",
"s>$	c #380108",
"t>$	c #3B0409",
"u>$	c #3F050C",
"v>$	c #40060D",
"w>$	c #3E060E",
"x>$	c #3D060D",
"y>$	c #400910",
"z>$	c #430B10",
"A>$	c #471017",
"B>$	c #461216",
"C>$	c #460D17",
"D>$	c #460E17",
"E>$	c #450D17",
"F>$	c #450E16",
"G>$	c #4A141C",
"H>$	c #49141C",
"I>$	c #4C171F",
"J>$	c #50151E",
"K>$	c #531520",
"L>$	c #54131F",
"M>$	c #52101B",
"N>$	c #2F0104",
"O>$	c #2C040B",
"P>$	c #330B14",
"Q>$	c #18070F",
"R>$	c #09040E",
"S>$	c #281414",
"T>$	c #260F13",
"U>$	c #2D070F",
"V>$	c #2C0809",
"W>$	c #2E0006",
"X>$	c #2D0005",
"Y>$	c #2D0106",
"Z>$	c #2C060A",
"`>$	c #250109",
" ,$	c #2C0812",
".,$	c #1C0D0C",
"+,$	c #15080E",
"@,$	c #250F13",
"#,$	c #26080D",
"$,$	c #331918",
"%,$	c #340004",
"&,$	c #340005",
"*,$	c #22040A",
"=,$	c #21060D",
"-,$	c #08040E",
";,$	c #2C1918",
">,$	c #47292B",
",,$	c #765245",
"',$	c #542C33",
"),$	c #57282F",
"!,$	c #59262D",
"~,$	c #5B2C30",
"{,$	c #5A2C30",
"],$	c #57272C",
"^,$	c #542428",
"/,$	c #522126",
"(,$	c #53272B",
"_,$	c #53282B",
":,$	c #55292D",
"<,$	c #572B2E",
"[,$	c #54292C",
"},$	c #552A2E",
"|,$	c #572D32",
"1,$	c #53292E",
"2,$	c #532A2E",
"3,$	c #53292C",
"4,$	c #542A2E",
"5,$	c #54292E",
"6,$	c #552B30",
"7,$	c #562B30",
"8,$	c #582B30",
"9,$	c #592A30",
"0,$	c #582A2F",
"a,$	c #57282E",
"b,$	c #56272D",
"c,$	c #582930",
"d,$	c #57272E",
"e,$	c #56272E",
"f,$	c #55262C",
"g,$	c #53262B",
"h,$	c #52252B",
"i,$	c #52252A",
"j,$	c #51262C",
"k,$	c #4F2429",
"l,$	c #50242A",
"m,$	c #4F2228",
"n,$	c #4D2025",
"o,$	c #4E2026",
"p,$	c #4A1F24",
"q,$	c #481F23",
"r,$	c #482023",
"s,$	c #492024",
"t,$	c #461D21",
"u,$	c #451C20",
"v,$	c #441C20",
"w,$	c #41191C",
"x,$	c #40171B",
"y,$	c #3D1519",
"z,$	c #3A1216",
"A,$	c #391114",
"B,$	c #350C10",
"C,$	c #2C070C",
"D,$	c #320B10",
"E,$	c #340C12",
"F,$	c #360B0F",
"G,$	c #370C10",
"H,$	c #3B1015",
"I,$	c #3D1116",
"J,$	c #3F1318",
"K,$	c #43161B",
"L,$	c #45181D",
"M,$	c #42151A",
"N,$	c #44171C",
"O,$	c #45171D",
"P,$	c #47181E",
"Q,$	c #491A20",
"R,$	c #4A1B21",
"S,$	c #4C1D23",
"T,$	c #4E2126",
"U,$	c #4E2127",
"V,$	c #53262C",
"W,$	c #53272C",
"X,$	c #54272C",
"Y,$	c #54272D",
"Z,$	c #56262C",
"`,$	c #58282E",
" '$	c #5B292E",
".'$	c #5A292E",
"+'$	c #58272C",
"@'$	c #5A292D",
"#'$	c #5B2A2F",
"$'$	c #5E2D31",
"%'$	c #5E2C2F",
"&'$	c #5D2B2D",
"*'$	c #5D2B2F",
"='$	c #5A282C",
"-'$	c #59262A",
";'$	c #59252D",
">'$	c #58242D",
",'$	c #58252D",
"''$	c #58272E",
")'$	c #552B2E",
"!'$	c #52292B",
"~'$	c #51282A",
"{'$	c #562B2F",
"]'$	c #5B2B31",
"^'$	c #5B2E35",
"/'$	c #5F333A",
"('$	c #61363B",
"_'$	c #52282F",
":'$	c #552F35",
"<'$	c #503033",
"['$	c #22030B",
"}'$	c #16090F",
"|'$	c #08030E",
"1'$	c #2C1818",
"2'$	c #2D0D12",
"3'$	c #2E0A0F",
"4'$	c #340B11",
"5'$	c #32090F",
"6'$	c #340C11",
"7'$	c #310D0F",
"8'$	c #300C0E",
"9'$	c #310C0F",
"0'$	c #2F0B0E",
"a'$	c #2F0C10",
"b'$	c #2E0B0F",
"c'$	c #2E090C",
"d'$	c #2D070A",
"e'$	c #2E090B",
"f'$	c #350A0F",
"g'$	c #34090E",
"h'$	c #350A11",
"i'$	c #340911",
"j'$	c #330810",
"k'$	c #330910",
"l'$	c #340A10",
"m'$	c #310A0D",
"n'$	c #31080E",
"o'$	c #32080E",
"p'$	c #31070E",
"q'$	c #30070B",
"r'$	c #2F070A",
"s'$	c #2D0508",
"t'$	c #2B0407",
"u'$	c #2B0507",
"v'$	c #2A0407",
"w'$	c #250203",
"x'$	c #2A0406",
"y'$	c #31080C",
"z'$	c #300A0E",
"A'$	c #340D0E",
"B'$	c #340C0E",
"C'$	c #340C0D",
"D'$	c #330C0D",
"E'$	c #330B0D",
"F'$	c #320A0C",
"G'$	c #32080D",
"H'$	c #33090E",
"I'$	c #340A0F",
"J'$	c #33080F",
"K'$	c #32080F",
"L'$	c #320910",
"M'$	c #320A10",
"N'$	c #330A10",
"O'$	c #310A10",
"P'$	c #2D0B0D",
"Q'$	c #2E0C0D",
"R'$	c #2D0B0C",
"S'$	c #31070F",
"T'$	c #310910",
"U'$	c #320C13",
"V'$	c #330F16",
"W'$	c #2C0E13",
"X'$	c #0D0403",
"Y'$	c #160910",
"Z'$	c #07030E",
"`'$	c #291616",
" )$	c #271619",
".)$	c #32252C",
"+)$	c #090208",
"@)$	c #1C0107",
"#)$	c #1D0303",
"$)$	c #190004",
"%)$	c #15080F",
"&)$	c #05030F",
"*)$	c #40323A",
"=)$	c #45353F",
"-)$	c #382931",
";)$	c #34262A",
">)$	c #35272C",
",)$	c #38292B",
"')$	c #38262C",
"))$	c #38262B",
"!)$	c #3A2429",
"~)$	c #3A2329",
"{)$	c #392228",
"])$	c #382127",
"^)$	c #3A2227",
"/)$	c #3B2328",
"()$	c #3C2329",
"_)$	c #3C2428",
":)$	c #3D2628",
"<)$	c #3C2427",
"[)$	c #3B2326",
"})$	c #3A2426",
"|)$	c #3A2625",
"1)$	c #3A2525",
"2)$	c #392323",
"3)$	c #382423",
"4)$	c #3A2526",
"5)$	c #3B2628",
"6)$	c #3F292B",
"7)$	c #3E292B",
"8)$	c #3A2225",
"9)$	c #3B2324",
"0)$	c #3C2526",
"a)$	c #3E2729",
"b)$	c #3F282A",
"c)$	c #3B2528",
"d)$	c #392426",
"e)$	c #392325",
"f)$	c #3A2427",
"g)$	c #382325",
"h)$	c #372224",
"i)$	c #382225",
"j)$	c #392326",
"k)$	c #341F21",
"l)$	c #331D1F",
"m)$	c #331D22",
"n)$	c #331D23",
"o)$	c #341D23",
"p)$	c #331C22",
"q)$	c #311B20",
"r)$	c #2D1517",
"s)$	c #281011",
"t)$	c #250C0D",
"u)$	c #230B0B",
"v)$	c #230A0B",
"w)$	c #230C0C",
"x)$	c #240C0D",
"y)$	c #1D0506",
"z)$	c #1A0505",
"A)$	c #190504",
"B)$	c #1E090A",
"C)$	c #220A0A",
"D)$	c #240C0C",
"E)$	c #260F0F",
"F)$	c #291112",
"G)$	c #2C1417",
"H)$	c #2E1718",
"I)$	c #301A1A",
"J)$	c #301B1B",
"K)$	c #2E1919",
"L)$	c #2F1A1A",
"M)$	c #301B1C",
"N)$	c #351F21",
"O)$	c #362123",
"P)$	c #372123",
"Q)$	c #382023",
"R)$	c #392023",
"S)$	c #3B2225",
"T)$	c #392124",
"U)$	c #371F22",
"V)$	c #3D2528",
"W)$	c #3D2327",
"X)$	c #3C2226",
"Y)$	c #3D2326",
"Z)$	c #3C2327",
"`)$	c #3C262B",
" !$	c #3E282B",
".!$	c #3D272C",
"+!$	c #3B252A",
"@!$	c #3D272A",
"#!$	c #3E282C",
"$!$	c #3E292A",
"%!$	c #3E282A",
"&!$	c #3D282A",
"*!$	c #3D2829",
"=!$	c #3D282C",
"-!$	c #382228",
";!$	c #3A242A",
">!$	c #3B252B",
",!$	c #3F2A2D",
"'!$	c #3B272A",
")!$	c #372326",
"!!$	c #392527",
"~!$	c #382628",
"{!$	c #382729",
"]!$	c #342526",
"^!$	c #302225",
"/!$	c #2F2227",
"(!$	c #312429",
"_!$	c #36292E",
":!$	c #3E3136",
"<!$	c #382B2C",
"[!$	c #14070E",
"}!$	c #150206",
"|!$	c #241219",
"1!$	c #29171D",
"2!$	c #2C1B1F",
"3!$	c #2B1A1F",
"4!$	c #2C191E",
"5!$	c #2C171D",
"6!$	c #2E151B",
"7!$	c #2F141B",
"8!$	c #31161B",
"9!$	c #31151A",
"0!$	c #32161A",
"a!$	c #311619",
"b!$	c #311819",
"c!$	c #30171A",
"d!$	c #32191C",
"e!$	c #301418",
"f!$	c #311519",
"g!$	c #33171A",
"h!$	c #32171A",
"i!$	c #33181B",
"j!$	c #34181C",
"k!$	c #32181B",
"l!$	c #2F1619",
"m!$	c #31181B",
"n!$	c #33191C",
"o!$	c #32181C",
"p!$	c #301619",
"q!$	c #2E1518",
"r!$	c #2F1518",
"s!$	c #2C1117",
"t!$	c #2B1017",
"u!$	c #2C1118",
"v!$	c #2A0F16",
"w!$	c #290B10",
"x!$	c #220607",
"y!$	c #210607",
"z!$	c #220708",
"A!$	c #23070A",
"B!$	c #25070C",
"C!$	c #26090E",
"D!$	c #280C0F",
"E!$	c #2B1112",
"F!$	c #34161B",
"G!$	c #35161B",
"H!$	c #36181D",
"I!$	c #361A1E",
"J!$	c #3B181E",
"K!$	c #3A171E",
"L!$	c #39161D",
"M!$	c #37171D",
"N!$	c #33181F",
"O!$	c #341920",
"P!$	c #341A20",
"Q!$	c #351B21",
"R!$	c #351C1F",
"S!$	c #341B1E",
"T!$	c #32191E",
"U!$	c #32191F",
"V!$	c #2F151C",
"W!$	c #30161D",
"X!$	c #32181E",
"Y!$	c #331A1F",
"Z!$	c #2D171B",
"`!$	c #2B191B",
" ~$	c #29171A",
".~$	c #28181B",
"+~$	c #14070F",
"@~$	c #06030F",
"#~$	c #251314",
"$~$	c #180206",
"%~$	c #1A0106",
"&~$	c #200106",
"*~$	c #210206",
"=~$	c #220207",
"-~$	c #1F0006",
";~$	c #1F0106",
">~$	c #200107",
",~$	c #1F0307",
"'~$	c #150810",
")~$	c #241213",
"!~$	c #200307",
"~~$	c #1F0306",
"{~$	c #1B0005",
"]~$	c #08030F",
"^~$	c #1D0507",
"/~$	c #190304",
"(~$	c #080206",
"_~$	c #130710",
"   .  +  @  #  $  %  &  *  =  -  -  ;  >  ,  '  )  ;  !  ~  {  ]  ]  ^  ^  ^  /  (  _  _  :  <  [  }  }  }  }  }  |  1  2  3  /  4  3  4  4  5  6  7  8  8  9  0  a  b  c  c  c  d  e  e  f  f  f  f  g  h  h  i  i  j  k  l  m  l  n  o  o  p  p  q  r  s  t  u  v  w  x  y  z  y  v  v  v  x  A  A  B  B  C  D  E  F  G  H  I  H  J  J  K  K  L  M  M  N  O  P  Q  R  S  T  U  V  W  X  W  Y  Y  Z  `  `   . .. +. R  O  N  @. #. #. $. %. &. *. =. -. ;. >. ,. ,. '. ). !. ~. ~. P  {. ]. ]. ^. ^. ^. /. (. _. :. <. [. t  t  [. [. t  }. |. |. |. 1. 2. 3. 4. 5. 6. 6. 7. 8. 9. f  0. f  f  0. a. a. b. b. a. b. c. b. b. d. d. e. d. f. g. d  e  h. i. j. j. k. k. l. l. m. n. n. l. o. d. o. l. o. p. q. r. r. <  c  g. <  <  1  1  <  <  1  2  s. 2  ;  t. ;  u. 2  v. w. ;  u. ;  ;  x. y. z. A. B. C. D. E. F. F. ",
"G. H. I. J. K. L. M. N. O. P. P. Q. Q. R. S. T. U. V. W. X. Y. Z. `.  + .+  + ++ @+ #+ $+ %+ &+ *+ =+ -+ ;+ >+ ,+ '+ )+ !+ ~+ !+ {+ ]+ )+ ^+ /+ (+ _+ :+ <+ [+ }+ |+ 1+ 2+ |+ 3+ |+ |+ 4+ 5+ 6+ 6+ 7+ 8+ 9+ 9+ 0+ a+ b+ c+ d+ d+ d+ e+ f+ g+ h+ h+ i+ j+ k+ l+ m+ n+ o+ p+ q+ p+ r+ r+ s+ t+ u+ v+ w+ x+ x+ y+ z+ A+ B+ B+ C+ D+ E+ F+ G+ H+ I+ J+ K+ K+ L+ L+ M+ N+ O+ P+ Q+ P+ P+ R+ S+ S+ Q+ Q+ T+ U+ V+ W+ X+ Y+ Z+ `+ N+  @ .@ +@ @@ @@ @@ #@ +@ +@ $@ #@ %@ %@ &@ &@ *@ =@ -@ ;@ >@ >@ ,@ `+ '@ )@ !@ ~@ {@ ]@ ^@ /@ (@ _@ _@ :@ _@ <@ [@ }@ |@ 1@ 2@ 3@ 4@ 5@ 6@ 7@ 8@ 9@ 6@ 0@ 0@ 0@ a@ b@ c@ d@ e@ f@ g@ f@ 5+ h@ i@ j@ h@ 6+ k@ l@ #+ $+ m@ |+ n@ o@ o@ l@ l@ k@ p@ q@ r@ o@ q@ k@ s@ o@ t@ u@ v@ w@ x@ x@ y@ z@ A@ B@ B@ C@ D@ %+ E@ C@ .+ F@ G@ G@ G@ ++ H@ I@ J@ K@ ,+ L@ M@ M@ N@ B@ O@ %+ P@ Q@ R@ S@ T@ U@ ",
"G. V@ W@ X@ Y@ Z@ `@  # .# +# @# ## $# %# &# *# =# *# -# ;# ># ,# ,# '# )# ;# !# ,# ~# {# ]# ^# +# /# (# _# :# <# [# }# |# 1# 2# ;# 3# ]# ;# 4# 5# 6# 7# 8# 9# 0# a# b# 8# c# d# <# e# f# g# g# h# i# j# c# k# l# m# n# o# p# q# r# s# t# u# v# v# w# x# y# z# A# B# C# D# E# F# G# H# I# I# J# K# L# L# M# N# O# P# Q# P# R# S# H# S# T# U# V# W# X# Y# Z# `#  $ .$ .$ +$ +$ @$ #$ +$ $$ +$ %$ &$ *$ =$ -$ ;$ >$ ,$ '$ )$ '$ )$ ,$ !$ ~$ {$ F# ]$ ^$ ,$ /$ {$ ($ ($ _$ :$ <$ [$ [$ }$ |$ 1$ 2$ 3$ 4$ 3$ 5$ 6$ 6$ 6$ 7$ 8$ 9$ 0$ a$ t# b$ c$ r# 0$ q# d$ e$ f$ g$ e$ h$ i$ j$ k$ l$ m$ n$ n$ o$ p$ q$ g# r$ h# r$ r$ q$ r$ r$ s$ 0# 9# t$ e# f# a# u$ t$ e# v$ w$ x$ y$ z$ w$ y$ z$ A$ B$ C$ x$ D$ z$ E$ F$ G$ H$ I$ J$ K$ L$ M$ K$ N$ ^# O$ ~# P$ Q$ R$ S$ Q$ T$ U$ Q$ V$ W$ ~# |# X$ X$ Y$ Z$ `$  % .% +% @% #% $% %% &% ",
"F. *% =% -% ;% >% ,% '% )% !% !% ~% {% ]% ^% /% (% _% :% <% <% :% )% [% }% |% 1% 2% <% 3% 3% 4% 5% 6% 7% 8% 9% 0% a% a% b% c% :% d% d% e% f% g% h% i% j% 6% k% l% m% n% o% p% q% r% s% t% u% v% w% x% x% y% z% A% z% B% C% D% E% F% G% H% I% J% K% L% M% N% O% P% Q% R% S% T% U% V% W% X% Y% Z% `%  & .& +& +& @& #& $& %& && *& =& -& ;& >& ,& '& )& !& ~& ~& {& ~& ]& ^& /& (& _& ^& :& <& [& }& |& |& 1& 2& 3& [& ^& /& 4& 4& 5& 6& 7& 8& [& 9& 0& a& b& 7& c& d& e& f& g& h& i& j& k& l& m& n& o& p& q& r& s& t& r& u& v& w& G% x& y& z& A& F% A& y% B& C& D& E& F& F% F& F& A& G& v& u& H& I& J& F& y& y% A% K& L& x% u% M& s% l% r% N& M& O& P& a% s% Q& R& R& S& R& T& U& T& Q& V& 5% W& X& Y& Z& `&  * .* +* @* #* $* $* $* %* &* ** ** =* -* ** }% ;* @* >* ,* '* )* !* ~* {* ]* ^* /* (* _* :* <* [* }* |* 1* 2* ",
"3* 4* 5* 6* 7* 8* 9* 0* a* b* c* d* b* e* '% f* e* g* h* i* j* {% {% k* l* m* n* o* p* i* q* ^% <% m* k* n* r* 8% i* j% s* {% 3% l* t* u* n* v* w* h% d* x* y* w* h% y* w* z* s% q* A* {% !% B* i* q* C* D* E* F* G* H* F* I* G* J* K* u& L* M* x& N* O* 8& P* Q* R* S* T* U* V* W* X* Y* Z* `* $&  = .= += @= #= $= %= &= *= && == -= ;= >= ,= '= )= != ~= {= ~& ]= ^= ^& /= (= _= [& := <= P* P* /= /= /& /= /= [= P* P* [= [= ^& }= <= P* P* |= 1= 1= 2= 2= 3= 4= 5= 6= 7= 8= 9= 0= 8= a= b= a= c= d= a= 9= 9= e= 9= H& v& H& x& u& f= f= g= g= x& h= G* J* J* i= j= v& H& H& H& H& v& v& u& k= G* K* J* E* l= i* A* !% s% {% M& A* l% m= j* s% j* {% 9% n= d* h% o= h% p= h% d* d* 3% k* q= u* l* t* S& t* r= t* s= t= |% u= v= v= u= w= v= 1% x= n= y= z= A= B= m* u* u* C= !* >% '% f* D= 0* E= F= 0* G= H= I= J= K= ",
"L= M= N= O= P= Q= '% Q= R= S= x* T= c* U= V= W= !* >% x= n= x= x* X= m* Y= y= l* Z= h% b* b* w* `= m* D= k* m*  - h% d* o= x= .- r= n* r= r= d* x= x= n= o= o= d* x= +- y* m% i* s* {% s* A* A* i* {% @- F* J* E* J* x% x% F* x% G* L* #- f= u& f= $- %- 8& [= &- *- =- -- ;- >- ,- '- )- !- ~- {- ]- ^- /- (- _- :- <- [- }- |- 1- 2- 3- 4- 5- 6- 7- 8- 9- {= 0- {= a- := b- /= _= c- := [= P* [= P* ^& d- <= [= [& b- := P* _= [= := := [= c- 2= e- e- a& f- g- h- h- h- i- j- c= 9= j- 8= d= k- j- d= 8= 8= a= l- j- m- H& f= f= f= u& x& v& u& g= x% E* I* E* n- k= #- o- K* G* y& G* K* k= p- q- C* N& p- A* r% s* l% r- M& B* r% s% j* s% {% s% M& _% 8% h% 8% d* +- d* 8% h% g% z= q= -* r= -* t* u* t* -* t* u= s- v= t- u- v= u- u- v= v- t* m* k* m* r* -* r* k* m* w- e* x- f* e* y- E= z- z- 0* R= e* A- B- C- ",
"D- E- F- G- Q= 8* H- 8* I- y* J- K- X= L- M- >% W= f* n* m* r* N- N- B= N- N- r* r* Z= N- N- u* m* B= N- O- P- B= B= Q- u* `= N- P- n* n* B= n= n= x= b* x= n= x= d* x= d* !% z* q* z* !% R- j* R- !% R- S- S- S- T- H* T- U- V- W- X- Y- Z- `-  ; .; +; @; [= #; $; %; &; *; =; -; ;; >; ,; '; ); !; ); ~; {; ]; ^; /; (; _; :; <; [; }; |; 1; 2; 3; 4; 5; 6; 7; 8; 9; <= 0; a; [= b; ^& _= <= c; /= c- P* a; d- d; d- /= e; := := [= := [= := f; f; f; g; h; i; j; 4= k; l; m; n; a= o; a= d= 9= b= n; a= 9= d= p; o; g= g= D% H& D% Z- q; M* r; f= U- J* S- S- H* U- F* s; t; u; U- v; H* S- j* _% 6% (% q* j* R- q* z* {% z* j* R- q* R- R- q* R- q* j* x* c* n= n= y* d* y* n= x= w; m* l* `= u* r* m* P- u* n* x; t= u- y; u= z; z; A; B; B; C; B; y; u= )* B= u* B= l* D; V= x- e* e* y- E= 9* 7* E= O- z- E; F; G; ",
"H; I; J; G- 7* 8* K; 7* L; M; T= S= N; O; P; Q; R; Q; S; T; T; U; V; W; I- X; Y; Y; Z; `;  > .> +> @> #> Y; W; +> `; $> `; .> %> O- &> X; X; I- M; *> M; *> N; *> N; M; => -> -> ;> >> ,> -> '> ;> )> ,> !> ~> {> ~> ~> ]> ]> ^> /> (> _> :> <> [> }> |> 1> 2> 3> 4> 5> 6> 7> 8> 9> 0> a> b> c> d> e> f> g> h> i> j> k> l> m> n> o> p> q> r> s> t> u> v> w> x> y> z> A> B> C> C> C> D> E> F> G> H> G> I> G> H> J> G> G> C> K> B> C> G> B> B> E> L> M> N> O> O> P> Q> R> P> S> T> U> V> V> W> U> X> T> W> W> Y> V> U> V> Z> :> `> [> [> <> [> [> [> (> ^>  , ., !> ., +, -> -> +, -> @, '> ;> -> #, J- M; J- J- >> ;> '> -> ,> >> +, -> '> >> +, >> -> ;> -> J- J- J- T= M; => M; => M; I- $, X; $, X; $, $, &> W; &> %, %, %, &, z; *, %, &, *, %, =, -, ;, >,  > $, W; W; ,, I- P; ', P; O; ), 9* Q= 0* 8* !, ~, {, ], ^, ",
"/, (, _, :, <, [, }, !, |, 1, 2, 3, 4, 5, 6, 7, 8, 8, 9, 0, a, x; x; b, c, d, d, d, e, d, f, f, g, K- h* h, ^% x* i, y* i, i, ^% j, j, j, j, ~% ~% ]% ^* ]% i* @- {% A* l= k, l, k, m, n, o, o, p, o, q, r, o, r, s, t, u, u, v, w, m; x, y, z, A, B, C, D, E, F, G, H, I, J, K, L, M, N, O, P, Q, R, S, T, U, V, W, X, Y, Z, `,  ' .' +' @' #' $' %' &' *' =' -' ;' >' ,' '' )' !' ~' {' ]' ^' /' /' (' _' :' <' [' }' |' 1' $; 2' 3' 1' 4' 5' 6' 7' |= 7' 8' 9' 6' 9' 0' a' b' c' d' e' f' g' h' i' 5= k- j' k' l' m' n' o' o' p' p' q' q' r' s' t' u' v' w' x' y' z' z' A' B' m, C' k, D' D' n, i* j* A* A* l= s, D' l= l= E' q, N& F' l= J* D' F* D' s% z= z= y= y= y= x= G' G' G' H' I' J' H' H' J' K' j% ^% ^% w; L' M' N' N' O' O' =* n* m* P' Q' R' S' u- T' x; C= V= x- 3% 3% U' n* H- V' W' }, X' Y' Z' `'  ) .) ",
"+) @) #) $) %) &) %) *) =) .> m, -) ;) >) ,) ') )) )) !) ~) {) ]) ^) /) /) /) () /) _) _) :) <) [) }) }) }) }) }) }) }) [) [) |) 1) 1) 2) 2) 3) 3) ^) 4) 5) 2) 2) 6) 7) 8) 8) 8) 8) 8) 9) 0) a) >) b) 0) a) 0) c) d) 0) e) f) f) e) g) h) i) j) k) l) m) n) o) p) q) r) s) t) u) v) w) x) y) z) A) B) C) C) D) E) F) G) H) I) J) K) L) M) N) O) P) Q) R) S) T) U) V) W) X) Y) Z) `)  ! .! +! @! #! $! %! &! *! =! -! ;! >! ,! '! )! #! !! ~! {! ]! ]! ^! /! (! ^! ^! ^! &! &! ^! ^! _! :! <! [! [! }! [! |! <! |! 1! b) 2! 3! 4! 5! 5! 2! 2! 2! 6! 2! 7! 7! 8! 9! 0! 0! 0! 0! 0! a! 7) 7) b! b! |) c! c! d! e! e! f! e! f! f! g! g! h! i! 8) f! f! b! 8) j! k! k! l! m! n! o! o! p! p! 7) q! r! b! b! 7) 8) [) p! [) s! s! s! t! t! u! u! u! v! u! w! w! w! w! x! y! 3) z! A! B! C! 2) D! E! F! G! H! I! J! K! K! L! M! N! ",
"O! P! Q! $) J! R! S! S! T! 2% U! V! W! X! Y! Z! Z! `!  ~ .~ +~ @~ #~ $~ %~ %~ &~ *~ =~ -~ #~ ;~ *~ >~ ,~ ,~ '~ '~ ,~ ,~ '~ >~ )~ !~ !~ ~~ {~ ]~ ^~ /~ ^~ (~ .~ _~ .~ :~ *~ <~ '~ [~ !~ }~ [~ |~ 1~ 2~ 1~ 3~ 3~ 4~ 3~ 5~ 6~ 7~ 8~ 9~ @~ 0~ a~ b~ c~ d~ e~ f~ g~ h~ i~ j~ k~ l~ m~ n~ o~ p~ q~ r~ s~ t~ u~ v~ w~ x~ y~ z~ A~ B~ C~ D~ E~ F~ G~ H~ I~ J~ K~ L~ M~ N~ O~ P~ Q~ R~ S~ T~ U~ U~ V~ W~ X~ Y~ Z~ `~  { .{ +{ @{ #{ ${ %{ &{ *{ ={ -{ ;{ >{ >{ ,{ '{ ){ !{ ~{ {{ ]{ ^{ !{ {{ /{ ({ _{ :{ <{ [{ :{ }{ |{ |{ 1{ ){ 2{ 3{ :~ 3{ 4{ 5{ :~ 6{ 7{ 7{ 8{ .~ 7{  ~ 9{ 0{ 0{ a{ 2{ 6{ :~ :~ #~ ;~ #~ 5{ #~ b{ c{ !~ 9~ d{ 8~ 9~ 9~ 8~ [~ }~ <~ e{ f{ '~ g{ f{ 2~ h{ h{ h{ i{ j{ k{ l{ m{ '~ 5~ n{ !~ 8~ '~ e{ e{ }~ o{ p{ p{ <{ q{ r{ s{ s{ /~ s{ O! t{ t{ u{ v{ &~ w{ x{ y{ z{ A{ B{ C{ C{ D{ E{ H! S! %) I! F{ K! G{ M! N! ",
"H{ I{ Q! J{ K{ L{ M{ %) >, N{ O{ V! P{ Q{ R{ S{ T{ U{ V{ W{ X{ Y{ Z{ `{  ] .] +] +] @] #] @] @] $] %] &] *] =] -] ;] >] >] >] ,] '] )] !] ~] {] ]] ^] /] (] _] :] <] [] }] |] 1] 2] 3] 4] 5] 6] 7] 8] 9] 0] a] b] c] d] e] f] g] h] i] j] k] l] m] n] o] p] q] r] s] t] u] v] w] x] y] z] A] B] C] D] E] F] G] H] I] J] K] L] M] N] O] P] Q] R] S] T] U] V] W] X] Y] Z] `]  ^ .^ +^ @^ #^ $^ %^ &^ *^ =^ -^ ;^ >^ ,^ '^ )^ !^ ~^ {^ ]^ ^^ /^ (^ _^ :^ <^ [^ }^ |^ 1^ 2^ 3^ 4^ 5^ 6^ 7^ 6^ 8^ 9^ 0^ a^ b^ c^ d^ e^ f^ g^ h^ h^ i^ j^ k^ l^ m^ n^ n^ o^ p^ q^ r^ s^ t^ u^ v^ w^ x^ y^ z^ A^ B^ A^ C^ D^ E^ F^ C^ %] G^ H^ I^ |] J^ 3] 2] K^ L^ M^ N^ |] O^ P^ Q^ R^ S^ T^ U^ V^ W^ V^ X^ Y^ Z^ `^  / ./ -] *] *] +/ @/ #/ ,] $/ %/ &/ */ =/ -/ ;/ ;/ >/ ,/ '/ )/ !/ ~/ {/ ]/ ^/ // (/ _/ :/ </ [/ }/ R! H! R! |/ 1/ 2/ 3/ 4/ ",
"H{ 5/ Q! $) 6/ K{ L{ %) >, 7/ 8/ 9/ 0/ a/ b/ c/ d/ e/ f/ g/ $* h/ i/ j/ j/ k/ l/ m/ n/ o/ p/ p/ q/ r/ s/ t/ u/ v/ w/ x/ y/ z/ A/ B/ C/ D/ E/ F/ G/ H/ I/ J/ K/ L/ M/ N/ O/ P/ Q/ R/ S/ T/ U/ V/ W/ X/ Y/ Z/ `/ `/  ( .( +( @( #( $( %( &( *( =( -( ;( >( ,( '( )( !( ~( {( ]( ^( /( (( _( :( <( [( }( |( 1( 2( 3( 4( 5( 6( 7( 8( 9( 0( a( b( c( d( e( f( g( h( i( j( k( l( m( n( o( p( q( r( s( t( u( v( w( x( y( z( A( B( C( D( E( F( G( H( I( J( K( L( M( N( O( ~. P( R  Q( R( S( T( U( V( W( <. X( <. Y( Z( `(  _ ._ +_ @_ #_ $_ i  %_ &_ *_ &_ =_ -_ ;_ >_ ,_ '_ ;_ )_ !_ ~_ {_ L/ ]_ ^_ /_ ]_ ^_ (_ __ :_ S/ <_ [_ }_ |_ <_ 1_ 2_ 3_ 4_ 5_ [_ 6_ 7_ R/ 8_ 2_ 9_ 0_ S/ a_ b_ <_ 3_ c_ d_ e_ f_ g_ C/ h_ u/ i_ v/ j_ k_ f_ l_ m_ n_ o_ p_ q_ o_ r_ s_ t_ u_ v_ w_ w_ x_ y_ z_ A_ B_ C_ D_ E_ F_ M{ M{ R! G_ H_ 2/ 3/ 4/ ",
"I_ J_ K_ $) J{ L_ M_ N_ O_ P_ Q_ a! R_ S_ T_ U_ V_ W_ X_ Y_ Z_ `_  : .: +: @: #: $: %: &: *: =: -: ;: *: >: ,: ': ): !: ~: {: ]: ^: /: (: _: :: <: [: }: }: |: 1: 2: 3: 4: 5: 6: 7: 8: 5: 8: 9: 0: a: b: c: d: e: f: g: h: i: j: k: l: m: n: o: p: q: r: s: t: u: v: w: x: y: z: A: B: C: D: E: F: G: H: I: J: K: L: M: N: O: P: Q: R: S: T: U: V: W: X: Y: Z: `:  < .< +< @< #< $< %< &< *< =< -< ;< >< ,< '< )< !< ~< {< ]< ^< /< (< _< :< << [< }< |< 1< 2< 3< 4< 5< 6< 7< 8< 9< 0< a< b< c< d< e< f< g< h< i< j< k< l< m< n< o< p< q< r< s< s< t< A= )* w= u< v< w< x< y< z< A< B< C< D< 0: E< F< G< H< I< J< J< K< L< M< N< O< P< Q< R< S< T< U< V< W< X< H< Y< Z< `<  [ .[ +[ @[ #[ $[ %[ &[ *[ =[ -[ ;[ ;[ ;: >[ ,[ '[ )[ ![ ~[ {[ ][ ^[ /[ ([ _[ :[ ([ <[ [[ }[ |[ 1[ 2[ 3[ 4[ 5[ 6[ 7[ 8[ %) S! %) 1/ 9[ 0[ M! 4/ ",
"a[ b[ c[ d[ e[ f[ g[ h[ i[ j[ Q_ k[ l[ m[ n[ o[ p[ q[ r[ s[ t[ u[ v[ w[ x[ y[ z[ z[ A[ B[ C[ D[ D[ E[ F[ G[ E[ H[ I[ J[ K[ L[ M[ N[ O[ P[ Q[ R[ S[ T[ U[ V[ W[ X[ Y[ W[ Y[ Z[ `[  }  } .} +} @} #} $} %} &} *} =} -} ;} >} ,} '} )} !} ~} {} ]} ^} /} (} _} :} <} [} }} |} 1} 2} 3} 4} 5} 6} 7} 8} 9} 0} a} b} c} d} e} f} g} h} i} j} k} l} m} n} o} p} q} r} s} t} u} v} w} x} y} z} A} B} C} D} E} F} G} H} I} J} K} L} M} N} O} P} Q} R} S} T} U} V} W} X} Y} Z} `}  | .| +| @| #| $| %| &| *| =| -| ;| >| ,| '| )| !| ~| {| ]| ^| /| (| _| :| <| [| }| || 1| 2| 3| 4| 5| 6| 7| 8| 9| 0| a| b| c| d| e| f| g| h| i| d| j| k| l| W[ m| l| n| o| p| q| R[ r| s| t| u| Y[ M[ v| Z[ w| x| y| L[ z| A| B| C| D| E| C| F| G| H| I| D| J| K| L| M| N| O| P| Q| R| S| T| U| I[ V| W| X| Y| Z| `|  1 .1 M{ %) M{ +1 K! @1 #1 $1 ",
"%1 b[ K_ &1 *1 e[ =1 -1 ;1 >1 Q_ ,1 '1 )1 !1 ~1 {1 ]1 ^1 /1 (1 _1 :1 <1 [1 }1 |1 11 21 31 41 51 61 71 81 91 01 a1 b1 c1 b1 d1 e1 f1 g1 h1 i1 j1 k1 l1 m1 m1 k1 n1 o1 o1 p1 q1 q1 r1 s1 t1 u1 u1 v1 w1 x1 y1 z1 A1 B1 C1 D1 E1 F1 G1 H1 I1 J1 K1 L1 M1 N1 1~ O1 P1 Q1 R1 R1 S1 T1 U1 V1 W1 W1 X1 Y1 Y1 Z1 `1  2 .2 +2 @2 #2 $2 %2 &2 *2 =2 -2 ;2 >2 ,2 '2 )2 !2 ~2 {2 ]2 ^2 /2 (2 _2 :2 <2 [2 }2 |2 12 22 32 42 52 62 72 82 92 02 a2 b2 c2 d2 e2 f2 g2 h2 i2 j2 k2 l2 m2 n2 o2 p2 q2 r2 s2 t2 u2 v2 w2 x2 y2 z2 A2 B2 C2 D2 E2 F2 G2 H2 I2 J2 J2 J2 K2 L2 M2 N2 O2 P2 Q2 R2 S2 S2 T2 U2 V2 W2 X2 Y2 Z2 `2  3  3 .3 .3 +3 @3 #3 $3 $3 p1 o1 s1 %3 &3 *3 =3 -3 ;3 n1 >3 ,3 '3 )3 )3 !3 ~3 {3 ]3 ^3 ]3 /3 (3 _3 :3 91 <3 [3 }3 |3 13 23 13 33 43 53 63 73 83 93 03 a3 b3 c3 d3 e3 f3 g3 h3 i3 j3 k3 l3 %) *) J! m3 |/ n3 #1 o3 ",
"p3 b[ Q! q3 r3 r3 f[ s3 t3 u3 A! ,1 v3 w3 x3 y3 z3 A3 B3 C3 D3 E3 F3 G3 F3 F3 H3 E3 I3 J3 K3 L3 M3 N3 N3 O3 O3 P3 Q3 R3 Q3 Q3 O3 O3 S3 S3 S3 T3 T3 T3 U3 V3 W3 X3 X3 X3 X3 Y3 Z3 Z3 Z3 `3  4  4 .4 .4 .4 +4 @4 #4 $4 %4 &4 *4 =4 -4 J1 ;4 >4 ,4 </ '4 N1 )4 !4 ~4 {4 ]4 ^4 /4 (4 _4 :4 <4 [4 [4 _4 _4 _4 }4 |4 14 24 34 44 X1 54 64 74 84 94 04 a4 b4 c4 d4 e4 f4 g4 h4 i4 j4 k4 l4 m4 n4 o4 p4 q4 r4 s4 t4 u4 v4 w4 x4 y4 z4 A4 B4 C4 D4 E4 F4 G4 H4 I4 J4 K4 L4 M4 N4 O4 P4 Q4 R4 S4 T4 U4 V4 W4 X4 Y4 Z4 `4  5 .5 +5 @5 #5 $5 $5 $5 %5 %5 %5 &5 &5 *5 =5 -5 ;5 >5 ,5 ,5 '5 '5 )5 !5 !5 ~5 !5 '5 {5 {5 ]5 ]5 ^5 /5 /5 (5 _5 ,5 ,5 X3 W3 W3 :5 /5 _5 _5 :5 V3 V3 <5 <5 M3 [5 [5 }5 }5 O3 |5 |5 15 15 S3 O3 25 M3 M3 35 35 :5 V3 45 55 O3 65 75 85 95 95 95 05 a5 b5 c5 d5 e5 f5 g5 h5 i5 j5 k5 l3 S! l5 %) G_ |/ n3 m5 n5 ",
"p3 o5 Q! p5 e[ f[ r3 q5 r5 s5 Q_ ,1 t5 u5 v5 w5 x5 y5 z5 A5 C1 B5 C5 D5 E5 F5 G5 F5 H5 I5 J5 K5 Z3 L5 L5 #4 #4 #4 M5 M5 M5 M5 N5 O5 O5 O5 O5 P5 Q5 R5 S5 S5 T5 T5 T5 U5 T5 R5 V5 R5 W5 X5 Y5 Y5 Y5 Y5 Z5 R5 X5 `5  6 Y5 Y5 J1 J1 J1 .6 +6 @6 D{ #6 $6 %6 @6 W! &6 *6 =6 -6 ;6 >6 ,6 '6 ,6 ,6 )6 !6 ~6 {6 ]6 ^6 /6 (6 _6 :6 <6 [6 }6 |6 16 26 36 46 56 66 76 86 96 06 a6 b6 c6 d6 e6 f6 g6 h6 i6 j6 k6 l6 m6 n6 o6 p6 q6 r6 s6 t6 u6 v6 w6 x6 y6 z6 A6 B6 C6 D6 E6 F6 G6 H6 I6 J6 K6 L6 M6 N6 O6 P6 Q6 R6 S6 T6 U6 V6 W6 X6 Y6 9/ 9/ 9/ Z6 Z6 Z6 `6  7 .7 +7 @7 #7 #7 $7 $7 Z5 Z5 Z5 Z5 Z5 Z5 Z5 %7 S5 S5 S5 S5 R5 W5 X5 &7 &7 *7 =7 *7 T5 T5 -7 ;7 #4 >7 ,7 *4 '7 *7 =7 T5 )7 )7 !7 ~7 #4 `3 `3 {7 {7 .4 #4 #4  4  4  4 .4 `3 ]7 ^7 /7 (7 _7 :7 <7 [7 }7 |7 17 <7 27 J5 37 47 57 67 77 87 97 k5 07 L{ S! L{ a7 b7 2/ m5 n5 ",
"c7 d7 e7 f7 f7 g7 h7 i7 j7 k7 g! l7 m7 n7 o7 p7 q7 r7 s7 t7 u7 v7 w7 x7 y7 z7 A7 B7 C7 D7 E7 F7 G7 H7 I7 J7 K7 L7 M7 N7 O7 P7 Q7 R7 S7 T7 U7 V7 W7 X7 Y7 Z7 `7 S7  8 .8 +8 @8 #8 $8 %8 &8 *8 =8 -8 ;8 >8 ,8 '8 )8 !8 ~8 {8 ]8 ^8 /8 (8 _8 :8 <8 [8 }8 |8 V! .6 C{ 18 28 28 28 38 48 48 58 58 68 78 78 88 88 98 08 a8 b8 ~) c8 d8 e8 L5 f8 g8 h8 i8 j8 W1 k8 l8 m8 n8 o8 p8 q8 r8 s8 t8 u8 v8 w8 x8 y8 z8 A8 B8 C8 D8 E8 F8 G8 H8 I8 J8 K8 L8 M8 N8 O8 P8 Q8 R8 S8 T8 U8 V8 W8 X8 Y8 Z8 `8  9 .9 +9 @9 #9 $9 %9 &9 *9 =9 -9 ;9 >9 ,9 '9 )9 !9 ~9 {9 ]9 ^9 /9 (9 _9 :9 <9 [9 }9 |9 19 29 39 49 59 69 79 89 99 09 a9 b9 c9 d9 e9 f9 g9 h9 i9 j9 k9 l9 k9 H7 m9 n9 o9 p9 q9 r9 s9 t9 u9 v9 w9 x9 y9 z9 A9 B9 C9 D9 E9 F9 G9 H9 I9 J9 K9 L9 M9 N9 O9 P9 Q9 R9 S9 T9 U9 V9 W9 X9 Y9 Z9 `9  0 .0 +0 @0 #0 $0 i[ %0 &0 *0 =0 -0 ;0 ",
"c7 >0 ,0 '0 )0 !0 h7 ~0 {0 ]0 ^0 /0 (0 _0 :0 <0 [0 }0 |0 10 20 30 40 50 60 70 80 90 00 a0 b0 c0 d0 e0 f0 g0 h0 i0 j0 k0 l0 l0 l0 m0 n0 o0 p0 q0 r0 s0 t0 u0 v0 w0 x0 r0 y0 z0 A0 B0 C0 z0 D0 E0 F0 G0 H0 I0 J0 K0 L0 M0 N0 O0 P0 Q0 R0 S0 T0 U0 V0 W0 X0 Y0 `6 Z0 9/ @6 18 `0  a .a .a 28 28 +a +a +a +a +a @a #a $a Y! C{ %a %a b8 &a *a [6 =a -a ;a >a ,a 'a )a !a *2 ~a {a ]a ^a /a (a _a :a <a [a }a |a 1a 2a 3a 4a 5a 6a 7a 8a 9a 0a aa ba ca da ea fa ga ha ia ja ka la ma na oa pa qa ra sa ta ua va wa xa ya za Aa Ba Ca Da Ea Fa Ga Ha Ia Ja Ka La Ma Na Oa Pa Qa Ra Sa Ta Ua Va Wa Xa Ya Za `a  b .b +b @b #b w0 $b r0 %b #b .b &b y0 C0 *b =b -b ;b >b ,b 'b )b !b ~b {b ]b ^b /b (b _b :b <b [b }b |b 1b 2b 3b 4b 5b 6b 7b 8b 9b 0b ab bb cb db eb fb gb hb ib jb kb lb mb nb ob pb qb rb rb t3 sb tb ub -0 ;0 ",
"vb wb e7 xb yb zb Ab h7 Bb Cb [) Db Eb Fb Gb Hb Ib Jb Kb Lb Mb Nb Ob Pb Qb Rb Sb Tb Ub Vb Wb Xb Yb Zb `b  c .c +c @c #c $c %c &c *c =c -c b1 p1 ;c >c ,c ,c 'c )c !c ~c {c ]c ^c /c ]c (c _c :c <c [c }c |c 1c 2c 3c 4c 5c 6c 7c 8c /5 {5 .4 -7 9c 0c ac #7 bc cc Y! dc ec fc gc hc hc ic ic jc Z~ Z~ kc kc lc mc @a nc @6 18 #a oc pc C{ b8 qc *7 rc sc tc uc vc wc k8 xc yc zc Ac Bc Cc Dc Ec Fc Gc Hc Ic Jc Kc Lc Mc Nc Oc Pc Qc Rc Sc Tc Uc Vc Wc Xc Yc Zc `c  d .d +d @d #d $d %d &d *d =d -d ;d >d ,d 'd )d !d ~d {d ]d ^d /d (d _d :d <d [d }d |d 1d 2d 3d 4d 5d 6d 7d 8d 9d 0d ad bd cd dd ed fd gd fd hd id jd kd ld md md nd od ld pd pd qd rd sd td ud vd wd ^c ]c xd yd ;c zd Ad Bd Cd Dd Ed Fd Gd Hd Id Jd Kd Ld Md Nd Od Pd Qd Rd Sd Td Ud Vd Wd Xd Yd Zd `d  e .e +e @e #e $e %e &e rb rb t3 *e =e ub -0 -e ",
"vb wb e7 xb ;e >e ,e h7 'e Cb )e Db !e ~e {e ]e ^e /e (e _e :e <e [e }e |e 1e 2e 3e 4e 5e 6e 7e 8e 9e 0e ae be ce de ee fe ge he ie je ke le me ne oe pe qe re se te ue ve we xe ye ze Ae Be Ce De Ee Fe Ge He Ie Je Ke Le Me Ne Oe Pe P5 Qe Re Se 44 Te Ue Ve We Xe Ye Ze `e  f .f +f +f .f .f @f @f #f #f $f %f `e &f Xe 48 -6 %a L1 *f .6 +6 =f R5 -f ;f >f ^7 ,f 'f )f !f ~f {f ]f ^f /f (f _f :f <f [f }f |f 1f 2f 3f 4f 5f 6f 7f 8f 9f 0f af bf cf df ef ff gf hf if jf kf lf mf nf of pf qf rf sf tf uf vf wf xf yf zf Af Bf Cf Df Ef Ff Gf Hf If Jf Kf Lf Mf Nf Of Pf Qf Rf Sf Tf Uf Vf Wf Xf Yf Zf `f  g .g +g @g #g $g %g &g *g =g -g ;g >g ,g 'g )g !g ~g {g ]g ^g /g (g _g :g <g [g }g |g 1g 2g 3g 4g 5g 6g 7g 8g 9g 0g ag bg cg dg eg fg gg hg ig jg kg lg mg ng og pg qg rg _8 -0 sg h7 tg ug h3 tb vg Qe wg ",
"vb wb e7 xb ;e xg yg h7 zg Ag )e Db Bg Cg Dg Eg Fg Gg Hg Ig Jg Kg Lg Mg Ng Og Pg Qg Rg Sg Tg Ug Vg Wg Xg Yg Zg `g  h .h +h @h #h $h %h &h *h =h -h ;h >h ,h 'h )h !h ~h {h ]h ^h /h (h _h :h <h [h }h |h 1h 2h 3h 4h 5h 6h 7h 8h 9h 0h ah bh ch dh eh fh gh hh ih jh kh lh mh nh oh ph qh rh qh sh sh th uh vh wh xh yh zh Ah Bh Ch Dh +a W! nc `0 9/ Eh $7 Fh Gh Hh Ih }6 Jh Kh Lh Mh Nh Oh Ph Qh Rh Sh Th Uh Vh Wh Xh Yh Zh `h  i .i +i @i #i $i %i &i *i =i -i ;i >i ,i 'i )i !i ~i {i ]i ^i /i (i _i :i <i [i }i |i 1i 2i 3i 4i 5i 6i 7i 8i 9i 0i ai bi ci di ei fi gi hi ii ji ki li mi ni oi pi qi ri si ti ui vi wi xi yi zi Ai Bi Ci Di Ei Fi Gi Hi Ii Ji Ki Li Mi Ni Oi Pi Qi Ri Si Ti Ui Vi Wi Xi Yi Zi `i  j .j +j @j #j $j %j &j *j =j -j ;j >j ,j 'j )j !j ~j {j ]j ^j /j (j _j :j <j h7 $0 [j *e i7 ub Qe wg ",
"}j |j 1j 2j 3j %0 4j 5j 6j 7j )e 8j 9j 0j aj bj cj dj ej fj gj hj ij jj kj lj mj nj oj pj qj rj sj tj uj vj wj xj yj zj Aj Bj Cj Dj Ej Fj Gj Hj Ij Jj Kj Lj Mj Nj Oj Pj Qj Rj Sj Tj Uj Vj Wj Xj Yj Zj `j  k .k +k @k #k $k %k &k *k =k -k ;k >k ,k 'k )k !k ~k {k ]k ^k /k /k (k _k :k <k [k }k |k 1k 2k 3k 4k 5k 6k 7k 8k 9k 0k ak bk ck dk V~ a8 ek fk gk hk O5 ik jk kk lk mk nk ok pk qk rk sk tk uk vk wk xk yk zk Ak Bk Ck Dk Ek Fk Gk Hk Ik Jk Kk Lk Mk Nk Ok Pk Qk Rk Sk Tk Uk Vk Wk Xk Yk Zk `k  l .l +l @l #l $l %l &l *l =l -l ;l >l ,l 'l )l !l ~l {l ]l ^l /l (l _l :l <l [l }l |l 1l 1l 2l 3l 4l 5l 6l 7l 8l 8l 9l 9l 0l al bl cl dl el fl gl hl il jl kl 4l ll ml nl ol pl ql rl sl tl ul vl wl xl yl zl Al Bl Cl Dl El Fl Gl Hl Il Jl Kl Ll Ml Nl Ol Pl Ql Rl Sl Tl Ul Vl Wl V5 <j h7 yg t3 *e Xl Yl Zl -e ",
"}j |j 1j `l  m .m 4j +m @m #m )e $m %m &m *m =m &k -m ;m >m ,m 'm )m !m ~m {m ]m ^m /m (m _m :m <m [m }m |m 1m 2m 3m 4m 4m 5m 6m 7m 8m 9m 0m am bm cm dm em fm gm hm im jm km lm mm nm om pm qm rm sm tm um vm wm xm ym zm Am Bm Cm Dm Em Fm Gm Hm Im Jm Km Lm Mm Nm Om Pm Qm Rm Sm Tm Um Vm Wm Xm Ym Zm `m  n .n +n @n #n $n %n &n *n =n -n ;n >n ,n Y6 'n )n !n ~n {n ]n ^n /n (n _n :n <n [n }n |n 1n 2n 3n 4n 5n 6n 7n 8n 9n 0n an bn cn dn en fn gn hn in jn kn ln mn nn on pn qn rn sn tn un vn wn xn yn zn An Bn Cn Dn En Fn Gn Hn In Jn Kn Ln Mn Nn On Pn Qn Rn Sn Tn Un Vn Wn Xn Yn Zn `n  o .o +o @o #o $o %o &o *o =o -o ;o >o ,o 'o )o !o ~o {o ]o ^o /o (o _o :o <o [o }o |o 1o 2o 3o 4o 5o 6o 7o 8o 9o 0o ao bo co do eo fo go ho io jo ko lo mo no oo po qo ro so to uo Vl Wl vo wo t3 t3 t3 h3 ;1 xo Zl -e ",
"yo zo 1j Ao Bo Co tg Do Eo ]0 j! $m Fo Go aj Ho Io Jo Ko Lo Mo No Oo Po Qo Ro So To Uo Vo Wo Xo Yo Zo `o  p .p +p @p #p $p %p &p *p =p -p ;p >p ,p 'p )p !p ~p {p ]p ^p /p (p _p :p <p [p }p |p 1p 2p 3p 4p 5p 6p 7p 8p 9p 0p ap bp cp dp ep fp gp hp ip jp kp lp mp np op pp qp rp sp tp up vp wp xp yp zp Ap Bp Cp Dp Ep Fp Gp Hp Ip Jp Kp Lp Mp Np ~4 Op Pp Qp ~7 Rp Sp Tp Up Vp Wp Xp Yp Zp `p  q .q +q @q #q $q %q &q *q =q -q ;q >q ,q 'q )q !q ~q {q ]q ^q /q (q _q :q <q [q p~ }q |q 1q 2q 3q 4q 5q 6q 7q 8q 9q 0q aq bq cq dq eq fq gq hq iq jq kq lq mq nq oq pq qq rq sq tq uq vq wq xq yq zq Aq Bq Cq Dq Eq Fq Gq Hq Iq Jq Kq Lq Mq Nq Oq Pq Qq Rq Sq Tq Uq Vq Wq Xq Yq Zq `q  r .r +r @r #r $r %r &r *r =r -r ;r >r ,r 'r )r !r ~r {r ]r ^r /r (r _r :r <r [r }r |r to 1r 2r 3r 4r <j h7 h7 t3 *e 5r 6r Zl -e ",
"7r zo e7 8r  m 9r yg {0 6j 0r j! ar br cr aj dr er fr gr hr ir jr kr lr mr nr or pr qr rr sr tr ur vr wr xr yr zr Ar Br Cr Dr Er Fr Gr Hr vr Ir Jr Kr Lr Mr Nr Or Pr Qr Rr Sr Tr Ur Vr Wr Xr Yr Zr `r  s .s +s @s #s $s %s &s *s =s -s ;s >s ,s 's )s !s ~s {s ]s ^s /s (s _s :s <s [s }s |s 1s 2s 1s 3s 4s 5s 6s 7s 8s 9s 0s as bs cs ds es fs gs hs is js ks ls ms ns os ps qs rs ss ts us vs ws xs ys zs As Bs Cs Ds Es Fs Gs Hs Is Js Ks Ls Ms Ns Os Ps Qs Rs Ss Ts Us Vs Ws Xs Ys Zs `s  t .t +t @t #t $t %t &t *t =t -t ;t >t ,t 't )t !t ~t {t ]t ^t /t (t _t :t <t [t }t |t 1t 2t 3t 4t 5t 6t 7t 8t 9t 0t at bt at ct dt et ft gt ht it jt kt lt mt nt ot pt qt rt st tt ut vt wt xt Ur yt wt zt Wr At Bt Ct Dt Et Ft Gt Et Ht It Jt Kt Lt Mt Nt Ot Pt Qt Rt St Tt Ut Vt Wt Xt Yt 3r 4r wo rb $0 yg *e ug Zt Zl -e ",
"yo `t  u .u +u @u #u $u %u &u j! ar *u =u -u ;u >u ,u 'u )u !u ~u {u ]u ^u /u (u _u :u <u [u }u |u 1u 2u 3u 4u 5u 6u 6u 7u 8u 9u 0u au bu cu du eu fu gu hu iu ju ku lu mu nu ou pu qu ru su tu uu vu wu xu yu zu Au Bu Cu Du Eu Fu Gu Hu Iu Ju Ku Lu Mu Nu Ou C) Pu Qu Ru p~ Su Tu Uu Vu Wu Xu Yu Zu `u  v .v +v @v #v $v %v &v *v =v -v ;v >v ,v 'v Kp )v !v ~v {v ]v ^v /v (v _v :v <v [v }v |v 1v 2v 3v 4v 5v 6v 7v 8v 9v 0v av bv cv dv ev fv gv hv iv jv kv lv mv nv ov pv qv rv sv tv uv vv wv xv yv zv Av Bv Cv Dv Ev Fv Gv Hv Iv Jv Kv Lv Mv Nv Ov Pv Qv Rv Sv Tv Uv Vv Wv Xv Xv Yv Zv `v  w .w +w @w #w $w %w &w *w =w -w ;w >w ,w 'w )w !w ~w {w ]w ^w /w (w _w :w <w [w }w |w 1w 2w 3w 4w 5w 6w 7w 8w 9w 0w aw bw cw dw ew fw gw hw iw jw kw lw mw nw ow pw qw rw sw tw uw vw ww 4r wo xw h7 Ab yw i7 6r Zl zw ",
"Aw Bw Cw 2j Dw Ew tg Fw X| &u j! ar Gw Hw Iw Jw Kw Lw Mw Nw Ow Pw Qw Rw Sw Tw Uw Vw Ww Xw Yw Zw `w  x .x +x @x #x $x %x &x *x =x -x ;x >x ,x 'x )x !x ~x {x ]x ^x /x (x _x :x <x [x }x |x 1x 2x 3x 4x 5x 6x 7x 8x 9x 0x ax bx cx dx ex fx gx hx ix jx kx lx mx nx ox px qx rx sx tx ux vx wx xx yx zx Ax Bx Cx Dx Ex Fx Gx Hx Ix Jx Kx Lx Mx Nx Ox Px Qx Rx Sx Tx Ux Vx Wx Xx Yx Zx `x  y .y +y @y #y $y %y &y *y =y -y ;y >y ,y 'y )y !y ~y {y ]y ^y /y (y _y :y <y [y }y |y 1y 2y 3y 4y 5y 6y 7y 8y 9y 0y ay by cy dy ey fy gy hy iy jy ky ly my ny oy py qy ry sy ty uy vy wy xy yy yy yy yy zy Ay Ay Ay Ay By Cy Dy Ey Fy Gy Hy Iy Jy Ky Ly My Ny Oy Py Qy Ry Sy Ty Uy Vy Wy Xy Yy Zy `y  z .z +z @z #z $z %z &z *z =z -z ;z >z ,z 'z )z !z ~z {z ]z ^z /z (z _z :z <z [z }z |z 1z 2z 3z %e 4z 5z 6z 7z 5j %0 6r 8z 9z ",
"Aw Bw Cw 0z *1 Ew az 'e X| bz j! cz dz ez Iw fz gz hz iz jz kz lz mz nz oz pz qz rz sz tz uz vz wz xz yz zz Az Bz Cz Dz Ez Ez Fz Gz Hz Iz Jz Kz Lz Mz Nz Oz Pz Qz Rz Sz Tz Uz Vz Wz Xz Yz Zz `z  A .A +A @A #A $A %A &A *A =A -A ;A >A ,A 'A )A !A ~A {A ]A ^A /A (A _A :A <A [A }A |A 1A 2A 3A 4A 5A 6A 7A 8A 9A 0A aA bA cA dA eA fA gA hA iA jA kA lA mA nA oA pA qA rA sA tA uA vA wA xA yA zA AA BA CA DA EA FA GA HA IA JA KA LA MA NA OA PA QA RA SA TA UA VA WA XA YA ZA `A  B .B +B @B #B $B %B &B *B =B -B ;B >B ,B 'B )B !B ~B {B ]B ^B /B (B _B :B <B [B }B |B 1B 2B 3B 4B 4B 5B 5B 6B 7B 7B 8B 8B 9B 0B aB bB cB dB dB eB fB gB hB iB jB kB lB mB nB oB pB qB rB sB tB uB vB wB xB yB zB Cz AB BB CB DB EB EB FB GB HB IB JB KB LB MB NB OB PB QB RB SB TB UB VB WB |z XB 2z YB ZB `B  C .C .C +C @C #C 8z 9z ",
"$C %C &C *C =C =C -C ;C X| #m ^0 $m >C ,C 'C )C !C ~C {C ]C ^C /C (C _C :C <C [C }C |C 1C 2C 3C 4C 5C 6C 7C 8C 9C 0C aC bC cC dC eC fC gC hC iC jC kC lC mC nC oC pC qC rC sC tC uC vC wC xC yC zC AC BC CC DC EC FC GC HC IC JC KC LC MC NC OC PC QC RC SC TC UC VC WC XC YC ZC `C  D .D +D @D #D $D %D &D *D =D -D ;D >D ,D 'D )D !D ~D {D ]D ^D /D (D _D :D <D [D }D |D 1D 2D 3D 4D 5D 6D 7D 8D 9D 0D aD bD cD dD eD fD gD hD iD jD kD lD mD nD oD pD qD rD sD tD uD vD wD xD yD zD AD BD CD DD ED FD GD HD ID JD KD LD MD ND OD PD QD RD SD TD UD VD WD XD YD ZD `D  E .E +E +E @E #E $E $E %E &E &E *E *E =E -E ;E >E ,E 'E )E !E ~E {E ]E ^E /E (E _E :E <E [E }E |E 1E 2E 3E 4E 5E 6E 7E 8E 9E 0E aE bE cE dE eE fE gE hE iE jE kE lE mE nE oE pE qE rE sE tE uE vE wE WB xE XB yE 3z ZB zE  C  C .C AE i7 xo 8z BE ",
"$C CE &C .u *1 DE yg EE FE GE ^0 HE *u IE JE KE LE ME NE OE PE QE RE SE TE UE VE WE XE YE ZE `E  F .F +F @F #F $F %F &F *F =F -F ;F >F ,F 'F +F )F !F ~F {F ]F ^F /F (F _F :F <F [F }F |F 1F 2F 3F 4F 5F 6F 7F 8F 9F 0F aF bF cF dF eF fF gF hF iF jF kF lF mF nF oF pF qF rF sF tF uF vF wF xF yF zF AF BF CF DF EF FF GF HF IF JF KF LF MF NF OF PF QF RF SF TF UF VF WF XF YF ZF `F  G .G +G @G #G $G %G &G *G =G -G ;G >G ,G 'G )G !G ~G {G ]G ^G /G (G _G :G <G [G }G |G 1G 2G 3G 4G 5G 6G 7G 8G 9G 0G aG bG cG dG eG fG gG hG iG jG kG lG mG nG oG pG qG rG sG tG uG vG wG xG hz yG yG yG zG AG AG H3 H3 BG CG DG EG EG FG GG &E HG IG JG KG LG MG NG OG PG QG RG SG TG UG VG WG XG YG ZG `G  H .H +H @H #H $H %H &H *H =H -H ;H >H ,H 'H )H !H ~H {H ]H ^H /H (H _H :H Jf <H [H }H |H X0 1H  C 6z  C AE rb xo 8z 2H ",
"$C %C 3H 2j 4H 5H #u 6j 6j GE j! $m *u IE JE 6H 7H ib 8H 9H 0H aH bH cH dH eH fH gH hH iH jH kH lH mH nH oH pH qH rH sH tH uH vH pH wH xH yH zH AH BH CH DH EH FH GH HH IH JH KH LH MH NH OH PH QH RH SH TH UH VH WH XH YH ZH `H  I .I +I @I #I $I %I &I *I =I -I ;I >I ,I 'I )I !I ~I {I {I ]I ^I {I ^I /I (I _I :I <I [I }I |I 1I 2I 3I 4I 5I 6I 7I 8I 9I 0I D) aI bI cI dI eI fI gI hI iI jI kI lI mI nI oI pI qI rI sI tI uI vI wI xI yI zI AI BI CI DI EI FI GI HI II JI KI LI MI NI OI PI QI RI SI TI UI VI WI XI YI ZI `I  J .J +J @J #J $J %J &J *J =J -J ;J >J ,J 'J 1: )J !J ~J {J ]J ^J /J 75 (J a5 _J :J E3 <J ,u [J [J }J *E |J 1J 2J 3J 4J 5J 6J 7J 8J 9J 0J aJ bJ cJ dJ eJ fJ gJ hJ iJ jJ kJ lJ mJ nJ oJ pJ qJ rJ sJ tJ uJ vJ wJ xJ yJ zJ AJ BJ CJ DJ EJ FJ GJ HJ IJ JJ KJ LJ V5 `B 5z 5z MJ NJ OJ xo PJ QJ ",
"RJ SJ Gh TJ UJ -C VJ %u %u 0r j! WJ dz XJ YJ ZJ `J ME  K ^3 .K +K @K #K $K %K &K *K =K -K ;K >K ,K 'K )K !K ~K {K ]K ^K /K (K _K :K <K [K }K |K 1K 2K 3K 4K 5K 6K 7K 8K 9K 0K aK bK cK dK eK fK gK hK iK jK kK lK mK nK oK pK qK rK sK tK uK vK wK xK yK zK AK BK CK DK EK #y FK GK GK GK GK FK HK HK IK IK JK GG KK LK MK NK OK PK QK RK SK TK UK VK WK XK YK ZK `K  L .L +L @L #L $L %L &L *L =L -L ;L >L ,L 'L )L !L ~L {L ]L ^L /L (L _L :L <L [L }L |L 1L 2L 3L 4L 5L 6L 7L 8L 9L 0L aL bL cL dL eL fL gL hL iL jL kL lL mL nL oL pL qL rL sL tL uL vL wL xL yL zL AL BL CL DL EL T3 FL GL HL IL {J 65 JL KL LL ML :J NL OL PL QL RL SL TL UL VL WL XL YL ZL `L  M .M +M @M #M $M %M &M *M =M -M ;M >M ,M ,M 'M )M !M ~M {M ]M ^M /M (M _M :M <M [M }M |M 1M 2M 3M 4M 5M 6M 7M /j 8M 9M 0M aM 5z bM  C cM dM eM fM gM ",
"RJ hM iM TJ [j -C Eo jM Eo ]0 j! kM lM mM nM oM `J ME  K pM qM rM sM #K tM uM vM wM xM yM zM AM BM CM DM EM FM GM HM IM JM KM LM MM NM OM PM QM RM SM TM UM VM WM XM YM ZM `M  N .N +N @N #N $N %N &N *N =N -N ;N >N ,N 'N )N !N ~N {N ]N ^N /N (N _N :N <N [N RL }N |N 1N 2N 3N 4N 4N 4N 4N 4N 5N 5N 6N 7N 8N 9N 0N aN bN cN dN eN fN gN hN iN jN kN lN mN nN oN pN qN rN sN tN uN vN wN xN yN zN AN BN CN DN EN FN GN HN IN JN KN LN MN NN ON PN QN RN SN TN UN VN WN XN YN ZN `N  O .O +O @O #O $O %O &O *O =O -O ;O >O ,O 'O )O !O ~O {O ]O ^O /O (O _O :O <O [O }O |O 1O 2O 3O 4O 5O 6O 7O 8O 9O 0O aO bO cO dO eO fO gO hO iO jO kO lO mO nO oO pO qO rO sO tO uO vO wO xO yO zO AO BO CO DO EO FO GO HO IO JO KO LO MO NO OO PO QO RO SO TO UO VO WO XO 1M YO 3M ZO 5M `O 7M  P .P +P @P 4z 7z .C 7z #P $P %P fM gM ",
"RJ hM &P *P =P -P VJ %u ;P #m j! HE Gw >P YJ ,P 'P LL )P !P qM ~P {P ]P ^P /P (P _P :P <P [P }P |P 1P 2P 3P 4P 5P 6P 6P 7P 8P 9P 0P aP bP cP dP eP fP gP hP iP jP kP lP mP nP oP pP qP rP sP tP uP vP wP xP yP zP AP BP CP DP EP FP GP HP IP JP KP LP MP NP OP PP QP RP SP TP UP VP WP WP XP YP ZP `P  Q .Q +Q @Q #Q $Q %Q RL &Q *Q =Q HK MK -Q ;Q >Q ,Q 'Q )Q !Q ~Q {Q ]Q ^Q /Q (Q _Q :Q <Q [Q }Q |Q 1Q 2Q 3Q 4Q 5Q 6Q 7Q 8Q 9Q 0Q Yz aQ bQ cQ dQ eQ fQ gQ hQ iQ jQ kQ lQ mQ nQ oQ pQ qQ rQ sQ tQ uQ vQ wQ xQ yQ Yp zQ AQ BQ CQ DQ EQ FQ GQ HQ IQ JQ KQ LQ MQ NQ OQ PQ QQ RQ SQ TQ UQ VQ WQ B< XQ YQ ZQ `Q  R .R +R @R #R $R %R &R *R =R -R ;R >R ,R 'R )R !R ~R {R ]R ^R /R (R _R :R <R [R }R |R 1R 2R 3R 4R 5R 6R 7R 8R 9R 0R aR bR cR dR eR fR gR hR iR jR kR lR 3M mR nR oR pR qR }H rR @P 4z MJ bM MJ sR $P tR fM uR ",
"RJ SJ &P TJ UJ -C vR %u 6j &u j! WJ >C wR xR yR zR AR BR b1 CR DR ER FR GR %K HR IR JR KR LR MR NR OR PR QR RR SR TR UR VR VR WR XR YR ZR `R  S .S +S @S #S $S %S &S *S =S -S ;S >S ,S 'S )S !S ~S {S ]S ^S /S (S _S :S <S [S }S |S 1S 2S 3S 4S 5S 6S 7S 8S 9S 0S aS bS cS dS eS fS gS hS iS jS kS lS mS nS oS pS qS rS sS TP tS uS vS wS xS DK yS zS AS BS CS DS ES FS GS HS IS JS KS LS MS NS OS PS QS RS SS TS US VS WS XS YS ZS `S  T .T +T @T #T $T %T &T *T =T -T ;T >T ,T 'T )T !T ~T {T ]T ^T /T (T _T :T <T _n [T }T |T 1T 2T 3T 4T 5T 6T 7T 8T 9T 0T aT bT cT dT eT fT gT hT iT jT kT lT mT nT oT pT qT rT sT tT uT vT wT xT yT zT AT BT CT DT ET FT GT HT IT JT KT LT MT NT OT PT QT RT ST TT UT VT WT WT XT YT ZT `T  U .U +U @U #U $U %U &U *U jR =U -U ;U mR 5M >U ,U 'U <: )U @P !U ~U 7z MJ {U ]U ^U fM uR ",
"/U (U _U :U az <U [U Do }U &u j! 8j |U 1U nM 2U 3U ib 4U pM 5U 6U 7U ]P 8U 9U 0U aU bU cU dU eU fU gU hU iU jU kU lU mU nU oU pU qU rU sU tU uU vU wU xU yU zU AU BU CU DU EU FU GU HU IU JU KU LU MU NU OU PU QU RU SU TU UU VU WU XU YU ZU `U  V 6E .V +V @V #V $V %V &V *V =V -V ;V >V ,V 'V )V !V ~V {V ]V ^V /V (V _V :V <V [V }V |V 1V 2V 3V 4V 5V 6V 7V 8V 9V 0V aV bV cV dV eV fV gV hV iV jV kV lV DK mV nV oV pV qV rV sV tV uV vV wV D5 xV yV zV AV BV CV DV EV FV GV HV IV JV KV LV MV NV OV PV QV RV SV TV UV VV WV XV YV ZV `V  W .W +W @W #W $W %W &W *W =W -W ;W >W ,W 'W )W !W ~W {W ]W y3 ^W /W (W _W :W <W [W }W |W 1W 2W 3W 4W 5W 6W 7W 8W 9W 0W aW bW cW dW eW fW gW hW iW jW kW lW mW nW oW pW qW rW sW tW uW vW wW xW yW zW AW BW CW DW EW FW GW HW IW JW KW LW MW 3z @P NW 5z .C OW PW MJ QW fM RW ",
"SW TW _U UW [U VW WW 5j }U GE [) HE XW YW ZW `W  X .X +X @X #X $X %X &X *X =X -X ;X >X ,X 'X )X !X ~X {X ]X ^X /X (X _X :X <X [X }X |X 1X 2X 3X 4X 5X 6X 7X 8X 9X 0X aX bX cX dX eX fX gX hX iX jX kX lX mX nX oX pX qX rX sX tX uX vX wX xX yX zX AX BX CX DX EX FX GX HX IX JX KX LX MX LX NX OX PX QX RX SX TX UX VX WX XX YX ZX `X  Y .Y tX +Y @Y #Y $Y %Y &Y *Y =Y -Y ;Y >Y ,Y 'Y )Y !Y ~Y {Y ]Y ^Y /Y Rp (Y _Y :Y <Y [Y }Y |Y 1Y 2Y 3Y 4Y 5Y 6Y J; [4 7Y 8Y 9Y 0Y aY bY cY dY eY fY gY hY |) iY jY kY lY mY nY oY pY qY rY sY tY uY vY wY xY yY zY AY BY CY DY EY FY GY HY IY JY KY LY MY NY OY PY ^W QY RY SY TY mM UY VY WY XY YY ZY `Y  Z .Z +Z @Z #Z $Z %Z &Z *Z =Z -Z ;Z >Z ,Z 'Z )Z !Z ~Z {Z ]Z ^Z /Z (Z _Z :Z <Z [Z }Z |Z 1Z 2Z 3Z 4Z 5Z 6Z 7Z 8Z 9Z 0Z aZ bZ cZ dZ r| eZ fZ 3z @P aM .C bM .C MJ 5z gZ hZ iZ ",
"SW jZ kZ lZ mZ [U [U {0 Fw #m )e nZ oZ pZ qZ rZ sZ tZ +X uZ vZ wZ xZ yZ zZ AZ BZ CZ DZ EZ 'X FZ GZ HZ IZ JZ KZ LZ MZ NZ OZ PZ QZ RZ SZ TZ UZ VZ WZ XZ YZ ZZ `Z  ` .` +` @` #` $` %` &` *` =` -` ;` >` ,` '` )` !` ~` {` ]` ^` /` (` _` :` <` [` }` |` 1` 2` 3` 4` 5` 6` 7` 8` 9` 0` a` b` c` d` e` f` g` h` i` j` k` l` m` n` o` p` q` r` s` t` u` v` w` x` vS y` z` A` B` C` D` E` F` G` H` I` J` K` L` M` N` O` P` us Q` R` S` T` U` V` W` X` Y` Z` ``   .. .+ .@ .# .$ .% .& .* .= .- .; .> ., .' .) .! .~ .{ .] .^ ./ .( ._ .: .< .[ .} .| .1 .2 .3 .4 .5 .6 .7 .8 .9 .0 .a .b .c .d .e .f .g .h .i .j .XJ xE k .lT l .SY m .n .o .XY p .q .r .s .t .u .v .w .x .y .z .A .B .C .D .E .F .G .H .I .J .K .L .M .N .O .P .Q .R .S .T .U .V .W .X .Y .Z .` . ..9Z ...+..@..#..dZ $..%..&..*..V5 =..MJ 6z bM MJ MJ -..;..iZ ",
"SW >..,..'..mZ )..[U WW Eo 0r !..nZ ~..{..]..^..nR /..(..pM _..:..<..[..}..|..1..2..3..4..5..6..7..8..9..0..a..At b..b..c..d..e..f..g..h..i..j..k..l..m..n..o..p..q..r..s..t..u..v..w..x..y..z..A..B..C..D..E...E F..G..H..I..J..K..L..M..N..O..P..Q..R..S..T..U..V..W..X..Y..Z..`..`.. +..+.++.@+.#+.$+.%+.&+.*+.=+.-+.;+.>+.,+.'+.)+.!+.~+.{+.]+.^+./+.(+._+.:+.<+.[+.}+.|+.1+.2+.3+.4+.5+.6+.7+.8+.9+.0+.a+.b+.c+.d+.KL e+.f+.g+.h+.i+.j+.k+.l+.m+.n+.o+.p+.q+.r+.s+.t+.u+.v+.w+.x+.y+.z+.A+.B+.C+..2 D+.E+.F+.G+.H+.I+.J+.K+.L+.M+.N+.O+.P+.Q+.R+.S+.T+.U+.V+.W+.X+.Y+.Z+.`+. @..@.+@.@@.#@.$@.%@.&@.T! *@.=@.lT -@.;@.>@.,@.'@.)@.!@.~@.{@.]@.^@. A /@.(@._@.:@.<@.[@.}@.|@.1@.2@.3@.4@.5@.6@.7@.8@.9@.0@.a@.`r b@.c@.d@.e@.f@.g@.1Z h@.i@.j@.k@.l@.m@.8Z n@.o@.h1 p@.q@.r@.wG s@.t@.u@.Qe v@..C .C MJ 7z 5z w@.;..iZ ",
"SW >..,..lZ VW [U mZ )..}U bz x@.nZ ~..{..y@.rZ z@.A@.Am B@.C@.:..<..D@.E@.F@.G@.H@.I@.KR J@.K@.L@.M@.N@.O@.P@.Q@.R@.S@.T@.U@.V@.W@.X@.Y@.Z@.`@. #..#.+#.@#.##.$#.%#.&#.*#.=#.-#.;#.>#.,#.'#.)#.!#.~#.{#.]#.^#./#.vS (#._#.:#.<#.[#.}#.|#.1#.2#.3#.4#.5#.6#.7#.8#.9#.0#.wC a#.b#.c#.c#.c#.c#.d#.e#.f#.g#.h#.i#.j#.k#.l#.m#.n#.o#.p#.q#.r#.s#.t#.u#.v#.w#.x#.Hz y#.z#.A#.B#.C#.D#.E#.F#.G#.H#.I#.J#.K#.L#.M#.N#.O#.P#.Q#.:5 R3 R#.S#.T#.U#.V#.W#.X#.Y#.Z#.`#. $..$.+$.@$.#$.$$.%$.&$.*$.=$.-$.;$.>$.,$.'$.)$.!$.~$.{$.]$.^$./$.($._$.:$.<$.[$.}$.|$.1$.2$.3$.4$.5$.6$.7$.8$.9$.0$.a$.b$.c$.d$.e$.f$.g$.h$.i$.j$.k$.l$.m$.n$.o$.p$.}d q$.r$.s$.t$.u$.v$.}Q w$.x$.y$.z$.A$.B$.C$.D$.E$.F$.G$.H$.I$.J$.K$.L$.M$.N$.O$.P$.Q$.R$.S$.T$.U$.V$.W$.h@.X$.Y$.!H Z$.m@.`$. %..%.+%.@%.q@.#%.r| $%.MW %%.Qe 4z MJ &%.5z MJ .C *%.;..iZ ",
"=%.>..-%.;%.VW <U WW WW >%.,%.,1 HE '%.)%.!%.~%.{%..X ]%.^%./%.(%._%.:%.<%.[%.}%.|%.1%.2%.3%.4%.5%.6%.7%.8%.9%.0%.a%.b%.c%.d%.e%.f%.g%.h%.i%.j%.k%.l%.m%.n%.o%.p%.q%.r%.s%.t%.u%.v%.y..w%.x%.y%.z%.A%.B%.C%.D%.NL E%.F%.G%.H%.I%.J%.K%.L%.oV M%.N%.O%.P%.Q%.R%.S%.T%.U%.V%.W%.JK JK W%.W%.X%.Y%.Z%.`%. &..&.+&.@&.#&.$&.%&.&&.*&.=&.cB -&.;&.>&.,&.'&.)&.!&.~&.{&.]&.^&./&.(&._&.:&.<&.[&.}&.|&.1&.2&.3&.4&.5&.6&.7&.8&.9&.0&.N3 a&.b&.c&.d&.e&.f&.g&.h&.i&.j&.k&.l&.m&.n&.o&.p&.q&.r&.s&.t&.u&.v&.w&.x&.y&.z&.A&.B&.C&.D&.E&.F&.G&.H&.I&.J&.K&.L&.M&.N&.O&.P&.Q&.6$.R&.S&.T&.U&.V&.W&.X&.Y&.Z&.`&. *..*.+*.@*.#*.$*.%*.&*.**.=*.-*.;*.>*.,*.'*.)*.!*.~*.{*.]*.^*./*.(*._*.:*.<*.[*.}*.|*.1*.2*.3*.4*.5*.6*.7*.8*.9*.Ol 0*.a*.b*.c*.d*.e*.f*.g*.h*.i*.j*.k*.l*.m*....n*.o*.p*.q*.r*.s*.t*.YB @P u*.#P v*.4H w*.$P x*.y*.z*.",
"A*.B*.-%.C*.D*.WW )..WW E*.F*.,1 G*.H*.j .j .I*.J*.A@.K*.L*.M*.N*.O*.&X P*.Q*.R*.S*.T*.U*.V*.W*.X*.Y*.Z*.`*. =..=.+=.@=.#=.$=.%=.&=.*=.==.-=.;=.>=.,=.'=.)=.!=.~=.{=.]=.^=./=.(=._=.:=.<=.[=.}=.|=.1=.2=.3=.4=.5=.6=.7=.8=.9=.0=.a=.b=.c=.d=.>E =E e=.f=.g=.h=.i=.H3 H3 H3 j=.j=.k=.F3 e+.l=.g=.*E m=.n=.AA o=.p=.q=.r=.s=.t=.Vp u=.v=.w=.x=.y=.z=.A=.B=.C=.D=.E=.F=.G=.H=.I=.J=.K=.L=.M=.N=.O=.P=.Q=.R=.S=.T=.U=.V=.W=.X=.Y=.Z=.`=. -..-.+-.@-.#-.$-.%-.&-.*-.=-.--.;-.>-.,-.'-.)-.!-.~-.{-.]-.^-./-.(-._-.:-.<-.[-.}-.|-.1-.2-.3-.4-.5-.6-.7-.8-.9-.0-.a-.b-.c-.d-.e-.f-.g-.h-.i-.j-.k-.l-.m-.n-.o-.p-.q-.r-.s-.t-.u-.v-.w-.x-.y-.z-.A-.B-.C-.D-.E-.F-.G-.H-.I-.J-.K-.L-.M-.N-.O-.P-.Q-.R-.Tn S-.T-.U-.V-.W-.X-.Y-.Z-.`-. ;..;.+;.@;.#;.$;.%;.&;.*;.=;.-;.;;.>;.,;.+..HW q@.';.);.!;.~;.{;.];.u*.^;./;.]U 7z (;._;.y*.:;.",
"A*.jZ <;.gZ [;.[U )..$u WW };.,1 |;.H*.j .j .1;.2;.A@.3;.4;.5;.6;.7;.8;.9;.0;.R*.a;.b;.c;.d;.e;.f;.g;.h;.i;.j;.k;.l;.m;.n;.o;.p;.q;.r;.s;.t;.u;.v;.w;.x;.y;.z;.A;.B;.C;.D;.E;.F;.G;.H;.I;.J;.K;..2 L;.M;.N;.O;.P;.ML Q;.R;.S;.u=.T;.%Q =E U;.FG V;.l=.IK F3 W;.05 :J :J ML ML ML X;.E3 Y;.Z;.6=.`;. >.}F .>.+>.@>.#>.$>.%>.&>.*>.*E wS =E =>.->.;>.>>.,>.'>.)>.!>.~>.{>.vV ]>.^>./>.(>._>.:>.<>.[>.}>.|>.1>.2>.3>.4>.5>.6>.7>.8>.9>.0>.a>.b>.c>.d>.e>.f>.g>.h>.i>.j>.k>.l>.m>.n>.o>.p>.q>.r>.s>.t>.u>.v>.w>.x>.y>.z>.A>.B>.C>.D>.E>.F>.G>.H>.I>.J>.K>.L>.M>.N>.O>.P>.Q>.R>.S>.T>.U>.V>.W>.X>.Y>.Z>.`>.Pu  ,..,.+,.@,.#,.$,.%,.&,.*,.=,.-,.;,.>,.,,.',.),.!,.~,.~,.{,.],.^,./,.(,._,.:,.<,.[,.},.|,.1,.2,.3,.4,.5,.6,.7,.8,.9,.0,.+;.a,.b,.@U c,.d,.e,.f,.g,.h,.i,.j,.k,.@..l,.rZ m,.n,.t@.o,.];.u*.p,.q,.]U r,.s,._;.t,.gM ",
"u,.>..v,.w,.VW )..)..$u )..};.,1 x,.'%.y,.z,.A,.B,.tZ C,.D,.E,.F,.G,.H,.I,.J,.R*.K,.L,.M,.N,.O,.P,.Q,.R,.S,.T,.U,.V,.W,.X,.Y,.Z,.`,. '..'.+'.@'.|N #'.$'.%'.&'.*'.='.-'.;'.>'.,'.''.)'.!'.~'.{'.]'.^'.35 _5 /'.('.IL _'.:'.<'.['.DG I=.}'.k=.k=.NL |'.|'.1'.1'._J _J _J 2'.2'.2'.1'.[J 3'.4'.5'.6'.7'.8'.9'.0'.a'.b'.c'.d'.e'.S;.<'.f'.g'.h'.g'.i'.j'.k'.`..l'.m'.n'.o'.p'.q'.r'.s'.t'.u'.v'.w'.x'.y'.z'.A'.B'.C'.D'.E'.F'.G'.H'.I'.J'.K'.L'.M'.N'.O'.P'.Q'.R'.S'.T'.U'.V'.W'.X'.Y'.Z'.`'. )..).+).@).#).$).&$.%).&).*).=).-).;).>).,).').)).!).~).{).]).^)./).()._).:).<).[).}).|).1).2).3).4).5).6).7).8).9).0).a).b).c).d).e).f).g).h).i).j).k).l).m).n).o).p).q).r).s).),.t).u).v).w).fr SL x).y).z).A).B).C).D).E).F).G).H).I).a,.J).K).L).&;.M).N).O).P).Q).R).aZ S).#..T).U).V).}H {;.Z5 v@.p,.W).(;.cM X).tR Y).uR ",
"u,.Z).<;.C*.VW )..mZ $u WW `).,1 x,.'%.y,.z,. !.J*..!.K*.+!.#X @!.G,.#!.$!.%!.R*.K,.&!.U*.*!.=!.-!.;!.>!.,!.'!.)!.!!.~!.{!.]!.^!./!.(!._!.:!.<!.[!.}!.|!.1!.2!.3!.4!.5!.6!.7!.8!.9!.0!.a!.b!.c!.d!.e!.f!.Y3 /7 g!.b5 h!.1'.X;.i!.Y;.j!.j!.i!.k!.hz :J 1'.:J :J i!.NL NL NL NL NL H3 l=.`;.l!.m!.n!.o!.p!.q!.r!.s!.t!.u!.v!.w!.:Y e+.x!.y!.z!.A!.B!.EG C!.D!.E!.F!.G!.H!.I!.J!.h+.K!.L!.J=.M!.N!.O!.P!.Q!.R!.S!.T!.U!.V!.W!.X!.Y!.Z!.`!. ~..~.+~.@~.#~.$~.%~.&~.*~.=~.-~.;~.>~.,~.'~.)~.!~.~~.{~.]~.^~./~.(~._~.:~.<~.[~.}~.|~.1~.2~.3~.4~.5~.6~.7~.8~.9~.0~.RD a~.b~.c~.d~.e~.f~.g~.h~.i~.j~.k~.l~.m~.n~.o~.p~.q~.r~.s~.t~.u~.v~.w~.x~.y~.z~.A~.B~.C~.D~.E~.F~.G~.H~.I~.J~.K~.L~.#'.[Q M~.N~.O~.P~.Q~.R~.S~.T~.U~.V~.W~.X~.Y~.Z~.`~. {.J)..{.+{.&;.@{.=;.#{.${.%{.o@.&{.*{.3U ={.m,.n,.}H +P ];.v@.p,.q,.*1 cM X).tR Y).uR ",
"-{.;{.>{.,{.'{.[U }U ){.E*.!{.,1 nZ ~{.{{.]{.^{./{.({.K*.c1 _{.:{.<{.[{.}{.|{.1{.2{.3{.4{.5{.6{.7{.8{.9{.0{.a{.b{.c{.d{.e{.f{.g{.h{.i{.j{.k{.l{.m{.n{.o{.p{.q{.r{.s{.t{.u{.v{.w{.x{.y{.z{.A{.B{.C{.U0  4 D{.]5 E{.F{.L3 J3 LL i!.G{.<J H{.I{.KL O` J{.D3 _'.i!.i!._'.yG K{.L{.M{.X%.N{.O{.P{.Q{.R{.S{.T{.U{.V{.W{.X{.Y{.Z{.`{. ]..].+].@].#].$].%].h'.&].*].=].-].;].>].,].'].)].!].~].#Y {].]].^]./].(]._].:].<].[].}].|].1].2].3].4].5].6].7].8].9].0].a].b].c].d].e].f].g].h].i].j].k].l].m].n].o].p].q].r].s].DD t].u].v].w].x].y].z].A].B].C].D].E].F].G].H].I].J].K].L].M].N].O].P].Q].R].S].T].U].V].W].X].Y].Z].`]. ^..^.+^.@^.#^.$^.%^.&^.*^.=^.-^.;^.>^.,^.'^.)^.!^.~^.{^.]^.^^./^.(^._^.:^.<^.[^.}^.|^.1^.2^.3^.4^.5^.6^.7^.8^.9^.0^.a^.b^.c^.d^.e^.f^.g^.h^.i^.j^.k^.R[ l^.t*.3z !n v@.p,.W).m^.7z &%.tR Y).n^.",
"o^.;{.>{.,{.p^.'{.m[ %u q^.,%.r^.HE H*.s^.t^.u^.v^.({.w^.x^.y^.z^.A^.B^.C^.D^.E^.F^.G^.H^.I^.J^.K^.L^.M^.N^.O^.P^.Q^.R^.S^.T^.U^.V^.W^.X^.Y^.Z^.`^. /../.+/.@/.#/.ZH $/.%/.&/.*/.=/.-/.;/.16 >/.,/.>5 '/.('.$4 )/.c+.J=.v).!/.~/.j=.2'.h!.h!.2'.2'.LL ML :J NL <J {/.]/.v).^/.//.(/._/.:/.</.[/.}/.|/.1/.2/.3/.4/.5/.6/.7/.8/.9/.0/.a/.b/.c/.d/.e/.f/.g/.h/.i/.j/.k/.l/.m/.n/.o/.p/.q/.r/.s/.t/.u/.v/.w/.x/.y/.z/.I+.A/.B/.C/.D/.E/.F/.G/.H/.I/.J/.K/.L/.M/.N/.O/.P/.Q/.R/.S/.T/.U/.V/.W/.X/.Y/.Z/.`/. (..(.+(.@(.#(.$(.%(.&(.*(.=(.-(.;(.>(.,(.'(.)(.!(.~(.{(.](.^(./(.((._(.:(.<(.[(.}(.|(.1(.2(.3(.4(.5(.6(.7(.8(.9(.0(.a(.b(.c(.d(.e(.f(.g(.h(.i(.j(.k(.l(.m(.n(.o(.p(.q(.r(.s(.t(.u(.v(.w(.x(.y(.z(.A(.B(.C(.D(.E(.F(.G(.H(.I(.J(.K(.L(.M(.N(.O(.P(.Q(.R(.S(.T(.U(.V(.o*.W(.X(.Y(.Z(.3z !n v@.p,.`(. _.7z ._.eM Y).n^.",
"-{.+_.,..gZ p^.[;.)..%u >%.};.,1 Db H*.y,.z,.@_./{.({.#_.x^.$_.%_.&_.*_.=_.D^.-_.;_.>_.,_.'_.)_.!_.~_.{_.]_.LG ^_./_.(_.__.:_.<_.[_.}_.|_.1_.2_.3_.4_.5_.6_.7_.8_.9_.0_.a_.b_.c_.d_.e_.f_.g_.$4 $4 X3 @4 rc h_.}N i_.j_.k_.ML I3 l_.m_.n_.k=.Z;.<'.o_.p_.q_.r_.s_.t_.u_.v_.w_.x_.y_.z_.A_.B_.C_.D_.E_.F_.G_.H_.I_.J_.K_.L_.M_.N_.O_.P_.Q_.R_.S_.T_.U_.V_.W_.X_.Y_.F..Z_.`_. :..:.+:.@:.#:.$:.%:.&:.*:.=:.-:.;:.>:.,:.':..@.):.!:.~:.{:.]:.I/.^:./:.(:._:.::.<:.[:.}:.|:.1:.2:.3:.4:.5:.6:.7:.8:.9:.0:.a:.b:.c:.d:.e:.f:.g:.h:.i:.j:.k:.l:.m:.n:.o:.p:.q:.r:.s:.t:.u:.v:.w:.x:.y:.z:.A:.B:.C:.D:.E:.F:.G:.H:.I:.J:.K:.L:.M:.N:.O:.P:.Q:.R:.S:.T:.U:.V:.W:.X:.Y:.Z:.`:. <..<.+<.@<.#<.$<.%<.&<.*<.7;.=<.-<.;<.><.,<.'<.)<.!<.~<.{<.]<.^<./<.(<._<.:<.<<.[<.}<.|<.1<.2<.3<.4<.S).5<.q| 6<.7<._j !n v@.p,.#P Dw  C dM _;.t,.gM ",
"SW >.._U 8<.p^.-C >%.%u >%.9<.,1 HE H*.0<.a<.b<./{.c<.d<.L*.e<.f<.g<.h<.}{.i<.j<.k<.l<.m<.n<.o<.p<.q<.r<.s<.t<.u<.v<.w<.pO x<.y<.z<.A<.B<.C<.D<.E<.F<.G<.H<.I<.J<.K<.L<.M<.N<.O<.P<.Q<.R<.'/.'5 _5 S<.H3 T<.TB U<.NL V<.2'._J D3 *:.W<.X<.Y<.Z<.`<. [..[.+[.@[.#[.$[.%[.&[.*[.=[.-[.;[.>[.,[.'[.)[.![.~[.{[.][.^[./[.([._[.:[.<[.[[.}[.|[.1[.2[.3[.4[.5[.6[.7[.8[.9[.0[.a[.b[.c[.d[.e[.f[.g[.h[.i[.j[.U;.k[.l[.m[.n[.o[.p[.q[.r[.s[.t[.u[.v[.w[.x[.y[.z[.A[.B[.C[.D[.E[.F[.G[.H[.I[.J[.K[.L[.M[.N[.O[.P[.Q[.R[.S[.T[.U[.V[.W[.X[.Y[.Z[.`[. }..}.+}.@}.#}.$}.%}.&}.*}.=}.-}.;}.>}.,}.'}.)}.!}.~}.{}.]}.^}./}.(}._}.:}.<}.[}.}}.|}.1}.2}.3}.4}.5}.6}.7}.8}.9}.0}.a}.b}.c}.d}.e}.f}.g}.h}.i}.j}.k}.l}.m}.n}.o}.p}.q}.r}.s}.ZM t}.u}.v}.w}.x}.y}.z}.A}.B}.C}.db D}.E}.2<.F}.G}.H}.I}.X(.J}.t@.3z pb K}.L}.M}.e[ MJ N}.O}.fM :;.",
"SW >.._U ;%.P}.az q^.%u X| `).r^./0 Q}.{{.z,.R}.v^.S}.T}.x^.e<.U}.g<.h<.V}.i<.W}.X}.Y}.Z}.`}. |..|.+|.@|.#|.$|.%|.&|.*|.=|.-|.;|.>|.,|.'|.)|.!|.~|.{|.]|.^|./|.(|._|.:|.<|.[|.}|.||.N;.1|.2|.3|.J3 4|.5|.6|.E3 7|.8|.hz 9|.0|.a|.b|.c|.d|.e|.f|.g|.|Q h|.i|.j|.k|.l|.m|.n|.o|.p|.q|.r|.s|.t|.u|.v|.w|.x|.y|.z|.A|.B|.C|.D|.E|.F|.G|.H|.I|.J|.K|.L|.M|.N|.O|.P|.Q|.R|.S|.T|.U|.V|.W|.X|.Y|.Z|.`|. 1..1.+1.@1.#1.$1.%1.&1.*1.=1.-1.;1.>1.,1.'1.)1.!1.~1.{1.]1.^1./1.(1._1.:1.<1.[1.}1.|1.11.21.31.41.51.61.71.81.91.01.a1.b1.c1.d1.e1.f1.g1.h1.i1.j1.k1.l1.m1.n1.o1.p1.q1.r1.s1.t1.u1.v1.w1.x1.y1.z1.A1.B1.C1.D1.E1.F1.G1.H1.I1.J1.K1.L1.M1.N1.O1.P1.Q1.R1.S1.T1.U1.V1.W1.X1.Y1.Z1.`1. 2..2.+2.@2.#2.$2.%2.&2.*2.=2.-2.;2.>2.,2.'2.)2.!2.~2.6%.{2.]2.^2./2.(2._2.:2.<2.[2.V(.}2.|2.X(.12.22.LJ 32.K}.L}.L}. _.42.&%.eM fM :;.",
"o^.B*.52.62.72.82.VW 'e ;P &e x@.92.02.a2.b2.c2.d2.e2.f2.g2.h2.i2.j2.k2.l2.m2.n2.o2.p2.q2.r2.s2.t2.u2.v2.w2.x2.y2.z2.A2.B2.C2.D2.E2.F2.G2.H2.I2.J2.K2.L2.M2.N2.O2.P2.Q2.R2.S2.T2.U2.V2.W2.X2.ib Mw Y2.Z2.`2. 3..3.+3.@3.#3.$3.%3.&3.*3.=3.-3.;3.>3.,3.'3.)3.!3.~3.{3.]3.^3./3.(3._3.:3.<3.[3.}3.|3.13.23.33.43.53.63.73.83.93.03.a3.b3.c3.d3.e3.f3.g3.h3.i3.j3.k3.l3.m3.n3.o3.p3.q3.r3.s3.t3.u3.v3.w3.x3.y3.z3.A3.B3.C3.D3.E3.F3.G3.H3.I3.J3.K3.L3.M3.N3.O3.P3.Q3.R3.S3.T3.U3.V3.W3.X3.Y3.Z3.`3. 4..4.+4.@4.#4.$4.%4.&4.*4.=4.-4.;4.>4.,4.'4.)4.!4.~4.{4.]4.^4./4.(4._4.:4.<4.[4.}4.|4.14.24.34.44.54.64.74.84.94.04.a4.b4.c4.d4.e4.f4.g4.h4.i4.j4.k4.l4.m4.n4.o4.p4.q4.r4.s4.t4.u4.v4.w4.x4.y4.z4.A4.B4.C4.D4.E4.F4.G4.H4.I4.J4.K4.L4.M4.N4.O4.P4.Q4.R4.S4.T4.U4.V4.W4.zR d2.X4.Y4.Z4.`4. 5..5.+5.@5.jM 4j <U #5.Zt $5.%5.",
"o^.B*.&5.*5.=5.-5.)..'e ;5.>5.x@.92.,5.'5.b2.)5.3U A@.!5.~5.{5.]5.^5./5.(5._5.:5.<5.[5.}5.|5.15.25.35.45.55.65.75.85.95.05.a5.b5.c5.d5.e5.f5.g5.h5.i5.j5.k5.l5.m5.n5.o5.p5.q5.r5.s5.X2.:5 H{.t5.u5.=Q RL v5.w5.x5.y5.z5.A5.B5.9S C5.D5.E5.F5.G5.H5.I5.J5.K5.L5.M5.N5.O5.P5.Q5.R5.S5.T5.U5.V5.W5.X5.Y5.Z5.`5. 6..6.+6.@6.#6.$6.%6.&6.*6.=6.-6.;6.>6.,6.'6.)6.!6.~6.{6.]6.^6./6.&Y (6._6.:6.<6.[6.}6.|6.16.26.36.46.56.66.76.86.96.06.a6.b6.c6.d6.e6.f6.g6.h6.i6.j6.k6.l6.m6.n6.o6.p6.q6.r6.s6.t6.u6.v6.w6.x6.y6.z6.A6.B6.C6.D6.E6.F6.G6.H6.I6.J6.K6.L6.M6.N6.O6.P6.Q6.R6.S6.T6.U6.V6.W6.X6.Y6.Z6.`6. 7..7.+7.@7.#7.$7.%7.&7.*7.=7.-7.;7.>7.,7.'7.)7.!7.~7.{7.]7.^7./7.(7._7.:7.<7.[7.}7.|7.17.27.37.47.57.67.77.87./P 97.07.a7.b7.c7.d7.e7.f7.g7.h7.i7.j7.Qb k7.l7.m7.aZ @..3U n7.m,.V).`4. 5.o7.p7.$u @5.az -P zb #C $5.%5.",
"q7.>..r7.s7.t7.-5.WW u7.v7.w7.x@.92.x7.y7.);.c2.3U A@.z7.A7.{5.B7.C7.D7.E7.F7.G7.H7.I7.J7.K7.L7.M7.N7.O7.P7.Q7.R7.S7.T7.U7.V7.W7.X7.Y7.Z7.`7. 8..8.+8.@8.#8.$8.%8.&8.*8.=8.-8.;8.>8.,8.'8.)8.!8.E%.~8.{8.]8.+1.^8./8.(8._8.:8.<8.[8.}8.|8.18.28.38.48.58.68.78.88.98.08.a8.b8.c8.d8.e8.f8.g8.h8.i8.j8.k8.l8.m8.n8.o8.p8.q8.r8.s8.t8.u8.v8.w8.x8.y8.z8.A8.B8.C8.D8.E8.F8.G8.H8.I8.J8.K8.L8.M8.N8.`U O8.P8.Q8.R8.S8.T8.U8.V8.W8.X8.Y8.Z8.`8. 9..9.+9.@9.#9.$9.%9.&9.*9.=9.-9.;9.>9.,9.'9.)9.!9.~9.{9.]9.^9./9.(9._9.:9.<9.[9.}9.|9.19.29.39.49.59.69.79.89.99.09.a9.b9.c9.%+.d9.e9.f9.g9.h9.i9.j9.k9.l9.m9.n9.o9.p9.q9.r9.s9.t9.u9.v9.w9.x9.y9.z9.A9.B9.C9.D9.E9.F9.G9.H9.I9.J9.K9.L9.M9.N9.O9.P9.Q9.R9.S9.T9.U9.V9.W9.X9.Y9.Z9.`9.}.. 0..0.+0.@0.#0.$0.%0.&0.*0.=0.-0.;0.@..v^.>0.m,.,0.t*. 5.o7.'0.$u )0.#u 4j zb Zt -0 !0.",
"~0.+_._U {0.=5.W).u7.u7.]0.^0./0.92.(0.y7.b2.u^.#..A@.8H _0.h2.i2.ym :0.<0.[0.}0.|0.10.20.30.40.50.60.60.70.80.90.00.a0.b0.c0.d0.e0.f0.g0.h0.i0.j0.k0.l0.m0.n0.o0.p0.q0.r0.s0.t0.u0.{8.v0.w0.x0.vS y0.z0.A0.B0.C0.D0.E0.F0.G0.H0.I0.J0.K0.L0.M0.N0.O0.P0.Q0.R0.S0.T0.U0.V0.W0.X0.Y0.Z0.`0. a..a.+a.@a.#a.$a.%a.&a.*a.=a.-a.;a.>a.,a.'a.)a.!a.~a.{a.]a.^a./a.(a._a.:a.<a.[a.}a.|a.1a.2a.3a.4a.5a.6a.7a.8a.9a.0a.aa.ba.ca.da.ea.fa.ga.ha.ia.ja.ka.la.ma.na.oa.pa.qa.ra.sa.ta.ua.va.wa.xa.ya.za.Aa.Ba.Ca.Da.Ea.Fa.Ga.Ha.Ia.Ja.Ka.La.Ma.Na.Oa.Pa.Qa.Ra.Sa.Ta.->.Ua.Va..&.Wa.Xa.]L Ya.Za.`a. b..b.+b.@b.#b.$b.%b.&b.*b.=b.-b.;b.>b.,b.'b.)b.!b.~b.{b.]b.^b./b.(b._b.:b.<b.[b.}b.|b.1b.2b.3b.4b.5b.6b.7b.8b.9b.0b.ab.bb.cb.db.eb.fb.gb.hb.ib.jb.kb.lb.mb.i7.nb.ob.k7.pb.V4.aZ p@.v^.qb.rb.sb.<: tb.o7.+5.$u ub.'{.-P r5 vb.-0 wb.",
"~0.+_.r7.xb.yb.82.mZ zb.;5.wo x@.Ab.Bb.Cb.Db.c2.v^.Eb.Fb.Gb.h2.]5.Hb.Ib.Jb.Kb.Lb.Mb.Nb.Ob.Pb.Qb.Rb.Sb.Tb.Ub.Vb.Wb.Xb.Yb.Zb.`b. c..c.+c.@c.#c.$c.%c.i~ &c.*c.=c.-c.;c.>c.,c.'c.)c.!c.~c.{c.]c.k'.^c./c.(c._c.:c.<c.[c.}c.|c.1c.2c.3c.4c.5c.6c.p#.7c.8c.U0.9c.0c.ac.bc.cc.dc.ec.fc.gc.hc.ic.jc.kc.lc.mc.nc.oc.pc.qc.rc.sc.tc.uc.vc.wc.xc.yc.zc.Ac.Bc.Cc.Dc.Ec.Fc.Gc.Hc.Ic.Jc.Kc.Lc.Mc.Nc.Oc.Pc.Qc.Rc.Sc.Tc.Uc.Vc.Wc.Xc.Yc.Zc.`c. d..d.+d.@d.#d.$d.%d.&d.*d.=d.-d.;d.>d.,d.'d.)d.!d.~d.{d.]d.^d./d.(d._d.:d.<d.[d.}d.|d.1d.2d.3d.4d.5d.6d.7d.8d.9d.0d.ad.->.bd.cd.R;.dd.ed.|F fd.gd.hd.id.jd.kd.ld.md.nd.od.pd.qd.rd.sd.td.ud.vd.wd.xd.yd.zd.Ad.Bd.Cd.Dd.Ed.Fd.Gd.Hd.Id.Jd.Kd.Ld.Md.Nd.Od.Pd.Qd.Rd.Sd.Td.Ud.Vd.Wd.Xd.Yd.Zd.`d.`d. e..e.+e.@e.#e.$e.%e.&e.*e.=e.-e.;e.>e.W4.,e.cZ 'e.Y4.)e.!e. 5.~e.{e.+m %u WW WW %0 ]e.-0 wb.",
"^e./e.(e._e.mZ mZ WW {0 [U &e :e.x,.~..y,.<e.u^.[e.}e.|e.1e.2e.3e.4e.5e.6e.7e.8e.9e.0e.Rb.ae.be.ce.de.ee.fe.ge.he.ie.je.ke.le.me..!.ne.oe.pe.qe.re.se.te.ue.ve.we.xe.ye.ze.Ae.Be.Ce.De.Ee.4S }V Fe.Ge.He.Ie.Je.Ke.Le.Me.Ne.Oe.Pe.Qe.Re.Se.Te.Ue.Ve.We.Xe.Ye.Ze.`e. f..f.+f.@f.#f.$f.%f.&f.*f.=f.-f.;f.>f.,f.'f.)f.!f.~f.{f.]f.^f./f.(f._f.:f.<f.[f.}f.|f.1f.2f.3f.4f.5f.6f.7f.8f.9f.0f.af.bf.cf.df.ef.ff.gf.hf.if.jf.kf.lf.mf.nf.of.pf.qf.rf.sf.tf.uf.vf.wf.xf.yf.zf.Af.Bf.Cf.Df.Ef.Ff.Gf.Hf.If.Jf.Kf.Lf.Mf.Nf.Of.Pf.Qf.Rf.Sf.Tf.Uf.Vf.Wf.Xf.Yf.Zf.`f.R;.[N  g..g.+g.M{.(Y &:.R;.@g.#g.$g.%g.&g.*g.Vf.=g.-g.;g.>g.,g.'g.)g.!g.~g.{g.]g.^g./g.(g._g.:g.<g.[g.}g.|g.1g.2g.3g.4g.5g.6g.7g.8g.9g.0g.ag.bg.cg.dg.eg.fg.gg.hg.ig.jg.kg.lg.mg.ng.og.pg.qg.rg.sg.tg.ug.vg.wg.xg.yg.zg.Ag.Bg.Cg.Dg.Eg.Fg.Gg.Hg.Ig.6j Jg.WW Zt Kg.,{.",
"^e./e.(e.Lg.D*.[U az WW E*.};.:e.x,.~..Mg.<e.u^.[e.}e.Ng.Og.Pg.3e.Qg.Rg.Sg.Tg.Ug.Vg.Wg.#[.Xg.Yg.Zg.`g.`g. h..h.RL +h. g.V;.i=.95 @h.#h.$h.%h.&h.*h.=h.-h.;h.>h.,h.'h.)h.!h.@E ~h.$[.{h.SP ]h.^h./h.(h._h.:h.<h.[h.}h.|h.1h.2h.`..3h.4h.5h.LP 6h.7h.8h.9h.0h.ah.bh.ch.dh.eh.fh.gh.hh.ih.jh.kh.lh.mh.nh.oh.ph.qh.rh.sh.th.uh.vh.wh.xh.yh.zh.Ah.Bh.Ch.Dh.Eh.Fh.Gh.Hh.Ih.Jh.Kh.Lh.Mh.Nh.Oh.Ph.Qh.Rh.Sh.Th.Uh.Vh.Wh.Xh.Yh.Zh.`h. i..i.+i.@i.#i.$i.%i.&i.*i.=i.-i.;i.>i.,i.'i.)i.E, !i.~i.{i.]i.^i./i.(i._i.:i.<i.[i.}i.|i.1i.2i.3i.4i.5i.6i.7i.8i.9i.0i.@g.ai.bi.ci.H3 zG di.CG +h.ei.fi.gi.id.hi.ii.ji.<y ki.li.mi.ni.oi.pi.qi.ri.si.ti.ui.vi.wi.xi.yi.zi.Ai.Bi.Ci.Di.Ei.Fi.Gi.Hi.Ii.Ji.Ki.Li.Mi.Ni.Oi.Pi.Qi.Ri.Si.Ti.Ui.Vi.Wi.%E %Q Xi.Yi.Zi.`i. j..j.+j.@j.#j.$j.%j.&j.xg.*j.=j.-j.;j.>j.$: Eg.Fg.,j.'j.)j.w/.Jg.!j.~j.Kg.,{.",
"{j.]j.^j._e.D*.VW VW WW VW /j.,1 x,.~..(j._j.b<.:j.<j.[j.}j.2<.|j.1j.2j.3j.4j.5j.6j.7j.8j.9j.$E FG di.di.k=.W;.95 :J i!.:J i!.75 0j.aj.bj.cj.dj.ej.fj.gj.hj.ij.jj.kj.lj.xS mj.nj.oj.pj.qj.rj.sj.tj.uj.vj.wj.xj.yj.sX zj.w_.ig. &.Be.Aj.Bj.Cj.Dj.Ej.Fj.Gj.Hj.Ij.Jj.Kj.Lj.Mj.Nj.Oj.Pj.Qj.Rj.G: Sj.Tj.Uj.Vj.Wj.Xj.Yj.Zj.`j.L:  k..k.+k.@k.#k.$k.%k.&k.*k.=k.-k.;k.>k.,k.'k.)k.!k.~k.{k.]k.^k./k.(k._k.:k.<k.[k.}k.|k.1k.2k.3k.4k.5k.6k.7k.8k.9k.0k.ak.bk.ck.dk.ek.fk.gk.hk.ik.jk.!i.kk.lk.mk.nk.ok.pk.qk.rk.sk.tk.uk.vk.wk.xk.yk.zk.Ak.Bk.Ck.Dk.Ek.Fk.Gk.Hk.Ik.ci.L{.Jk.!h.Kk.Lk.Mk.Nk.Ok.Pk.Qk.Rk.Sk.Tk.Uk.Vk.Wk.Xk.Yk.Zk.`k. l..l.+l.@l.#l.$l.%l.&l.*l.=l.-l.;l.>l.,l.'l.)l.!l.~l.{l.]l.^l./l.D~ (l._l.:l.<l.[l.}l.k=.i!.zG BG EG |l.1l.2l.3l.4l.5l.6l.7l.8l.9l.0l.al.bl.yg.cl.dl.el.fl.gl.hl.il.jl.L}.vR >%.kl.!j.#C ll.ml.",
"nl.ol.^j._e.D*.[U VW )..mZ &e r^.-0 H*.0<.pl.ql.rl.<j.sl.A7.2e.tl.Qg.ul.vl.wl.5j.6j.xl.yl.zl.Al.Y;._'.D3 C3 J3 S<.65 JL Bl.Cl.Dl.El.Fl.Gl.Hl.Il.Jl.Kl.Ll.Ml.Nl.Ol.Pl.Ql.Rl.Sl.Tl.Ul.Vl.Wl.Xl.Yl.Zl.`l. m..m.+m.@m.C$.#m.$m.%m.&m.*m.=m.-m.;m.>m.,m.'m.)m.!m.~m.{m.]m.^m./m.(m._m.:m.<m.[m.}m.|m.1m.2m.3m.4m.5m.6m.6m.7m.8m.9m.0m.am.bm.cm.dm.em.fm.gm.hm.im.jm.km.lm.mm.nm.om.pm.qm.rm.sm.tm.um.vm.wm.xm.ym.zm.Am.Bm.Cm.Dm.Em.Fm.Gm.Hm.Im.Jm.Km.Lm.Mm.Nm.Om.Pm.Qm.Rm.Sm.Tm.Um.Vm.Wm.Xm.Ym.Zm.`m. n..n.+n.@n.#n.$n.%n.&n.*n.=n.-n.;n.>n.,n.'n.)n.!n.~n.{n.]n.^n./n.(n._n.:n.RL <n.[n.$[.}n.|n.1n.2n.K5.3n.4n.5n.6n.7n.8n.9n.0n.an.bn.cn.dn.en.fn.gn.hn.in.jn.kn.ln.mn.nn.on.pn.qn.rn.sn.tn.un.vn.wn.xn.yn.zn.An.Bn.Cn.2'.1'.[J CG Dn.En.Fn.Gn.Hn.In.Jn.Kn.Ln.Mn.Nn.al.On.yg.cl.Pn.Qn.Rn.Sn.Tn.Un.Vn.Wn.Xn.m[ Yn.-C ]e.$5.Zn.",
"`n.,0. o..o.+o.VW )..[U E*.<j ,1 -0 Q}.y,.<e.ql.@o.#o.$o.1e.%o.&o.*o.ul.=o.-o.5j.;o.>o.,o.'o.B!.H3 )o.LL KL !o.O3 G5 c5 ~o.~o.{o.]o.^o./o.(o._o.:o.<o.[o.}o.|o.1o.2o.R` 3o.4o.5o.6o.7o.8o.9o.0o.ao.bo.co.do.eo.RS R;.FK fo.go.ho.io.jo.ko.lo.mo.no.oo.po.qo.ro.so.to.uo.vo.wo.xo.yo.zo.Ao.Bo.Co.Do.Eo.Fo.Go.Ho.Io.Jo.Ko.Lo.Mo.No.Oo.Po.Qo.Ro.So.To.Uo.Vo.Wo.Xo.Yo.Zo.`o. p..p.+p.@p.#p.$p.%p.&p.*p.=p.-p.;p.>p.,p.'p.)p.!p.~p.{p.]p.^p./p.(p._p.:p.<p.[p.}p.|p.1p.2p.3p.4p.5p.Vm.6p.7p.8p.9p.0p.ap.bp.cp.dp.ep.fp.gp.hp.ip.jp.kp.lp.mp.np.op.pp.qp.rp.sp.tp.up.vp.wp.xp.yp.zp.Ap.Bp.Cp.Dp.Ep.Fp.Gp.Hp.Ip.Jp.Kp.Lp.Mp.Np.q0.Op.Pp.Qp.Rp.Sp.Tp.Up.Vp.Wp.Xp.Yp.Zp.`p. q..q.+q.@q.#q.$q.%q.&q.*q.=q.-q.;q.>q.,q.'q.)q.{n M3 }5 !J D3 I=.!q.~q.{q.]q.^q./q.(q._q.:q.<q.[q.}q.|q.cl.1q.2q.3q.4q.5q.D_ 6q.W).7q.vR 8q.4j 9q.ll.0q.",
"aq.bq.cq.dq.mZ mZ VW VW >%.eq.x@.-0 fq.gq.hq.iq.jq.kq.lq.mq.nq.oq.pq.qq.rq.sq.tq.uq.vq.wq.xq.yq.zq.Aq.Bq.Cq.Dq.Eq.m,.Fq.Gq.Eq.Hq.Iq.Jq.Kq.Lq.Mq.Nq.Oq.Pq.Qq.Rq.Sq.@y Tq.Uq.Vq.Wq.Xq.Yq.Zq.`q. r..r.+r.@r.#r.Ui.$r.%r.&r.*r.=r.-r.;r.>r.,r.'r.)r.!r.~r.{r.]r.^r./r.(r._r.:r.<r.[r.}r.|r.1r.2r.3r.4r.5r.6r.7r.8r.9r.0r.ar.br.cr.dr.er.fr.gr.hr.ir.jr.kr.lr.mr.nr.or.pr.qr.rr.sr.tr.ur.vr.wr.xr.yr.zr.Ar.Br.Cr.Dr.Er.Fr.Gr.Hr.Ir.Jr.Kr.Lr.Mr.Nr.Or.Pr.Qr.Rr.Sr.Tr.Ur.Vr.Wr.Xr.Yr.Zr.`r. s..s.+s.@s.#s.$s.%s.&s.*s.=s.-s.;s.>s.,s.'s.)s.!s.~s.{s.]s.^s./s.(s._s.:s.<s.[s.}s.|s.1s.2s.3s.4s.5s.6s.7s.8s.9s.0s.as.bs.cs.ds.es.fs.gs.hs.is.js.ks.ls.ms.ns.os.ps.qs.rs.ss.ts.us.UI vs.ws.xs.ys.zs.As.Bs.Cs.Ds.Es.Fs.Gs.Hs.Is.Js.Ks.Ls.!J <'.]1 Ms.Ns.Os.Ps.Qs.Rs.Ss.Ts.Us.&j.Vs.HW Ws.Xs.Ys.Zs.`s. t..t.+5.WW 7q.'{.-C =P +t.ll.@t.",
"aq.r*.ik #t.VW +o.VW [U E*.$t.x@.-0 fq.%t.hq.b<.7c z3 &t.d1 e<.(%.*t.qq.=t.-t.;t.>t.,t.'t.)t.g'.!t.~t.{t.]t.1;.^t./t.(t._t.:t.<t.[t.}t.|t.1t.2t.3t.4t.5t.6t.7t.8t.9t.0t.at.bt.ct.dt.et.ft.gt.ht.it.mV jt.3'.kt.lt.mt.nt.ot.pt.qt.rt.st.tt.ut.vt.wt.xt.yt.zt.At.Bt.Ct.Dt.Et.Ft.Gt.Ht.It.Jt.Kt.Lt.Mt.Nt.Ot.Pt.Qt.Rt.St.Tt.Ut.Vt.Wt.Xt.Yt.Zt.`t. u..u.+u.@u.#u.$u.%u.&u.*u.=u.-u.;u.>u.,u.'u.)u.!u.~u.{u.]u.^u./u.(u._u.:u.<u.[u.}u.|u.1u.2u.3u.4u.5u.6u.7u.8u.9u.0u.*d.au.bu.cu.du.eu.fu.gu.hu.iu.ju.ku.lu.mu.nu.ou.pu.qu.ru.(>.CK  Z su.tu.uu.vu.wu.xu.yu.zu.Au.Bu.Cu.Du.Eu.Fu.Gu.Hu.Iu.Ju.Ku.Lu.Mu.Nu.Ou.Pu.Qu.Ru.Su.Tu.Uu.Vu.Wu.Xu.Yu.Zu.`u. v..v.+v.@v.#v.Um.$v.%v.&v.*v.=v.-v.;v.>v.,v.'v.)v.!v.~v.#6.{v.]v.^v. o./v.(v._v.:v.l=.<v.[v.}v.|v.1v.Qs.Rs.2v.3v.4v.5v.Vs.6v.7v.Xs.8v.{W 9v.0v..t.av.WW ){.bv.az tg +t.ll.@t.",
"aq.cv.cq.dv.ev.)..)..VW >%.$t.,1 %e fv.gq.Fq.R}.gv.kq.hv.x^.iv.6U jv.kv.lv.mv.nv.ov.pv.qv.rv.BG sv.tv.L3 uv.vv.wv.xv.yv.zv.M0 Av.Bv.Cv.Dv.Ev.Fv.Gv.Hv.Iv.Jv.Kv.Lv.Mv.Nv.Ov.Pv.Qv.Rv.Sv.Tv.Uv.Vv.Wv.X;.)c.~C Xv.Yv.Zv.`v. w..w.+w.@w.)A 5b.#w.$w.%w.&w.*w.=w.-w.;w.>w.,w.'w.)w.!w.~w.{w.]w.^w./w.(w._w.:w.<w.[w.}w.|w.1w.2w.3w.4w.5w.6w.7w.8w.9w.0w.aw.bw.cw.dw.ew.fw.gw.hw.iw.jw.kw.lw.mw.nw.ow.pw.qw.rw.sw.}u.tw.uw.vw.ww.xw.yw.zw.Aw.Bw.Cw.Dw.Ew.Fw.Gw.Hw.Iw.Jw.Kw.Lw.Mw.Nw.Ow.Pw.Qw.Rw.Sw.Tw.Uw.Vw.Ww.Xw.Yw.Zw.`w. x..x.+x.(&.|J @x.#x.$x.%x.&x.*x.=x.-x.;x.>x.,x.'x.)x.!x.~x.{x.]x.^x./x.(x._x.:x.<x.[x.}x.|x.1x.M, 2x.3x.4x.5x.6x.7x.8x.9x.0x.ax.bx.cx.dx.ex.fx.gx.hx.ix.jx.kx.lx.mx.nx.ox.px.qx.rx.sx.tx.ux.vx.wx.xx.yx.Bl.OL zx.Ax.Bx.Cx.Dx.Ex.Fx.Ss.Gx.Us.Hx.Vs.Ix.Jx.Xs.Kx.Lx.`s. t..t.{e.!j.8q.bv.4j Mx.Nx.Kg.Ox.",
"aq.Px.cq.#t.VW VW VW [U q^.$t.,1 %e fv.%t.hq.c2.7c Qx.Rx.Sx.Tx.Ux.*t.Vx.Wx.-t.Xx.ov.Yx.Zx.`x.!h. y..y.M3 +y.@y.#y.$y.%y.L[ &y.*y.=y.-y.;y.>y.,y.'y.)y.!y.~y.{y.]y.^y./y.(y._y.:y.<y.[y.}y.=>.<'.|y.KL 1y.2y.3y.4y.5y.6y.7y.8y.9y.0y.ay.by.cy.dy.ey.fy.gy.hy.iy.jy.ky.ly.my.ny.oy.py.qy.ry.sy.ty.uy.vy.wy.xy.yy.zy.Ay.By.Cy.Dy.Ey.Fy.Gy.Hy.Iy.Jy.Jy.Ky.Ly.My.Ny.Oy.Py.Qy.Ry.Sy.Ty.Uy.Vy.Wy.Xy.Yy.Zy.`y. z..z.+z.@z.#z.$z.%z.&z.*z.=z.-z.;z.>z.,z.'z.)z.Y].!z.~z.{z.]z.^z./z.(z._z.:z.<z.[z.}z.|z.1z.2z.3z.4z.PN 5z.6z.7z.8z.9z.0z.az.gd.bz.cz.dz.ez.fz.gz.hz.iz.jz.kz.lz.mz.nz.oz.pz.qz.rz.sz.tz.uz.vz.wz.xz.yz.zz.Az.Bz.Cz.Dz.Ez.Fz.Gz.Hz.Iz.Jz.Kz.Lz.Mz.Nz.Oz.Pz.Qz.Rz.Sz.Tz.Uz.Vz.Wz.Xz.Yz.Zz.`z. A..A.+A.@A.[4 #A.%4 $A.%A.Bl.<J &A.*A.=A.-A.;A.>A.,A.'A.)A.!A.~A.{A.]A.Ws.^A./A.Zs.(A. t. 1 av.VW _A.<U bv.yg :A.<A.%P ",
"[A.}A.|A.1A.+o.mZ +o.)..2A.3A.4A.-0 fv.s^.Fq.c2.jq.5A.6A.e1 /%.7A.8A.9A.0A.aA.bA.cA.dA.eA.fA.e+.gA.hA.V3 iA.jA.kA.lA.G[ `[ mA.nA.oA.pA.qA.rA.sA.tA.uA.vA.wA.xA.yA.zA.AA.BA.CA.DA.EA.4S FA.DG Bl.GA.JL l_.HA.IA.JA.KA.LA.MA.NA.OA.PA.QA.RA.SA.TA.UA.VA.WA.XA.YA.ZA.;p.`A. B..B.+B.@B.#B.$B.%B.&B.*B.=B.-B.;B.>B.,B.'B.)B.:-.!B.~B.{B.]B.^B./B.(B._B.:B.F&.<B.[B.}B.|B.1B.2B.3B.4B.5B.6B.7B.8B.9B.0B.aB.bB.cB.dB.eB.fB.gB.hB.iB.jB.kB.lB.mB.nB.oB.pB.qB.rB.sB.tB.uB.vB.wB.xB.yB.zB.AB.BB.CB.DB.EB.FB.74.GB.HB.IB.JB.KB.LB.MB.NB.OB._[.DK PB.QB.RB.SB.TB.UB.VB.WB.XB.YB.ZB.`B. C..C.+C.@C.#C.$C.%C.&C.*C.=C.-C.;C.>C.,C.'C.)C.!C.~C.{C.]C.^C./C.(C._C.:C.<C.[C.}C.|C.1C.2C.3C.4C.5C.6C.7C.8C.9C.0C.aC.bC.cC.dC.eC.ux.fC.U5 gC.hC.Bl.<J iC.jC.kC.lC.mC./q.nC.oC.pC.qC.rC.sC.tC.uC.^A.vC.{W `s. t.wC.3A.m[ xC.VW yC.zC.AC.-0 tR ",
"BC.sb.cq.CC.DC.ev.mZ [U D*.{e.4A.EC.FC.GC.HC.b<.jq.5A.w1 'c IC.JC.KC.LC.MC.NC.OC.PC.QC.RC.SC.TC.UC.VC.WC.XC.YC.ZC.`C. D.X[ .D.+D.@D.#D.G<.$D.%D.&D.*D.=D.-D.;D.>D.,D.'D.)D.!D.~D.{D.]D.<'.1'.^D./D.:5 (D._D.:D.<D.[D.}D.|D.1D.2D.3D.4D.5D.6D.7D.8D.9D.0D.aD.bD.cD.dD.eD.fD.9p.gD.hD.iD.jD.kD.lD.mD.nD.oD.pD.qD.rD.sD.tD.uD.vD.wD.xD.yD.zD.AD.BD.CD.DD.ED.FD.GD.HD.ID.JD.KD.LD.MD.ND.OD.PD.QD.RD.SD.TD.UD.VD.WD.XD.YD.ZD.`D. E..E.+E.@E.#E.$E.%E.&E.*E.=E.-E.;E.>E.,E.'E.)E.!E.~E.{E.)u.]E.^E./E.(E._E.:E.<E.[E.}E.|E.1E.2E.3E.4E.5E.6E.7E.8E.z5.9E.0E.aE.bE.cE.dE.eE.fE.gE.hE.iE.jE.kE.lE.mE.nE.oE.pE.qE.rE.sE.tE.uE.vE.wE.xE.yE.zE.AE.BE.CE.DE.EE.FE.GE.HE.IE.JE.KE.LE.ME.NE.OE.PE.QE.RE.SE.TE.UE.VE.WE.XE.YE.ZE.`E. F..F.+F.Bl.k_.@F.EW #F.vu $F.%F.&F.*F.=F.-F.;F.>F.,F.'F.)F.8v.!F.`s.~F.{F.]F.xC.^F.mZ /F.yb.AC.(F.vb.",
"BC.sb.cq._F.:F.+o.VW VW <F.{e.4A.EC.FC.GC.[F.R}.jq.5A.}F.|F.1F.2F.3F.LC.MC.4F.5F.PC.6F.7F.8F.9F.0F.aF.V3 bF.cF.dF.eF.fF.X[ gF.hF.iF.jF.kF.lF.mF.nF.oF.pF.qF.rF.sF.tF.uF.vF.wF.xF.yF.zF.P;.W2.'/.AF.BF.CF.DF.EF.FF.GF.HF.IF.JF.KF.LF.MF.NF.OF.S1 PF.QF.RF.SF.TF.UF.VF.WF.XF.YF.ZF.`F. G..G.+G.@G.#G.$G.%G.&G.*G.=G.-G.;G.>G.,G.'G.)G.KY !G.~G.{G.]G.^G./G.(G._G.:G.<G.[G.}G.|G.1G.2G.3G.4G.5G.6G.7G.8G.9G.0G.aG.bG.cG.dG.eG.fG.gG.hG.Ch iG.jG.kG.lG.mG.nG.oG.pG.qG.rG.sG.tG.uG.vG.wG.xG.yG.zG.AG.BG.CG.DG.EG.FG.GG.HG.IG.JG.KG.LG.MG.NG.OG.PG.QG.RG.SG.TG.UG.VG.WG.XG.YG.ZG.`G. H..H.+H.@H.#H.$H.%H.&H.*H.=H.-H.;H.>H.,H.'H.)H.!H.~H.{H.]H.^H./H.(H._H.:H.<H.[H.}H.|H.1H.2H.3H.4H.5H.6H.7H.8H.9H.0H.aH.bH.cH.dH.eH.fH.gH.hH.+F.Bl.k_.iH.EW jH.kH.lH.%F.mH.nH.oH.pH.qH.>F.,F.'F.rH.vC.sH.b: ~F.{F.tH.uH.vH.WW wH.W).AC.(F.vb.",
"xH.yH. o.zH.D*.+o.mZ VW AH.BH.CH.DH.EH.Mg.hq.R}.gv.FH.GH.;3 HH.IH.JH.KH.LH.MH.NH.PC.OH.PH.QH.RH.SH.TH.UH.VH.WH.XH.fF.fF.YH.gF.ZH.`H. I..I.+I.@I.#I.$I.%I.&I.*I.=I.-I.;I.2*.>I.,I.<'.'I.6Y I5 )I.!I.~I.{I.]I.^I./I.(I._I.:I.<I.[I.}I.|I.1I.2I.3I.4I.5I.6I.7I.8I.9I.0I.aI.bI.cI.dI.eI.fI.gI.hI.iI.jI.kI.lI.mI.nI.oI.pI.qI.rI.sI.tI.uI.vI.wI.xI.yI.zI.AI.BI.CI.DI.EI.FI.GI.HI.II.JI.KI.LI.MI.NI.OI.PI.QI.RI.SI.TI.UI.VI.WI.XI.YI.ZI.`I. J..J.+J.@J.#J.$J.%J.&J.*J.=J.-J.;J.>J.,J.'J.)J.!J.~J.{J.]J.^J./J.(J._J.(D.:J.<J.[J.}J.|J.1J.2J.3J.4J.5J.6J.7J.8J.9J.0J.aJ.bJ.cJ.dJ.eJ.fJ.gJ.hJ.iJ.jJ.kJ.lJ.mJ.nJ.oJ.pJ.qJ.rJ.sJ.tJ.uJ.vJ.wJ.xJ.yJ.zJ.AJ.BJ.AJ.CJ.DJ.EJ.FJ.GJ.8m.HJ.IJ.JJ.KJ.LJ.MJ.*d.NJ.OJ.PJ.QJ.RJ.SJ.TJ.UJ.VJ.WJ.XJ.YJ.Bl.k_.ZJ.`J.jH. K..K.+K.@K.*F.#K.pH.$K.%K.&K.uC.*K.Ys.Zs.=K.~F.-K.;K.vH.xC.[U yb.>K.,K.cz 'K.",
"xH.yH. o.)K.ev.+o.DC.mZ <F.!K.~K.DH.EH.{K.hq.R}.uv.kq.]K.'c ^K./K.JH.(K._K.yt NH.:K.<K.[K.}K.|K.SH.1K.WC.VH.2K.3K.4K. D.5K.6K.7K.8K.9K.0K.aK.bK.cK.dK.eK.fK.gK.hK.iK.jK.kK.kg.v5.lK.W2.UH.E{.mK.-7 nK.oK.pK.qK.rK.sK.tK.uK.vK.wK.){ xK.yK.-n zK.AK.BK.CK.DK.EK.FK.GK.HK.IK.JK.KK.LK.MK.NK.OK.PK.QK.RK.SK.TK.UK.VK.WK.XK.YK.ZK.`K. L..L.+L.@L.#L.$L.%L.&L.*L.=L.Ey.-L.;L.>L.,L.'L.)L.!L.~L.{L.]L.^L./L.(L._L.:L.<L.[L.}L.|L.1L.2L.3L.4L.>n '6 *6 5L.6L.7L.8L.9L.0L.aL.bL.cL.dL.eL.fL.gL.hL.iL.jL.kL.lL.mL.nL.oL.kL.pL.qL.rL.sL.tL.uL.vL.wL.xL.yL.zL.AL.BL.CL.DL.EL.FL.GL.HL.IL.JL.KL.LL.ML.NL.OL.PL.QL.RL.SL.TL.UL.VL.WL.XL.YL.ZL.@5 `L. M..M.+M.@M.hY #M.$M.%M.&M.*M.=M.-M.;M.[! >M.,M.'M.)M.!M.~M.{M.|) ]M.^M./M.(M.WJ.XJ.YJ.Bl.k_._M.:M.jH.<M.[M.}M.|M.*F.1M.pH.2M.3M.4M.uC.5M.Ys.6M.=K.~F.-K.7M.7q.kl.+o.8M.-5.,K.cz 'K.",
"9M.0M.aM.bM.D*.ev.mZ mZ <F.eq.cM.DH.EH.gq.<e.dM.eM.V2.fM.gM.hM.iM.jM.kM.=o.lM.mM.nM.oM.pM.qM.rM.sM.aF.)5 tM.uM.vM.fF.fF.wM.xM.yM.zM.AM.BM.CM.DM.EM.FM.GM.HM.IM.JM.KM.LM.MM.NM.k!.OM.FL PM.QM.=a cz %7 RM.-7 SM.Y=.Ih TM.4r UM.VM.WM.XM.YM.ZM.`M. N..N.+N.@N.#N.$N.%N.&N.#d.*N.=N.-N.;N.>N.,N.'N.)N.!N.~N.{N.]N.^N./N.(N._N.:N.<N.[N.}N.|N.1N.2N.3N.4N.5N.6N.7N.8N.9N.0N.aN.bN.cN.dN.eN.fN.gN.hN.iN.jN.kN.lN.mN.(4 nN.!6 oN.pN.qN.rN.sN..f tN.uN.vN.wN.js xN.yN.zN.AN.BN.CN.DN.EN.FN.GN.HN.IN.JN.KN.LN.MN.NN.ON.PN.QN.RN.SN.TN.UN.VN.WN.XN.YN.ZN.`N. O..O.+O.@O.#O.$O.%O.&O.*O.=O.-O.;O.>O.,O.'O.)O.!O.~O.{O.]O.^O./O.(O.UM._O.:O.<O.!7 ~7 U5 14 [O.}O.|O.1O.2O.3O.4O.5O.6O.7O.8O.I+.9O.0O.aO.bO.cO.dO.eO.fO.gO.hO.iO.P5 jO.kO.lO.mO.nO.oO.pO.qO.[M.rO.sO.tO.uO.vO.wO.V2 xO.Jx.5M.yO.)e.zO.AO..t.e: vH.BO.WW yb.W).,K.cz CO.",
"DO.0M.EO.FO.DC.D*.+o.mZ GO.{e.CH.DH.EH.Mg.<e.dM.HO.V2.IO.JO.IC.KO.LO.MO.NO.OO.PO.QO.oM.RO.SO.TO.UO.VO.AF.F1 WO.XO.`C.YO.ZO.`O. P..P.+P.@P.#P.$P.%P.&P.*P.=P.-P.;P.>P.,P.,I.BG 'P.)P.!P.Y3 ~P.{P.UM.#5 ]P.wN.^P./P.(P._P.];.:P.<P.[P.}P.|P.1P.2P.3P.4P.5P.6P.7P.MA.8P.9P.0P.aP.bP.cP.dP.eP.fP.gP.hP.iP.jP.kP.lP.mP.nP.oP.pP.qP.rP.sP.tP.uP.vP.wP.xP.yP.zP.AP.BP.CP.DP.EP.FP.GP.HP.IP.ch JP.bh (d KP.LP.MP.NP.OP.PP.`d QP.]5 RP.SP.TP.UP.VP.WP.XP.X! .6 ^P._P.YP.ZP.`P. Q..Q.+Q.@Q.VA.#Q.$Q.%Q.&Q.*Q.=Q.-Q.;Q.>Q.,Q.'Q.)Q.!Q.~Q.{Q.]Q.^Q./Q.(Q._Q.:Q.<Q.[Q.}Q.|Q.1Q.2Q.3Q.4Q.5Q.6Q.7Q.8Q.9Q.0Q.aQ.bQ.cQ.dQ.eQ.fQ. 4 gQ.,7 U5 hQ./7 _7 iQ.jQ.=:.kQ.iM lQ.mQ.nQ.oQ.pQ.qQ.rQ.sQ.tQ.uQ.vQ.wQ.xQ.yQ.zQ.AQ.BQ.CQ.fO.DQ.EQ.FQ.Q5 GQ.HQ.JL IQ.JQ.KQ.LQ.MQ.NQ.OQ.PQ.QQ.RQ.SQ.TQ.UQ.VQ.WQ.XQ.YQ.ZQ.Sn.`Q.k3  R.xC..R.[U /F.yb.AC.4r +R.",
"DO.0M.EO.@R.ev.ev.D*.mZ +o.#R.cM.EC.$R.Mg.<e.dM.%R.V2.&R.*R.=R.-R.;R.MO.>R.,R.PO.'R.)R.!R.~R.{R.]R.VO.AF.^R./R.(R.`C.(R._R.:R.<R.[R.}R.|R.1R.2R.3R.4R.5R.6R.7R.8R.9R.0R.aR.95 bR.&5.d!.cR.dR.eR.fR.gR.hR.iR.jR.kR.lR.Y6 N1 mR.nR.oR.pR.qR.rR.sR.tR.uR.vR.wR.xR.yR.zR.AR.BR.CR.DR.ER.FR.GR.HR.IR.JR.KR.LR.MR.NR.OR.PR.QR.RR.SR.TR.UR.VR.WR.XR.YR.ZR.`R. S..S.+S.@S.#S.$S.%S.&S.*S.=S.-S.;S.)q.>S.,S.'S.)S.1l.!S.~S.{S.]S.^S./S.(S._S.:S.<S.[S.}S.!4 |S.L1 1S.*f 2S.3S.@5 4S.5S.6S.7S.8S.9S.0S.aS.bS.cS.dS.eS.fS.6P gS.hS.iS.jS.kS.zd.lS.mS.nS.oS.pS.qS.rS.sS.tS.uS.vS.wS.xS.yS.zS.AS.BS.CS.DS.ES.FS.GS.{n HS./5 )5 K5 IS.-5 JS.X5 S5 -f gH.KS.LS.MS.NS.9n.OS.PS.QS.RS.SS.TS.US.VS.WS.XS.YS.ZS.`S. T..T.+T.@T.#T.$T.%T.R5 &T.HQ.^D.J=.*T.=T.-T.;T.NQ.OQ.>T.nH.|M ,T.'T.)T.!T.~T.XQ.YQ.fl.gl.{T..t.e: 8q.BO.VW ]T.-5.^T.4r 6r ",
"/T.sb. o.(T.D*.D*.VW mZ <F.eq._T.Kg.:T.{K.hq.<T.[T.}T.|T.1T.2T.3T.4T.5T.6T.OO.PO.'R.7T.8T.SO.|y.9T.VO.,5 0T./R.aT. D.bT.ZO.cT.dT.eT.fT.gT.hT.iT.jT.kT.lT.mT.nT.oT.pT. &.~C 1'.qT.rT.sT.tT.uT.vT.wT.xT.yT.zT.}} AT.BT.CT.DT.ET.FT.GT.HT.IT.JT.KT.LT.MT.NT.OT.PT.QT.RT.ST.TT.UT.VT.WT.XT.YT.ZT.`T. U..U.+U.@U.#U.$U.%U.&U.*U.=U.-U.;U.>U.,U.'U.)U.!U.~U.{U.]U.^U.bS./U.(U._U.:U.<U.[U.}U.|U.cD 1U.2U.3U.4U.5U.6U.7U.8U.9U.0U.m_.aU.bU.cU.dU.eU.fU.gU.ec @a hU.X! iU.jU.kU.lU.mU.nU.oU.+v pU.qU.rU.sU.tU.uU.vU.wU.xU.yU.zU.AU.BU.CU.DU.EU.FU.GU.HU.IU.JU.KU.LU.MU.NU.OU.PU.QU.RU.Hj.SU.TU.UU.VU.WU.GA.XU.YU.('.ZU.rc .4 !7 *5 &7 `5 #7 Q5 Z5 `U. V..7 .V.+V.@V.#V.$V.%V.&V.*V.=V.-V.;V.>V.,V.'V.)V.!V.~V.{V.]V.^V./V.8j Q5 (V._V./J :V.<V.[V.}V.|V.1V.2V.3V.*F.4V.5V.6V.UQ.!T.Jx.7V.Qn.8V.Sn.9V.Z5 0V.8q.vH.mZ yb.-5.AC.:j aV.",
"/T.sb. o.(T.D*.+o.mZ D*.bV.eq.cV.Kg.:T.%t.[F.dV.eV.5A.fM.fV.gV.hV.4T.MO.iV.OO.PO.jV.kV.lV.SO.|y.I}.mV.nV.>8.oV.pV.fF.qV.rV.sV.tV.uV.vV.wV.xV.yV.zV.AV.BV.CV.DV.u=.EV.FV.GV.HV.IV.JV.KV.LV.MV.NV.OV.PV.QV.RV.SV.TV.UV.VV.Xe WV.XV.YV.ZV.`V. W..W.+W.@W.#W.$W.%W.&W.*W.=W.-W.;W.>W.,W.'W.)W.!W.~W.{W.]W.^W./W.(W._W.:W.<W.[W.}W.|W.1W.2W.3W.4W.5W.6W.7W.8W.9W.0W.aW.bW.>=.cW.dW.mg.eW.fW.gW.hW.iW.jW.kW.lW.mW.6i.nW.oW.pW.qW.)c.rW.sW.tW.uW.vW.wW.;n xW.tN.yW. a L1 zW.V! Ye AW.BW.CW.DW.EW.FW.GW.HW.IW.JW.KW.LW.MW.NW.OW.Yr PW.QW.RW.SW.TW.K8.UW.VW.WW.+/.XW.YW.ZW.`W. X..X.+X.@X.#X.h_.qT.C3 j!.95 _'._J JL O;.$X.%X.&X.mK.Cw *X.=X.G5 !P.,f 3/ zW.hk -X.;X.>X.,X.'X.)X.!X.~X.{X.]X.qh ^X./X.(X._X.:X.<X.[X.}X.|X.G*.Q5 1X.2X./J :V.3X.[V.4X.|V.1V.2V.3V.*F.5X.6X.7X.V2 VQ.WQ.7V.8X.fl.$: 9V.Y5 9X.7q..R.[U 0X.-5.AC.:j aV.",
"/T.0M.cq.(T.ev.+o.+o.VW aX.bX.cX.dX.eX.s^.fX.dV.gX.hX.,,.pd iX.jX.;R.kX.lX.mX.nX.oX.pX.qX.rX.sX.tX.uX.@4 vX.wX.4K.xX.yX.zX.AX.BX.CX.DX.*2 EX.FX.GX.HX.IX.JX.KX.LX.MX.NX.OX.PX.QX.RX.SX.TX.UX.VX.WX.XX.YX.ZX.`X. Y..Y.+Y.WV.sh @Y.#Y.$Y.%Y.&Y.*Y.=Y.-Y.;Y.>Y.,Y.'Y.)Y.!Y.~Y.{Y.]Y.^Y./Y.(Y._Y.:Y.<Y.[Y.}Y.|Y.1Y.2Y.3Y.4Y.5Y.6Y.7Y.8Y.9Y.0Y.aY.bY.cY.dY.eY.fY.gY.hY.iY.jY.kY.lY.mY.nY.oY.pY.qY.rY.'[./3.sY.tY.uY.vY.m<.wY.xY.8|.yY. 5 zY.AY.BY.CY.DY.EY.kR.FY.mc GY.HY.IY.JY.KY.LY.MY.NY.OY.PY.QY.RY.SY.TY.UY.VY.WY.XY.YY.ZY.`Y.VG  Z..Z.+Z.@Z.#Z.$Z.%Z.&Z.*Z.=Z.-Z.;Z.>Z.{R.,Z.'Z.)Z.!Z.]n.v$.]c.~Z.{Z.]Z.^Z./Z.(Z._Z.*X.:Z.<Z.[Z.}Z.|Z.1Z.2Z.3Z.4Z.5Z.6Z.7Z.8Z.9Z.0Z.aZ.bZ.cZ.dZ.jU.eZ.fZ.gZ.hZ.iZ.jZ.X5 x@.@7 Wl G*.S5 kZ.lZ.75 i!.mZ.nZ.oZ.pZ.qZ.rZ.sZ.tZ.uZ.vZ.wZ.xZ.yZ.zZ.AZ.YQ.BZ.CZ.DZ.Y5 EZ.7q.FZ.VW GZ.HZ.IZ.%e ub ",
"/T.yH.ik @R.D*.ev.VW VW JZ.KZ.LZ.dX.MZ.NZ.fX.OZ.PZ.QZ.RZ.qd SZ.KO.TZ.UZ.VZ.WZ.XZ.YZ.ZZ.`Z. `.e2..`.uX.$4 +`.@`.#`.yX.Gq.$`.%`.&`.*`.=`.-`.;`.>`.,`.'`.)`.!`.~`.k[.kq.{`.]`.^`./`.(`._`.:`.<`.[`.}`.|`.1`.2`.3`.4`.5`.6`.7`.8`.9`.0`.a`..9.b`.c`.d`.e`.f`.g`.h`.i`.j`.k`.l`.m`.n`.o`.p`.q`.r`.s`.t`.u`.v`.w`.x`.y`.z`.A`.B`.C`.D`.E`.F`.G`.H`.I`.J`.K`.L`.M`.N`.O`.P`.Q`.R`.S`.T`.U`.V`.W`.X`.Y`.Z`.``.  +. ++ +@ +# +$ +FG ~J % +& +Op * += +- +; +> +, +' +) +! +~ +{ +] +^ +/ +( +_ +: +< +[ +} +| +1 +2 +3 +4 +5 +6 +7 +8 +9 +0 +a +b +HS.g!.c +d +R<.e +T3 O;.f +ms )o.4N CA g +h +i +j +k +l +m +n +ns {Z.o +JL UH.nV.p +q +&4 *4 r +s ++7 #7 Y5 6Z.t +u +v +w +x +y +z +A +B +Xe C +D +E +nR.F +wC.G +Z5 H +I +S5 J +lZ.75 i!.@3 K +L +M +N +O +P +Q +R +vZ.wZ.S +Ws.PZ.T +<d U +V +9V.Y5 W +.R.BO.+o.GZ.HZ.X +%e ub ",
"Y +yH.|A.Z +DC.mZ VW +o.D*.c, LZ.dX.` + .+HC.OZ.PZ.O;.,,...+2T.hV.+.+@.+#.+$.+%.+&.+*.+=.+-.+#].;.+uX.$4 >.+@`.(R.,.+'.+).+2[ !.+7z.~.+{.+].+^.+/.+(.+_.+:.+<.+[.+}.+|.+1.+2.+3.+4.+5.+6.+7.+8.+9.+0.+a.+b.+c.+fh d.+e.+f.+g.+h.+i.+j.+k.+l.+m.+n.+o.+p.+q.+r.+s.+t.+u.+v.+w.+x.+y.+z.+A.+B.+C.+D.+E.+F.+G.+H.+I.+J.+K.+L.+M.+N.+O.+P.+Q.+R.+S.+T.+U.+V.+W.+X.+Y.+Z.+`.+ ++.+++++@++#++$++%++&++*++=++-++;++>++ig.Yg.,++'++_U )++!++~++,6 {++]++^++/++(++_++:++<++[++}++|++1++2++3++4++5++6++7++8++9++0++a++b++c++d++e++f++g++h++NP i++j++k++(7 l++]5 ]5 m++T3 n++[7 qM.'s.o++p++q++r++s++t++u++v++w++x++y++z++A++ g.I3 B++4Z.C++D++E++F++W! G++`6  7 wx.H++I++U!.J++K+++6 L++#6 %6 +a M++N++O++P++Q++x,.o7.V5 R++WJ '7 S++T++U++>Z.V++W++X++M +Y++Z++`++ @+.@++@+@@+xZ.#@+PZ.T +$@+%@+&@+Eg.Y5 *@+7q.=@+D*.-@+HZ.;@+%e >@+",
"DO.,@+'@+)@++o.ev.ev.D*.ev.!@+~@+m5 {@+NZ.HC.]@+^@+/@+(@+1T.2T._@+:@+<@+[@+}@+|@+1@+2@+3@+rX.A@..`.nT $4 >.+4@+(R.yX.'.+5@+6@+%T.7@+8@+9@+0@+a@+b@+c@+K;.d@+'f e@+wc f@+g@+h@+i@+j@+k@+l@+m@+n@+o@+p@+q@+r@+s@+74 t@+AT.u@+v@+w@+x@+y@+z@+A@+B@+C@+D@+E@+F@+G@+H@+I@+J@+K@+L@+M@+N@+O@+P@+Q@+R@+S@+T@+U@+V@+W@+X@+Y@+Z@+`@+ #+.#++#+@#+##+$#+%#+&#+*#+=#+-#+;#+>#+,#+'#+)#+!#+~#+{#+]#+r/.^#+/#+(#+_#+:#+O%.<#+SC.[#+}#+|#+1#+2#+3#+4#+5#+6#+1{ 7#+8#+9#+0#+a#+b#+c#+58 d#+e#+f#+g#+h#+i#+j#+k#+l#+m#+n#+o#+=++p#+q#+,P.r#+s#+p++t#+u#+v#+/J J5 %X.)5 w#+c5 Q3 a5 j=.+E x#+y#+z#+A#+B#+C#+D#+E#+F#+G#+H#+I#+J#+K#+L#+#E L3 ;5 5Z.bc gk +6 V! M#+N#+L++=5 O#+P#+Q#+R#+38 M#+S#+N#+N#+iU.jR.T#+U#+V#+D++W#++7 $m X#+^V.9c Y#+Z#+JL ~/.V++W++`#+uu  $+Z++.$++$+@$+#$+@@+xZ.$$+PZ.%$+YQ.BZ.&$+Eg..t.9X.7q.7q.D*.-@+*$+;@+%e =$+",
"-$+,@+'@+@R.DC.ev.ev.+o.D*.!@+LZ.m5 MZ.;$+fX.]@+>$+O3 |T...+gV.hV.,$+'$+)$+!$+~$+{$+2@+3@+rX.A@..`.]$+$4 >.+@`.fF.^$+/$+($+_$+:$+<$+[$+}$+|$+1$+2$+3$+4$+5$+6$+7$+8$+9$+0$+a$+.W.b$+c$+d$+e$+f$+g$+h$+i$+j$+k$+t@+WV.l$+m$+n$+o$+p$+q$+r$+s$+t$+u$+v$+w$+x$+y$+z$+A$+B$+C$+D$+E$+F$+G$+H$+I$+J$+K$+L$+M$+N$+O$+P$+Q$+R$+S$+T$+U$+V$+W$+X$+Y$+Z$+`$+ %+5o..%+=3.+%+@%+#%+y=.}y.t#+$%+ig.x` %%+[Q &%+*%+!/.,u m_.=%+-%+;%+>%+,%+'%+)%+!%+~%+{%+]%+^%+08 /%+(%+_%+:%+<%+Dh d#+[%+}%+|%+1%+2%+3%+4%+5%+6%+7%+8%+9%+0%+a%+b%+89.c%+d%+e%+f%+g%+h%+_5 '5 WC.A3 i%+1'.i=.j%+k%+l%+m%+n%+o%+p%+q%+r%+s%+t%+u%+v%+w%+x%+y%+z%+]8.JK M3 IS.*5  6 $7 Y5 L++A%+%6  6 B%+C%+D%+Bh ;~ X! %6 Z0 E%+F%+G%+') N1 H%+G5 I%+X5 J%+K%+L%+M%+N%+O%+JL ~/.P%+Q%+R%+S%+T%+U%+.$+V%+@$+#$+W%+X%+Y%+PZ.Z%+`%+ZQ. &+.&+.t.9X.7q.FZ.mZ +&+Lg.;@+%e =$+",
"-$+'U @&+Z +:F.ev.D*.VW ev.!K._T.ll.#&+$&+%&+&&+*&+=&+2c t1 -&+;&+>&+,&+'&+)&+!&+~&+{&+]&+^&+/&+(&+_&+$4 :&+<&+[&+}&+|&+($+1&++5 +7 2&+cz `~ 3&+4&+5&+6&+Op ]P.7&+8&+9&+0&+a&+b&+c&+d&+e&+f&+Gj.g&+h&+i&+oY j&+$f k&+l&+m&+n&+o&+p&+q&+r&+s&+t&+u&+v&+w&+x&+y&+z&+A&+B&+C&+D&+E&+F&+G&+H&+I&+J&+K&+L&+M&+N&+O&+P&+Q&+R&+S&+T&+U&+V&+W&+X&+5/.Y&+89.Z&+`&+RS RS  *+.*+Zg.=E Y%.f=.+*+U%.V;.@*+#*+Cl.$*+}e.%*+&*+**+=*+-*+;*+>*+,*+'*+)*+!*+~*+{*+]*+^*+/*+(*+_*+:*+<*+78 [*+}*+|*+1*+2*+3*+4*+5*+6*+7*+8*+9*+0*+a*+b*+c*+d*+e*+f*+g*+h*+i*+j*+_5 37 UH.H5 k*+i!.&Q l*+m*+n*+o*+p*+q*+r*+s*+t*+u*+v*+w*+x*+y*+z*+A*+B*+C*+D*+<j.H5 -5 S5 E*+E%+F*+F*+V! ;4 `3 f/.G*+V! S#+L++F*+F*+L++L++Q++H*+I*+o7.MP.$X.3Z.J*+K*+L*+P5 M*+N*+O*+i!.P*+Q*+}V.R*+S*+T*+U*+V*+W*+X*+Y*+Z*+uv.pY `*+ =+.=++=+@=+#=+$=+_A.%=++o.+&+*$+:A.%e =$+",
"-$+'U &=+*=+:F.D*.D*.mZ ==+-=+;=+ll.#&+fX.%&+>=+>$+,=+'=+!c )=+!=+>&+~=+{=+]=+^=+/=+(=+]&+_=+/&+(&+:=+$4 )P.<=+[&+}&+[=+}=+|=+1=+|8 x,.}X.-6 2=+3=+4=+5=+6=+]P.7=+8=+9=+0=+a=+b=+c=+d=+e=+f=+g=+h=+i=+i=+j=+k=+.f l=+m=+n=+o=+p=+q=+r=+d_.s=+t=+u=+v=+w=+x=+y=+z=+A=+B=+C=+D=+E=+F=+G=+H=+I=+J=+K=+7p.L=+M=+N=+O=+P=+Q=+R=+S=+T=+U=+V=+W=+<Y X=+-E #E T%.Y=+Y=+Ui.@E s'.V;.CG Y;.j=.k!.1'.Z=+XU.~o.55 `=+ -+.-++-+@-+#-+$-+%-+D~ &-+*-+=-+--+|u.@f ;-+>-+,-+'-+tN.)-+!-+~-+{-+]-+^-+/-+(-+_-+:-+<-+[-+}-+|-+1-+2-+3-+4-+5-+6-+7-+8-+9-+0-+a-+T3 c5 PM.HS.b-+Jk.c-+d-+e-+f-+g-+h-+i-+j-+k-+l-+m-+n-+o-+p-+q-+r-+s-+t-+u-+v-+w-+x-+AF.-7 y-+z-+zW.zW.zW.zW.JS.A-+U5 zW.L++L++F*+F*+F*+9/ Y6 B-+@7 C-+D-+N5 E-+F-+*@.F- WJ.M*+G-+Bl.i!.H-+I-+J-+K-+L-+M-+N-+6F.O-+HH.P-+JQ.N2 Q-+R-+S-+T-++=+@=+#=+$=+BO.U-++o.82.V-+;@+%e =$+",
"-$+W-+&=+X-+:F.D*.+o.D*.GO.Y-+_T.ll.#&+Z-+HC.&&+^@+`-+ ;+;c .;++;+@;+Td #;+qr $;+%;+(=+&;+_=+*;+UC.=;+$4 :&+<=+-;+[F.[=+;;+>;+1=+;4 Z5 M%+W! ,;+)-+dc 9/ ';+w{ );+!;+~;+{;+];+^;+/;+(;+_;+:;+<;+[;+<*+~++};+|;+1;+2;+3;+4;+5;+6;+7;+8;+9;+0;+a;+b;+c;+d;+cS.e;+f;+g;+h;+i;+j;+k;+l;+m;+n;+dN o;+p;+q;+r;+s;+t;+u;+v;+w;+x;+y;+z;+A;+B;+:#+$E di.X;.C;+^Z.Y;.OL <J ,u ,u H3 G{.hz }e.5A.X2._7 37 D;+E;+F;+G;+H;+I;+J;+K;+L;+M;+N;+O;+P;+Q;+R;+S;+wh T;+DJ.Hp U;+V;+W;+X;+Y;+Z;+`;+ >+.>++>+@>+#>+$>+%>+&>+*>+=>+->+;>+>>+,>+'>+)>+!>+~>+le.<J /@+P3 {>+B3 ]>+^>+/>+(>+_>+:>+<>+[>+}>+|>+1>+2>+3>+4>+5>+6>+7>+8>+9>+0>+a>+b>+c>+d>+qT.'5 e>+KS.`5 +7 |8 zW.+7 V0 f>+zW.F*+Z0 F*+F*+F*+F*+`U.V~ g>+h>+@h.H1 i>+j>+k>+l>+WJ.m>+n>+Cl.zG o>+p>+W~.K-+q>+r>+s>+t>+u>+v>+w>+!@.x>+y>+R-+z>+A>+B>+C>+.t.D>+.R.BO.DC.82.Lg.;@+%e {, ",
"E>+ P F>+G>+:F.DC.DC.D*.GO.H>+_T.ll.I>+J>+K>+L>+^@+QZ.M>+;3 N>+O>+P>+Td Q>+qr R>+%;+(=+S>+_=+T>+U>+=;+$4 V>+W>+X>+|&+}&+;;+Y>+<$+V! |8 Z>+`>+|8  ,+.,+W! K1 +,+@,+#,+$,+%,+&,+*,+=,+-,+;,+;6 %a ;6 >,+X~ P1 ,,+',+ph ),+!,+~,+{,+],+^,+/,+(,+_,+:,+<,+[,+},+|,+1,+2,+3,+4,+5,+6,+7,+@'.8,+9,+0,+a,+b,+c,+d,+e,+f,+g,+h,+i,+j,+k,+$ +Be.+T hz Bl.qT.lO.Cl.1'.|'.zG j=.OL 3'.l,+FV.O*+S3 m,+:&+n,+o,+ny.p,+q,+r,+s,+t,+u,+v,+w,+x,+y,+z,+A,+B,+C,+2} D,+E,+F,+G,+H,+I,+8z :$+J,+K,+L,+M,+N,+O,+P,+Q,+R,+S,+T,+U,+V,+W,+X,+Y,+Z,+`,+ '+.'+'u NL JL +'+@'+i%+#'+$'+%'+&'+*'+='+-'+;'+>'+,'+''+)'+!'+~'+{'+]'+^'+/'+('+_'+:'+<'+['+}'+|'+25 ~5 1'+P5 2'+ 6 W! zW.3'+F++|8 |8 zW.F*+F*+F*+F*+4'+5'+#A.*{. u M%+6'+7'+CE 8'+P5 9'+n>+Cl.k!.0'+a'+b'+K-+c'+d'+e'+f'+g'+h'+i'+j'+k'+l'+m'+z>+n'+o'+p'+.t.q'+_A.%=+D*.r'+*$+s'+t'+ub ",
"E>+ P @&+u'+:F.:F.ev.ev.GO.Y-+cM.ll.I>+v'+w'+]@+^@+QZ.M>+x'+y'+z'+@;+A'+B'+C'+$;+D'+(=+E'+F'+T>+UC.=;+@4 G'+H'+I'+<e.w'+J'+K'+{X.V! .,+9c #7 9/ S#+#6 L'+,4 .6 M'+N'+ec B{ O'+P'+yW.Q'+R'+S'+T'+U'+V'+W'+X'+`e K++XV.Y'+Z'+`'+ )+.)++)+@)+#)+$)+%)+&)+*)+=)+-)+;)+>)+,)+')+))+!)+~)+{)+])+^)+/)+()+_)+:)+<)+[)+})+|)+1)+2)+3)+*].*:.`d :v.}5 K3 WC.U3 GV.1'.AG i=.DG |l..h.4)+ >..g.i%+|5 5)+6)+7)+8)+9)+0)+a)+b)+c)+d)+e)+f)+g)+h)+i)+j)+k)+l)+m)+n)+o)+p)+q)+r)+s)+-0 t)+TM.u)+v)+w)+x)+y)+z)+A)+B)+C)+D)+E)+F)+G)+H)+I)+J)+K)+L)+D!.M)+/Y 75 1'.I3 C3 #*+~Z.N)+O)+P)+Q)+R)+S)+T)+U)+V)+W)+X)+Y)+Z)+`)+ !+.!++!+@!+#!+$!+%!+&!+*!+qT.c5 AF.=!+P5 32.*f F*+S#+z +|8 ;4 ;4 L++F*+F*+F*+-!+D_ S5 ;!+>!+,!+'!+pY )!+.&+P5 9'+n>+Cl.k!.!!+~!+b'+{!+]!+^!+/!+(!+_!+:!+w>+<!+uv.l'+%$+ =+[!++=+p'+}!+|!+1!+2!++o.r'+Lg.s'+t'+3!+",
"-$+n,.jp.4!+DC.5!+[;.D*.DC.6!+jZ.7!+I>+v'+w'+]@+^@+QZ.8!+;3 9!+0!+>&+a!+#;+b!+c!+d!+e!+f!+g!+[#+h!+i!+p +j!+k!+l!+m!+n!+o!+p!+R5 |8 V5 q!+0M  ,+N#+r!+L'+o7.2S.2S.X! s!+t!+u!+v!+w!+x!+y!+z!+A!+B!+C!+D!+D!+E!+F!+G!+H!+I!+J!+K!+L!+M!+N!+O!+P!+Q!+R!+S!+T!+U!+V!+W!+X!+Yz $Q Y!+w).Z!+`!+ ~+.~++~+@~+#~+$~+%~+&~+*~+=~+9j.X%.95 B3 /@+X2._5 -~+P3 Q3 ^D.yG |K.fr 4)+8B ;~+>~+,~+'~+)~+!~+~~+{~+]~+^~+/~+(~+_~+:~+<~+[~+}~+|~+1~+2~+3~+4~+5~+6~+7~+8~+9~+0~+a~+b~+c~+'7 d~+:$+e~+f~+g~+h~+i~+j~+k~+l~+m~+n~+o~+p~+q~+r~+s~+t~+u~+v~+w~+x~+y~+z~+A~+B~+C~+D~+tI E~+F~+G~+H~+I~+J~+K~+L~+M~+N~+O~+P~+Q~+R~+S~+T~+U~+V~+W~+X~+Y~+Z~+`~+ {+GL 15 (5 1'+y-+5Z. ,+.,+@7 gk X! [8 .{+</ N#+ ,+F++@6 W! -7 +{+@{+#{+${+(U N= M%+%{+&{+2'.k_.*{+KQ.={+-{+;{+>{+,{+'{+){+!{+@@+~{+{{+>$+]{+yO.^{+/{+({+Y5 _{+FZ.1!+D*.FZ.:{+<{+$5.Bo ",
"-$+n,.jp.*=+:F.ev.:F.D*.[{+}{+cM.|{+#&+J>+[=+1{+^@+QZ.2{+{c y'+3T.3{+4{+5{+C'+6{+d!+e!+7{+g!+[#+h!+i!+!P.8{+9{+p| m!+0{+a{+b{+R5 ;4 Q5 c{+d{+e{+f{+r!+g{+h{+i{+jU.*6 u!+j{+k{+l{+m{+n{+o{+p{+q{+r{+1P.s{+t{+u{+v{+w{+x{+y{+z{+A{+B{+C{+D{+E{+F{+G{+H{+I{+J{+K{+L{+M{+N{+O{+%E P{+Q{+R{+S{+T{+[O.U{+V{+W{+Ue X{+Y{+Z{+75 `{+:v.qT.d5 HS./D. ]+WC.GV.!o..]++]+@]+#]+%+.$]+%]+&]+*]+=]+-]+;]+>]+,]+']+)]+!]+~]+{]+]]+^]+/]+(]+_]+:]+<]+3I.[]+}]+|]+1]+2]+3]+4]+5]+6]+7]+O5 N5 !7 ,/.8]+9]+0]+a]+b]+c]+d]+e]+f]+g]+h]+i]+j]+k]+l]+T;.m]+n]+o]+p]+q]+r]+s]+t]+u]+v]+w]+x]+y]+z]+A]+B]+C]+D]+E]+F]+G]+H]+I]+J]+K]+L]+M]+N]+O]+P]+Q]+R]+S]+T]+U]+C;+L3 ~5 V]+;5 W]+(P.W]+JS.X]+Y]+H1 @7 @7 Z]+`]+@6 V! V0  ^+.^+#{++^+@^+#^+M%+%{+&{+2'.k_.$^+=T.%^+&H ;{+&^+*^+=^+-^+L-.W%+;^+Y%+>$+>^+,^+'^+/{+({+.t.W +_A..R.ev.)^+!^+~^+$5.Bo ",
"{^+W-+]^+r'+D*.DC.ev.+o.^^+/^+_T.<A.#&+v'+w'+(^+_^+QZ. ;+x'+9!++;+:^+<^+[^+C'+6{+d!+e!+}^+g!+[#+|^+1^+nV.j!+2^+3^+4^+5^+6^+7^+&7 zW.`5 c{+8^+<8 D{ iU.#~ vN.9^+,n 0^+a^+b^+c^+d^+e^+f^+g^+h^+i^+j^+k^+l^+m^+n^+I!+o^+p^+q^+r^+s^+t^+u^+v^+w^+x^+y^+z^+A^+B^+C^+D^+E^+F^+&].G^+H^+I^+J^+K^+L^+M^+N^+s +U~ O^+P^+Q^+R^+S^+T^+U^+V^+W^+25 M3 K3 L3 X^+_'.ci.O{.Y^+Z^+`^+ /+./++/+@/+#/+$/+%/+&/+*/+=/+-/+;/+>/+,/+'/+)/+!/+~/+{/+Ve ]/+aD.^/+//+(/+_/+:/+</+[/+}/+|/+S5 t)+N5 &4 ,7 1/+2/+3/+4/+5/+6/+7/+8/+9/+0/+a/+b/+c/+d/+e/+f/+g/+h/+i/+j/+k/+l/+m/+n/+o/+p/+q/+r/+s/+t/+u/+v/+w/+x/+y/+YU.>5 nV.S3 z/+A/+B/+C/+D/+E/+F/+G/+H/+I/+J/+K/+L/+Bl.^J 25 w#+nV.% +uc M/+N/+O/+P/+Q/+.5.R/+S/+zW.;4 T/+U/+V/+W/+uC.X/+Y/+Z/+%{+`/+2'.k_.$^+=T. (+.(++(+@(+#(+$(+%(+&(+@@+*(+yZ.>$+=(+-(+;(+>(+,(+Y5 '(+)(+FZ.[;..R.:{+!(+-0 ~(+",
"{(+W-+](+Z +D*.DC.ev.VW ^(+/(+;=+Kg.I>+v'+K>+]@+((+X2._(+>c :(+;&+<(+~=+[(+C'+}(+|(+e!+1(+2(+MX.3(+4(+nV.5(+6(+T[ m!+0{+7(+7^+8(+.6 W! }X.L%+`U.9(+iG.0(+b8 a(+b(+c(+d(+e(+f(+d^+E&.g(+h(+i(+j(+k(+l(+m(+n(+o(+p(+q(+r(+s(+t(+u(+v(+w(+x(+y(+z(+A(+B(+C(+D(+E(+F(+G(+|l.H(+I(+J(+K(+L(+M(+N(+lU._*+O(+P(+Q(+R(+S(+T(+U(+V(+W(+X(+Y(+Z(+S3 `(+~J _'.U;.Va. _+._++_+@_+#_+$_+%_+&_+*_+=_+-_+;_+>_+,_+'_+)_+!_+~_+{_+]_+^_+/_+O{ (_+U'+__+:_+<_+3&.[_+}_+|_+1_+2_+3_+O5 WJ.W]+=5 -f hZ 4_+5_+6_+7_+8_+9_+0_+a_+b_+c_+d_+e_+f_+g_+h_+i_+j_+k_+l_+m_+n_+o_+p_+q_+r_+s_+t_+u_+v_+w_+x_+y_+z_+lO.*4 &5 *f T5 (Z.^>.A_+B_+C_+D_+E_+F_+G_+H_+I_+J_+K_+L_+M_+:v.R3 N_+O_+P_+Q_+R_+S_+T_+U_+V_+W_+X_+Z6 |8 Pe Y_+Z_+`_+Ws. :+.:++:+%{+`/+2'.k_.@:+2e.#:+%H $:+%:+&:+*:+=:+L-.wZ.-:+yZ._^+=(+;:+>:+,:+p'+o7.':+BO.FZ.ev.):+:{+!:+-0  m ",
"~:+'U {:+4!+:F.+o.D*.+o.DC./(+;=+ll.]:+v'+w'+^:+>$+O;./:+(:+_:+::+<(+<:+[:+C'+}(+|(+}:+|:+1:+MX.2:+3:+Y3 4:+5:+6:+HC.n!+7:+8:+<6 9:++6 $7 0:+a:+b:+c:+d:+e:+f:+g:+h:+i:+j:+k:+l:+m:+n:+o:+p:+q:+r:+s:+t:+u:+v:+w:+x:+y:+z:+A:+B:+C:+D:+E:+F:+G:+H:+I:+J:+K:+m;+R` L:+NN M:+N:+O:+P:+Q:+`` R:+zh S:+T:+U:+V:+W:+yh X:+Y:+Z:+`:+ <+.<++<+x>+hX.*:.g'.@<+#<+$<+%<+&<+*<+=<+Up -<+;<+><+,<+'<+)<+!<+~<+{<+]<+^<+/<+iR.(<+hc :*+_<+jc :<+<<+[<+}<+|<+1<+2<+;%+3<+4<+5<+-5 *5  6 WJ.KS.6<+.4  u 7<+8<+9<+0<+a<+b<+c<+d<+e<+f<+g<+h<+i<+j<+k<+l<+m<+n<+o<+p<+q<+r<+s<+t<+u<+v<+w<+x<+y<+z<+A<+$X.o7. V.C++gH.W5 uc B<+C<+D<+E<+F<+G<+H<+I<+J<+K<+L<+M<+N<+O<+P<+Q<+R<+S<+T<+U<+V<+W<+X<+Y<+Z<+`<+`U.+7 Gh  [+.[++[+'F.@[+#[+$[+%[+&{+2'.+]+&[+*[+=[+-[+;[+>[+,[+'[+)[+![+~[+;^+{[+][+^[+,^+/[+([+({+o7.':+FZ.FZ.ev.):+:{+_[+-0  m ",
":[+'U <[+[[+DC.ev.ev.DC.GO.}[+|[+hZ #&+fX.HC.&&+[T./@+1[+>c 2[+3[+4[+5[+6[+/P 6{+7[+8[+9[+0[+[#+a[+b[+ 4 :&+<&+c[+d[+e[+f[+g[+h[+(P.=f i[+j[+k[+l[+m[+n[+o[+p[+q[+r[+s[+t[+u[+v[+w[+x[+y[+z[+A[+B[+C[+D[+E[+F[+G[+H[+I[+J[+K[+L[+M[+N[+O[+P[+Q[+R[+S[+T[+U[+V[+W[+X[+Y[+Z[+`[+|/+ }+.}++}+@}+#}+$}+%}+&}+*}+=}+-}+;}+>}+,}+'}+)}+!}+~}+{}+GL ]}+j[.^}+(>+/}+(}+_}+:}+<}+[}+x` }}+|}+1}+2}+3}+4}+5}+6}+7}+8}+9}+,,+V~ ^*+0}+a}+a(+b}+mh c}+d}+i_+e}+f}+g}+##.h}+i}+j}+3_+*f k}+H1 cZ.l}+m}+n}+o}+p}+q}+r}+s}+t}+u}+v}+w}+x}+y}+z}+A}+B}+C}+D}+E}+F}+G}+H}+I}+J}+K}+L}+M}+N}+O}+P}+Q}+R}+S}+T}+U}+:j X5 +7 wx.~o.V}+W}+X}+Y}+Z}+`}+ |+.|++|+@|+#|+$|+%|+&|+*|+=|+-|+;|+>|+,|+'|+)|+!|+~|+{|+Z5 2'+]|+^|+/|+(|+_|+:|+<|+~n [|+}|+1'.IK ||+S(.1|+2|+3|+4|+5|+6|+7|+8|+9|+0|+a|+eV.^[+b|+/[+c|+,(+.t.'(+U-+d|+ev.):+e|+f|+HE Bo ",
":[+'U <[+4!+ev.:F.:F.DC.^(+-=+cM.hZ #&+g|+m!+>=+[T./@+h|+'c i|+j|+k|+l|+{=+m|+n|+o|+p|+q|+r|+MX.s|+t|+f8 :&+<=+u|+v|+w|+x|+y|+z|+$5 +J.vQ.A|+B|+C|+D|+E|+F|+G|+H|+I|+J|+K|+L|+M|+N|+O|+P|+Q|+R|+S|+T|+U|+V|+W|+X|+Y|+Z|+`|+ 1+.1++1+@1+#1+$1+%1+&1+*1+=1+.*+|l.+} -1+;1+>1+,1+MV '1+[<+)1+!1+~1+{1+]1+^1+/1+(1+| ._1+:1+vn.<1+[1+}1+|1+11+21+31+41+51+61+71+81+91+01+a1+FA.b1+c1+d1+e1+f1+g1+h1+i1+j1+k1+l1+Z~ m1+n1+^*+o1+p1+q1+r1+s1+t1+u1+v1+w1+x1+y1+z1+A1+B1+.4 +:+=7 C1+-f Eh #7 %4 D1+E1+F1+G1+H1+I1+J1+K1+L1+M1+N1+O1+P1+Q1+R1+S1+T1+U1+V1+W1+X1+Y1+Z1+`1+ 2+.2++2+@2+#2+$2+%2+&2+!7 *5 :j *2+F++5Z.=2+-2+;2+>2+,2+'2+)2+!2+~2+{2+]2+^2+/2+(2+_2+:2+<2+ht [2+}2+|2+12+22+32+42+=!+V5 <O.${+0{+52+(|+62+72+<|+~n 82+}|+1'.IK 92+qM 02+2|+a2+b2+c2+d2+7|+8|+e2+f2+g2+h2+i2+b|+/[+j2+({+Z5 '(+FZ.%=+DC.k2+l2+m2+HE Bo ",
":[+n,.](+4!+ev.DC.DC.ev.^(+n2+|[+hZ #&+v'+K>+j ._^+hX.o2+>c p2+q2+r2+s2+t2+u2+v2+w2+x2+y2+z2+Lw A2+B2+@4 vX.W>+C2+v|+k| D2+E2+F2+G2+H2+I2+J2+| .K2+L2+M2+N2+O2+P2+Q2+R2+S2+T2+U2+V2+W2+X2+Y2+Z2+`2+ 3+.3++3+@3+#3+$3+%3+&3+*3+=3+-3+;3+>3+,3+'3+)3+!3+yF.Wv.~3+{3+]3+^3+/3+(3+_3+:3+<3+[3+}3+|3+13+23+33+43+53+63+73+83+93+03+a3+b3+c3+d3+e3+f3+g3+h3+i3+j3+k3+l3+c=.qw =Q m3+n3+o3+p3+q3+r3+s3+t3+u3+v3+`e w3++,+x3+y3+z3+A3+B3+C3+D3+E3+F3+G3+ V.ac H3+I3+J3+K3+K5 L3+O;.M3+>5 gk ;4 .,+=4 N3+O3+P3+Q3+R3+S3+sh T3+U3+V3+W3+X3+Y3+Z3+`3+ 4+.4++4+@4+#4+$4+%4+&4+*4+=4+-4+;4+>4+,4+'4+)4+!4+~4+8j !n I1 e{+E*+{4+]4+^4+/4+(4+_4+:4+<4+[4+}4+|4+14+24+34+44+54+64+74+84+94+04+a4+b4+c4+d4+}X.U5 e4+f4+g4+h4+i4+j4+k4+M5 l4+m4+1'.IK n4+ %.o4+p4+q4+r4+s4+6|+7|+8|+e2+t4+~T.u4+82+v4+;(+c|+(M.Y5 ~0 FZ.%=+DC.;5.w4+x4+nZ y4+",
":[+z4+]^+4!+DC.:F.ev.DC.A4+/^+_T.hZ #&+v'+K>+]{._^+hX.B4+!c C4+D4+E4+F4+6[+G4+!&+H4+I4+J4+z2+Lw K4+=;+;5 L4+H'+l| M4+t| N4+E2+O4+P4+Q4+R4+S4+T4+U4+V4+W4+X4+Y4+Z4+`4+ 5+.5++5+@5+#5+$5+%5+&5+*5+=5+-5+;5+>5+,5+'5+%E.)5+!5+~5+{5+]5+^5+/5+(5+_5+:5+<5+RL [5+}5+|5+15+25+S1 2~+35+45+55+65+75+85+95+05+a5+b5+c5+d5+e5+f5+g5+h5+i5+j5+k5+l5+m5+n5+o5+p5+q5+r5+zj.s5+)t.Q` t5+u5+wV.v5+w5+x5+y5+z5+A5+B5+$f |S.9:+18 C5+.,+D5+Z~ E5+F5+G5+H5+I5+J5+Z0 -f +4 K5+L5+1J JL M5++T N5+p +K1 Z6 W! nc  7 &5 ~4+O5+sc &C P5+Q5+R5+J^+S5+T5+U5+V5+W5+X5+Y5+Z5+`5+ 6+.6++6+@6+#6+$6+%6+&6+*6+=6+-6+;6+>6+,6+'6+)6+%7 5Z.C++-7 J5+!6+~6+{6+]6+^6+/6+(6+_6+:6+<6+[6+}6+|6+16+26+36+46+56+66+76+86+96+06+3_+>7 i4+f4+a6+v4+b6+j4+c6+M5 l4+d6+1'.IK n4+S(.e6+p4+f6+g6+h6+d2+i6+j6+k6+l6+m6+][+n6+62+o6+c|+(M.Y5 &0 2!+=@+D*.p6+q6+M= nZ 3j ",
"r6+n,.](+4!+s6+:F.[{+t6+[{+n2+_T.EC.u6+Z-+v6+j .w6+5A.x6+!c y6+(%.z6+A6+B6+Cr C6+D6+E6+F6+z2+^Z.G6+H6+#4 I6+J6+K6+L6+Eq.M6+N6+O6+P6+Q6+R6+S6+T6+U6+V6+W6+X6+Y6+Z6+`6+ 7+.7++7+@7+#7+$7+%7+&7+*7+=7+-7+;7+>7+,7+53+'7+)7+!7+~7+{7+]7+^7+/7+(7+_7+:7+<7+[7+}7+|7+17+27+37+47+57+67+77+87+97+07+a7+[} b7+c7+d7+e7+f7+g7+h7+i7+j7+k7+l7+m7+*].K!.n7+o7+p7+q7+r7+s7+t7+u7+_'.v7+w7+x7+y7+z7+A7+B7+C7+D7+E7+c#+F7+G7+!4 n1+`U.H7+I7+J7+K7+L7+J^+VM.M7+J1 l}+15 N7+O7+P7+EG Q7+=Q R7+T3 IY.S7+3'+T7+U7+N#+`5 P5 V7+e>+e7 W7+X7+L;.Y7+^4 Z7+`7+ 8+U:+.8++8+@8+#8+$8+%8+&8+*8+=8+-8+;8+>8+,8+'8+)8+!8+~8+{8+]8+[6 _O.*7 *5 wx.4r ^8+/8+(8+_8+:8+<8+[8+}8+|8+18+28+38+48+58+68+78+88+98+08+a8+&(.b8+#4 Fh c8+d8+e8+f8+d8+g8+h8+M5 n6+i8+ML <J j8+k8+l8+m8+f6+g6+n8+6|+o8+p8+'T.q8+r8+s8+t8+v4+u8+v8+(M.Y5 ~0 U-+w8+x8+):+y8+x4+nZ 3j ",
"z8+'U {:+*=+A8+A8+B8+B8+[{+C8+CH.EC.D8+Z-+}&+y3 [T.k++E8+F8+G8+H8+I8+J8+K8+L8+M8+1C N8+O8+P8+Q8+hA.lT R8+S8+T8+U8+V8+_|+W8+X8+Y8+Z8+`8+ 9+.9++9+@9+#9+$9+%9+&9+*9+=9+-9+;9+>9+,9+'9+)9+!9+~9+{9+]9+^9+/9+(9+_9+:9+<9+[9+}9+|9+19+29+39+49+59+t#+dd.*%+69+79+89+99+09+a9+b9+c9+d9+e9+f9+g9+h9+i9+`M.j9+k9+l9+m9+n9+o9+p9+q9+r9+_I G3 }J Yg.s9+t9+u9+v9+w9+x9+vS W[+95 D3 y9+z9+A9+B9+C9+D9+E9+F9+G9+(*+a8 gc H9+18 </  6 I9+AT.J9+K9+L9+ -+M9+N9+!6 O9+35 P9+Q9+R9+S9+=&+%].T9+U9+V9+W9+&6 gk zW.zW.zW.zW.zW.Z0 F++*2+8z U5 ~7 ~n ~n ;5 R8+X9+Y9+ M.Z9+`9+}}  0+.0++0+@0+#0+$0+%0+&0+*0+=0+-0+;0+>0+,0+'0+)0+!0+|/+T5 (F.<6 ~0+{0+]0+^0+/0+(0+_0+:0+<0+[0+}0+|0+10+20+30+40+50+60+70+80+90+00+d4+a0+2q. =+b0+d[+c0+d0+e0+f0+i8+Cl.i!.g0+nq.h0+Rc i0+)M j0+d2+k0+l0+m0+n0+g2+o0+p0+S-+q0+r0+({+Y5 q'+.R.=@+DC.s0+e|+x4+(F.3j ",
"z8+'U {:+r'+B8+A8+B8+B8+t0+}{+jZ.EC.D8+$&+v6+u0+v0+5A.N~.w0+G8+H8+x0+J8+K8+-t.y0+z0+A0+O8+B0+~C C0+lT R8+D0+T8+E0+F0+G0+H0+I0+J0+K0+L0+M0+N0+O0+P0+Q0+R0+S0+T0+U0+V0+W0+X0+Y0+Z0+`0+ a+.a++a+@a+#a+$a+%a+&a+*a+=a+-a+;a+>a+,a+'a+)a+!a+~a+{a+7N ]a+^a+/a+(a+_a+:a+<a+[a+}a+|a+1a+2a+3a+4a+5a+6a+7a+8a+9a+0a+aa+ba+ca+da+ea+fa+ga+H3 W%.ha+ia+ja+ka+la+c9.9#.$m.ma+>Z.)c.hc.na+oa+pa+qa+ra+sa+ta+ua+va+.,+wa+.a .a H%+2S.xa+cD.ya+za+Aa+Ba+Ca+Da+`U.:8 ^5 Ea+Fa+Ga+Ha+Al.9|.Ia+Ja+hQ.L3+IY..7 zW.zW.zW.zW.@6 @6 @6 `6 F++W! +6 +6 9/ 9/ gk `U.`U.o7.Pp Ka+T1 La+Ma+Na+Oa+Pa+Qa+Ra+Sa+Ta+Ua+Va+Wa+Xa+Ya+Za+`a+ b+.b++b+@b+Q5+6$+#b+$b+-,.%b+&b+*b+=b+-b+;b+>b+,b+'b+)b+!b+~b+{b+]b+^b+/b+(b+_b+:b+<b+[b+}b+|b+w|+1b+2b+e0+f0+i8+Cl.i!.3b+4b+5b+6b+7b+8b+9b+6|+0b+vZ.ab+bb+g2+o0+p0+0{+cb++=+db+.t.eb+1!+=@+ev.fb+gb+!(+(F.3j ",
"z8+qg aM.hb+ib+ib+B8+jb+kb+lb+_T.ll.I>+mb+nb+u0+ob+5A.pb+qb+Tx.6U rb+sb+tb+L8+ub+vb+I4+wb+xb+#'+3(+yb+,/.zb+Ab+Bb+Cb+Db+Eb+Fb+Gb+Hb+Ib+Jb+Kb+Lb+Mb+Nb+Ob+Pb+Qb+Rb+Sb+Tb+Ub+nh Vb+Wb+Xb+Yb+Zb+`b+ c+.c++c+@c+#c+$c+%c+&c+*c+=c+-c+;c+>c+,c+'c+)c+!c+~c+{c+ET.]c+^c+/c+(c+_c+:c+<c+[c+}c+|c+1c+2c+:G.3c+4c+5c+6c+7c+8c+9c+0c+ac+yG L{.$m.M%.bc+cc+dc+ec+fc+.&.gc+EG j=.I{.hc+ic+/`.jc+kc+lc+mc+nc+oc+`5  6 W! dc pc+qc+rc+sc+(} tc+uc+vc+wc+xc+~ +yc+;!+6Y zc+Ac+Bc+Cc+wC Dc+Ec+Fc+&2+Gc+Hc+J1 zW.zW.zW.zW.@6 @6 @6 9/ F*+N#+E%+E%+Ic+Ic+%6 %6 S#+.{+Jc+Kc+Lc+Mc+Nc+Oc+Pc+Qc+Rc+Sc+Tc+Uc+Vc+Wc+Xc+Yc+Zc+`c+ d+.d++d+Mt.@d+#d+$d+%d+&d+*d+=d+-d+rK.;d+>d+,d+'d+)d+!d+~d+{d+]d+O} ^d+/d+(d+_d+:d+<d+[d+}d+|d+1d+2d+3d+2b+e0+4d+m4+a5 ~/.V++5d+6d+7d+8d+)M 9d+0d+ad+bd+cd+bb+g2+,F.dd+S-+q0+B>+(M.$7 $=+)(+ed+ev.FZ.:{+fd+gd+;} ",
"z8+hd+aM.hb+A8+ib+jb+B8+id+lb+~K.ll.I>+%&+v6+t^.%R.k++jd+F8+kd+ld+Wb.md+nd+od+pd+vb+qd+rd+xb+#'+sd+td+$4 ud+IJ vd+wd+xd+yd+zd+Ad+Bd+Cd+9).Dd+Ed+Fd+Gd+Hd+Id+Jd+Kd+Ld+Md+]*+oc A3+Nd+Od+Pd+Qd+Rd+Sd+Td+Ud+Vd+Wd+Xd+Yd+Zd+`d+ e+.e++e+@e+#e+y` $e+%e+&e+*e+=e+hs -e+;e+>e+,e+'e+)e+!e+~e+}u.{e+]e+^e+/e+(e+_e+:e+<e+[e+}e+|e+bR.k!.fr 1e+2e+3e+4e+5e+6e+7e+8e+0#.9e+['.0e+ae+be+ce+de+ee+fe+ge+he+ie+F++*f W! je+ke+le+me+ne+oe+pe+qe+re+se+te+pb ue+ve+we+xe+ye+ze+Ae+Be+l,+Ce+De+Ee+Fe+Ge+He+Z6 zW.zW.zW.zW.zW.F*+9/ 9/ Z6 Z6 Z6 gk gk S#+S#+S#+E%+Ic+M#+Z0 |8 Ie+Je+Ke+cD.Le+Me+Ne+Oe+Pe+Qe+Re+Se+Te+Ue+Ve+We+Xe+Ye+Ze+`e+ f+.f++f+V1 @f+CX.#f+$f+%f+&f+*f+=f+-f+;f+>f+,f+'f+)f+!f+~f+{f+]f+2_+^f+/f+(f+_f+:f+<f+2b+>5 4d+m4+a5 k_.[f+}f+|f+1f+2f+)M 3f+6|+4f+5f+6f+7f+zZ.o0+8f+S-+[!+B>+(M. 6 q'+1!+%=+9f+k2+gb+!(+gd+;} ",
"z8+ P <[+hb+ib+B8+A8+A8+ib+}{+4A.Kg.0f+mb+}&+a<.ob+5A.af+bf+y6+ld+cf+UZ.df+ef+ff+gf+hf+wb+if+~C sd+-@.`3 jf+kf+lf+mf+nf+of+pf+qf+rf+sf+tf+uf+vf+wf+xf+yf+zf+Af+Bf+5{ G++18 Cf+`M.Df+Ef+Ff+Gf+Hf+If+Jf+Kf+Lf+Mf+Nf+Of+Pf+Qf+Rf+Sf+Tf+Uf+Vf+Wf+Xf+Yf+Zf+ J.`f+ g+.g++g+@g+#g+$g+%g+FT.Mp ]T &g+*g+=g+-g+;g+>g+,g+'g+)g+!g+/..~g+{g+]g+^g+/g+(g+_g+:g+<g+[g+}g+|g+1g+V[+2g+3g+4g+5g+6g+7g+8g+9g+0g+ag+4'+D{ jU.ek bg+cg+*6 dg+eg+fg+gg+hg+ig+jg+kg+92.lg+V0 xG mg+ng+og+pg+qg+rg+sg+tg+GV.ug+vg+wg+xg+ac dZ.4'+|8 zW.gk Y! X! @6 +6 X! V! F*+F*+F*+F*+F*+F*+gk Eh yg+zg+D_ VV.Ag+Bg+Cg+Dg+Eg+Fg+Gg+Hg+Ig+Jg+Kg+Lg+Mg+Ng+Og+Pg+Qg+Rg+Sg+Tg+Ug+Vg+Wg+Xg+Yg+Zg+`g+ h+.h++h+@h+#h+$h+%h+&h+*h+=h+-h+;h+CE >h+(f+,h+M4+'h+)h+M5 !h+m4+ML ,u $^+~h+{h+]h+^h+/h+(h+6|+_h+bd+:h+<h+a|+&K.[h+^|+}h+|h+db+o7.1h+=@+DC.U-+2h+e|+3h+(F.;} ",
"z8+'U 4h+u'+A8+5h+s6+A8+6h+lb+4A.<A.#&+%&+v6+>=+HO.V2.7h+8h+9h+0h+ah+bh+ch+dh+eh+fh+gh+rd+if+MX.hh+]{.)I.ih+jh+kh+lh+mh+-W.8L.nh+oh+ph+qh+rh+sh+th+uh+i(+vh+bZ.nc >4 Z0 { ++f wh+xh+yh+zh+Ah+Bh+Ch+Dh+Eh+Fh+Gh+Hh+Ih+Jh+Kh+Lh+Mh+Nh+c#.Oh+Ph+Qh+Rh+Sh+Th+Uh+}*+Vh+Wh+Xh+Yh+Zh+3~+oc+`h+ i+.i+7;++i+@i+#i+$i+%i+&i+*i+1y.E3 ^Z.T%.=i+-i+;i+>i+,i+'i+c%+)i+!i+~i+{i+]i+^i+/i+(i+_i+:i+<i+[i+0}+Y6 .7 ,;+</ +,+}i+|i+1i+wN.2i+3i+4i+5i+6i+7i+8i+9i+0i+(6 ai+ML bi+ci+di+ei+fi+Q%.gi+hi+ii+:V.ji+ki+)/.!-+R/+[8 zW.F*+9/ 'n M#+F*+9/ 'n F*+F*+F*+F*+F*+F*+F*+9/ F*+9/ yg+V5 <6 li+mi+ni+oi+pi+qi+ri+si+ti+ui+vi+wi+xi+yi+zi+Ai+Bi+Ci+Di+Ei+Fi+Gi+Hi+Ii+Ji+Ki+Li+Mi+Ni+Oi+Pi+Qi+Ri+Si+Ti+Ui+Vi+Wi+d8 Xi+Yi+g5 5@+w|+Zi+`i+d{+ j+.j+:J :'.+j+@j+o4+p4+#j+OQ.$j+%j+_h+&j+6f+*j+g2+&K.[h+=j+-j+;j+db+`U.>j+,j+'j+FZ.2h++&+)j+!j+~(+",
"z8+$%.4h+H +A8+ib+A8+A8+6h+~j+cM.<A.#&+mb+}&+t^.%R.5A.{j+]j+^j+/j+(j+_j+:j+<j+;t.4E [j+rd+}j+MX.sd+]{.)I.|j+1j+2j+3j+4j+5j+6j+7j+8j+9j+0j+aj+bj+cj+dj+ej+hc V~ X! E%+V! :*+fj+gj+hj+ij+jj+kj+lj+mj+nj+oj+pj+qj+rj+sj+tj+uj+vj+wj+:7+xS C#.xj+yj+ie+zj+Aj+Bj+Cj+Dj+Ej+Fj+Gj+bD.Hj+Ij+Jj+E!+4} Kj+Lj+Mj+Nj+Oj+Pj+Qj+Rj+]4+95 jt.Sj+Tj+Uj+Vj+Wj+Xj+Yj+k%+Zj+`j+ k+.k++k+`d @k+#k+$k+%k+.a+&k+je+.,+d~+rW.*k+=k+s!+-k+;k+>k+,k+'k+)k+!k+~k+{k+]k+^k+/k+(k+_k+:k+6'.<k+[k+}k+|k+1k+hd.2k+3k+4k+{J a|.5k+6k+V9+`U.@6 @6 F*+zW.F*+F*+9/ 'n F*+F*+F*+F*+F*+F*+F*+F*+F*+F*+V! |8 R5 Y=.7k+6$+8k+j)+9k+0k+ak+bk+ck+dk+ek+fk+gk+hk+ik+jk+kk+lk+mk+nk+ok+pk+qk+rk+sk+tk+uk+vk+wk+xk+yk+zk+Ak+Bk+Ck+uV.Dk+Ek+Fk+}d+Gk+Hk+w|+Ik+Jk+M5  j+.j+:J BG Kk+Lk+o4+Mk+^h+2V.9b+6|+Nk+bd+6f+Ok+g2+&K.Pk+=j+Qk+Rk+Sk+=f Tk+Uk+p^.Vk+Wk++&+Xk+!j+~(+",
":[+Yk+ o.hb+Zk+ib+B8+)(+ib+/^+4A.Kg.u6+%&+nb+y3 eM.`k+ l+.l++l+/j+@l+#l+6[+mv.$l+%l+&l+*l+=l+MX.hh+Mg.)I.-l+;l+>l+,l+'l+)l+!l+~l+{l+Cs.]l+^l+/l+(l+_l+m1+'n G++9/ E%+@6 :l+<l+[l+}l+|l+1l+2l+3l+4l+5l+6l+7l+8l+9l+0l+al+bl+cl+k,+dl+el+fl+gl+hl+il+jl+vf.kl+ll+ml+nl+ol+pl+ql+rl+jc kc sl+tl+ul+vl+wl+xl+yl+zl+Al+Bl+Cl+Dl+`g.El+%'+Fl+Gl+Hl+Il+Jl+he.Kl+Ll+Ml+Nl+w` @E a5 Ol+LS.Pl+Ql+pb *f <X.)| Rl+[6 9/ pc Sl+Tl+Ul+Vl+Wl+}c+Xl+Yl+Zl+`l++b+)++ m+.m++m+@m+#m+$m+%m+&m+*m+=m+-m+;m+>m+,m+l_.'m+)m+!m+K1 3'+F++`6 zW.F*+F*+9/ 'n F*+F*+F*+F*+F*+F*+F*+F*+F*+F*+F*+zW.e{+D++ac [6 ~m+6k+{m+]m+^m+/m+(m+_m+:m+<m+[m+}m+|m+1m+2m+3m+4m+5m+6m+7m+8m+9m+0m+am+bm+cm+cm+dm+em+fm+gm+hm+im+jm+km+lm+xC.mm+nm+rV.om+pm+qm+N5 rm+.j+1'.IK sm+@j+o4+Vv tm+um+9b+6|+0b+&j+vm+wm+g2+&K.xm+ym+Qk+zm+Am+`U.Bm+Cm+Dm+d|+2h++&+Em+!j+~(+",
":[+Yk+ o.hb+ib+ib+A8+)(+[{+lb+|[+Kg.u6+mb+v6+u0+%R.5A. l+Fm+Gm+/j+@l+#l+Hm+-t.Im+Jm+CW f!+=l+MX.Km+_j.)I.Lm+Mm+Nm+Om+Pm+Qm+Rm+Sm+Tm+Um+Vm+Wm+Xm+eZ.28 $a |S.B-+z +N#+.a eB.Ym+Zm+`m+ n+.n++n+@n+#n+$n+%n+&n+*n+=n+-n+;n+>n+,n+'n+/&+)n+!n+~n+{n+Mp ]n+^n+/n+(n+_n+:n+<n+[n+WS.88 }n+kc T5+|n+1n+2n+3n+4n+5n+6n+7n+]Z.8n+9n+Va.# +SE 0n+an+bn+cn+aD dn+en+fn+gn+hn+in+C!.|'.Q3 K5 hQ.X]+^P./P.~@+jn+kn+d!.o7.ln+<%+mn+nn+<;+on+pn+qn+rn+sn+tn+xc un+vn+wn+xn+yn+9#.zn+An+Bn+Cn+Dn+Ob.En+Fn+Gn+Hn+/J In+Jn+Kn+Ln+Mn+S7+zW.F*+F*+9/ 'n F*+F*+F*+F*+F*+F*+F*+F*+F*+F*+F*+F*+N#+Q++Nn+bc &4 SM.On+Pn+Qn+Rn+Sn+Tn+Un+Vn+Wn+Xn+Yn+Zn+`n+ o+.o++o+@o+#o+$o+%o+&o+*o+=o+-o+;o+>o+,o+'o+)o+!o+~o+{o+]o+^o+xC./o+(o+_o+rV.:o+<o+N5 rm+.j+1'.IK Kk+[o+o4+}o+qZ.|o+j0+d2+0b+&j+1o+Ok+g2+&K.2o+3o+Qn.zm+Am+`U.4o+5o+6o+d|+k2+7o+8o+!j+~(+",
":[+9o+<[+0o+ao+ao+bo+co+ed+do+eo+|{+u6+HC.fo+(^+[T.V2.go+ho+io+/j+jo+ko+lo+<j+mo+no+oo+po+qo+hz ro+0<.!P.so+to+uo+vo+wo+xo+yo+zo+Ao+Bo+Co+.b+>n *6 s +%a  a Do+wa++6 >,+Eo+Fo+Go+Ho+Io+Jo+Ko+Lo+Mo+No+Oo+Po+Qo+Ro+So+To+Uo+y0.Vo+Wo+Xo+Yo+Zo+`o+ p+.p++p+@p+#p+$p+%p+&p+]c+^%+Dh y{ *p+=p+~B.-p+;p+>p+,p+'p+)p+!p+~p+ h.{p+]p+^p+/p+(p+_p+:p+<p+[p+}p+oV |p+1p+2p+3p+4p+H3 Q3 !P.-5 %7 5p+@7 6p+7p+8p+b+.^V.9p+0p+ap+bp+cp+dp+ep+fp+gp+hp+ip+jp+kp+lp+*`.mp+np+@E 8#.op+pp+qp+rp+sp+tp+up+vp+wp+xp+^J @m+yp+zp+Ap+Bp+Y5 V! F*+4'+|S.X! Z0 Z0 L++L++L++9/ zW.zW.;4 zW.F*+L++M#+M#+iU.Z0 32.KS.rW.Cp+09+Dp+Ep+Fp+Gp+Hp+Ip+Jp+Kp+Lp+Mp+Np+Op+Pp+Qp+Rp+Sp+Tp+Up+Vp+Wp+Xp+Yp+Zp+`p+ q+.q++q+@q+#q+$q+){.%q+a0+&q+v|+*q+=q+e0+-q+m4+O*+F3 ;q+>q+,q+'q+tm+)q+!q+~q+{q+:!+|W ]q+^q+/q+(q+_q+&q+:q+db+o7.<q+[q+}q+=@+|q+r'+1q+nZ Bo ",
"2q+hd+<[+3q+4q+4q+4q+5o+5q+6q+7q+|{+u6+ym+fo+@y.[T.V2. l+]j++l+q2+r2+8q+9q+<j+0q+aq+bq+cq+dq+hz &m 0<.,5 so+eq+fq+gq+hq+mU.Vg+iq+jq+kq+ke+lq+);+J1 mq+=f G++'4 +6 +6 Da+Da+:*+nq+oq+pq+qq+rq+sq+tq+uq+vq+wq+xq+yq+zq+Aq+Bq+Cq+}K.Dq+Eq+Fq+{++Gq+Hq+Iq+Jq+Kq+Lq+Mq+Nq+<]+u!+Oq+.a #~ Pq+Lp Qq+Rq+Sq+Tq+Uq+Vq+Wq+Xq+Yq+Zq+`q+ r+.r++r+@r+#r+M%.$r+%r+&r+*r+=r+-r+;r+>r+,r+BG i%+Y3 *4 %7 Jc+`>+<X.'r+)r+!r+~r+{r+]r+^r+/r+(r+3I._r+:r+<r+[r+}r+|r+1r+.M.2r+3r+4r+5r+6r+7r+8r+9r+0r+ar+br+cr+dr+er+fr+gr+hr+/J R#.`J ir+jr+Q! kr+V5 Z5 F++zW.F*+@6 @6 @6 'n 'n M#+@6 F*+F*+F*+F*+F*+F*+F*+ 7 e{+Z]+%e lr+On+US.mr+nr+or+pr+qr+rr+sr+tr+ur+vr+wr+xr+yr+zr+Ar+Br+Cr+Dr+Er+Fr+Gr+Hr+Ir+Jr+Kr+Lr+Mr+<$+xC.Nr+Or+Pr+Qr+Rr+Sr+Tr+Ur+m4+O*+zG Vr+Wr+Xr+Yr+Zr+`r+ s+.s++s+:!+1o+@s+#s+o0+$s+%s+>l+j2+Am+o7.&s+*s++o.4q+=s+-s+1q+HE Bo ",
"2q+hd+ o.;s+>s+>s+4q+4q+,s+'s+eo+|{+)s+!s+nb+@y.[T.k++{j+~s+{s+ie ]s+^s+/s+mv.0q+(s+_s+:s+.3.MX.&m ]{.,5 so+1j+XC.<s+[s+lU.Oq+}s+|s+&f p{ 1s+X5 2s+Z5 W! lR.L1 +6 Oq+yW.tN.58 Pq+3s+4s+5s+6s+7s+8s+9s+0s+as+bs+cs+ds+es+7e+fs+gs+hs+_' Pn+`o+is+js+DK.ks+ls+ms+ns+os+jc ps+,;+@6 s!+qs+|++e} rs+ss+ts+us+vs+ws+xs+ys+zs+ZZ As+Bs+Cs+Ds+Es+Fs+ei.+h.:Y PP Gs+Hs+Is+Js+Ks+Dn.J{.{5 &4 %7 ';+ 7 '4 Ls+Ms+Ns+Os+=j.Ps+Qs+Rs+Ss+Ts+Us+Vs+Ws+Xs+Ys+Zs+`s+RJ. t+.t++t+@t+#t+$t+j]+%t+&t+*t+=t+-t+;t+>t+,t+'t+)t+!t+rv.({.~t+{t+]t+^t+/t+l++,7 f>+Y5 W! L1 @6 9/ 9/ B-+B-+M#+F*+F*+F*+F*+|S.B-+M#+gk Z6 (t+)n _t+ah :t+<t+[t+GT.}t+8`.DJ.|t+1t+}B.2t+3t+4t+5t+6t+6t+7t+lB.8t+2~+9t+0t+at+bt+ct+7$+*a ~X.vH.dt+et+ft+gt+Mm+ht+Tr+f0+m4+O*+H3 it+EW tZ.jt+kt+lt+ s+mt+nt+ot+cd+pt+qt+rt+st+tt+ut+vt+@=+.5.<q+wt+xt+Cm+yt+bM.zt+nZ Co ",
"At+qg ik Bt+>s+4q+4q+4q+Vk+Ct+eo+<A.I>+mb+v6+@y.eV.`k+Dt+~s+Et+Ft+jo+Gt+Ht+L8+It+Jt+Kt+:s+.3.hz Lt+b2.nV.C{.Mt++y.Nt+[$+5p+Ot+Pt+[8 )6 Z5 JS.9c W5 *f -6 Qt++a hc Rt+6#+St+[*+Tt+Ut+Vt+Wt+Xt+Yt+Zt+`t+ u+.u++u+@u+#u+$u+,E %u+&u+*u+=u+-u+=n ;u+>u+,u+'u+)u+!u+~u+{u+]u+^u+z +F*+s!+/u+(u+_u+:u+<u+[u+}u+|u+1u+2u+3u+4u+5u+6u+7u+8u+9u+~)+v5.G3 G{.+*+|J 0u+au+bu+cu+du+9N di. ]+$4 &4 eu+Y5 kU.fu+gu+hu+iu+`-+ju+lm+ku+lu+mu+ih nu+ou+pu+qu+ru+su+tu+uu+vu+wu+xu+yu+w;.zu+Au+Bu+Cu+Du+Eu+Fu+Gu+Hu+Iu+Ju+Ku+Lu+Mu+Nu+Ou+Pu+Qu+Ru+Su+Tu+Uu+k}+%4 '7 X5 S7+}8 zW.@6 @6 F*+F*+F*+9/ X! @6 @6 C{ F*+S#+f{+&6 ];.Vu+(i+Wu+Xu+L(+Yu+Zu+`u+ v+.v++v+@v+#v+$v+%v+Ij+VV.Q1 &v+&v+*v+=v+,{ -v+;v+>v+5p+%e ,v+'v+T-+Bg.om+)v+!v+B++f0+m4+O*+<J ~v+Wr+Xr+jt+Zr+{v+]v+^v+/v+ot+1o+(v+qt+_v+:v+<v+[v+vt+@=+o7.}v+|v+}q+2h+1v+gb+f|+-0 2v+",
"At+9o+ik Bt+>s+4q+4q+5o+3v+Ct+|[+<A.I>+!s+fo+dV.eV.`k+ l+~s+9h+4v+z6+Rn VZ.mv.5F.5v+6v+7v+<z hz Lt+b2.nV.8v+jh+9v+0v+av+K1 %6 *f bv+cv+!n dv+0c  6 a8 gc GY.ev+WV.fv+uh gv+hv+Z'+iv+jv+kv+lv+mv+nv+ov+pv+qv+rv+sv+tv+uv+{/.vv+wv+xv+yv+zv+Av+Bv+Cv+Dv+Ev+Fv+Gv+<++Hv+gc C5+@6 +6 |S.Iv+Jv+Kv+Lv+Mv+Nv+Ov+Pv+Qv+Rv+Sv+Tv+Uv+Vv+Wv+Xv+n=.v5.Yv+j!.k!.<'.Zv+s9+`v+ w+.w++w+BA $E J3 @w+p +#w+D++$w+%w+&w+*w+=w+-w+;w+>w+,w+'w+)w+!w+ZA.~w+{w+]w+^w+/w+(w+_w+:w+<w+[w+}w+|w+1w+2w+3w+4w+5w+6w+7w+8w+9w+0w+aw+bw+cw+dw+ew+fw+gw+~C Bl.hw+Ix.iw+jw+kw+lw+Bp+y-+mw+W_+Eh Z0 F*+F*+F*+F*+F*+;4 zW.gk 9/ vN.z +@6 9/ `5 nw+$5.ow+pw+qw+rw+sw+tw+uw+vw+ww+(_+xw+cZ.s +.5..5..t..t.I1 [8 .,+>v+7[ 1s+Fg.nZ yw+zw+T-+Aw+v|+Mm+ht+>5 f0+m4+O*+<J it+m*.Xr+Bw+Zr+Cw+Dw+~q+Ew+Fw+g1 ~{+*j./q+:v+Gw+Hw+Iw+/M.o7.}v+Jw+ev.4q+Kw+Lw+1q+-0 2v+",
"Mw+Nw+(e.;s+4q+Ow+Ow+5o+Pw+Qw+Rw+$5.Sw+/$+Tw+Uw+s8+z3 Vw+L*.Ww+D4+Xw+Gt+Yw+Zw+`w+ x+f'+.x+<z MX.+x+7M nV.so+@x+#x+$4 lr+ ,+@6 .6 y3+}!+$x+@0 .t.P(+>n %x+&x+kh *x+=x+-x+Rn+;x+>x+,x+'x+)x+!x+~x+{x+]x+^x+/x+(x+_x+:x+<x+[x+}x+|x+1x+Wb+2x+3x+W3+4x+5x+6x+7x+[n+Vl+-6 |S.X! 9/ 9/ X! C{ 68 8x+9x+0x+ax+bx+cx+dx+ex+fx+gx+hx+ix++&.4N {g+di.jx+i%+k*+OL !Z.aD kx+lx+mx+nx+ox+px+qx+rx+sx+t)+W]+@0 tx+ux+vx+wx+xx+>S.yx+zx+Ax+Bx+Cx+WP.Dx+Ex+Fx+Gx+Hx+Ix+Jx+Kx+Lx+Mx+Nx+Ox+Px+Qx+Rx+Sx+Tx+Ux+Vx+Wx+Xx+Yx+Zx+`x+ y+.y++y+@y+#y+$y+%y+&y+*y+=y+-y+;y+>y+,y+'y+)y+!y+HE 32..5.=f 'n iU.%6 N#+z +R/+R/+Eh 9/ zW.;4  ,+D{ jU.cv+ZB 34 ~y+{y+]y+^y+/y+t&+(y+C++0c #4 _y+r8+:y+^q+<y+[y+}y+Z>+@7 >4 L1 |y+}U 1y+2y+3y+4y+5y+6y+;5 f0+7y+8y+OL 9y+0y+ay+by+1V.cy+dy+ey+4f+fy+Sx.gy+*j.hy+iy+jy+gt+ky+ly+Y5 my+ny+5!+d|+oy+py+qy+:$+ry+",
"Mw+eZ <[+s6+sy+>s+4q+5o+Pw+ty+Rw+ll.D8+uy+vy+wy+xy+8|.Vw+^3 +l+yy+Xw+Gt+zy+Zw+Ay+By+_s+Cy+Dy+MX.+x+7M Y3 so+Ey+Fy+,7 Gy+$7 zW. 6 <O._t+Kg.[8 Hv+Hy+St+sl+Iy+Jy+Ky+Ly+My+Ny+d7+Oy+Py+Qy+Ry+Sy+Ty+Uy+Vy+Wy+Xy+Yy+Zy+`y+Tt  z+.z+2; +z+I,+@z+{%+#z+$z+%z+&z+V5+*z+Hv+C{ 'n 9/ 9/ 9/ F*+X! .a =z+-z+;z+>z+,z+'z+)z+!z+~z+{z+]z+Yi.^z+DG )o._J R3 /z+(z+hz ci.T;._z+:z+<z+[z+}z+|z+/n.1z+2z+;7 P5 }!+3z+4z+5z+i`.6z+7z+8z+9z+0z+az+bz+xW.`e cz+-e+dz+ez+fz+gz+hz+iz+jz+kz+lz+mz+nz+oz+pz+qz+rz+sz+tz+(v uz+vz+wz+xz+#r+yz+zz+Az+Bz+Cz+Dz+Ez+Fz+Gz+Hz+Iz+Jz+Kz+Lz+Z%+Mz+Nz+1j Oz+Z>+Pz+[8 9/ F*+F*+F*+B-+B-+X! F*+zW.F*+Z0 Qz+Y5 Y;+4z+Rz+Sz+Tz+Uz+Vz+VI. V.Wz+2'+4Z.JS.=5 )7 =5 @7  ,+V! G++X! =f Xz+WW 1y+Yz+|b+Zz+`z+ A+;5 .A++A+8y+OL @A+#A+$A+by+1V.%A+&A+~q+4f+*A+^%.=A+*j..!.-A+;A+v|+ky+ly+Y5 >A+,A+'A+A8+)A+!A+qy+Gy+ry+",
"~A+{A++m+5h+>s+sy+5o+Ow+ao+Qw+]A+-0 )s+Gq.^A+/A+(A+8|._A+L*.:A+<A+[A+Gt+Yw+Zw+}A+|A+f'+1A+.3.2A++x+Cb.,5 3A+{..vX.-7 4A+X]+$7 *4 5A+ar J1 qs+6A+7A+8A+9A+0A+aA+bA+cA+dA+eA+fA+gA+hA+iA+jA+kA+lA+mA+nA+oA+pA+qA+rA+G(+*;+sA+tA+uA+vA+aD.wA+xA+yA+zA+AA+BA+CA+DA+78 L1 9/ 9/ 9/ 9/ F*+Z0 G++Ye EA+FA+GA+HA+IA+JA+KA+LA+MA+NA+OA+,u PA+=&+IL QA+~t+A@.:J >Z.RA+SA+TA+UA+VA+WA+XA+YA+wS m,+!P.T5 W5 M'+ZA+`A+ B+.B++B+@B+&m #B+$B+%B+&B+48 *B+=B+-B+;B+>B+,B+'B+)B+!B+~B+{B+]B+^B+/B+(B+_B+:B+<B+[B+}B+|B+1B+k9.2B+3B+4B+5B+6B+7B+8B+9B+0B+aB+bB+cB+dB+eB+|K.Hz+{R.fB+gB+lZ.hB+iB+jB+d~+0M k3 ;4 V! 9/ X! X! @6 @6 F*+Z0 `6 (P.kB+lB+mB+nB+oB+mc+pB+qB+bc }8 9/ %6 D{ 4'+fk X! Do+G++G++V! =f wC.rB+sB+>s+tB+uB+vB+wB+xB+;5 .A+}|+8y+OL yB+Wr+Xr+Bw+zB+`r+AB+~q+BB+CB+x^.=A+DB+EB+FB+GB+M4+ky+HB+.t.IB+JB+}q+ib+=s+KB+$e Gy+ry+",
"LB+%..+m+n[ sy+Ow+Ow+5o+ao+ty+MB+-0 ]:+Gq.NB+OB+Fe+PB+QB+RB+SB+<A+JH.Gt+TB+UB+VB+WB+XB+Cy+dq+YB+ZB+Cb.wg+`B+{.. C+t)+gH.*7 _O.7@+[O.=f `e l=+ZM.F3..C++C+@C+#C+$C+%C+&C+*C+=C+-C+;C+>C+,C+'C+)C+!C+~C+{C+]C+^C+`..+3./C+(C+_C+:C+UV.<C+[C+}C+|C+1C+2C+3C+4C+Hv+P'+9/ 9/ 9/ F*+F*+F*+N#+9/ V~ a(+5C+6C+7C+8C+J<.9C+0C+aC+5'.95 }5 g!.1|.Z=.bC+cC+!I dC+j!.eC+fC+gC+hC+iC+jC+kC+lC+Fs+75 UH.mC+5Z.*5 nC+oC+pC+qC+rC+sC+tC+uC+vC+wC+xC+yC+zC+AC+BC+18 B +*~ |! CC+DC+EC+FC+GC+HC+IC+JC+KC+LC+MC+NC+OC+PC+QC+RC+SC+TC+UC+VC+WC+XC+YC+ZC+`C+ D+.D++D+@D+#D+$D+%D+&D+/J *D+=D+-D+Lz+;D+>D+,D+Hh )7 &7 e{+3'+`6 Z0 F*+9/ zW.|8 (P.'D+)D+!D+[D.~D+{D+W:+.6 I1 E%+f{+]D+]D+>4 Ic+L++F*+zW. ,+`5 f>+^D+/D+(D+_D+}h+_f+:D+<D+[D+e0+}D+d6+ML Jk.@A+Wr+|D+N0.zB+1D+AB+2D+3D+4D+-c 5D+6D+/&+,y+7D+e[+8D+ly+}!+9D+wt+0D+A8+=s+aD+bD+Gy+ry+",
"LB+%..cD+n[ sy+>s+Ow+5o+ao+Qw+dD+-0 ]:+eD+NB+fD+Fe+PB+ K gD+hD+q2+JH.^s+iD+jD+kD+lD+XB+mD+dq+YB+ZB+);.wg+`B+]W nD+oD+-f =7 ]4 S{+b8 |s+pD+qD+rD+sD+tD+uD+vD+wD+xD+yD+zD+AD+BD+CD+DD+ED+FD+GD+HD+ID+JD+KD+LD+MD+ND+OD+PD+QD+RD+SD+TD+UD+VD+WD+XD+YD+ZD+`D+Hy+ E+.E+D{ 9/ 9/ F*+F*+F*+N#+N#+P'+`o+4I.+E+@E+#E+$E+%E+&E+*E+TO.:k+c5 _5 =E+-E+_G ;E+>E+,E+$r.BG L{.'E+)E+!E+~E+{E+]E+^E+g'.25 ;7 Q5 =5 /E+u{+(E+_E+:E+<E+rw [E+i[+}E+|E+1E+2E+hU.@6 }8 3E+~ +4E+Np 5E+6E+7E+8E+9E+0E+aE+bE+cE+xs+dE+eE+fE+gE+hE+iE+LX jE+kE+lE+mE+nE+oE+pE+qE+rE+sE+tE+uE+vE+wE+xE+yE+zE+p@.X9 AE+BE+CE+DE+EE+FE+]7 Z/+mw+];.cZ.bc gk zW.;4 GE+HE+IE+JE+KE+LE+ME+Oq++7 Z]+NE+A%+|8 W! L1 B-+18 F*+zW.W! k5 ~F.OE+PE+)J QE+RE+b0+SE+TE+UE+#4 .A+m4+ML Jk.Vr+#A+VE+WE+XE+r>+YE+^v+ZE+`E+po+=A+ F+/&+.F+7D+e[++F+@F+}!+9D+*s+#F+B8+[q+$F+%F+:$+ry+",
"LB+&F+*F+co+4q+4q+Ow+Ow+ib+=F+HE ZB zm+-F+;F+>F+][+Eb.,F+'F+Us.)F+!F+~F+{F+tt ]F+^F+/F+(F+_F+NL K~.:F+$X.kQ.<F+[F+1'+&`.o}+}F+Y~ Bh |F+1F+2F+3F+4F+5F+6F+7F+8F+9F+Q8 g( 0F+aF+bF+cF+dF+eF+fF+gF+hF+iF+jF+kF+lF+mF+nF+oF+pF+qF+rF+sF+tF+uF+vF+wF+xF+yF+v3+=n zF+AF+f{+S#+jU.jU.BF+g{+S#++6 CF+DF+EF+FF+GF+HF+IF+JF+KF+!r+Z{+c+.LF+42+MF+NF+OF+PF+QF+RF+SF+LX.G{.TF+a#.qg+UF+VF+WF+XF+&E h!.w#+hQ.4Z.$7 YF+ZF+`F+ G+.G++G+@G+#G+tN.$G+%G+&G+*G+#6 -6 ], =G+-G+;G+>G+'D+,G+'G+)G+!G+~G+{G+]G+^G+/G+(G+_G+#%+:G+<G+[G+}G+|G+1G+2G+3G+4G+5G+6G+7G+8G+9G+0G+aG+bG+cG+dG+eG+fG+gG+hG+6D+V2.iG+jG+kG+lG+mG+c{+Kg.5p+];.}!+Z0 [8 r +nG+oG+pG+qG+rG+&k+.t.Y5 .7 zW.F*+F*+zW.9/ D{  7 %5 1=+1=+<$+}O.sG+tG+uG+vG+r| vB+wG+xG+ht+.4 !%.yG+Y;.E3 zG+AG+BG+CG+DG+EG+FG+GG++k HG+IG+$3 Oe JG+KG+LG+%&+MG+,(+X5 NG+OG+9f+1!+PG+QG+RG+8j 6/ ",
"LB+SG+*F+TG+4q+4q+>s+Ow+UG+VG+HE ZB zm+-F+WG+XG+YG+R#.(..ZG+Nn.`G+ H+.H++H+@H+]F+^F+/F+RO.L/+NL #H+:F+$X.$H+%H+&H+e!.*H+=H+-H+jh ;H+>H+,H+'H+)H+!H+~H+{H+]H+^H+/H+(H+_H+:H+<H+[H+}H+|H+1H+2H+3H+4H+5H+6H+7H+rI 8H+9H+0H+aH+bH+!;+cH+dH+eH+fH+gH+hH+iH+jH+kH+lH+HY.S#+S#+jU.S#+</ r!+L++wa+4E+mH+nH+oH+pH+qH+rH+sH+tH+lp+uH+vH+lm+wH+xH+yH+zH+AH+BH+CH+DH+EH+H3 Dn.,E FH+GH+HH+IH+JH+gc+2'.-~+=a 4Z.5Z.=6 py.KH+LH+MH+NH+OH+PH+QH+RH+SH+38 G++Kc+TH+tN.UH+VH+WH+XH+YH+ZH+`H+ I+.I++I+@I+#I+$I+%I+&I+*I+=I+-I+c%+;I+>I+,I+'I+)I+!I+~I+{I+]I+H5.^I+/I+(I+_I+:I+<I+[I+}I+|I+1I+2I+3I+4I+5I+<j.~J WU.6I+7I+8I+1j }!+/P.L++Qz+9I+0I+aI+bI+cI+3s+>6 $7 k3 =f zW.F*+.6 y3+(P.2'+%7 dI+eI+fI+gI+hI+iI+jI+kI+lI+mI+nI+oI+pI+qI+!P.rI+sI+OL <J zG+tI+uI+CG+vI+EG+wI+xI+yI+;e.zI+=3 AI+jG+Z2 BI+Fq.CI+@=+X5 NG+DI+:F.ed+[q+EI+FI+8j 6/ ",
"LB+SG+GI+co+sy+4q+4q+5o+ed+=F+G*.ZB HI+II+JI+KI+LI+Hz+MI+NI+fy+OI+PI+QI+RI+SI+TI+UI+VI+WI+_F+NL XI+YI+N3+`E.ZI+`I+O#. J+.J+&p++J+@J+#J+$J+%J+&J+*J+=J+-J+;J+>J+,J+'J+)J+!J+~J+{J+]J+^J+/J+(J+_J+:J+<J+[J+6,.#Q G2.OE+}J+|J+:l+F!+1J+2J+3J+4J+5J+6J+7J+8J+9J+0J+0g+jU.Q++S#+jU.S#+f{+Z0 aJ+mi+bJ+cJ+dJ+eJ+fJ+gJ+hJ+iJ+Vb+jJ+kJ+lJ+mJ+nJ+oJ+pJ+qJ+rJ+sJ+tJ+,u zG BG gc+t#+uJ+vJ+wJ+xJ+v]+ML WC.#4 W]+Q5 I1 eZ.yJ+zJ+AJ+BJ+CJ+DJ+EJ+FJ+W9+dZ.Eh Z0 GJ+HJ+IJ+JJ+KJ+LJ+MJ+NJ+OJ+PJ+QJ+RJ+SJ+TJ+UJ+VJ+WJ+XJ+YJ+ZJ+`J+ K+.K++K+@K+#K+$K+%K+&K+*K+=K+-K+;K+>K+,K+'K+)K+!K+~K+{K+]K+^K+/K+(K+_K+:K+<K+[K+&C }K+|K+3H y3+/P.N#+1K+2K+3K+4K+5K+6K+4A.y3+}!++7 W! zW. 7 7K+8K+=!+:6 9K+0K+aK+bK+cK+dK+eK+fK+gK+hK+iK+jK+kK+lK+7'+K5 &&+mK+G{.]/.nK+oK+pK+;T.XE+qK+rK+sK+tK+uK+vK+wK+xK+j++yK+zK+AK+BK+Am+W5 CK+DK+DC.Vk+EK+FK+FI+8j K{ ",
"LB+SG+GI+GK+sy+sy+4q+5o+id+VG+G*.%e HK+II+IK+JK+KK+S#.LK+MK+4D+NK+OK+PK+QK+RK+SK+TK+VI+UK+L/+NL XI+VK+$X.WK+XK+YK+ZK+`K+ L+.L++L+@L+#L+$L+%L+&L+*L+=L+-L+;L+>L+,L+'L+)L+!L+~L+{L+]L+^L+/L+(L+_L+:L+<L+[L+}L+|L+1L+2L+3L+4L+5L+6L+7L+8L+9L+0L+aL+bL+cL+dL+eL+fL+|S.jU.Q++S#+jU.=k+@6 Z0 rc+gL+]i hL+iL+jL+kL+lL+mL+qw+nL+Te oL+5E+pL+qL+rL+sL+tL+uL+vL+wL+D3 LL [J .h.xL+yL+zL+AL+BL+ed.i!.S3 >5 P5 Pz+Y5 V9+CL+DL+EL+FL+GL+HL+W~ qB+IY.,;+Ic+@6 ~ +;v+IL+JL+KL+LL+ML+NL+OL+PL+QL+RL+SL+TL+UL+VL+WL+XL+YL+ZL+`L+ M+.M++M+@M+#M+$M+%M+&M+*M+=M+-M+;M+>M+,M+'M+)M+!M+~M+{M+]M+^M+/M+(M+_M+:M+<M+[M+}M+|M+1M+2M+@7 Q5 3M+:8 4M+5M+6M+7M+8M+W5 y3+Z5 +7 .,+K1 M1 9M+0M+aM+bM++A.cM+:B.dM+eM+fM+gM+hM+iM+jM+kM+lM+mM+nM+oM+w#+pM+qM+j=.rM+g1 sM+tM+uM+XE+qK+vM+wM+xM+uK+yM+zM+AM+BM+CM+DM+EM+FM+GM+W5 HM+DI+DC.ed+1v+IM+FI+!j+JM+",
"KM+uw GI+GK+sy+>s+5o+5o+,s+4o+92.-0 lK+LM+MM+NM+j^.D~+OM+PM+QM+RM+SM+TM+UM+Ur VM+WM+XM+YM+ZM+NL XI+`M+N3+ N+.N++N+@N+#N+$N+%N+&N+*N+=N+-N+;N+>N+,N+'N+)N+!N+~N+{N+]N+^N+/N+(N+_N+:N+<N+[N+}N+|N+1N+2N+3N+4N+5N+6N+7N+8N+9N+74 0N+aN+bN+cN+dN+eN+fN+gN+hN+iN+dk I*+f{+S#+jU.S#+HY.@6 Z0 ]/+jN+kN+4P.lN+mN+nN+oN+pN+qN+rN+sN+tN+5a+uN+vN+wN+xN+yN+zN+AN+BN+X^+qT.j!..h.CN+DN+EN+FN+jn.GN++T O3 >5 WJ.HN+e{+V5 IN+JN+KN+LN+MN+NN+g(+ON+PN+B-+M#+G++nc 9:+N2 QN+RN+SN+TN+UN+VN+WN+XN+YN+ZN+`N+ O+.O++O+@O+#O+$O+%O+&O+*O+=O+-O+;O+Ta.>O+,O+'O+)O+!O+~O+{O+]O+^O+/O+(O+_O+:O+<O+[O+}O+|O+1O+2O+3O+4O+5O+6O+7O+8O+9O+Oz+0O+aO+f8 bO+cO+dO+*7 $5 s +@7 2'+eO+-H+fO+gO+hO+iO+jO+kO+lO+mO+nO+oO+pO+qO+rO+sO+tO+uO+vO+wO+xO+yO+]5 zO+>@.k!.MN AO+jC.BO+=F 1V.CO+vM+DO+EO+FO+GO+HO+IO+JO+KO+LO+EM+MO+NO+R5 OO+DI+DC.GK+oy+QG+PO+!j+K{ ",
"KM+QO+*F+co+>s+>s+>s+4q+1v+RO+SO+rW.&T.TO+UO+VO+WO+L{.XO+/H YO+ZO+`O+By+ P+.P++P+@P+#P+$P+ZM+%P+&P+*P+=P+-P+e +;P+>P+,P+'P+)P+!P+~P+]H+{P+]P+^P+/P+(P+_P+:P+8A+sF+<P+[P+}P+|P+1P+2P+3P+4P+5P+6P+7P+8P+9P+0P+aP+bP+cP+dP+eP+fP+gP+hP+iP+jP+kP+lP+mP+nP+oP+pP+qP++6 S#+S#+S#+S#+Nn+gk wa+i=+rP+sP+tP+uP+1L vP+wP+xP+26 yP+Ve zP+AP+BP+CP+DP+EP+FP+GP+HP+HL IP+JP+:V.KP+it.LP+MP+NP+OP+PP+e+.K3 >5 -5 hk <8  7 IY.qB+QP+RP+SP+TP+UP+VP+aD.A%+B-+M#+=k+D{ $7 LX.WP+XP+YP+ZP+`P+ Q+.Q++Q+@Q+#Q+$Q+%Q+&Q+*Q+=Q+-Q+;Q+>Q+,Q+'Q+)Q+!Q+~Q+{Q+]Q+^Q+/Q+(Q+By _Q+:Q+<Q+[Q+}Q+|Q+1Q+2Q+3Q+4Q+5Q+6Q+7Q+8Q+9Q+0Q+aQ+bQ+cQ+dQ+X2.*X.X3 +4 &X.eQ+wx.%5 y3+J1 R5 y1+fQ+gQ+hQ+iQ+jQ+kQ+lQ+mQ+nQ+oQ+pQ+qQ+rQ+sQ+tQ+uQ+vQ+wQ+xQ+yQ+zQ+AQ+BQ+CQ+DQ+OL EQ+wO.FQ+GQ+5C HQ+IQ+JQ+KQ+LQ+MQ+NQ+01 OQ+PQ+q1 ',.`C.QQ+RQ+S5 SQ+TQ+GO.GK+|v+QG+RG+!j+K{ ",
"KM+QO+*F+co+sy+sy+4q+Ow+yt+$=+:e.rW.&T.TO+UQ+VQ+WQ+f'.XQ+YQ+ZQ+`Q+ R+.R++R+@R+#R+$R+#P+%R+_F+us &R+*R+<;.G'+=R+-R+4$+;R+>R+,R+'R+)R+!R+~R+{R+]R+^R+/R+(R+',+_R+:R+<R+[R+}R+|R+1R+2R+3R+4R+5R+6R+7R+8R+9R+N%.0R+aR+bR+cR+9N+:3+dR+eR+fR+gR+hR+iR+jR+kR+lR+@E.,n mR+S#+S#+S#+S#+A%+9/ >,+nR+oR+pR+qR+rR+sR+tR+uR+vR+wR+xR+(_+WV.yR+zR+AR+BR+CR+DR+ER+FR+GR+/D.lK.HR+IR+lg.JR+KR+LR+MR+NR+l,+J3 nV.>5 9c @7  ,+%a { +jc OR+PR+QR+RR+SR+TR+A%+G++jU.jU.U7+UR+VR+WR+XR+YR+ZR+6d.`R+ S+.S++S+@S+#S+$S+%S+&S+*S+=S+-S+;S+>S+,S+'S+)S+!S+~S+{S+]S+^S+=i+K!./S+(S+_S+:S+<S+[S+}S+|S+1S+2S+3S+4S+5S+6S+7S+8S+9S+0S+aS+bS+cS+z2+~o.AF.dS+U5 #7  ,+Y0 !n $5 eS+fS+gS+hS+iS+jS+kS+lS+mS+nS+oS+pS+qS+rS+sS+tS+uS+vS+sL wS+xS+yS+zS+AS+BS+CS+DS+ES+wO.FQ+FS+5C GS+HS+IS+JS+KS+LS+MS+NS+OS+PS++!.QS+RS+QQ+SS+'7 D8+TS+jb+US+VS+FK+RG+!j+K{ ",
"WS+SG+*F+-:.XS+4q+>s+5o+1v+|!+:P.ar (V.YS+ZS+`S+ T+PP..T++T+@T+#T+$T+%T+&T+*T+=T+-T+;T+QM+_F+>T+,T+'T+c +)T+!T+~T+{T+]T+^T+/T+(T+_T+:T+<T+[T+}T+|T+1T+58 2T+3T+4T+5T+6T+7T+8T+9T+0T+aT+bT+cT+dT+P@+eT+fT+gT+hT+iT+jT+kT+lT+mT+nT+oT+pT+qT+rT+sT+tT+uT+vT+[L.Qp wT+S#+S#+S#+S#+A%+D{ b8 xT+yT+zT+AT+BT+CT+DT+ET+FT+eO.GT+HT+IT+JT+KT+LT+MT+NT+OT+PT+QT+RT+ST+JP+us !Z.TT+UT+VT+WT+XT+4B YT+|'.-~+p +-f 2'++7 V! @6 5p+]c+ZT+`T+ U+.U+$a ,4 Do+jU.=k+Ot++U+@U+#U+$U+%U+&U+*U+=U+-U+;U+>U+,U+5z.'U+)U+!U+~U+{U+47+]U+^U+/U+(U+_U+:U+<U+[U+}U+|U+1U+2U+3U+4U+5U+6U+7U+8U+9U+0U+aU+bU+cU+}c.dU+eU+fU+gU+hU+iU+jU+kU+lU+mU+nU+W2.k}+8K+7K+Pz+hk t)+oU+pU+qU+rU+sU+tU+uU+vU+wU+xU+yU+zU+AU+BU+CU+DU+EU+FU+GU+HU+IU+JU+KU+LU+MU+NU+OU+RA+g'.TQ.PU+QU+RU+SU+TU+UU+VU+WU+XU+YU+ZU+#'.`U+&c  V+.V++V+=P+@V+D8+#V+jb+Ow+g3 $V+RG+!j+%V+",
"WS+&V+*F+-:.4q+sy+>s+,j+*V+|!+:P.rW.=V+-V+;V+>V+,V+'V+)V+!V+~V+{V+]V+^V+/V+(V+_V+:V+#P+<V+_F+8y+,T+[V+V3 }V+|V+1V+2V+3V+4V+5V+6V+7V+8V+9V+0V+[*+dk 1S.W~ aV+bV+cV+dV+eV+fV+gV+hV+iV+jV+kV+4Y lV+hz.mV+nV+oV+pV+qV+rV+Wh.sV+Fy.tV+uV+vV+wV+xV+yV+zV+AV+l=+V{+BV+Eh S#+S#+S#+S#+F%+=k+)6 CV+DV+EV+FV+GV+HV+IV+JV+KV+<t+LV+MV+8t+NV+OV+PV+QV+RV+SV+TV+UV+'!+6Y k*+rM+Xg.VV+WV+XV+YV+ZV+w!.`V+.g.A3  W+;5 <O.&5 ;4 L++W! bc WS..W++W+@W+Ot+L'+Do+</ 48 bc 8~ #W+$W+%W+&W+*W+=W+-W+;W+>W+,W+'W+)W+!W+Da+~W+{W+]W+^W+/W+(W+_W+:W+<W+[W+}W+|W+1W+2W+3W+4W+5W+6W+7W+8W+9W+0W+aW+bW+cW+dW+eW+fW+gW+hW+iW+jW+kW+lW+mW+nW+oW+pW+qW+:J O3 rW+sW+-f ,7 Z3 tW+uW+vW+wW+xW+yW+zW+AW+BW+CW+DW+EW+FW+GW+HW+IW+JW+KW+LW+MW+NW+OW+PW+QW+RW+SW+XH.TW+UW+VW+WW+XW+YW+ZW+`W+ X+.X++X+@X+#X+$X+/8+%X+&X+*X+=X+-X+SS+'7 ;X+>X+B8+Ow+,X+'X+)X+!j+L{ ",
"KM+Xt *F+!X+~X+4q+>s+5o+1v+1h+{X+_t+]X+^X+/X+(X+_X+U<.:X+<X+[X+}X+|X+1X+2X+3X+4X+5X+6X+7X+8X+i!.Me dF.9X+0X+aX+=W.bX+cX+dX+eX+fX+gX+hX+),+os+GY.iX+H*+jX+kX+lX+mX+nX+oX+pX+qX+rX+sX+tX+uX+vX+wX+UX xX+yX+zX+AX+BX+CX+;M.DX+EX+FX+GX+HX+IX+JX+KX+LX+45+pP+<%+V~ .,+L++D{ L++S#+U7+=k+MX+NX+vT.OX+Mu PX+QX+RX+=r.SX+TX+-v+Np pR.Us+UX+VX+BT+WX+XX+YX+L` _U m,+k*+`d ZX+`X+ Y+.Y++Y+@Y+#Y+$Y+'8.!o.(5 >5 *4 &5 .,+Z0 C5+%Y+X]+^%+&Y+a8 *Y+Ic+G++=Y+-Y+Op E%+;Y+>Y+,Y+Y7+'Y+)Y+!Y+~Y+{Y+]Y+^Y+/Y+(Y+yg+tN.^_+_Y+:Y+<Y+[Y+}Y+|Y+1Y+2Y+3Y+4Y+5Y+6Y+7Y+8Y+9Y+0Y+aY+bY+cY+dY+eY+fY+J~+gY+hY+iY+jY+kY+@++lY+3G+mY+nY+oY+pY+qY+rY+$E l_.3|.%X.p ++4 sY+tY+/b+uY+vY+wY+xY+yY+zY+AY+BY+CY+DY+EY+FY+GY+HY+IY+JY+KY+LY+MY+NY+OY+PY+QY+RY+SY+TY+&%+UY+VY+WY+XY+YY+ZY+`Y+ Z+.Z++Z+@Z+#Z+$Z+%Z+&Z+*Z+=Z+-Z+RQ+@V+;Z+>Z+fb+,Z+[q+$V+)X+!j+ > ",
"'Z+)Z+!Z+~Z+{Z+,Z+)A+|v+QE+]Z+>:.=!+^Z+/Z+(Z+_Z+:Z+<Z+[Z+}Z+|Z+1Z+2Z+3Z+4Z+5Z+6Z+7Z+8Z+9Z+0Z+zG aZ+bZ+sY+cZ+dZ+eZ+fZ+gZ+hZ+iZ+jZ+kZ+lZ+mZ+je+L1 iU.nZ+oZ+pZ+qZ+rZ+sZ+tZ+uZ+vZ+wZ+z$+xZ+yZ+zZ+AZ+BZ+CZ+DZ+EZ+FZ+@= GZ+HZ+IZ+JZ+KZ+LZ+MZ+NZ+OZ+PZ+QZ+RZ+SZ+lc zC+B-+F*+L1 F*+S#+</ Ic+'f TZ+UZ+VZ+WZ+XZ+YZ+ZZ+`Z+SX+/O. `+.`++`+@`+#`+$`+%`+&`+*`+=`+`=.9X+T3 JP+f'.-`+;`+>`+,`+'`+)`+!`+~`++'.{`+^D./7 ~n &5 =f ;4 zW.9/ 'n F*+F*+E%+Do+M#+B-+]`+^`+/`+4'+iX+pc (`+_`+:`+0e+<`+[`+}`+|`+1`+2`+3`+Jc+4`+5`+6`+7`+8`+9`+0`+a`+b`+c`+d`+e`+f`+g`+h`+i`+j`+k`+*u.l`+m`+n`+o`+p`+q`+r`+s`+t`+u`+v`+w`+x`+y`+z`+A`+B`+C`+D`+E`+F`+SO.Cn.Q3 s5.G`+H`+I`+J`+K`+L`+M`+N`+O`+P`+Q`+R`+S`+T`+U`+V`+W`+X`+Y`+Z`+``+  @. @+ @@ @# @$ @% @& @* @W<.2M.= @- @; @> @, @' @) @! @~ @{ @] @^ @/ @( @_ @: @< @[ @!.+} @| @k2+1 @Jw+QG+RG+!j+K{ ",
"'Z+)Z+!Z+@) {Z+,Z+|v+|v+2 @<q+_t+=!+^Z+3 @4 @5 @6 @7 @8 @9 @0 @a @b @c @d @5Z+e @f @g @h @0Z+zG i @j @k @l @m @5N.n @o @p @q @r @s @bt+qP+.a qB+4'+t @u @v @w @x @y @z @A @B @C @D @E @F @G @H @I @J @K @L @M @+& N @Dp+O @C: P @Q @R @S @T @U @V @W @1;+GY.pc %6 F*+L1 F*+S#+</ Ic+'f {o+X @Y @Z @` @ .@..@+.@@.@#.@$.@%.@&.@*.@=.@-.@;.@>.@,.@'.@).@vo+*X.lK.!.@~.@{.@].@^.@/.@(.@_.@:.@<.@[.@2A+('.>5 4Z.o7.|8 zW.F*+F*+F*+F*+z +@6 S#+hc }.@|.@1.@T1 Ic+2.@B{ 3.@4.@~) ]5 ^n.5S 5.@6.@j*+X5 A +7.@8.@iz+9.@0.@a.@b.@c.@d.@e.@f.@g.@h.@i.@j.@k.@l.@m.@P|+n.@o.@p.@q.@r.@s.@t.@u.@v.@w.@x.@y.@z.@A.@B.@C.@D.@E.@F.@G.@H.@IG I.@J.@K.@L.@M.@N.@O.@P.@Q.@!H+R.@S.@T.@U.@V.@W.@X.@Y.@Z.@`.@ +@.+@++@@+@UW.#+@$+@%+@&+@*+@=+@-+@;+@>+@,+@'+@)+@; @!+@~+@{+@]+@^+@/+@(+@_+@:+@6 @<+@[+@}+@|+@1+@4M+2+@_|+3+@*s+*s+QG+PO+!j+K{ ",
"4+@5+@;8.6+@,Z+{Z+|v+[q+7+@8+@_t+Vu+9+@0+@a+@b+@c+@d+@e+@f+@vH g+@h+@i+@j+@k+@l+@m+@n+@;e.0Z+i!.o+@p+@q+@l @r+@s+@t+@u+@v+@w+@x+@y+@7{ z+@>,+y +|S.A+@B+@C+@D+@E+@F+@G+@H+@I+@J+@K+@L+@M+@N+@O+@P+@Q+@R+@S+@T+@U+@V+@W+@X+@Y+@Z+@`+@ @@.@@+@@@@@#@@$@@ E+fc iX++,+1S.Ie+9/ S#+F%+E%+%@@1=.&@@*@@=@@-@@;@@>@@,@@'@@)@@!@@.`+~@@{@@]@@^@@/@@(@@_@@:@@<@@}4 [@@}@@{/.DZ+|@@1@@2@@3@@4@@~s.5@@6@@7@@}v $X.Tr+W]++7  ,+zW.F*+F*+F*+F*+N#+A%+8@@9@@0@@a@@b@@c@@me+d@@;4 e@@f@@g@@h@@M! i@@3`+#o.Da+y3+,4 j@@k@@l@@m@@Mp n@@o@@p@@q@@r@@s@@t@@u@@v@@w@@x@@y@@z@@A@@B@@C@@D@@E@@F@@G@@H@@I@@J@@K@@L@@M@@N@@O@@P@@Q@@R@@S@@T@@U@@V@@W@@|z+X@@Y@@Z@@`@@ #@.#@+#@@#@##@$#@%#@&#@*#@=#@-#@;#@>#@,#@'#@)#@!#@~#@{#@CF.]#@^#@/#@(#@_#@:#@<#@[#@QH.$K.}#@|#@1#@2#@3#@4#@5#@6#@7#@8#@9#@0#@a#@b#@c#@d#@e#@f#@*7 g#@h#@7+@i#@*s+QG+j#@!j+k#@",
"4+@5+@;8.~Z+{Z+sy+|v+[q+7+@l#@m#@Vu+9+@n#@o#@p#@q#@r#@s#@t#@u#@v#@w#@x#@y#@z#@A#@-K g @B#@0Z+i!.C#@D#@E#@F#@G#@H#@I#@J#@K#@L#@qy.]W+') HT+M#@N#@{ +$a O#@P#@Q#@R#@S#@T#@U#@V#@W#@X#@Y#@Z#@`#@ $@.$@+$@V}+@$@#$@$$@~@@%$@&$@*$@=$@-$@;$@>$@,$@'$@)$@uh !$@oc ~$@A +1S.{$@L++S#+F%+E%+%@@]$@^$@/$@($@_$@:$@<$@[$@}$@};+>n ie+|$@1$@2$@3$@4$@5$@6$@7$@8$@9$@V>+~o.0$@ig.a$@b$@c$@d$@e$@f$@g$@h$@i$@K3+d+.&X.=5 @P &5 ;4 F*+F*+F*+F*+N#+A +j$@uh k$@l$@m$@n$@o$@tN.Z0 H*+EJ+p$@q$@r$@s$@@7 t$@$5.&7 0~ u$@v$@w$@x$@y$@z$@A$@B$@C$@D$@E$@F$@G$@H$@I$@J$@K$@L$@M$@N$@O$@P$@Q$@R$@S$@T$@U$@V$@W$@X$@Y$@Z$@`$@ %@.%@+%@@%@#%@$%@%%@&%@*%@=%@-%@;%@>%@,%@'%@)%@!%@~%@{%@]%@^%@/%@(%@_%@ v+:%@PX.<%@[%@}%@|%@1%@2%@hq+3%@4%@5%@6%@7%@8%@9%@0%@a%@b%@c%@d%@e%@f%@g%@h%@i%@j%@k%@l%@m%@n%@o%@p%@q%@r%@$b+=7 2+@s%@|q+i#@t%@u%@j#@!j+k#@",
"v%@5+@w%@x%@3v+sy+,Z+y%@z%@A%@B%@C%@D%@1T.E%@F%@G%@H%@I%@J%@K%@L%@M%@N%@O%@P%@Q%@R%@S%@i,.zQ zG T%@A1 U%@V%@W%@X%@Y%@Z%@`%@ &@.&@+&@]/+@&@#&@$&@{ +.a %&@&&@W!.*&@=&@-&@;&@>&@,&@'&@)&@3S !&@~&@{&@]&@Z<.^&@/&@(&@S:+_&@:&@<&@[&@}&@|&@1&@2&@3&@4&@5&@eZ.fc ,4 Ic+P'+6&@M#+S#+D{ D{ `L.tY+kX+7&@8&@9&@0&@a&@b&@vV.VV.4`+ie+c&@/R+d&@e&@f&@g&@h&@i&@{Y.cO+j&@}K+.].Va.k&@l&@m&@n&@o&@p&@q&@r&@s&@NH Bl.'5 #4 3Z.4Z. ,+;4 zW.zW.L+++,+>4 t&@u&@v&@w&@x&@AJ.$~+y&@tN.'n Qz+ 7 9:+Sl+z&@A&@B&@hU. ,+s$@C&@D&@E&@F&@G&@Vl+H&@I&@J&@K&@L&@M&@N&@O&@P&@Q&@R&@S&@T&@U&@V&@W&@X&@Y&@Z&@`&@ *@.*@+*@@*@#*@$*@%*@&*@TB **@=*@-*@;*@>*@,*@'*@)*@!*@~*@{*@]*@^*@/*@(*@_*@:*@#Q.Kj.<*@[*@}*@|*@1*@Tn.2*@3*@vo+4*@5*@6*@B{.7*@8*@9*@0*@a*@b*@c*@d*@e*@f*@g*@h*@i*@j*@k*@l*@m*@n*@o*@p*@q*@r*@s*@t*@u*@v*@w*@T5 x*@y*@ed+yt+z%@z*@j#@:$+A*@",
"B*@C*@D*@E*@F*@G*@)A+zw+H*@I*@J*@C%@K*@L*@M*@N*@O*@P*@Q*@R*@S*@T*@U*@V*@W*@X*@Y*@Z*@`*@>;.zQ +T KO+ =@.=@+=@]8+@=@#=@$=@gs %=@&=@*=@==@-=@;=@>=@<X.V! 0g+88 ,=@'=@)=@!=@~=@{=@]=@^=@/=@(=@_=@:=@<=@[=@u;.N4+}=@|=@2~+1=@2=@3=@4=@5=@6=@7=@8=@9=@0=@a=@I7+b=@B-+V! Q'+c=@%6 D{ 9/ %6 U~ d=@e=@f=@g=@h=@i=@j=@k=@l=@~-+m=@n=@o=@p=@q=@r=@s=@t=@u=@v=@w=@x=@y=@z=@}7 Cq+}V A=@B=@C=@D=@E=@F=@G=@H=@I=@O*+37 AF.#4 =5 %5  6 |8 zW.N#+J=@Do+A +K=@L=@M=@N=@O=@P=@Q=@[S.R=@Ic+Z0 9/ M#+B&@S=@}~ jU. ,+T=@U=@V=@W=@X=@Y=@}n+Z=@`=@ -@.-@+-@@-@#-@$-@%-@&-@*-@=-@--@;-@>-@,-@'-@)-@!-@~-@{-@]-@^-@H8./-@(-@_-@:-@<-@[-@}-@|-@1-@2-@3-@4-@5-@6-@7-@8-@9-@0-@a-@b-@c-@d-@e-@f-@g-@h-@i-@j-@k-@l-@m-@+4 ,/.]4 h[+n-@oU+o-@HE+p-@q-@r-@s-@t-@Y;.u-@v-@)+@w-@x-@y-@z-@A-@B-@C-@D-@E-@U=+F-@G-@H-@]j+I-@J-@T5 K-@L-@A4+Ow+U/+M-@j#@8j N-@",
"B*@C*@D*@E*@O-@XS+~X+zw+P-@Q-@J*@>:.K*@QB+8h+R-@S-@T-@U-@V-@W-@X-@Y-@Z-@`-@ ;@.;@+;@@;@>;.#;@+T $;@OP.%;@&;@Wb+*;@=;@-;@;;@>;@,;@';@);@!;@~;@{;@];@L'+M#+Do+aJ+-n ^;@/;@(;@_;@:;@<;@[;@};@|;@1;@2;@3;@4;@5;@6;@7;@8;@9;@0;@a;@b;@c;@d;@e;@f;@g;@h;@a=@I7+b=@B-+V! i;@c=@%6 D{ Z0 </ =f j;@k;@l;@m;@n;@o;@p;@q;@r;@+z+s;@jc t;@u;@v;@w;@x;@y;@z;@A;@B;@C;@D;@@T E;@9n+F;@G;@H;@I;@kK.;++J;@K;@L;@`;.:J K3 F{.!P.e0+*5 &7 .7 zW.F*+f{+@6 M;@N;@O;@P;@Q;@R;@S;@T;@U;@`[+V;@4'+V! ;4 B-+V#+,4 Ic+ ,+W;@X;@Y;@Z;@`;@Y=@ >@Q:+.>@+>@@>@#>@$>@%>@&>@*>@=>@->@;>@>>@,>@'>@is+)>@!>@~>@{>@]>@^>@uT./>@(>@_>@:>@<>@[>@}>@|>@1>@2>@3>@4>@5>@6>@7>@8>@9>@0>@ig+a>@b>@c>@d>@e>@f>@{U.g>@h>@i>@j>@k>@E{.f +AF. 4 ]4 ,/.4_+l>@m>@G`+n>@IV.o>@KK+i!.p>@q>@c%@r>@s>@t>@.Z u>@v>@w>@x>@y>@z>@A>@B>@C>@>c D>@E>@T5 K-@L-@6h+sy+VS+F>@PO+8j N-@",
"4+@C*@D*@G>@H>@sy+{Z+I>@J>@K>@.5 Gy+D%@L>@M>@N>@O>@P>@Q>@R>@S>@T>@U>@V>@W>@X>@Y>@UU+Z>@%R+#;@+T w^.`>@ ,@.,@+,@@,@#,@;:.$,@%,@&,@*,@=,@-,@@f.`L.P{ ,4 zC+!@@fL+;,@>,@,,@',@),@!,@~,@{,@],@^,@/,@(,@_,@2N :,@<,@[,@},@|,@1,@2,@3,@4,@5,@6,@7,@8,@9,@4=+%f Cx+B-+2S.0,@a,@=k+$~ gk F%+gk vu+b,@c,@d,@e,@f,@g,@h,@i,@j,@>n kc k,@]c+l,@m,@n,@o,@p,@q,@r,@s,@t,@w*@>8.=Q u,@v,@w,@x,@y,@z,@A,@x` C!.<'.zG h!.[5 WC.@w+B++!7 *5 $7 |8 |8 F*+Pt+eu+38 B,@C,@D,@E,@F,@G,@S:+H,@tN+*6 s +2S.9/ ]D+9/ `5 M1 I,@J,@K,@L,@M,@N,@&7 k[.O,@P,@Q,@R,@S,@T,@U,@V,@W,@X,@Y,@Z,@`,@ '@.'@+'@@'@#'@$'@%'@{.+&'@*'@='@-'@;'@>'@,'@''@Sc.)'@!'@~'@{'@]'@^'@/'@('@_'@:'@<'@['@}'@|'@~4+Hh 1'@w*@2'@3'@4'@N;.K5 `3 I5 5'@6'@7'@7'@8'@9'@0'@a'@kZ {o.[7 Bl.b'@v-@c'@d'@e'@f'@g'@h'@i'@j'@k'@l'@m'@n'@o'@p'@!5.q'@&5.'7 ;X+L-@s6+>s+r'@z*@s'@_t+N-@",
"4+@C*@D*@G>@t'@sy+{Z+u'@J>@I*@4r :$+v'@w'@x'@y'@z'@l!.f|.A'@B'@C'@D'@E'@F'@G'@H'@IS+I'@RC.y` +T J'@K'@L'@M'@W6 )++N'@dT.O'@{T+P'@Q'@R'@S'@@f.T'@U'@ec gU.+E.V'@35+W'@X'@Y'@Z'@`'@ )@.)@+)@@)@#)@$)@%)@*].&)@*)@=)@-)@;)@>)@,)@')@))@!)@~)@{)@])@:<+fv+ f Cx+B-+%a ^)@-{ =k+$~ gk g{+z +%d+/)@()@_)@:)@<)@[)@})@|)@1)@2)@3)@4)@]c+5)@6)@7)@8)@9)@0)@a)@+n+b)@c)@d)@:V.e)@f)@g)@h)@i)@j)@k)@@r.$m.W<.Y;.|'.h!.P3 T3 UH.w#+B++)7 W]+C++jU.9/  ,+U7+s$@l)@m)@n)@o)@p)@q)@r)@s)@t)@u)@Da+V! M#+9/ 2'+2S.v)@w)@x)@y)@z)@A)@B)@C)@T0 O{.D)@E)@F)@G)@H)@I)@J)@K)@L)@M)@N)@O)@P)@Q)@R)@S)@T)@U)@V)@W)@X)@Y)@Z)@vQ+`)@ !@.!@+!@@!@#!@$!@%!@&!@*!@=!@-!@;!@>!@,!@'!@j8 35 35 V3 c5 FL )!@ec.!!@D%.mK.*7 %4 1'+mK.5A+/@+|e.IQ.>7 !I.T0 f +N_+~!@b'@v-@{!@]!@^!@/!@(!@_!@:!@<!@[!@}!@|!@1!@2!@3!@4!@5!@6!@~X.7!@>X+ib+Ow+8!@z*@9!@_t+N-@",
"4+@0!@a!@b!@c!@c!@,Z+{Z+d!@e!@Re f!@g!@h!@i!@j!@k!@/&.l!@m!@n!@o!@p!@q!@LH.r!@s!@t!@Z>@<V+u!@k_.v!@!C w!@x!@y!@c8 z!@A!@B!@C!@D!@E!@F!@G!@H!@4E+/%+I!@zv+C!+J!@K!@L!@M!@N!@O!@P!@Q!@Po+R!@S!@UX T!@U!@V!@W!@X!@Y!@Z!@`!@ ~@.~@+~@@~@#~@$~@%~@&~@ns+*~@=~@*p+9/ 1S.-~@_! D{ N1 9/ N#+;~@Q4 >~@,~@'~@)~@GV+!~@~~@{~@]~@^~@W{+/~@Z~ kc }u.(~@_~@:~@<~@[~@}~@%Z.|~@s5./J 1~@bc.2~@3~@4~@5~@6~@7~@]v 8~@`d a-+]4+9~@+]+@*+ML qT.,8.37 %4 Y5 =f 1K+';+W! ie+0~@a~@b~@c~@d~@e~@$J.f~@g~@T~ =Y+B-+gk  ,+/*+h~@i~@j~@kR.k~@l~@m~@n~@0p+ 4 X;.o~@p~@q~@r~@s~@t~@u~@v~@w~@x~@y~@z~@A~@B~@C~@kh D~@E~@F~@G~@H~@I~@J~@K~@L~@M~@N~@O~@P~@Q~@R~@S~@T~@U~@V~@W~@X~@Y~@Z~@^O.`~@ML u0. {@.{@+{@X;.@{@d5 /7 y-+#{@I1 /P.y3+H3+${@%{@BM+/J ib *D+IP+~!@&{@*{@={@-{@;{@>{@,{@'{@){@!{@~{@{{@]{@y` wd ^{@Io /{@fC.KS.7!@L-@ib+({@_{@:{@<{@_t+[{@",
"4+@}{@|{@x%@c!@~X+,Z+,Z+1{@2{@3{@rW.4{@5{@6{@X%+-O+7{@8{@9{@0{@a{@b{@~F+c{@d{@e{@f{@@;@>;.u!@mO.z7.g{@`-+h{@$q+i{@j{@k{@l{@m{@n{@o{@p{@q{@r{@+&@88 s{@t{@Dp+u{@v{@w{@x{@y{@z{@A{@B{@C{@D{@E{@39.T!@F{@G{@H{@I{@J{@K{@L{@M{@N{@O{@P{@Q{@R{@S{@T{@i9+U{@mZ+Pq+9/ 1S.V{@W{@S#+Q++9/ zW.Y0 #=+X{@Y{@Z{@`{@ ]@.]@+]@@]@#]@Th+kc ag+$]@%]@.f &]@dH+*]@=]@-]@;]@>]@,]@[@@b5 LL ']@JH+)]@!]@~]@{]@]]@^]@/]@}F `&+(]@Ua._]@:]@ys+<]@[]@}]@|]@)7 32.R/+Kc+zW.X! Hv+hv+1]@2]@3]@4]@5]@6]@7]@8]@9]@>6 +6 F*+B-+0]@a]@b]@c]@d]@e]@f]@g]@h]@!) V0 J5 n_.F^+#Y+i]@j]@k]@l]@m]@n]@o]@p]@q]@@}+r]@s]@t]@u]@v]@w]@x]@y]@z]@A]@B]@C]@D]@E]@F]@G]@H]@I]@J]@K]@L]@M]@N]@O]@P]@Q]@R]@fr S]@`{.T]@U]@ >.B!.`{+ST+=2+mw+];.%5 -4 (P.#4 ME V]@W]@X]@PB+F{.k*+~c R).Y]@Z]@`]@ ^@.^@+^@@^@#^@$^@'E+yq.JO+%^@&^@*^@=^@-%.S5 7!@L-@-^@Pw+;^@FK+9!@>^@[{@",
"4+@,^@|{@x%@{Z+{Z+{Z+,Z+1{@2{@'^@rW.)^@!^@~^@{^@T>+k!.H]+]^@^^@/^@(^@_^@:^@<^@[^@}^@Z>@|^@1^@mO.2^@3^@4^@J*.i8 5^@g/+6^@7^@8^@9^@0^@a^@q6 b^@c^@-u+d^@e^@f^@g^@h^@i^@j^@k^@l^@m^@n^@o^@p^@q^@39.r^@F{@Hk.s^@t^@u^@v^@w^@x^@y^@z^@A^@B^@C^@D^@E^@F^@G^@=~@s$@9/ !-+H^@I^@D{ Q++9/ zW.`6 `U.J^@%=@K^@L^@M^@N^@O^@P^@Q^@wh gc R^@Y6 S^@68 ',+T^@U^@V^@W^@X^@Y^@Z^@^7 3|.JL `^@)E  /@./@+/@@/@#/@$/@%/@&/@*/@# +=/@-/@;/@>/@,/@'/@)/@C;+nV.W5 Eh L++.7 1K+zg+ec Hj+!/@~/@{/@]/@^/@//@(/@_/@:/@</@9/ Z6 'n 0p+[/@}/@|/@1/@2/@SH+3/@5{ _T.#U+Oz+6Z.4/@_]@5/@6/@7/@8/@O{.%~+9/@0/@a/@b/@c/@d/@e/@f/@g/@h/@i/@j/@k/@l/@m/@n/@o/@p/@q/@r/@s/@t/@u/@v/@w/@x/@y/@z/@A/@B/@C/@D/@E/@F/@G/@Zq+H/@O{.!h.A3 ,7 I/@Q4 8@+J/@K/@>7 1=+&4 E{.hX.U3 :v.L/@j,.M/@N/@O/@ ^@.^@P/@Q/@R/@S/@T/@<J U/@V/@W/@X/@Y/@|j+H1 Z/@L-@[{+sy+o[ F>@<{@_t+[{@",
"`/@ (@.(@+(@,Z+,Z+{Z+{Z+@(@#(@C)@cz $(@%(@2c &(@*(@kt.Tt `<.=(@-(@;(@>(@,(@<^@[^@'(@*.+)(@9|.k_.!(@~(@/'.{{+-E+{(@](@^(@/(@((@_(@:(@<(@[(@}(@|(@!X.1(@2(@3(@4(@5(@6(@7(@8(@9(@0(@a(@b(@c(@d(@e(@f(@g(@h(@i(@j(@k(@l(@m(@n(@o(@p(@q(@r(@s(@t(@u(@F^@v(@=~@ec 9/ !-+H^@w(@jU.%~ 9/ F*+S#+`6 x(@y(@z(@A(@B(@BR+C(@D(@E(@-x+Xe F(@wa+,n Oq+58 ev+G(@H(@I(@J(@K(@L(@Bp+'/./@+L{.M(@bc.N(@O(@P(@Q(@R(@S(@T(@U(@V(@W(@X(@Y(@Z(@`(@ _@._@RA+-~+=5 e{+`6 F++dZ.+_@g{+A +Z! l=+@_@#_@$_@%_@&_@1t+*_@=_@X! [8 [8 F*+C++%e -_@;_@>_@,_@'_@zC+iU.Q++IN+Ab.V]+-~+P3 )_@!_@~_@{_@]_@^_@Np /_@(_@__@:_@<_@[_@}_@|_@1_@2_@3_@4_@5_@6_@7_@8_@9_@0_@a_@b_@c_@d_@e_@f_@g_@h_@i_@j_@k_@l_@m_@n_@o_@p_@q_@r_@s_@Vi.t_@u_@v_@w_@x_@y_@z_@A_@_P.B_@hX.M3 J{.{c C_@D_@E_@F_@ ^@<m G_@H_@I_@J_@K_@C;+e2.L_@M_@%y.N_@O_@R5 SQ+>X+A4+4q+P_@QG+<{@f!@[{@",
"`/@ (@.(@+(@{Z+)A+{Z+{Z+Q_@4o+C)@cz $(@NB+R_@S_@T_@Cl.U_@V_@W_@X_@Y_@Z_@,(@<^@[^@`_@ :@)(@9|.LX..:@+:@@:@iA.#:@$:@%:@&:@(p.*:@=:@-:@;:@zJ.>:@iR.:<+,:@':@):@!:@~:@{:@]:@^:@/:@(:@_:@::@<:@[:@39.}:@|:@1:@2:@3:@4:@5:@6:@7:@8:@9:@0:@a:@b:@c:@d:@Lt.e:@=~@/u+9/ !-+f:@%,@jU.%~ 9/ F*+S#+z +4Z.g:@h:@i:@j:@xD+k:@l:@m:@n:@o:@qs+ a .a hU.%6 BV+p:@q:@r:@s:@D;+t:@u:@v:@w:@x:@y:@ed.bi+z:@A:@B:@C:@D:@E:@F:@G:@H:@I:@J:@K:@L:@mg+M:@KL -~+~n W]+#7 ';+N#+@6 L++M#+B-+D{ N:@7A+O:@P:@Q:@R:@S:@T:@9/ [8 Z6 iU.$]@U:@V:@&]@:++jc 78 P'++6 M#+Qp dc W:@Y;+=7 T/+X:@Y:@Z:@`:@tx+ <@.<@+<@@<@#<@$<@%<@&<@*<@=<@-<@;<@><@,<@'<@)<@@#@!<@~<@{<@J: ]<@^<@/<@(<@_<@:<@<<@J8 [<@}<@|<@1<@2<@3<@4<@5<@6<@U]@%r.7<@8<@9<@0<@a<@TJ.b<@.t.c<@@k+25 I3 x'+d<@D_@E_@e<@f<@g<@h<@i<@j<@k<@l<@#'+m<@n<@o<@p<@q<@r<@R5 s<@L-@ib+4q+Jw+t<@u<@f!@[{@",
"v%@C*@%u+v<@>s+>s+sy+Ow+u'@w<@U}+:j x<@y<@z<@A<@ZO `{+B<@e3 C<@D<@E<@F<@rq.b!+G<@Jm+CW H<@I<@+]+J<@K<@L<@3r+M<@N<@O<@P<@Q<@R<@S<@T<@fs (l+U<@V<@W<@X<@Y<@Z<@`<@ [@.[@+[@@[@#[@$[@%[@&[@*[@=[@-[@;[@>[@,[@'[@)[@![@~[@{[@][@^[@/[@([@_[@:[@<[@[[@}[@(R+|[@WP.@6 BC+1[@%,@'n &~ jU.F*+F*+F*+[8 2[@3[@4[@5[@6[@7[@8[@9[@0[@#f $a Oq+G++nc X! |8 [8 I1 3S.{P.kZ T3 a[@F5 b[@c[@LL F3 %E 'E d[@e[@f[@g[@h[@i[@j[@k[@l[@m[@n[@o[@d#.}'.=y+/7 ;5 *5 N^+`>+.,+wa+wa+G++nc 'n F +Ic+Iv+ic +f t;@}n+>4 N#+M#+iU.gk p[@q[@r[@s[@t[@u[@Vg+v[@w[@x[@^P.=k+Cf+@a y[@78 N'+z[@A[@B[@k5 C[@D[@E[@F[@G[@H[@I[@J[@K[@L[@M[@N[@O[@P[@Q[@R[@S[@Rh.T[@U[@V[@W[@X[@Y[@Z[@`[@ }@.}@+}@@}@#}@$}@%}@&}@*}@=}@-}@;}@>}@,}@'}@)}@!}@~}@{}@]}@^}@4A+/}@({.K3 I3 (}@_}@:}@<}@[}@um+}}@|}@1}@Og.2}@3}@Eb.c<.4}@5}@YO.&m z[@X5 72+6}@H>@4q+TG+7}@8}@:$+9}@",
"0}@5+@!Z+v<@>s+sy+4q+>s+P_@a}@~e.-0 b}@c}@d}@e}@2Z.Z=+f}@g}@h}@]H i}@j}@k}@l}@m}@n}@o}@1W p}@y!.q}@r}@s}@t}@u}@v}@w}@x}@y}@z}@A}@B}@}-..U+5~+C}@D}@E}@F}@G}@H}@I}@J}@K}@L}@M}@N}@O}@P}@Q}@R}@S}@T}@U}@V}@W}@X}@Y}@Z}@`}@ |@.|@+|@@|@#|@$|@%|@&|@*|@(R+K++ie+G++Y6 =|@-|@'n ;|@A%+F*+F*+F*+9/ 3S.>|@Wh.5~+,|@'|@)|@!|@~|@$f oc -6 +6 G++IY.|8 .,+.7 %7 ~n _y+{|@a5 'P./Z.]|@J{.05 i=.FG C!.^|@/|@ +.(|@-n._|@F;@p++:|@vS L:+0$@d5 g!.J5 IS.~7 *4 gH.WJ.R5 &5  ,+F*+F*+9/ F*+M#+M#+L++D{ 9/ ]D+z +S#+N#+Pt+0g+<|@[|@}|@||@1|@2|@zw.3|@4|@5|@6|@4'+zW.`U.3S.U~ 4M+7|@)6+^P.8|@9|@0|@a|@b|@c|@d|@e|@f|@g|@h|@i|@j|@k|@l|@m|@n|@o|@p|@q|@r|@s|@t|@u|@v|@w|@x|@y|@z|@~'@A|@B|@q#.C|@D|@E|@F|@G|@H|@I|@J|@K|@L|@M|@N|@u_@O|@P|@Q|@({.K3 J{.t1 R|@4X.S|@T|@|o+U|@V|@W|@X|@Y|@Z|@WU.`|@ 1@.1@+1@=u =P+X5 K*+@1@6h+~X+TG+#1@$1@:$+%1@",
"v%@C*@!Z+v<@sy+>s+sy+4q+P_@w<@:P.-0 &1@c}@c*@*1@=1@$*+-1@;1@>1@,1@'1@F<@)1@l}@!1@~1@{1@]1@p}@G{.^1@W/@/1@(1@_1@7S.:1@<1@[1@}1@hL+|1@11@n^+21@31@41@51@61@vf 71@81@m~.91@sP+01@a1@b1@P}@c1@d1@e1@f1@g1@h1@i1@j1@k1@l1@m1@n1@o1@p1@q1@r1@s1@t1@u1@s @G^@oR.v1@G++'n =|@w1@L1 ;|@</ 9/ F*+F*+F*+[8 RM.x1@T:+y1@z1@A1@B1@C1@D1@E1@-6 -6 @6 5'+L1 W! &7 @4 UH.!o.F1@_n.IK ~/.LL I3 V<.D3 1'.|'.i=.ai.C!.>E HG c-+:Y G1@aN k=.)o.65 O;.c5  ]+E{.w#+ W+Z3 IS.M5 5Z.`U.9/ 9/ 9/ 9/ N#+g{+U7+Eh @7 `>+ 7 N#+U7++,+H1@I1@J1@K1@L1@M1@N1@O1@P1@9} =p+wJ.Q1@R1@AC+Ve K++S1@T1@1=+E1@U1@V1@W1@X1@Y1@Z1@`1@ 2@.2@+2@@2@#2@$2@%2@&2@*2@=2@-2@;2@>2@,2@'2@)2@!2@~2@{2@]2@^2@/2@(2@_2@:2@<2@[2@}2@|2@12@22@32@42@52@62@72@82@92@02@a2@X9+(A+b2@[5 O*+c2@d2@e2@f2@g2@|o+h2@i2@j2@k2@l2@m2@}7 n2@&{+H}.o2@p2@=P+X5 72+d!@A4+q2@2!+r2@s2@:$+t2@",
"4+@C*@4=.+(@sy+XS+XS+XS+u2@#(@v2@:j w2@x2@c*@y2@z2@Z=+A2@3;.B2@C2@D2@E2@=t.F2@!1@G2@VI+H2@R}+G{.I2@J2@c4+K2@L2@M2@N2@O2@P2@Q2@R2@S2@T2@U2@V2@W2@tq+X2@Y2@Z2@`2@ 3@.3@+3@@3@#3@$3@%3@&3@*3@=3@-3@;3@>3@O>@,3@'3@)3@!3@~3@{3@]3@^3@/3@(3@_3@:3@<3@[3@G^@}3@|3@nc >4 13@23@9/ &~ iX+'n F*+F*+F*+|8 I1 ZB )6+33@zo+43@I[+53@aD.~4 G++-6 wa+wa+&6 Y5  4 B3 !h.63@73@83@!E Y%.DG L_.x:@:J i!.i!.AG ,u .g.F3 y:@t'.j*+jx+85 8y+8y+93@8y+O*+2'._J 1'.:J 95 :J b5 wx.s +9/ F*+9/ 9/ L++N#+Y6 03@a3@V2.-~+IS.5Z.>4 Pz+`>+hU.x3+>~ b3@c3@d3@e3@f3@g3@h3@i3@j3@k3@l3@m3@n3@o3@p3@Xe q3@r3@s3@t3@u3@v3@w3@x3@y3@z3@A3@B3@C3@D3@E3@F3@G3@H3@I3@J3@K3@L3@M3@N3@O3@P3@Q3@R3@S3@T3@U3@V3@*i+W3@X3@Y3@Z3@`3@ 4@.4@+4@@4@#4@$4@%4@&4@*4@e8 :j.=4@65 ML gM.-4@;4@f2@g2@r>+>4@,4@'4@)4@!4@~4@{4@s8+]4@H}.o2@^4@=P+Z5 72+/4@Zk+,Z+(4@r2@j#@Gy+_4@",
"4+@C*@:4@x%@sy+sy+XS+XS+u2@<4@:P.:j w2@x2@c*@y2@=1@'P.[4@}4@:A+|4@14@24@34@44@!&+54@VI+64@rX.G{.&k 74@84@94@04@a4@b4@c4@d4@e4@f4@g4@h4@i4@j4@k4@l4@)f.m4@n4@o4@p4@q4@o8 r4@s4@t4@u4@&3@v4@w4@x4@y4@z4@A4@B4@C4@o]+D4@E4@F4@G4@H4@I4@J4@K4@L4@M4@1~+G^@}3@9@+nc 9/ =|@N4@9/ &~ %~ 'n F*+F*+F*+ 7 a8 IY.}X.6<+O4@>s P4@Q4@R4@%a wa+-6 -6 @6 [8 HE S4@di.CA T4@U4@V4@6.@W4@:Y U%.l=.y!.j=.j!.j!.zG j=.H3 Y;.E3 05 95 85 Cl.ML X;.x:@!h.BG yq.J.@X4@Y4@Z4@YT+S<.H3+Ie+9/ 9/ 9/ zW.V!  6 `4@ 5@.5@+5@@5@#5@('.D++`6 ]D+]D+V! b8 $.@$5@%5@&5@*5@=5@-5@5C+;5@>5@,5@'5@)5@!5@%f V{+~5@{5@]5@^5@/5@(5@_5@:5@<5@[5@}5@|5@15@25@35@45@55@65@75@85@95@05@a5@b5@c5@d5@e5@f5@g5@h5@i5@j5@k5@e_.l5@m5@n5@o5@p5@q5@r5@s5@t5@u5@v5@ww w5@;y+x5@JL :J c2@y5@z5@S|@A5@r>+B5@C5@{q+D5@E5@F5@{4@%R.G5@H5@I5@J5@z[@Z5 72+/4@Zk+XS+K5@L5@j#@Gy+_4@",
"KM+M5@*F+=q+XS+4q+N5@sy+u2@O5@:P.-0 P5@Q5@R5@S5@-y+X9 T5@U5@Og.V5@W5@X5@Y5@eH !&+jV.0d+Z5@`5@NL  6@.6@+6@#f.@6@#6@$6@%6@&6@*6@=6@-6@;6@>6@,6@'6@)6@!6@~6@{6@]6@!e+^6@/6@(6@_6@:6@<6@[6@}6@|6@16@26@36@46@56@66@76@86@96@06@a6@b6@c6@d6@e6@f6@g6@V<@h6@3=+[n+i6@F%+j6@k6@aJ+nc =k+F*+F*+'n 9/ F*+F*+F*+Y6 *k+ a xW.l6@.`+m6@n6@zW.@6 Oq+xg+O^+o6@p6@q6@r6@s6@t6@u6@v6@w6@-<+be.x6@X%.ga+j!.FV.l,+aN }'.di.i=.CG h=.y6@%].4'.Ik.z6@A6@MH B6@C6@D6@E6@F6@G6@)Z.,f W]+.7 F*+L++Z0 |8 |8 +7 `5 -5 G5 H6@I6@J6@K6@L6@_O.%a /P.ek L++wa+M6@N6@O6@P6@Q6@R6@S6@T6@U6@V6@W6@~N+X6@lR.Y6@Z6@`6@ 7@.7@t3@+7@a|@@7@#7@$7@%7@&7@*7@=7@-7@;7@>7@,7@'7@L;+)7@!7@`'.~7@{7@]7@^7@/7@(7@_7@Ug+:7@<7@[7@}7@|7@17@27@37@47@57@67@@M.77@J*+(k+Kz+87@^D..!.97@07@a7@=F b7@$0.c7@d7@e7@e*@f7@g7@h7@eV.(q+i7@,^+j7@k7@Y5 l7@,Z+m7@>s+n7@o7@j#@p7@N-@",
"KM+M5@*F+q7@XS+r7@sy+XS+u2@<4@'^@-0 P5@Q5@vy+s7@`k+Ou+t7@qb+u7@v7@w7@x7@y7@eH !&+z7@A7@B7@C7@NL D7@4M *d+E7@F7@G7@H7@I7@J7@K7@L7@M7@N7@O7@P7@Q7@R7@S7@T7@U7@V7@W7@X7@Y7@Z7@`7@ 8@.8@+8@@8@#8@$8@%8@&8@*8@|>@=8@-8@;8@>8@,8@'8@)8@!8@~8@{8@]8@^8@/8@(8@_8@:8@<8@S#+[8@}8@|8@nc ;~ F*+F*+'n 9/ F*+F*+F*+F*+9/ @6 Do+Do+18@>v+n6@zW..6 %a >6 28@38@48@58@68@78@88@98@08@a8@b8@c8@d8@$Y+t7+C!.W[+e8@f8@L_.,u g8@rM+B1+fA.q_.d5.b#.h8@i8@j8@k8@l8@m8@6i.n8@o8@p8@d +)7 &5 .,+gk gk 9/ 9/ F*+F*+L1 K1 $7 *4 mK.q8@r8@s8@|K+!@@t8@M#++6 xg+Hv+u8@v8@w8@x8@y8@z8@A8@B8@C8@D8@E8@TR+GY.F8@G8@H8@I8@J8@`I.K8@L8@M8@N8@O8@P8@Q8@R8@S8@T8@U8@V8@W8@X8@Y8@Z8@`8@ 9@.9@+9@@9@#9@$9@%9@&9@*9@=9@0D.-9@;9@>9@,9@'9@)9@!9@~9@{9@]9@^9@/9@(9@_9@^D..!.97@:9@}v.=F b7@i7.<9@[9@e7@|W }9@~4@h7@eV.|9@19@,^+29@39@.5.49@VS+xt+sy+({@o7@PO+rW.N-@",
"59@69@*F+79@XS+r7@XS+sy+u2@NJ C)@:j 29@Q5@19@s7@`k+k++89@qb+a%@99@09@a9@b9@c9@d9@jV.e9@f9@C7@NL g9@h9@_4 i9@j9@k9@l9@m9@n9@o9@p9@q9@r9@s9@t9@u9@v9@w9@x9@y9@z9@A9@B9@C9@D9@E9@F9@G9@H9@I9@J9@K9@L9@M9@N9@O9@P9@Q9@x9@R9@S9@T9@U9@V9@W9@X9@Y9@Z9@`9@ 0@v(@.0@]*+iU._! +0@@0@nc #~ 9/ 9/ 9/ F*+F*+F*+F*+9/ F*+;4 zW.@6 .,+{F.dZ.zW.M1 .6 U~ #0@sQ $0@%0@&0@*0@=0@-0@;0@>0@,0@'0@)0@!0@~0@41+{0@]0@^0@M:@+M+/0@(0@_0@:0@+&.Ve.<0@[0@}0@|0@10@YS 20@30@40@50@60@S4@#4 4Z.Y5 o7.bc 'n kU.|8  ,+`5 4Z.2'+5Z.5Z.$7 .4 }7 70@.4 !-+@6 %6 B +iX+80@>n 90@00@a0@@E.Jo+b0@c0@d0@e0@oR.18 f0@g0@h0@i0@bz+j0@k0@l0@m0@n0@o0@p0@q0@r0@s0@t0@u0@v0@w0@x0@y0@z0@A0@B0@C0@D0@E0@F0@G0@H0@Bg+I0@U#++,@J0@K0@L0@M0@N0@O0@+V.2K+8K+0O+P0@-K.(9@Q0@^D.R0@f1 S0@T0@U0@V0@W0@c7@d7@X0@nK+Y0@~4@h7@u4+Z0@`0@YQ. a@VJ.Y5 l7@)A+.a@sy++a@Bt+@a@rW.#a@",
"$a@SG+%a@&a@XS+sy+XS+sy+*a@@5.U}+:j 29@=a@19@-a@-y+k++;a@>a@)4@,a@09@'a@_K.gW )a@!a@~a@f9@*%+NL 6A.{a@`E.]a@^a@/a@(a@_a@]z.:a@<a@[a@}a@|a@1a@2a@3a@4a@5a@6a@7a@8a@9a@0a@aa@ba@ca@da@ea@#3.[0@fa@ga@ha@ia@ja@ka@la@ma@na@oa@pa@qa@ra@sa@ta@ua@va@wa@6L+zK.xa@ya@18 -6 za@Aa@G++@~ 9/ 9/ F*+F*+F*+F*+F*+'n 9/ zW.F*+F*+zW. V.vN.zW.<X. ,+}O.Ba@Ca@Da@Ea@Fa@Ga@Ha@Ia@Ja@Ka@La@Ma@Na@Oa@Pa@Qa@Ra@Sa@|,+Ta@Ua@Va@Wa@Xa@Ya@Za@`a@ b@.b@+b@@b@#b@$b@%b@&b@*b@]n.HL b[@Y3 =5 2'+2'+4Z.W]+&4 ;5 IS.gQ.M'+)6+(P.y3+`U.X! 38 xg+s +W! @6 M#+N#+Y0 #7 W! Do+=k+t&@=b@-b@;b@>b@,b@'b@)b@!b@B{ ~b@{b@]b@^b@/b@(b@_b@:b@<b@[b@}b@|b@1b@2b@3b@4b@5b@6b@7b@8b@9b@0b@|k ab@bb@cb@db@eb@fb@gb@X6@Mp Mc+.5.hb@Ue ib@jb@{4 8(+Q5 4Z.~X.&7 -K.kb@lb@^D.ib h1 mb@T0@nb@V0@ob@c7@pb@qb@6V.rb@sb@tb@u4+|9@`0@$@+ a@VJ.$7 ^F.{Z+9f+sy+Sr+0o+ub@_t+[{@",
"vb@SG+%a@=q+XS+XS+XS+XS+*a@wb@xb@%e yb@Q5@i7@zb@-y+k++Ab@qb+)4@Bb@Cb@a9@zy+-t.Db@Eb@e9@Fb@Gb@i!.&t.J2@r7.J>@c!.Hb@Ib@Jb@Kb@Lb@Mb@Nb@Ob@Pb@Qb@Rb@Sb@Tb@Ub@Vb@Wb@Xb@Yb@Zb@`b@ c@.c@+c@@c@#c@/c.$c@%c@&c@*c@=c@-c@;c@>c@,c@'c@)c@!c@~c@{c@]c@^c@/c@(c@}} 2;+_c@:c@#a wa+<c@[c@Qt+@~ 9/ 9/ F*+F*+F*+F*+F*+'n 9/ L++L++M#+L++]D+>4 zW.Y5 O^+}c@|c@1c@2c@3c@4c@5c@6c@7c@8c@9c@0c@ac@bc@by cc@dc@ec@fc@gc@hc@ic@jc@kc@lc@mc@nc@oc@pc@qc@rc@sc@tc@uc@+r.vc@&].LL L3 @w+Y3 ~n &4 *7 #4 nV.Y3 B3 wc@BM+#E F3 ]5 X]+>4 z +e{+.7 .6 V! M#+18 W! %5 xc@FJ+dZ..,+IY.,4 yc@zc@Ac@Bc@Cc@Dc@yc@L++);+FY.u!+Ec@Fc@Gc@Hc@Ic@h! Jc@Kc@Lc@Mc@Nc@Oc@Pc@Qc@v{+Rc@>!@Sc@Tc@Uc@Vc@Wc@Xc@Yc@Zc@`c@ d@.d@+d@v1@IY.@d@#d@$d@4M+%d@cZ.%5 +5 {X.&5 -K.&d@`/+^D.i}+h1 *d@=d@Wv V0@$0.-d@[9@;d@nK+>d@,d@tb@D5 |9@`0@YQ. a@VJ.Z5 'd@)A+s6+({@n7@o7@ub@_t+[{@",
")d@SG+!d@~d@~X+{Z+~X+,Z+{d@@5.5p+pb X/+]d@^d@/d@(d@P3 _d@:d@.x+<d@[d@}d@|d@dt 1d@2d@3d@4d@-.+i!.5d@6d@7d@8d@cR.]W+_3+9d@0d@ad@bd@cd@dd@ed@fd@gd@hd@id@ql+jd@kd@ld@md@nd@od@pd@lp+qd@rd@sd@td@ud@vd@wd@xd@yd@zd@Ad@Bd@Cd@Dd@Ed@Fd@Gd@Hd@Id@Jd@Kd@Ld@Md@Nd@Od@Pd@qc+S#+Qd@Rd@#B+jU.BC+BC+F*+F*+9/ 'n F*+'n 9/ F*+F*+F*+F*+F*+@6  7 Sd@P0@e~+Td@Ud@Vd@Wd@Xd@Yd@Zd@Cq+`d@ e@.e@+e@@e@#e@$e@%e@&e@*e@=e@-e@;e@>e@,e@'e@)e@!e@~e@{e@]e@^e@/e@(e@Va.Y=+Jk.:J [5 UH.&X..4 V]+$X.m,+f +l_.jV _e@:e@<e@[e@}e@|e@1e@xw+F*+zW.F*+F*+F*+9/ 9/ F*+gk 2e@3e@4e@>4 5e@ ,+M#+ 7 &k+#v+,n L++9/ 9/ 1S.Iv+6e@7e@8e@X6.9e@0e@ae@be@ce@de@ee@fe@ge@he@ie@je@%2 *_@ke@le@me@ne@oe@pe@qe@re@se@te@ue@ve@JY.ec @,+X0 W_+nw+;~@Z5 ]7 we@4e@}!+ 6 CE+xe@:k+zG ye@ze@Ae@Wv Be@Ce@De@Ee@Fe@Ge@He@Ie@Je@v0+8f+vy+Ke@x<@k7@X5 4j >s+sy+ib+Le@Me@ub@_t+[{@",
")d@SG+!d@=q+~X+~X+,Z+{Z+Ne@@5.5p+pb X/+]d@Oe@Pe@(d@P3 Qe@:d@.x+Re@Se@Te@Ue@Ve@We@Xe@XM+Ye@-.+:J Ze@`e@Tr+ f@.f@+f@@f@#f@oR+$f@%f@&f@*f@=f@-f@;f@>f@Hy+TR+$@@,f@ v+'f@)f@iG.!f@~f@j&@]/.{f@]f@^f@/f@(f@_f@:f@<f@[f@}f@|f@1f@2f@3f@4f@5f@6f@7f@8f@9f@h4@0f@nc+af@bf@9/ cf@df@ef@D{ )-+'n F*+F*+9/ 'n F*+'n 9/ F*+F*+F*+F*+F*+@6 zW.o7.un+MF+ff@gf@hf@if@jf@kf@lf@d/.Q;.Y%.Ee.mf@nf@of@pf@qf@rf@sf@tf@uf@vf@wf@xf@yf@zf@bE Af@Bf@Cf@*r+`d@ei.F3 8y+h!.[5 A3 _5 {5 37 /D.Q3 2'.k!.Df@Ef@Ff@Gf@Hf@If@Jf@Kf@Lf@/u+F*+F*+F*+F*+F*+F*+F*+F*+F*+`>+Mf@Nf@Of@=4 &5 jU.Pt+o7.+6 9/ F*+F*+9/ mq+Pf@Qf@Rf@Sf@Tf@Uf@x0+rt+Vf@Wf@Xf@Yf@Zf@`f@ g@.g@+g@@g@|n+#g@$g@%g@&g@*g@=g@-g@;g@>g@,g@'g@)g@oR.kc !g@zC+-6 N^+~g@A5 {g@]g@$T.0:+ 6 ^g@xe@:k+zG /g@S0@(g@|V.T|@&^+_g@Ee@Fe@iH.:g@]q+Je@<g@p0+vy+Ke@&1@GM+W5 4j >s+*V+O-@[g@}g@@a@_t+[{@",
"|g@1g@4=.q7@~X+c!@c!@,Z+U/+2g@Lc+@0 3g@4g@5g@J +6g@d+._d@7g@8g@9g@0g@Te@ag@bg@kD+cg@XM+dg@eg@>Z.fg@gg@M5 HO.hg@ig@jg@kg@lg@mg@ng@og@pg@qg@rg@sg@jR.tg@/*+ug@@}+vg@wg@eO.xg@yg@zg@Ag@Bg@Cg@Dg@Eg@Fg@Gg@Hg@p^@Ig@Jg@Kg@Lg@Mg@Ng@Og@Pg@Qg@Rg@Sg@Tg@Ug@Vg@yF+Wg@Xg@(%+dc >,+Yg@Zg@=f )-+'n 'n 9/ F*+F*+F*+'n 9/ F*+F*+F*+9/ F*+F*+M#+ 7 `g@D;@ h@.h@+h@@h@#h@$h@%h@&h@*h@05 Rp 4N a#.o++=h@xF.-h@;h@>h@,h@'h@)h@!h@~h@{h@]h@^h@u,@Z%.W%.G3 LL 'P./h@A3 O3 M3 U3 U3 A3 B3 _'.GG (h@_h@:h@<h@[h@}h@|h@1h@2h@HS.N#@F*+9/ 9/ F*+9/ 9/ F*+F*+Y6 ];.yW.2A+3h@4h@mK.;~ wT+g{+%6 F*+F*+F*+9/ *p+!++R3+5h@6h@7h@8h@9h@0h@nR.ah@bh@ch@dh@eh@fh@gh@hh@ih@jh@kh@lh@mh@nh@oh@ph@qh@rh@sh@th@3(@v{+V;+]c+D_ #{@=2+=j+uh@vh@wh@S5 xh@5A+2'+yh@zh@B3 +T Ah@Bh@Ch@|V.Dh@Eh@Fh@Gh@Fe@Hh@He@Ih@^q+Jh@Kh@`0@_|+Lh@Mh@W5 wb@TG+XS+O-@Le@0o+@a@f!@2v+",
"vb@&V+GI+=q+{Z+c!@~X+,Z+Nh@2g@5p+32.3g@4g@Oe@Oh@6g@d+.Ph@Qh@7v+Rh@Se@Sh@Th@Uh@Vh@Wh@b'+dg@Xh@:V.eg.Yh@N5 `-+o0+Zh@`h@ i@.i@+i@@i@#i@$i@%i@&i@*i@=i@oc Q++HY.ag+wa+R1 -i@;i@>i@,i@'i@)i@!i@sI ~i@{i@]i@^i@T` /i@(i@_i@:i@<i@[i@}i@|i@2t+1i@2i@3i@4i@5i@6i@7i@8i@9i@4`+G++ef@0i@C! 'n 0~ 'n 9/ F*+F*+F*+'n 9/ F*+F*+F*+'n 9/ F*+B-+L1 {P.ai@K2@bi@ci@di@ei@fi@gi@hi@ii@X^+V2.=y+lO.i=.X%.+E 4)+ji@-I+ki@$ +<Y li@ee.mi@ni@`;.@*+oi@LL 2'.]|@P;.YU.IP+c5 L3 :k+m_.)o.}'.pi@nV qi@ri@si@ti@ui@vi@wi@6h.>Z.;!+BC+9/ 9/ 'n 9/ 'n 9/ F*+F*+ek X! Y6 1S.kq.xi@p1 ]7 Ic+F%+B +F*+F*+F*+9/ n=@yi@zi@Ai@Bi@Ci@Di@Ei@Fi@Gi@Hi@Ii@Ji@Ki@Li@Mi@Ni@Oi@Pi@Qi@Ri@Si@Ti@Ui@Vi@Wi@Xi@Yi@Zi@`i@ j@.j@(8@-n Iv+X! W! 0M +j@(P.*f %5 ^}@V0 2'+yh@@j@[5 Rp #j@ze@$j@Wv %j@Eh@Fh@&j@Fe@sC.*j@Ih@YG+Jh@3d 19@b6+&1@Mh@X5 =j@>s+>s+-j@Le@}g@ub@f!@zb ",
";j@1g@4=.q7@~X+c!@>j@{Z+*a@,j@xb@pb n'+1d 'j@/d@6g@d+.)j@!j@~j@H8+bH {j@]j@^j@/j@cg@(j@_j@:j@yG <j@[j@gH.E{.HW }j@|j@1j@2j@3j@4j@5j@6j@7j@8j@)f@jc [~ Ic+.6 .6 We 9j@0j@aj@bj@cj@dj@ej@_U.fj@gj@hj@ij@jj@kj@lj@mj@nj@oj@pj@qj@rj@sj@tj@33+uj@vj@wj@xj@V7@yj@zj@Aj@.8+.a GT+Bj@Cj@V! Dj@&6 9/ F*+F*+F*+9/ 9/ F*+F*+F*+9/ F*+F*+%6 4'+<O.Ej@Fj@Gj@Hj@Ij@Jj@Kj@Lj@Mj@Nj@Oj@Pj@1j Bp+E{.B3 J3 K3 1y.!h.M{.l=.IK E3 >Z.*:.>T+LL 2'._J S<.[5 K3 A3 UH.`(+^J 75 LL H3 5N !8.Qj@Rj@Sj@Tj@Uj@Vj@Wj@Xj@fg.C;+Yj@.7 V! 9/ 9/ 'n 9/ 'n 9/ F*+F*+9/ |8 ]D+Zj@nc z3 `j@ k@-7 *2+U7+F*+F*+9/ 9/ je+WS..k@+k@@k@#k@$k@%k@&k@*k@J{@=k@-k@;k@>k@,k@'k@)k@!k@~k@{k@]k@^k@/k@(k@_k@:k@<k@[k@}k@E^@|k@1k@;B+2k@gk ,;+3k@4k@~e.`5 M5 wt+Vu+%7 CE+@j@J3 +T 5k@6k@7k@tu 8k@9k@0k@ak@bk@ck@$;@Ie@{[+D5 (q+dk@ek@j7@fk@X5 h7 3v+XS+q7@H>@gk@@a@f!@N-@",
"hk@ik@!Z+jk@kk@lk@mk@kk@J2 NJ U}+X0 Bw 5^+=j+Oh@6g@d+.nk@_ @F6+Yf ok@pk@qk@rk@sk@tk@uk@vk@2g+8y+6A.wk@xk@%4 0T.e +yk@_1@zk@Ak@Bk@Ck@Dk@Ek@Fk@Gk@.a >4 z +|S.2I.Hk@Ik@Jk@Kk@Lk@Mk@Nk@Ok@gN ,++Pk@Qk@Rk@Sk@Tk@Uk@Vk@Wk@Xk@Yk@Zk@`k@u3+ l@.l@+l@@l@#l@$l@%l@&l@*l@=l@-l@yW.L1 ;l@>l@M1 vN.,l@Z6 zW.F*+F*+F*+F*+9/ 9/ F*+F*+F*+E%+F%+f{+`>+kk@'l@)l@!l@~l@{l@]l@^l@/l@(l@_l@Y7+H3+;5 ]7 ^7 (5 ^5 E{.F5 c+.B3 i%+J3 +'+}@@}T.}T./D./D.P3 L3 A3 A3 L3 j!.E3 :l@BG 1~@O,@<l@[l@}l@|l@1l@2l@3l@4l@aR.}e. W+*5 +7 zW.F*+F*+'n 9/ 'n 9/ F*+F*+F*+F*+F*+F*+9/ xb@5l@6l@`x.E++</ F*+F*+'n 'n B-+WS.7l@8l@9l@0l@al@bl@cl@dl@j=+el@fl@gl@hl@il@jl@kl@ll@ml@nl@ol@pl@ql@rl@sl@tl@ul@vl@wl@xl@yl@zl@ve@Al@nc z-+Y)./M.`5 .,+e0+ [+0&.}X.Bl@@j@_J j!.1o+AG+Cl@Dl@El@^K Fl@Gl@Hl@Og.Il@Ok+M_.Fe+Jl@Kl@Ll@Ml@:6 Y5 2v+({@,Z+XS+H>@Nl@Ol@!j+A*@",
"hk@ik@!Z+<o+mk@mk@kk@kk@Pl@NJ U}+X0 Bw 5^+=j+Oh@6g@d+.,}@Ql@Rl@pe Sl@2j.Tl@Ul@sk@Xe@o4+Vl@2g+8y+Wl@Xl@r +S5 )5 S^+2r+Yl@5N.Zl@`l@ m@.m@+m@@m@ic dc #m@D{ yW.$m@%m@&m@*m@=m@-m@;m@>m@,m@'m@L_.`f.)m@!m@~m@{m@]m@^m@/m@(m@_m@:m@<m@[m@}m@|m@1m@2m@3m@4m@5m@6m@7m@;p..0@<%+G++8m@9m@0m@Eh am@z +zW.F*+F*+F*+F*+9/ 9/ F*+F*+F*+Z0 F%+F%+e{+bm@cm@dm@em@fm@gm@hm@im@jm@Q4+n2 km@lm@S5 oD+mm@B++V]+&X./7 !5 UH.WC. ]+A3 WC.UH.UH.37 37 -~+UH.L3 J3 O*+G{.0$@ g.nm@om@pm@qm@rm@sm@tm@um@2h.de.FV.XU.w#+)7 (P.zW.F*+F*+F*+'n 9/ 'n 9/ F*+F*+F*+F*+F*+F*+F*+L1 hQ.vm@wm@xm@,;+f{+f{+</ ym@]X.zm@Am@Ts+Bm@Cm@Dm@Em@Fm@Gm@5(+Hm@Im@Jm@Km@Lm@Mm@Nm@Om@Pm@Qm@Rm@Sm@Tm@Um@Vm@Wm@Xm@Ym@Zm@`m@ n@.n@+n@@n@{ +Eh $5.+j@Q5 }!+mK.#n@$n@}X.Bl@@j@_J j!.%n@jC.Y]@Dl@8k@^K &n@*n@=n@-n@,c &(@M_.Fe+;n@kb@>n@Ml@:6 Y5 @u 4q+,Z+XS+[g@,n@'n@!j+A*@",
")n@`z+!Z+)h+mk@!n@!n@lk@ A+~n@Pp X0 {n@3o+]n@/d@=:.d+.,}@^n@Rl@/n@(n@_n@:n@SI+<n@Xe@o4+Vl@9F.Q8+[n@}n@:O.8(+>5 3=.|n@1n@2n@3n@4n@5n@6n@7n@8n@qs+X! N#+@6 ;n 9n@0n@an@bn@cn@dn@en@fn@gn@hn@in@jn@kn@ln@mn@nn@on@R+@pn@qn@rn@sn@ZM.;p.tn@un@vn@wn@xn@yn@zn@An@Bn@U<@Cn@~u+a8 Dn@N4@En@vN.Fn@F +zW.F*+F*+'n 9/ 9/ 9/ 9/ 'n 9/ F*+L++#6 }8 *5 u]+^$.Gn@Hn@In@Jn@Kn@Ln@Mn@Nn@U#+On@0:+Y)..V.U5 >7 e0+Tr+V]+,5 wg+w#+-~+(5 '5 /5 F{.c5 N3 X^+LL G{.Al.l,+Y=+Pn@+r.Qn@Rn@Sn@Tn@Un@Vn@ZP Wn@_'.QA+Bp+-5 $7 V! F*+F*+F*+F*+F*+F*+F*+F*+F*+F*+F*+F*+F*+F*+F*+M#+V9+SM.Xn@Yn@B{ S#+D{ S#+N#+#m@38 :! Zn@vN `n@ o@.o@+o@@o@#o@$o@%o@&o@*o@=o@-o@;o@>o@,o@'o@)o@!o@~o@{o@]o@^o@/o@(o@(;@_o@:o@<o@@v+zh z+@W! f!@lk@O5 T5 B_@[o@K_ WJ.}o@zh@_J j!.&{@tI+D_@|o@[M.1o@2o@*n@3o@;F.4o@5o@6o@(A+7o@kb@|d+8o@fk@Y5 2v+sy+{Z+c!@9o@Wl 0o@!j+ao@",
")n@`z+bo@)h+kk@!n@!n@lk@J2 AE C)@X0 co@do@=j+eo@=:.~0+fo@^n@go@/n@Sl@ho@io@SI+<n@Xe@uk@Vl@qM.Q8+jo@Xl@H3+-f >5 k>@ko@lo@mo@no@oo@po@qo@ro@so@L1 L++N#+G++Ij+to@uo@vo@wo@xo@yo@zo@Ao@Bo@Co@Do@Eo@Fo@Go@Ho@Io@kS Jo@Ko@Lo@Mo@{M.j{+e:@No@6w.Oo@7)@Po@Qo@Ro@So@To@hv+*i@Uo@-_@@6 Vo@Wo@Xo@L'+Yo@Z0 F*+F*+'n 9/ 9/ 9/ 9/ 'n 9/ F*+F*+#6 E%+.7 Zo@`o@ p@.p@+p@@p@#p@$p@%p@8} &p@S1@*p@=p@%e 4Z.4Z.P5 }X..4 V]+K5 J5 I5 '5 -~+F{.~o.P;.1'.k=.ES+4'.-p@A6@;p@>p@,p@'p@)p@!p@~p@{p@2e+$r+P` w:@Bp+=7 W]+.7 F*+Z0 zW.9/ 9/ F*+F*+F*+F*+F*+F*+F*+F*+F*+F*+F*+M#+Fg.N^+PQ+]p@^p@.6 V! '4 %a 3'+-6 &a /p@(p@_p@:p@<p@[p@}p@|p@1p@2p@3p@4p@5p@6p@7p@8p@9p@0p@ap@bp@cp@dp@ep@fp@gp@hp@ip@jp@kp@lp@mp@}3@qP+*f Gy+np@dS+2M+op@pp@#) WJ.qp@rp@_J j!.g1 tI+M/@sp@Zr+1o@tp@*n@up@vp@wp@xp@6o@(A+yp@(9@>n@(j.Mh@.t.yg q7@,Z+zp@Ap@Bp@0o@4r Cp@",
":[+Dp@!Z+<o+Ep@!n@ A+Fp@*a@@5.Gp@Sd@co@Hp@=j+Ip@=:.~0+Jp@Kp@J4+pe ah+Lp@Mp@Np@Op@Pp@tZ.Qp@9F.Q8+Rp@Xl@~7 e0+IS.kk Sp@Tp@Up@Vp@Wp@Xp@Yp@Zp@`p@BC+zW.|S.z+@jX+ q@.q@+q@@q@#q@$q@%q@&q@*q@=q@-q@RH.;q@>q@,q@'q@)q@!q@~q@{q@]q@pd@^q@/q@(q@_q@:q@<q@[q@}q@|q@1q@2q@F^@e^@3q@_a+wa+va+4q@5q@}i+6q@6q@F*+F*+9/ F*+9/ 9/ 9/ 'n 9/ F*+F*+Ic+Z0 'n Fh 7q@8q@9q@0q@aq@bq@cq@dq@eq@Ha.fq@gq@(_+Pp 2s+gH.,7 #4 Y3 -~+3|.}K+}T.{n ]J :v.%P+hq@iq@I=.`^@`V+jq@kq@+>.lq@mq@nq@oq@pq@qq@rq@sq@CG W2.S4@#4 tq@`5 ;4 zW.Z6 D{ ek ;~ M#+M#+@6 @6 @6 F*+zW.B-+@6 L++L++D{ uq@hk qc vq@wq@1K+xq@yq@zq@;v+C{ Aq@r^.`` Bq@Cq@Dq@Eq@Fq@^8+Gq@Hq@Iq@Jq@Kq@Lq@Mq@Nq@Oq@Pq@Qq@Rq@B0@Sq@Tq@Uq@Vq@Wq@Xq@Yq@Zq@`q@ r@Gq+P1 =f &`..r@M5+MS.+r@@r@#) gH.qp@#r@1'.E3 Vs.0y+D_@$r@NQ.>[+%r@&r@3o@vp@*r@=r@{[+(A+-r@(9@;r@>r@Mh@Z5 Bb ,r@!v+~X+'r@Bp@Ol@!j+2v+",
"~:+Dp@!Z+)r@!r@!r@!r@I2 ~r@+m P{ 32.{r@O2 Oe@&T.=:.~0+]r@^r@bd+se /r@(r@_r@:r@<r@[r@}r@|r@<z Q8+1r@2r@=a 1'+V]+3r@4r@5r@6r@7r@7P.8r@9r@0r@nK.#a zW.T=@yC+ic ar@br@cr@dr@er@fr@gr@hr@ir@jr@kr@us lr@mr@nr@or@pr@qr@rr@sr@tr@ur@vr@e} wr@xr@yr@zr@Ar@Br@Cr@Dr@Er@Fr@&9@Gr@Hr@}n+gk Ir@^> Jr@jU.Kr@'n 9/ F*+F*+9/ 9/ 9/ 'n 9/ F*+9/ 9/ F*+BC+J1 Lr@Mr@Nr@Or@Pr@HY+.$.Qr@Rr@Sr@Tr@xh ak Ur@Vr@Wr@V]+l++m++O;.X9 sX.Xr@y6@@m+`d fr -p@Yr@MH Zr@`r@6~@ s@.s@+s@F:@@s@#s@$s@%s@$r+&s@I3 (5 *s@%7 +7 Z6 Z6 ]D+]D+'n |S.18 18 18 wa+.a .a wa+W! hU.B-+M#+S#+</ =s@-s@[8 ;s@>s@+5 ,s@'s@)s@!s@~s@{s@Mp @}+Wu+]s@^s@/s@Bl+LS.lU.(s@_s@:s@<s@[s@}s@|s@1s@2s@3s@4s@E8@5s@6s@7s@8s@9s@0s@as@bs@cs@ds@es@ie+V9+>a fs@gs@1j hs@s^.is@T5 8I+UQ+:J <J js@7X+ks@ls@ms@%:+ns@d7@os@~v+ps@R2 qs@rs@YS+ss@ts@us@Mh@Z5 vs@{d@ws@xs@c!@Bp@'n@_t+ys@",
"~:+Dp@!Z+79@J2 !r@I2 J2 zs@+m cV.32.{r@nR As@Ip@=:.~0+Bs@s1 Cs@Ds@Es@Fs@Gs@Hs@Is@[r@Js@|r@<z Q8+Ks@Ls@gQ.1'+V]+S4@Ms@z9+Ns@Os@Ps@Qs@Rs@Ss@g}+c#+zW.yW.Ts@Hv+Us@Vs@Ws@Xs@Ys@Zs@`s@ t@.t@+t@@t@#t@$t@%t@&t@*t@=t@-t@;t@>t@,t@'t@)t@!t@~t@{t@]t@^t@/t@(t@_t@:t@<t@7w.t{+Nd@[t@}t@zC+C{ |t@1t@2t@&~ 3t@'n F*+F*+9/ 9/ 9/ 'n 9/ F*+F*+9/ F*+9/ V! %4 4t@DS.5t@6t@7t@8t@9t@0t@[[@at@bt@}(@ct@<*+%e =2+dt@et@P;.e+.U%.U%.ft@gt@Xg.c=.PP ht@zj.it@jt@kt@lt@mt@nt@ot@pt@qt@rt@st@>Z.hX.3|.>5 2'+e{+NE+#6 Ic+F +bv+aJ+58 Xe nq+tt@1T+EY.ut@&Y+^~@qB+.a B-+S#+f{+N#+,;+pc !P.xp@~m+vt@wt@xt@yt@zt@,,+At@Bt@6t+Ct@^D.et@W5 +6 +a Dt@Et@Ft@Gt@Ht@It@Jt@Kt@Lt@Mt@Nt@Ot@xA+Pt@Qt@Rt@St@Tt@Ut@Vt@Wt@Xt@s)+%.@G +Yt@Zt@`t@ u@.u@x3 +u@T5 8I+UQ+:J <J F}.@u@#u@$u@%u@&u@*u@=u@-u@;u@>u@R2 ,u@_^+TO+'u@_|+us@Mh@Z5 )u@@(@H>@zp@J2 Me@!u@_t+ys@",
"r6+~u@!Z+<o+J2 {u@J2 J2 Ne@]u@7q+pb ^u@fo+'j@/u@(u@~0+Bs@_u@:u@<u@[u@/o Th@}u@|u@1u@2u@3u@%].8y+5d 2r@~7 Tr+V]+2z+4u@5u@6u@7u@8u@9u@0u@au@I,+c#+W! T=@bu@,-+C!+cu@du@eu@fu@gu@hu@iu@ju@ku@lu@mu@B1+nu@6.@ou@pu@qu@ru@su@tu@uu@vu@wu@xu@1W+yu@zu@Au@Bu@Cu@Du@Eu@Fu@(~@Gu@Hu@Iu@Ju@iU.(! Ku@Lu@C{ Mu@)-+F*+F*+9/ 9/ F*+F*+F*+F*+F*+F*+F*+F*+@6 IY.`k+Nu@Ou@Pu@Qu@Ru@Su@Tu@Uu@Vu@Wu@Xu@Yu@Zu@wN.U5 RT+`u@ v@.v@+v@w!.B&+VP !0@2D @v@#v@$v@%v@&v@*v@=v@-v@;v@>v@,v@uS -E i!.'v@_Z.M5 W5 W! L1 nc +a W~ jX+Pd@}u.pR.)v@!v@~v@{v@]v@^v@/v@(v@v(@_v@Ij+lc 28 >,+B-+T7+.,+2M+(y+:v@<v@[v@}v@Z~ F!+|v@1v@2v@JY.Pz+3v@jU.Y0 &5 &B+4v@5v@6v@7v@gG.8v@9v@0v@av@bv@5`.cv@dv@ev@fv@gv@hv@iv@jv@i} kv@lv@mv@P{ *d+nv@ov@pv@qv@y,.rv@=5 qp@sv@1'.LX.tv@Q).uv@vv@wv@@(+xv@=u@yv@zv@*r@S2 ,u@>$+Av@Bv@_|+j7@Mh@%5 Cv@@(@-j@c!@!r@gk@!u@_t+Dv@",
"r6+~u@!Z+<o+I2 I2 !r@J2 zs@]u@7q+pb ^u@fo+Ev@kw+(u@~0+Bs@Fv@5f+<u@Gv@Hv@Iv@Jv@Kv@Lv@Js@Mv@.3.Q8+5d 2r@~7 Tr+V]+:5 Nv@Ov@,~@Pv@Qv@Rv@Sv@Tv@I,+yW.K1 T=@bu@Uv@E7+Vv@Wv@Xv@Yv@Zv@`v@ w@.w@+w@@w@#w@in@=~+$w@%w@&w@*w@=w@-w@;w@>w@,w@'w@)w@!w@~w@{w@]w@^w@/w@(w@_w@:w@<w@[w@}w@pP+I7+G7+je+|w@1w@2w@w{ 3w@BC+F*+'n 9/ F*+F*+F*+F*+F*+F*+F*+F*+%6 iU.P5 4w@5w@6w@7w@8w@9w@0w@aw@bw@cw@J1+dw@=&@ew@fw@55 gw@hw@iw@jw@kw@lw@mw@BH nw@ow@pw@qw@rw@sw@tw@uw@vw@ww@xw@Fs+yw@AR 27 ^7 >5 %7 6<+me+y +Xe +f =}+zw@Aw@Bw@Cw@Dw@Ew@Fw@Gw@Hw@Iw@Jw@Kw@Lw@Mw@Nw@af@TR+xW.gc AC+Z6 -6 G^@Ow@Pw@Qw@Rw@Sw@=x+Tw@Uw@Vw@Ww@A3+Xw@Pt+Yw@kU.Zw@`w@ x@.x@+x@@x@#x@$x@%x@&x@*x@=x@Lp -x@;x@>x@,x@'x@)x@!x@~x@43+{x@mv@SO+]x@RE+^x@zs@/x@(x@rv@T5 8I+UO+1'.LX._x@Q).ks@:x@El@@(+xv@<x@-u@zv@[x@}x@,u@>$+Z0@Bv@|x@1x@2x@Y5 3x@4x@-j@c!@c!@o7@5x@_t+Dv@",
"6x@Dp@!Z+)r@I2 *a@I2 J2 K2 7x@cc ZB 8x@9x@0x@ax@5'@d+.bx@cx@dx@pe ex@fx@gx@hx@ix@jx@kx@lx@`x.k!.mx@nx@~7 Tr+K5 {5 3<+sY+b!.ox@px@qx@rx@sx@S1 Oq+'n zC+tx@%w+ux@vx@wx@xx@yx@zx@Ax@Bx@Cx@Dx@Ex@Fx@Gx@Hx@Ix@Jx@Kx@Lx@Mx@Nx@Ox@Px@Qx@Rx@Sx@Tx@Ux@Vx@Wx@Xx@Yx@Zx@`x@ y@.y@+y@mP.@y@#y@*G+pc 3t@$y@%y@8! &y@*y@Q++;~ 9/ F*+F*+F*+F*+F*+F*+9/ F*+A%+S#+9/ U5 v6+=y@6C+-y@;y@>y@,y@'y@)y@!y@~y@{y@]y@^y@/y@(y@_y@<c.:y@c'.<y@[y@}y@|y@Gg@1y@2y@3y@4y@5y@6y@$+.-I+bi.F3 7y@O;.8y@T5 tq@GE+~4 TR+T1@Gr@9y@0y@ay@by@cy@dy@ey@fy@gy@hy@iy@jy@ky@ly@my@ny@oy@KJ.Ot@d#+P1 kU.Y6 T=@py@qy@ry@sy@ty@uy@vy@wy@xy@yy@zy@Ay@By@@a 98 Cy@B{ Dy@Ey@Fy@Gy@Hy@Iy@Jy@Ky@Ly@My@y8@Gq+Ny@Oy@Py@Qy@Ry@Sy@Ty@Uy@Vy@pB+Pn+:P.Wy@Yi+Xy@Yy@Zy@gq.`y@%4  z@UO+ML NL .z@+z@7k@@z@wv@#z@$z@%z@&z@e*@*z@=z@,u@_^+-z@{{+;z@>z@,z@X5 'z@)z@sy+r7@!r@Me@!u@_t+!z@",
"~z@5y+!Z+79@J2 I2 J2 !r@jf+tg cc ZB {z@]z@i7@ax@5'@~J ^z@Fv@dx@Ds@/z@(z@_z@bg@:z@<z@[z@}z@QH.zG |z@1z@=a V7+J5 nV.2z@.f@`1 3z@4z@5z@6z@V<@7z@@a =k+=k+WS.8z@9z@0z@az@bz@cz@dz@ez@fz@gz@hz@iz@jz@kz@#y |J lz@mz@nz@oz@pz@qz@rz@sz@tz@uz@vz@wz@yt.xz@yz@zz@Az@Bz@Cz@P$@Dz@Ez@Fz@V;+Gz@Hz@QH+Iz@Jz@Kz@cc Lz@Mz@D{ F*+F*+F*+F*+F*+F*+9/ 'n 9/ NE+S#+4'+Z5 .4 Nz@Z;+Oz@Pz@Qz@Rz@Sz@Tz@Uz@Vz@Wz@Xz@Yz@Zz@`z@ A@.A@+A@@A@#A@$A@%A@&A@*A@=A@-A@;A@>A@,A@{p+;E W;.'A@L3 (5 K5 )A@WJ.GE+w3+HJ+!A@Ck+~A@{A@]A@^A@/A@(A@_A@:A@<A@[A@}A@|A@1A@2A@3A@4A@5A@6A@7A@8A@9A@0A@aA@bA@)6 Tb@cA@dA@eA@fA@B,+sl+gA@hA@iA@jA@W!.kA@!@@lA@mA@nA@N1 ') oA@pA@qA@rA@sA@tA@uA@vA@wA@xA@yA@zA@AA@BA@CA@DA@EA@FA@GA@W+@yv+P{ HA@IA@JA@D0+KA@a<.LA@,7 MA@UQ+Bl.:V.v!@+z@7k@NA@wv@OA@PA@%z@QA@)4@>u@Q2 ,u@_^+-z@RA@>Z+SA@TA@R5 VJ )z@c!@XS+LA@UA@Ol@_t+VA@",
"{(+Dp@!Z+<o+!r@!r@Pl@I2 WA@XA@cc ZB YA@]z@`0@ZA@5'@~J `A@ B@ck@.B@/z@+B@@B@#B@$B@%B@kx@&B@*B@zG =B@o<@%4 LS.(7 V7+U0 Lm+-B@;B@>B@,B@'B@)B@!B@~B@=k+>4 FY.Cy@ J.{B@]B@^B@/B@(B@_B@:B@<B@[B@}B@|B@1B@2B@3B@4B@5B@6B@7B@8B@9B@0B@aB@bB@cB@dB@eB@fB@gB@hB@iB@jB@kB@lB@mB@nB@oB@pB@qB@Xg@rB@!4 /u+sB@tB@uB@yg+vB@F +F*+9/ F*+F*+F*+F*+9/ 'n 9/ `6 M#+hU.|S.o7.wB@xB@yB@zB@AB@BB@CB@DB@EB@FB@GB@HB@IB@JB@KB@LB@MB@NB@OB@PB@QB@RB@SB@TB@UB@Z..VB@e#.O%.:'.J3 (5 Y3 IS.B++WB@0O+qc HT++f XB@xA+YB@ZB@`B@ C@.C@+C@F) @C@#C@$C@%C@&C@*C@=C@-C@;C@>C@,C@'C@)C@!C@~C@{C@]C@t{+^C@/C@8[@(C@_C@:C@t{+<C@[C@}C@|C@1C@+-+2C@}$+3C@4C@5C@z&@Pq+6C@Ot+DA+7C@8C@9C@8v@0C@aC@(R+bC@zw.cC@dC@eC@fC@gC@hC@iC@W+@yv+P{ HA@Yi+jC@kC@lC@z,.mC@,7  z@UQ+Bl.:V.}W +z@nC@NA@%u@OA@oC@pC@qC@k2@*r@}x@,u@_^+-z@rC@>Z+sC@Vu+R5 %u tC@{Z+XS+uC@,n@Ol@_t+VA@",
"r6+ik@!Z+~d@!r@ih+I2 I2 J2 tg cc 0M vC@Dq.`0@ax@wC@xC@yC@zC@Vs..B@AC@BC@qk@#B@CC@DC@EC@FC@@m+zG GC@HC@,7 Hh et@#4 -7 fC.f!@IC@5} JC@KC@LC@MC@+a ;~ >4 28 NC@OC@PC@QC@RC@SC@TC@UC@VC@WC@XC@YC@ZC@`C@ D@.D@+D@@D@#D@$D@%D@&D@*D@=D@-D@;D@>D@,D@'D@)D@!D@~D@{D@]D@^D@/D@(D@_D@:D@<D@[D@}D@|D@~B@}n+1D@2D@3D@Lc+4D@BC+F*+F*+F*+F*+F*+9/ 'n 9/ ;4 @6 |S.%6 L++S5 @&+5D@ x.6D@7D@8D@9D@0D@aD@bD@cD@dD@eD@-q@fD@gD@hD@iD@jD@kD@+%+eB lD@mD@Zg.I=.I3 [5 IP+J5 7d@Tr+M5 :j @P )6 Gk@ql+[} nD@oD@pD@qD@rD@o-.sD@tD@uD@vD@wD@xD@yD@zD@AD@BD@CD@DD@ED@FD@GD@HD@ID@JD@KD@LD@MD@h6@ND@OD@PD@QD@RD@SD@TD@UD@VD@WD@XD@YD@ZD@`D@ E@.E@+E@@E@#E@$E@By@];. ,+%a %E@&E@*E@=E@-E@xA+;E@>E@,E@'E@)E@!E@~E@{E@]E@|;+:P.HA@^E@iB+/E@(E@_E@mC@~n :E@<E@Cl.NL [E@}E@|E@1E@2E@)q+3E@%z@4E@)4@ps@@s+=:.,=+;F+5E@G0+ :+Vu+R5 %u ~X+P_@r7@ ^+Me@5x@_t+VA@",
"r6+ik@!Z+~d@Pl@WA@*a@{u@jf+6E@cc 0M vC@7E@`0@S++wC@xC@bx@Fv@8E@Ds@9E@0E@aE@bE@cE@%B@dE@eE@%].zG GC@HC@,7 Hh et@,7 =5 cq.fE@_*+gE@hE@iE@aD.Lc+ a ;~ }8 +6 jE@kE@%a lE@mE@nE@oE@pE@qE@rE@sE@tE@uE@vE@wE@xE@z'@yE@zE@AE@BE@CE@DE@EE@FE@GE@HE@IE@JE@KE@LE@ME@NE@OE@PE@QE@RE@SE@TE@5~+;,@UE@NC@VE@4'+xK.WE@XE@YE@`! g~@T}+F*+F*+F*+F*+9/ 'n 9/ wa+F*+Z6 E%+~$@z +JS.@&+ZE@`E@ F@$4@.F@+F@@F@mr.#F@$F@%F@&F@*F@=F@-F@;F@>F@,F@8N T%.fs+'F@V3 w#+%X.e>+e0+~n &4 xk@$5 ]P.CF+Hy+u @)F@!F@~F@{F@]F@^F@7_@/F@(F@_F@:F@<F@[F@}F@|F@1F@2F@3F@4F@5F@6F@7F@8F@9F@0F@aF@bF@cF@dF@zw@eF@fF@gF@hF@iF@jF@kF@lF@mF@nF@oF@pF@qF@#f rF@sF@tF@uF@vF@wF@Cy@ { N:@1S.%6 >,+H9+xF@yF@zF@AF@/i.BF@CF@DF@EF@FF@>%+Ag+GF@:P.HA@^E@HF@/E@lC@_j.mC@~n :E@<E@Cl.NL [E@IF@JF@KF@LF@)q+3E@pC@MF@a%@ps@~@.,u@,=+WG+NF@>Z+ :+Vu+R5 %u u2@P_@r7@ ^+}g@OF@_t+VA@",
"{(+ik@!Z+~d@c!@O5+c!@c!@F-+[j ln+f>+sC@PF@QF@RF@Je@!o.#'.8h+64@<d@14@SF@Th@#B@TF@UF@VF@lx@`x.hz z[ WF@~n LS.XF@Tr+4Z.4_+l}+(P.lc  f Xg@'_@,4 D{ 9:+,4 i{+<! YF@]g@ZF@`F@ G@.G@+G@@G@#G@$G@%G@&G@*G@=G@-G@;G@>G@,G@'G@)G@!G@~G@{G@]G@^G@/G@(G@_G@:G@<G@[G@}G@|G@1G@2G@3G@4G@5G@6G@7G@8G@_8@p=@s{ V! Iz@9G@0G@aG@:/ bG@vN.nc @6 F*+9/ 'n 9/ L1 9/ Z0 Z0 >4 QH+Z0 W5 cG@'.+dG@eG@fG@gG@hG@iG@jG@kG@lG@mG@nG@oG@pG@qG@rG@sG@=Q.tG@uG@@'+w#+IS.O5 hk W]+5Z.Y5 >,+}++u!+vG@wG@xG@yG@zG@AG@BG@CG@DG@EG@FG@GG@HG@IG@JG@KG@LG@2=@MG@e}+4} NG@Tb+OG@%p+PG@QG@RG@SG@TG@UG@VG@WG@XG@YG@ZG@`G@ H@}} .0@.H@+H@@H@#H@$H@%H@&H@*H@=H@-H@;H@>H@,H@'H@)H@!H@V{+!4 $a Y~ ~H@{H@]H@^H@/H@(H@_H@:H@<H@[H@}H@|H@cf@1H@H>@2H@7'+3H@4H@U).uC@,7 5H@@j@:J Y;.6H@7H@8H@9H@0H@%F.aH@bH@cH@dH@eH@fH@Jh@F1 gH@ss@|x@hH@TA@Z5 iH@*a@F*@uC@Ne@<o+jH@f!@kH@",
"~z@ik@%u+lH@uC@ ^+ ^+c!@!r@mH@ln+f>+nH@PF@QF@oH@pH@l_.qH@rH@7v+sH@14@kv.tH@#B@/j@uH@QC.vH@wH@hz xH@WF@~7 Hh yH@IS.Q5 KS.yY.&5 G++ a ~B@T7+L'+jU.xg+ a zH@AH@BH@|N CH@DH@EH@FH@GH@HH@IH@JH@KH@LH@MH@NH@OH@PH@QH@RH@SH@TH@UH@VH@WH@XH@YH@ZH@`H@ I@.I@+I@@I@#I@$I@%I@&I@*I@=I@-I@;I@>I@at+Oc+,I@'I@Iv+G++)I@!I@~I@{I@]I@^I@ek X! F*+9/ 'n 9/ 'n 9/ F*+F*+F*+Kc+S#+9/ 4Z.@:@/I@(I@_I@dm@:I@<I@[I@}I@|I@1I@2I@3I@<i+4I@5I@_I.6I@_v+}7 kk 7I@!7 #7 F++|8 o7.5p+BV+|s+=_@Vg+8I@9I@0I@aI@bI@cI@dI@eI@fI@gI@hI@iI@jI@f} kI@l:+lI@mI@5k nI@oI@pI@qI@rI@sI@7a+tI@uI@vI@wI@P=@i(+xI@yI@zI@AI@BI@CI@zv+DI@EI@FI@GI@HI@II@JI@KI@LI@MI@NI@OI@PI@QI@RI@SI@Gz@Sl+x[@^~@TI@UI@VI@WI@XI@YI@ZI@`I@ J@1k B5+.J@X6 +J@2b+@J@#J@$J@-,.NZ.F-+#4 %J@&J@:J Y;.*J@=J@tg.-J@;J@}M.>J@,J@'J@)J@!J@JO.~J@,u@{J@3U ]J@sC@TA@Y5 ^J@4x@UJ.,r@7z+79@o6@f!@/J@",
"~z@~u@%u+(J@ ^+c!@uC@~X+ ^+yg va+ZB sC@_J@QF@RF@pH@l_.:J@+5@7v+<J@[J@}J@|J@RK+Vh@1J@V*+2J@<z Q8+3J@WF@~7 ,0 4J@V]+Q5 +7 5J@X5 D{ U7+uN.~$@eu+6J@Y! Y!  5 7J@8J@9J@0J@aJ@bJ@cJ@dJ@eJ@fJ@gJ@hJ@iJ@jJ@kJ@lJ@mJ@nJ@oJ@pJ@qJ@rJ@sJ@tJ@uJ@vJ@wJ@xJ@yJ@zJ@AJ@BJ@CJ@DJ@uf.EJ@FJ@GJ@HJ@IJ@JJ@6i@;,@KJ@LJ@MJ@ec a8 aG@NJ@OJ@PJ@QJ@RJ@D{ 9/ F*+9/ F*+'n 9/ F*+F*+F*+[8 M#+18 X!  7 *5 SJ@TJ@UJ@VJ@H+.WJ@XJ@YJ@ZJ@`J@ K@.K@+K@@K@#K@$K@%K@#A.X7+&K@.7 @6 G++ec /*+B{ *K@|(@=K@0N+-K@;K@>K@,K@'K@)K@!K@~K@{K@]K@^K@VP+iC@/K@(K@_K@:K@<K@}3@wc [K@}K@bk +z+|K@1K@2K@3K@Dp+E!+K1@4K@5K@6K@7K@8K@9K@0K@,-+aK@bK@cK@dK@eK@fK@gK@hK@iK@jK@kK@lK@mK@nK@oK@pK@qK@vF@Ch jh rK@sK@tK@uK@vK@wK@xK@yK@zK@]e+AK@BK@va+Pz+o7@CK@DK@.u@EK@FK@F-+e0+qp@&J@:J !h.GK@HK@IK@JK@KK@+K.LK@,4@MK@NK@!J@f2.*D+,u@lb@q@. [+OK@TA@.t.3x@PK@-^@O5+QK@(J@RK@f!@/J@",
"~z@Dp@'++SK@uC@~X+ ^+~X+F-+5H !-+ZB TK@UK@Dq.VK@Fe+l_.qH@WK@7v+XK@[J@ho@YK@}5.:z@1J@ZK@`K@.3.8y+y[  L@gQ.,0 .L@mK.V5 zW.5Z.&5 N#+f{+jU.+J@y-+h{+me+W;+G*.+L@@L@#L@$L@%L@&L@*L@=L@-L@;L@>L@,L@'L@)L@!L@~L@{L@]L@^L@dE+v` /L@(L@_L@lF+:L@<L@[L@}L@|L@1L@2L@3L@4L@5L@6L@7L@8L@9L@0L@aL@6~+bL@cL@dL@:++eL@/u+.a fL@gL@hL@iL@x{ jL@w{ 9/ F*+F*+'n 9/ F*+F*+F*+9/ 9/ hU.iU.hU.+6 Wz+kL@lL@|;.mL@g=+nL@oL@pL@qL@rL@sL@tL@uL@vL@wL@VV.;6 .6 V! nc je+28 gc ~B@W~ tt@I0@xL@yL@zL@AL@Y2+BL@CL@DL@EL@FL@gG@GL@HL@IL@JL@k8 @d+8n@KL@`L.a:+e^@LL@ML@NL@OL@PL@QL@RL@&p@TD+SL@TL@UL@VL@WL@XL@YL@ZL@h6@`L@Rt+ M@.M@+M@@M@#M@$M@%M@&M@*M@=M@-M@;M@>M@,M@'M@)M@!M@jE@3q@~M@{M@]M@^M@/M@(M@_M@:M@<M@[M@}M@4D@=f `>+|M@Aw+1M@2M@-,.NZ.F-+M5 3M@&J@|'.,u 4M@=J@5M@-J@N ++K.6M@%z@7M@8M@9M@0M@aM@,u@{J@v^.ts@bM@TA@.t.Fk+cM@+j@zp@7z+79@dM@cz kH@",
"~z@Dp@'++qm+ ^+uC@O5+c!@WA@tg !-+ZB TK@UK@Dq.VK@Fe+!o.eM@fM@.x+<J@E4+gM@hM@bg@:z@1J@iM@jM@9F.8y+u1  L@gQ.-l+kM@^7 R5 @6 +7 &5 Z0 L++;4 {X..4 lM@mM@nM@^~@oM@pM@qM@rM@sM@tM@uM@vM@wM@xM@yM@zM@AM@BM@CM@DM@EM@FM@GM@HM@IM@JM@KM@LM@MM@NM@OM@PM@QM@RM@SM@TM@UM@VM@WM@XM@YM@ZM@`M@ N@.N@+N@@N@oI.#N@$N@Iu@%N@Y! nc .8+&N@*N@=N@s!+-N@3t@9/ 9/ 'n 9/ F*+F*+F*++6 F*+zW.f{+jU.|8 F*+.6  ,+Sd@;N@>N@92.,N@'N@ni+6I.Tb+)N@f^@!N@M6@+6 B +HY.=b@nc Do+G++je+gc ~N@*~@{N@]N@^N@/N@(N@_N@:N@<N@[N@}N@|N@1N@2N@3N@4N@5N@6N@7N@8N@9N@0N@We aN@bN@cN@dN@eN@fN@gN@hN@iN@jN@a/@LC@kN@lN@mN@nN@oN@lR+py.pN@qN@K1@rN@sN@tN@uN@vN@wN@xN@yN@zN@AN@BN@CN@DN@EN@FN@GN@HN@IN@JN@KN@LN@MN@NN@ON@PN@QN@`m.RN@SN@bG@.,+Y0 -:.8X.1M@TN@UN@Db.WA@e0+3M@&J@|'.,u VN@=J@WN@XN@YN@ZN@`N@Gh@ O@.O@!J@0M@aM@,u@{J@v^.ts@bM@TA@.t.Fk+PK@H>@+O@j>+jk@o6@cz kH@",
"~z@5y+B%+SK@O5+ ^+xs@ ^+@O@+m :e.ZB YA@#O@<Z.$O@L6@hw+%O@&O@k2@*O@=O@4{+-O@;O@>O@,O@'O@Vl@8X+~C x[ )O@IS.r7.{{+UH.M5 I1 z +e{+E++z +9/ _P.>/.!O@~O@{O@]O@^O@/O@(O@_O@:O@<O@[O@Xm.}O@|O@1O@2O@3O@4O@5O@6O@7O@8O@9O@0O@@Q aO@bO@cO@dO@eO@fO@gO@hO@iO@jO@kO@lO@mO@nO@oO@pO@qO@rO@sO@tO@uO@vO@wO@xO@Us@yO@_++zO@}i+G++$.@AO@BO@CO@DT.DO@EO@#m@Z0 Z6 gk 9/ F*+'n 9/ F*+F*+L++Z0 'n V! F*+9/ C{ !-+Qz+kU.!-+FO@GO@9(+aJ+DT.zH@2t@}i+fk D{ 9/ G++Do+{ +<X.HO@IO@$@@JO@KO@LO@MO@NO@OO@PO@QO@RO@SO@;:@TO@s2 kh UO@VO@WO@XO@YO@ZO@`O@S3+ P@.P@+P@@P@#P@$P@%P@&P@*P@=P@-P@;P@>P@,P@'P@)P@!P@~P@{P@]P@^P@/P@$f (P@_P@:P@<P@[P@}P@|P@1P@2P@3P@4P@5P@6P@7P@8P@9P@0P@aP@bP@cP@dP@eP@fP@gP@hP@-z.!;+iP@jP@IY..,+;^@kP@lP@Oe@(E@mP@nP@e0+oP@@j@O*+mO.@3 pP@qP@rP@sP@tP@uP@vP@wP@xP@yP@zP@T_@tb@AP@DB+y*@bM@TA@}!+BP@PK@UJ.{Z+CP@qm+DP@8j UJ ",
"~z@5y+B%+SK@O5+ ^+O5+c!@7z+VJ :P.ZB {z@#O@EP@$O@L6@'P.FP@GP@TQ.HP@=O@A'+IP@Kr JP@,O@bq+Vl@qo+~C KP@)O@IS.LP@ss@WC.e0+S7+A%+F++@P F++@6 .7 -w+MP@NP@OP@PP@QP@RP@SP@TP@UP@VP@WP@XP@YP@ZP@`P@ Q@.Q@+Q@@Q@#Q@$Q@%Q@&Q@*Q@3B@=Q@-Q@;Q@V$+>Q@,Q@'Q@)Q@!Q@~Q@{Q@]Q@qy@^Q@/Q@(Q@_Q@:Q@<Q@[Q@}Q@|Q@1Q@bA+2Q@ r@nP.3Q@4Q@5Q@wa+$.@6Q@7Q@8Q@9Q@x{ 0Q@'n F*+9/ 9/ F*+'n 9/ F*+F*+F*+F*+F*+F*+F*+F*+F*+F*+'n 'n 9/ V! .6 V! V! 9/ 9/ 9/ F*+F*+&6 'n wa+.a .a BV+!B@aQ@bQ@cQ@dQ@eQ@fQ@gQ@hQ@iQ@jQ@kQ@yq@lQ@W1 mQ@nQ@oQ@pQ@qQ@rQ@sQ@tQ@uQ@vQ@wQ@xQ@yQ@zQ@AQ@BQ@CQ@DQ@EQ@FQ@GQ@HQ@IQ@JQ@KQ@LQ@MQ@NQ@OQ@PQ@je@QQ@RQ@GF@SQ@TQ@UQ@VQ@WQ@XQ@YQ@ZQ@`Q@ R@.R@+R@@R@#R@$R@_++%R@&R@*R@=R@-R@;R@>R@,R@'R@)R@!R@~R@V! |8 /4@;z@{R@]R@~3+$`.nP@Tr+^R@@j@O*+/R@6H@(R@tg._R@:R@<R@[R@vP@}R@|R@1R@zP@T_@tb@2R@:j.3R@bM@TA@}!+4R@PK@5R@6R@sc 79@ub@8j 7R@",
"E>+8R@'++9R@uC@uC@uC@ ^+@O@0R@Gp@X0 sC@]R@EP@S5@*y+'P.aR@!c bR@cR@=O@dR@]j@Kr eR@fR@gR@vk@UB ~C 2{+hR@IS.iR@Oe@O3 V]+I1 N#+Z6 -K.$7 `6 .7 On+jR@kR@lR@mR@nR@oR@pR@qR@rR@sR@tR@uR@vR@wR@xR@yR@zR@AR@BR@CR@DR@ER@FR@GR@HR@SA+4#.IR@JR@KR@LR@MR@NR@OR@PR@QR@RR@SR@TR@UR@VR@WR@XR@YR@ZR@`R@ S@.S@+S@6~+@S@#S@$S@Yu+d]@%S@dc N:@&S@*S@8Q@=S@ec -S@;S@X! X! zW.9/ F*+9/ 9/ F*+F*+F*+9/ 9/ F*+9/ F*+9/ 9/ F*+F*+F*+9/ 9/ F*+F*+9/ 9/ F*+N#+F*++6 .a qB+.`+>S@!N@,S@'S@)S@!S@~S@{S@]S@^S@/S@(S@_S@:S@<S@[S@}S@|S@1S@2S@3S@4S@5S@6S@7S@8S@9S@0S@aS@bS@cS@dS@eS@fS@gS@hS@iS@jS@kS@lS@mS@nS@oS@pS@qS@rS@sS@tS@uS@`h+'_@IO@vS@wS@xS@yS@zS@AS@BS@CS@DS@ES@FS@GS@gE@HS@IS@JS@KS@LS@MS@NS@OS@9g+PS@/k+X]+V! |8 _{@kP@{R@ym+(E@$`.c!@Tr+oP@@j@Cl.~/.QS@(R@RS@SS@sP@TS@US@vP@VS@WS@XS@YS@ZS@n2@2R@rl.`S@bM@rW..t.[d+@O@5R@ow+CP@jk@ub@cz /J@",
"{^+ T@'++9R@uC@O5+c!@uC@@G+VJ cZ.V5 .T@EP@+T@-a@#o.'P.@T@3;.nK+#T@$T@%T@&T@*T@CC@=T@_s+vk@2g+Q8+2{+hR@IS.op@Oe@/@+%X. V.S#+F*+N^+&7 e{+ ,+O'+-T@;T@>T@,T@'T@)T@!T@~T@{T@]T@^T@/T@(T@_T@:T@<T@[T@}T@|T@1T@2T@3T@4T@5T@d3+6T@x#+7T@8T@9T@0T@aT@bT@cT@dT@eT@fT@@D.gT@`H+hT@iT@e=@jT@kT@lT@mT@nT@oT@pT@qT@rT@sT@Tg+e:@kT+tT@FY.ec uT@vT@wT@xT@yT@-_@;S@9/ Z6 F*+F*+9/ 9/ F*+F*+F*+'n 9/ 9/ 'n F*+'n 9/ L++S#+S#+S#+S#+L++F*+9/ 'n 9/ N#+F*+nc qB+tN.I7+|++Z'+zT@AT@BT@CT@DT@ET@FT@GT@HT@IT@{n+Af+JT@KT@LT@MT@NT@OT@PT@QT@RT@ST@d*@6Y TT@UT@VT@WT@XT@YT@ZT@`T@ U@.U@+U@@U@#U@$U@%U@&U@*U@=U@-U@;U@>U@,U@'U@I0@Np )U@!U@~U@{U@]U@^U@/U@(U@_U@:U@<U@[U@}U@|U@1U@2U@3U@4U@5U@6U@7U@|_+Uo@3t@xR+S7+V! .7 OG+kP@/t+8U@9U@0U@!r@IS.JI+aU@Cl.k!.bU@cU@dU@~Y+sP@eU@fU@1j.gU@hU@iU@jU@kU@pH@lU@v^.e4+mU@p7@Y5 Cv@@O@+j@O5+nU@oU@RK@~X.=P ",
"{^+8R@B%+pU@O5+O5+pv@ ^+@O@0R@xb@V5 .T@]R@<Z.,.+#o.'P.aR@qU@k2@rU@sU@{j@tU@uU@vU@wU@_s+Vl@RA+kt.2{+xU@]7 op@`0@V2.l++D++Z0 @6  6 -4 @7  ,+.6 yU@zU@AU@BU@CU@DU@EU@nQ C'@FU@GU@c8 HU@IU@JU@Ld+3&+KU@LU@MU@NU@OU@PU@QU@RU@`x.l!@SU@TU@UU@VU@WU@XU@YU@ZU@`U@6E. V@.V@+V@XA.@V@#V@$V@%V@&V@*V@=V@ ]@-V@;V@>V@,V@'V@)V@Dp+eB.p=@xK..6 48 Ah !V@~V@{V@Iv+ek gk F*+F*+9/ 9/ F*+F*+F*+'n 9/ 9/ 9/ F*+'n 9/ L++S#+S#+S#+S#+L++F*+9/ 'n 9/ N#+F*++6 .a kc (<+-z+]V@^V@/V@(V@_V@:V@<V@[V@}V@|V@1V@2V@3V@4V@5V@6V@7V@8V@9V@0V@aV@bV@cV@dV@gQ.eV@-.+fV@gV@hV@iV@jV@kV@lV@mV@nV@oV@pV@qV@rV@sV@tV@uV@vV@wV@xV@yV@zV@AV@R5+BV@CV@DV@EV@FV@GV@HV@IV@JV@KV@LV@MV@pq++`+NV@OV@PV@QV@RV@SV@U^@=}+uT@N'+IN+Jc+V! .7 TV@;z@UV@'j@VV@WV@Fp@IS.oP@XV@8y+H3 !5.YV@tg.SS@sP@!H ZV@`V@gU@GW  W@3;..W@pH@+W@:j.@W@#W@TA@Y5 $W@@O@+j@6R@CP@jk@dM@~X.=P ",
"%W@&W@'++*W@=W@O5+-W@7z+;W@vR ~e.V5 .T@#O@5M >W@*y+Eb.,W@qb+2M.'W@)W@!W@~W@-o.{W@]W@f'+^W@DS+~C /W@(W@B++E>@Ev@OM.B_@-7 +7 @6 @6  7 I1 [8 @6 _W@:W@<W@[W@}W@|W@1W@2W@3W@OD+4W@5W@Ch 6W@7W@8W@9W@0W@aW@bW@cW@dW@eW@fW@gW@hW@OA+iW@jW@kW@lW@mW@nW@oW@pW@qW@rW@sW@tW@uW@vW@wW@xW@yW@zW@AW@BW@CW@DW@EW@FW@GW@HW@%9.IW@6)@JW@KW@LW@MW@ag+je+}$+r:@NW@OW@PW@oc L1 zW.F*+F*+F*+F*+F*+'n 9/ F*+F*+F*+'n 9/ F*+F*+F*+F*+F*+9/ 9/ F*+F*+F*+F*+F*+B-+Dh .f QW@RW@SW@TW@UW@VW@WW@XW@YW@ZW@8G@^c+`W@ X@.X@+X@@X@#X@$X@%X@&X@*X@=X@-`+g'.@w+]4 &K@fk@E;@-X@;X@>X@,X@'X@)X@!X@~X@{X@]X@^X@/X@(X@_X@:X@<X@[X@}X@|X@1X@1T+2X@3X@4X@5X@6X@7X@8X@9X@0X@aX@bX@cX@dX@aQ@eX@ad@fX@gX@hX@iX@jX@kX@9@+lX@;=+mX@z +Do+%5 nX@Ke@UV@oX@pX@qX@~X+IS.rX@sX@Q8+ci.T}.tX@uX@vX@wX@xX@yX@zX@AX@|R@ W@BX@CX@S}.DX@EX@Zy@FX@=!+}!+GX@PK@UJ.HX@O3+(J@@=+cz IX@",
"%W@&W@'++JX@=P+O5+KX@LX@;W@vR ~e.V5 .T@As@#O@MX@*y+Eb.NX@F8+OX@'W@)W@PX@QX@-o.{W@RX@_s+Qp@nU+~C /W@(W@B++SX@ss@OM.TX@j}+f>+K1 @6 gk I1 [8 @6 P1 UX@VX@WX@XX@YX@ZX@`X@ Y@.Y@>S@+Y@@Y@#Y@$Y@%Y@&Y@*Y@=Y@-Y@;Y@>Y@,Y@'Y@)Y@Gx@fr !Y@~Y@,n+{Y@]Y@^Y@/Y@(Y@_Y@:Y@<Y@[Y@}Y@|Y@1Y@2Y@3Y@4Y@5Y@6Y@7Y@8Y@9Y@0Y@aY@bY@cY@jm.dY@eY@9g+fY@gY@hY@iY@$a je+) +jY@kY@1D@lY@Do+@6 ;4 ;4 F*+F*+'n 9/ F*+F*+F*+'n 9/ F*+F*+F*+F*+F*+9/ 9/ F*+F*+F*+F*+F*+B-+ic 1;+mY@nY@oY@pY@qY@rY@sY@tY@uY@vY@_`+wY@xY@yY@zY@AY@BY@CY@DY@EY@FY@GY@c=.IK S4@,7 O^+.5.f>+X]+HY@IY@JY@KY@LY@MY@NY@OY@PY@QY@RY@u@+SY@TY@UY@VY@WY@XY@YY@ZY@`Y@_a+ Z@.Z@+Z@@Z@#Z@$Z@%Z@&Z@*Z@=Z@-Z@;Z@>Z@,Z@'Z@)Z@!Z@~Z@{Z@]Z@s1+88 2S.Rw+Jc+N#+Do+}!+#V+| @62+^d@^Z@/Z@c!@IS.rX@sX@Q8+Q;.He@tX@uX@(Z@_Z@xX@yX@:Z@QA@<Z@ W@[Z@CX@S}.}Z@|Z@1Z@FX@=!+Z5 2Z@@G+3Z@O5+4Z@qm+@=+cz IX@",
"%W@ T@%u+*W@5Z@HX@KX@CP@;W@){.~e.@P bM@0x@Hp@,.+*y+Eb.0h@6Z@2M.7Z@)W@8Z@9Z@_5.0Z@RX@f'+8T.RH.~C aZ@bZ@`3 op@`0@[T.RT+]7 _t+ZB zW.;4 3'+}8 V! { +cZ@dZ@eZ@fZ@gZ@33@hZ@iZ@jZ@kZ@lZ@d^@R1 PC@@5 mZ@nZ@oZ@pZ@qZ@rZ@sZ@tZ@uZ@vZ@wZ@e3+;>.xZ@yZ@zZ@AZ@BZ@CZ@DZ@EZ@FZ@GZ@HZ@IZ@)Y jy JZ@3s KZ@LZ@MZ@NZ@OZ@PZ@QZ@RZ@SZ@TZ@UZ@Nm.VZ@WZ@XZ@,k+YZ@ZZ@DT.{ +}++Y~ {W+`Z@Dc@X! ;4 |8 F*+F*+9/ F*+F*+F*+F*+'n 9/ F*+F*+F*+F*+F*+9/ 9/ F*+9/ F*+F*+F*+G++ic ',+ `@.`@+`@@`@#`@$`@%`@&`@*`@.&@=`@-`@;`@>`@,`@'`@)`@!`@~`@{`@TP ]`@1'.^7 I +Re lR.Qt+'4 !@@MV+ME+^`@/`@(`@_`@:`@<`@[`@}`@|`@1`@2`@3`@hA+4`@5`@6`@7`@8`@9`@ J.0`@a`@b`@c`@d`@e`@f`@g`@h`@i`@j`@k`@E!+6t+l`@m`@n`@o`@p`@q`@r`@~4 b8 D_ A%+D{ Do+X5 s`@_|+t`@u`@lC@v`@Fp@Tr+w`@}Z@Q8+}J =b+C_@x`@y`@z`@gR fU@:Z@QA@|R@A`@B`@C`@S}.D`@E`@1Z@FX@,z@Z5 GX@KX@W#+uC@F`@G`@H`@ar OW ",
"%W@8R@!Z+JX@fH.HX@[ @j>+XF@){.5p+@P YA@]n@#O@I`@L6@JP+0h@J`@K`@L`@M`@!W@N`@_5.O`@RX@P`@Q`@nU+~C R`@S`@]7 G1 `0@_^+J-@Bp+$n@4W@`6 zW.e{+}8 9/ X! T`@U`@V`@W`@X`@Ze Y`@Z`@``@>-+b8 RM.  #. #+ #}y+f>+dc t;@@ #s=+# #$ #% #& #s0._'.pi@* #= #- #; #> #, #' #) #! #~ #{ #U~@k5.] #^ #/ #( #_ #: #< #[ #;x+} #| #1 #2 #3 #4 #5 #}[@`M.GT.=}+|.@6 #zm.GY.a8 Qt+x[@08 R=@Qt+V! F*+F*+F*+F*+F*+F*+F*+'n 9/ F*+F*+F*+F*+F*+9/ 9/ 9/ 'n 9/ F*+F*++6 Hv+fv+F^@7 #8 #sL+9 #0 #a #b #c #k3@d #e #f #g #h #i #j #k #R` )E l #hg@Cw m #W;@qs+n #v1@`h+>B+=K@o #p #q #r #s #t #u #v #w #uI@x #v[+y #z #A #B #C #D #E #F #G #H #I #J #K #L #M #N #O #P #Q #R #S #d#+T #U #V #W #X #Y #m$@Z #>6 eO+Qz+f{+%6 Do+0M XK+_|+t`@^d@` # .#Fp@Tr+..#+.#yG }J @.#*{@#.#(Z@wX@$.#fU@%.#&.#*.#=.#-.#;.#S}.>.#EX@1Z@,.#^V.Z5 '.#-W@+j@SS+).#!.#~.#ar {.#",
"].#8R@!Z+JX@=P+HX@ow+Nh@XF@]u@5p+@P nH@0x@Dq.>W@L6@'P.,W@Qh@^.#/.#M`@(.#_.#:.#<.#[.#}.#8T.2g+C;+|.#bZ@Z3 G1 ^A+eM.1.#Q7+Q3+`i+`>+zW.F++`6 9/ gk );+}} 2.#3.#4.#T1@5.#6.#wC.wx.gQ.T5 !n =f W! |8 9/ </ 7.#8.#V;@:`+9.#0.#a.#b.#c.#d.#A6@e.#f.#g.#h.#i.#j.#^h.k.#l.#m.#n.#o.#p.#q.#r.#s.#t.#u.#v.#w.#x.#y.#z.#A.#B.#C.#D.#E.#F.#G.#H.#3C+I.#G^@jR.hY@J.#=6 0g+/u+Iv+oc nc F*+F*+F*+F*+F*+F*+F*+'n 9/ F*+F*+F*+L++F*+9/ 9/ 9/ 9/ F*+F*+F*+IY.&f }u.n^+K.#L.#M.#N.#O.#P.#Q.#dw@R.#S.#T.#U.#V.#W.#X.#Y.#Z.#z#.`.#GL 4_+8(+bA@%x+&E@dk Ze 1;+U<@ +#.+#++#@+##+#$+#%+#&+#*+#4w.=+#-+#;+#>+#,+#'+#)+#!+#~+#c^@{+#]+#^+#/+#(+#_+#:+#<+#[+#}+#|+#1+#2+#k`@3+#4+#5+#6+#7+#8+#9+#0+#{n+^*+&a >4 A%+%6 Do+vo g5 _|+UV@^d@a+#qX@*a@IS...#+.#yG }J =b+b+#c+#d+#$F.e+#f+#g+#&z@Rl@h+#-.#,T S}.i+#j+#k+#Db.,z@Z5 GX@@G+$T.O5+#{+l+#~.#ar OW ",
"9M.5y+B%+m+#O5+HX@O5+uC@nU@){.bc X0 .T@n+#S).gB+L6@}e.o+#p+#~j@q+#@l+r+#s+#t+#u+#v+#w+#x+#Dy+yG y+#z+#p +a3@%(@t0.,=+A+#Pj@B+#d~+;4 @6 @6 Y6 Qz+wa+C+#D+#E+#F+#sy.N^+x1+G+#O5 #7 V! @6 @6 S#+S#+S#+jU.Ic+D{ S#+=f H+#9K+I+#J+#K+#L+#M+#ji@<`+N+#O+#P+#Bs+Q+#R+#S+#T+#U+#V+#W+#X+#Y+#Z+#`+#J<.g7+ @#.@#+@#KJ.@@##@#$@#%@#&@#*@#=@#-@#;@#>@#,@#l=+[D@'@#)@#(%+kc Do+N#+z +Z6 9/ F*+F*+F*+F*+F*+'n 9/ L++S#+S#+N#+N#+Z0 zW.zW.zW.zW.M#+N#+Ie+%.@Ug+*U@!@#~@#{@#]@#^@#6L@/@#2V@(@#_@#:@#<@#[@#}@#|@#1@#2@#3@#4@#5@#6@#7@# f SZ+%x+~b@|[@8@#uI@9@#0@#a@#b@#c@#d@#e@#f@#g@#>I@h@#i@#j@#k@#l@#m@#n@#o@#p@#q@#r@#s@#t@#u@#v@#w@#x@#x@#y@#e`@z@#A@#B@#jN@G!+C@#D@#E@#F@#G@#H@#I@##.@FO@ln+Z0 E%+iU.2S.g>+J@#`S@{R@^d@K@#L@#M@#IS.N@#O@#hz M{.!5.P@#Q@#R@#S@#T@#U@#V@#W@#X@#Y@#[Z@*;+Z@#`@# ##.##FX@=!+.t.4R@@O@+##@###{+(J@###cz $##",
"9M.5y+B%+pU@RQ+O5+HX@ ^+nU@){.bc X0 .T@n+#S).gB+L6@}e.%##&##*##=##-##r+#;##>##,##'##)##!##dq+hz Z2 =X+ W+6o@~##{##s8+]##m,+/|+GM+F++F*+@6 Y6 ,;+@6 H9+^##/##(##_##w3+$7 bc FJ+Ot+jU.A%+E%+S#+S#+S#+S#+hU.18 D{ GO@a(+:##<##[##}##|##1##2##3##4##5##6##7##s|.8##9##0##a##b##c##d##e##f##g##h##af.i##j##k##Vs+HD.rG+l##m##n##o##p##q##r##s##t##u##v##I.#w##_W@t;@(T@;{  a X! 9/ S#+N#+Z0 F*+F*+'n 9/ L++L++L++M#+4'+Eh `U.`U.|8 |8 M#+Z0 *6 tt@(v@x##y##z##A##B##C##D##E##_%+F##G##H##lA@I##J##K##L##M##N##O##Q#.P##Q##yC+I!@,-+R##S##T##U##V##W##X##Y##Z##`## $#.$#+$#@$##$#$$#%$#&$#*$#=$#8L.-$#;$#>$#,$#'$#)$#!$#~$#{$#]$#^$#/$#($#_$#:$#<$#wh [$#}$#|$#1$#2$#3$#Ib@4$#We [;+Lc+Z0 E%+M#+.7 `B+5$#6$#7$#^|+K@#L@#M@#IS.N@#O@#hz M{.8$#9$#0$#R@#a$#b$#c$#V@#d$#&c e$#[Z@f$#Z@#`@# ##.##FX@=!+.t.4R@@O@5R@6R@).#(J@L%+cz $##",
"].#g$#B%+SK@uC@O5+HX@O5+7z+%u cZ.x,.h$#i$#S).gB+({.}e.%##j$#~j@k$#-##l$#m$#n$#o$#'##w+#p$#dq+2A+q$#r$# W+s$#~##t$#rl.hs@u$#Zy@v$#E++Z6 F*+Z0 N#+zW.U7+Ju@uJ.w$#x$#GY.,;+9/ #6 F%+F%+Kc+Pt+S#+S#+jU.jU.D{  ,+&5 Q1 y$#z$#A$#B$#C$#D$#E$#F$#G$#dn+H$#I$#J$#K$#L$#M$#N$#O$#P$#Q$#R$#S$#T$#U$#V$#W$#X$#Y$#Z$#`$# %#.%#+%#@%##%#$%#%%#&%#*%#=%#:}.-%#;%#>%#,%#3+#N6@5&@(<+%f Z~ GY.$a %6 L++9/ 9/ F*+9/ Y6 Y6 C{ '%#)%#R^@B{ <*+Dn@#,+yi@a8 !@@|[@1k@!%#~%#{%#]%#^%#/%#(%#2c+bZ._%#:%#<%#[%#v8@}%#|%#1%#2%#3%#4%#5%#6%#o1+%x+I7+7`.dY@7%#^m+8%#9%#0%#a%#b%#c%#d%#e%#4&@f%#g%#h%#i%#,b.j%#k%#l%#m%#n%#o%#p%#q%#r%#s%#xR+t%#u%#v%#w%#x%#y%#z%#A%#B%#C%#D%#E%#F%#G%#H%#I%#}} (r+$~ FO@ 7 Z0 E%+>4 4Z.iA.J%#K%#7$#^|+L%#M%#QK@IS.N@#O@#hz M{.8$#N%#0$#O%#P%#Q%#R%#S%#T%#U%#V%#BX@C`@({.W%#X%#sZ ,.#<d+Z5 4R@-W@5R@6R@O3+oU@H`@cz q6+",
"/T.&W@hX.SK@SS+HX@HX@O5+@G++m cZ.Ab.Y%#i$#S).Z%##o.}e.`%# &#a%@.&#+&#@&##&#$&#%&#Pp@ZZ.&&#dq+2A+*&#=X+!P.a3@=&#-&#6D+;&#4^@[=+>&#0O+F++F*+F*+r!+Z6 E%+,&#Dh '&#)&#Qt+g{+%6 Z6 x{ $a L1 Z0 S#+S#+S#+jU.fk +7 P:+[} !&#~&#{&#]&#^&#/&#(&#_&#:&#<&#9{@[&#}&#|&#1&#2&#3&#4&#5&#6&#7&#8&#9&#0&#a&#b&#c&#d&#e&#f&#g&#h&#i&#j&#k&#l&#m&#n&#o&#p&#q&#r&#s&#t&#u&#v&#G!+0K@,I@ql+SZ+=~@EY.<%+@a 'n 9/ 9/ F*+V! .6 -6 lY@w&#x&#y&#z&#A&#B&#C&#<%+n=@<]+3+#D&#E&#F&#G&#H&#I&#J&#hR.K&#u&@Hj+L&#B@#-n M&#N&#O&#P&#Q&#R&#S&#T&#zh U&#V&#W&#X&#5s@Y&#Z&#8P.`&# *#.*#+*#@*#<Q@#*#$*#%*#&f@&*#**#=*#-*#n[+N!.;*#>*#,*#'*#)*#!*#I/@+J.~*#{*#]*#^*#/*#(*#_*#:*#<*#[*#}*#|*#1*#2*#3*#wG@cp+va+FO@W! Z0 E%+(t+mC+cQ xX.4*#5*#%s+6*#zO+QK@IS.7*#+.#hz M{.>F.8*#9*#0*#a*#O +c$#S%#b*#U%#c*#d*#HR+#o.W%# ##.##,.#~4+%5 4R@@G+[%@WK+e*#!.#;N@cz *$+",
"f*# T@hX.SK@g*#`E.HX@ ^+@O@@5.cZ.%e h*#i$#S).i*#*y+j*#%O@j$#k*#l*#m*#n*#o*#p*#q*#Wh@r*#s*#/&.k_.t*#'C !P.a3@u*#v*#p*.%R._^+eD+w*#x*#@7 gk gk +,+Z0 Qz+L'+@6 y*#5'+W! #6 B +L1 z*#) +E1@K1 N#+F%+%6 >4 vN.%a A*#B*#C*#D*#E*#F*#G*#H*#I*#J*#K*#L*#M*#N*#O*#P*#Q*#R*#S*#T*#U*#V*#W*#X*#Y*#Z*#`*# =#.=#+=#@=##=#)/+$=#%=#4&@&=#*=#==#-=#;=#>=#,=#'=#)=#!=#~=#{=#Iq+]=#^=#/=#(=#pP+e]@!B@WS._=#P'+DT.:=#|S.V! +6 Iv+<=#&E@Hr@[=#}=#|=#1=#2=#jc 5)@U5+f%#3=#4=#5=#6=#7=#8=#9=#CF+T1@C+#0=#Cy@a=#Mp Af+b=#c=#0G d=#e=#f=#&9@g=#h=#i=#j=#k=#l=#m=#n=#o=#p=#q=#r=#V3+aN+s=#t=#u=#v=#w=#x=#y=#z=#A=#B=#oY C=#D=#E=#F=#G=#H=#(P.s +I=#J=#K=#L=#M=#N=#+n@O=#/9+P=#Q=#R=#S=#v(@T=#GO@9M+5p+;4 Z6 z +!n U=#%s+V=#4*#W=#Ev@wv.t^.QK@IS.7*#+.#x-+M{.X=#Y=#Z=#`=# -#.-#+-#@-##-#^%.l2@$-#HR+c<.`@#X%#nR {K.S}+}!+%-#CP@UJ.WK+&-#G`@*-#:j e|+",
"=-#--#;-#>-#HX@uC@O5+uC@CP@+m cZ.!n ,-#i$#@%.'-#*y+)-#%O@!-#~-#fe cf+{-#]-#^-#/-#(-#_-#:-#fA.:'.U2 r$#^7 <-#[-#}-#|-#[T.Hc+1-#2-#MS.W5 W! z +'n 9/ 9/ F*+F*+F*+F*+F*+F*+L++fc 3-#hh 4-#6@#>4 r!+<X.{P.5-#6-#7-#8-#9-#0-#a-#b-#c-#d-#e-#f-#g-#h-#i-#j-#N%.k-#l-#m-#n-#o-#p-#q-#r-#s-#t-#u-#v-#w-#x-#y-#z-#A-#B-#C-#D-#E-#F-#G-#H-#I-#J-#K-#L-#M-#N-#O-#P-#Q-#R-#S-#T-#U-#D7+V-#Tg+W-#[t@os+5)@Ch /{ X-#v1@Hv+68 48 { +.a ag+n=@<++Y-#v1@je+eZ.iR.+y@Z-#`-# ;#.;#+;#@;#>B+x[@uT@ET.#;#T:@YF+a=#o@@$;#%;#&;#lB.*;#u3+=;#0;@-;#;;#>;#,;#';#);#!;#~;#{;#];#^;#/;#(;#_;#:;#<;#[;#};#|;#1;#jR@yB@2;#3;#4;#5;#6;#7;#8;#,(+I1 bc Eh  7 wa+V~ qP+#y@&p+9;#0;#a;#b;#c;#d;#@W+Mc+5p+nw+}8 ;4 ;4 Z0 Y]+mK.e;#f;#/t+g;#h;#p+@i;#qI+V]+j;#k;#^Z.h=.l;#WW+c+#m;#n;#o;#p;#q;#'4@-n@r;#s;#CX@S}.t;#u;#v;#w;#,z@W5 x;#y;#z;#SS+A;#B;#H`@32.C;#",
"=-#--#;-#oU@HX@HX@g*#O5+CP@)j.xb@!n ,-#i$#@%.'-#*y+)-#FP@D;#:s++K E;#{-#]-#F;#G;#(-#H;#I;#fA.:'.6H@f3 N3+J;#K;#L;#M;#%R.G1 nU@Tr+U5 %5 zW.%6 9/ 9/ F*+F*+F*+F*+F*+F*+F*+z +N;#O;#P;#Q;#6)+R;#`6 S;#T;#U;#V;#.^+W;#X;#Y;#Z;#`;# >#.>#+>#@>##>#$>#%>#&>#4U+*>#=>#->#;>#>>#U@@,>#'>#)>#!>#~>#{>#]>#^>#/>#(>#=+@_>#:>#<>#[>#}>#|>#1>#2>#3>#4>#5>#6>#7>#8>#9>#(=.0>#a>#b>#c>#d>#e>#f>#g>#h>#V+@i>#_v@d#+5&@(<+a=@5&@*~@[S.jY@j># `+me+dk E1@9:+88 Mp k>#l>#m>#n>#o>#p>#D&.#;#q>#Dc@kc qP+!$@ E+Jv+r>#uh ns+s>#t>#u>#v>#w>#x>#y>#z>#A>#B>#C>#D>#E>#F>#G>#H>#`m.Z{@I>#J>#(U+K>#L>#M>#N>#O>#P>#Q>#R>#S>#T>#U>#m1.V>#W>#X>#Y>#Z>#`>#,;+>4 fk ~B@%f _P@ ,#.,#+,#@,##,#jF@ E+%a [8 }i+4'+@6 F*+Z0 1=+#4 Z3 ,..~r@_|+$,#%,#^j 4J@IS.&,#O@#^Z.h=.%n@FQ+c+#(Z@*,#=,#-,#;,#>,#zG+l2@s;#C`@u7+,,#u;#v;#',#2x@W5 ),#y;#Jk+pv@*W@>-#H`@32.C;#",
"!,#1^+B%+~,#HX@SS+uC@O5+@O@+m U}+@P sC@{,#@%.i*##o.}e.r_.!-#mD+<d@],#^,#/,#/P (,#_,#:,#<,#@1.e+.6H@[,#w#+,u@},#|,#1,#Hp@2,#Tr+=5 JS.2'+F++%6 L++F*+9/ 9/ F*+'n 9/ F*+F*+`6 lX@3,#4,#5,#6,#7,#BX.8,#9,#0,#a,#b,#Ij+c,#d,#e,#f,#g,#h,#i,#j,#k,#l,#m,#n,#o,#p,#q,#x9+r,#s,#t,#nd.u,#v,#w,#x,#y,#z,#A,#B,#C,#D,#E,#F,#G,#H,#N2.I,#J,#K,#L,#M,#sr.N,#O,#P,#Q,#R,#S,#T,#BR+U,#V,#W,#X,#Y,#Z,#6m.s @lZ+pl+`,#fY@Qn+_c@_c@ '#|T+.'#+'#@'##'#$'#7#+Dh Gk@;B+%'#&'#*'#='#<P+-'#9z@;'#>'#,'#''#v(@)'#4r.!'#~'#{'#]'#^'#/'#('#_'#:'#<'#['#}'#|'#1'#2'#3'#4'#5'#6'#u>#7'#8'#9'#0'#a'#b'#c'#d'#e'#f'#g'#h'#i'#j'#k'#l'#7c.m'#+T.cZ. 7 zW.M#+jU.,;+Y! %f -z+pk.n'#o'#eH+fG@d#+7|@yg+p'#;~ B-+9/ `6 e{+4A+L5 #4 f8 06+h#@q'#r'#I`@4J@]7 s'#t'#hz aN u'#b+#v'#w'#x'#e,.y'#z'#A'#1o+h+#[Z@CX@c<.}Z@B'#]t.C'#S}+Z5 D'#E'#=W@6R@*W@>-#F'#0M R++",
"!,#1^+B%+G'#O5+kQ.HX@ ^+@G+VJ U}+V5 sC@{,#@%.i*##o.}e.%O@D;#H'#9g@I'#A6+J'#xr K'#L'#_-#M'#@1.e+.#3 R`@/5 Je@N'#L;#O'#2M@7z+IS.T5 )7 O5 D++[8 L++F*+9/ 'n F*+'n 9/ F*+F*+F*+P'#Q'#R'#S'#T'#U'#V'#W'#X'#Y'#Z'#`'#9&. )#T;@.)#+)#r}+@)##)#$)#%)#&)#*)#=)#-)#;)#>)#,)#')#))#!)#~)#{)#])#^)#/)#()#_)#:)#<)#[)#})#|)#1)#2)#3)#4)#5)#6)#7)#8)#9)#0)#a)#b)#c)#+p+d)#e)#f)#g)#h)#i)#j)#k)#l)#m)#n)#o)#p)#q)#[B.[} ^=#)g@bD.Oc+2;+l=+B+@TL@G^@G^@wG@af@6W@r)#vh s)#k)+t)#u @(R+wG@2;+GT.gv+u)#v)#w)#x)#y)#z)#cr.A)#B)#C)#D)#E)#F)#G)#H)#I)#J)#K)#L)#M)#T;@Fr@N)#O)#P)#Q)#R)#S)#T)#U)#V)#W)#X)#Y)#}j@Z)#`)# !#.!#+!#@!##!#$!#-4 *4 %4 M5 gk gk 0g+SZ+%!#&!#*!#=!#-!#;!#ih 6|@dZ..{+%6 Z6 bc Sd@hk V7+!P..4 f8 4e@>!#$,#,!#I`@.L@]7 s'#t'#hz aN '!#C_@)!#!!#~!#*;.{!#]!#^!#/!#(!#-.#C`@u7+DX@D1 v;#',#,z@X5 D'#SX@_!#6R@JX@:!#~.#0M R++",
"BC.1^+GR+!.#e7 KX@@O@<!#Gh [!#pb ];.sC@{%.}!#-z@u4+)-#r_.|!#1!#+K 2!#3!#4!#/P 5!#_,#6!#7!#4|.l=.8!#9!#f +0!#a!#o<@Xl@ f@b!#c!#d!#e!#co@79@'7 ;4 F*+V! 9/ L++9/ F*+F*+F*+@6 Xw@d]@f!#g!#h!#]O.i!#j!#k!#l!#m!#n!#o!#i@@p!#JJ.q!#r!#s!#t!#u!#v!#w!#x!#y!#z!#A!#B!#C!#D!#E!#F!#G!#H!#I!#J!#K!#L!#M!#N!#O!#P!#Q!#R!#S!#T!#U!#V!#W!#X!#Y!#Z!#`!# ~#.~#+~#cF+pZ+@~##~#}[@3*#$~#%~#&~#*~#2n+=~#$/.-~#;~#>~#,~#'~#)~#!~#~~#{~#E##V-#<P+]~#a@@ns+.U+^~#<D@v3+sF+/~#(~#pD+_~#:~#pB@<~#[~#}~#oP.2v@|~#1~#2~#3~#4~#5~#6~#tL.7~#8~#9~#0~#a~#b~#c~#d~#e~#f~#g~#N)#h~#i~#j~#k~#l~#m~#n~#o~#p~#q~#r~#un+Y=.s~#t~#u~#v~#w~#Q}+2z@&`.DZ.x~#y~#-.+/5 je+u!+ph z~#A~#B~#C~#D~#E~#4E+GO@Fg.D{ L++`6 :8 oD+F~#G~#H~#I~#J~#K~#L~#M~#N~#O~#P~#!P.Q~#R~#k!.Q;.S~#T~#U~#!!#V~#W~#X~#Y~#Z~#`~# {#)c .{#.!.+{#@{##{#>W@S}+X5 ${#y;#Jk+g*#%{#Z_+H`@32.&{#",
"*{#={#F5 -{#$H+[ @E'##k+;{#Cv@%e [8 sC@`0@>{#-z@_^+)-#,{#'{#Cy+ee ){#!{#~{#)&+{{#]{#^{#/{#j_.l=.({#_{#GR+:{#<{#[{#HC@}{#Gq.|{#67 1{#2{#3{#-l+$7 .,+F*+F*+L++F*+F*+F*+F*+@6 4'+gU.4{#5{#6{#Qq+7{#8{#9{#0{#a{#b{#c{#]Q+d{#e{#f{#g{#h{#i{#j{#k{#l{#m{#n{#o{#p{#q{#r{#s{#C$.^s@t{#u{#v{#w{#x{#y{#z{#A{#B{#C{#D{#E{#F{#G{#H{#I{#J{#K{#L{#M{#N{#O{#~1.P{#Q{#R{#S{#T{#U{#V{#W{#U'+bQ@ d@X{#Y{#Z{#`{# ]#.]#+]#@]#+w.#]#$]#%]#&]#*]#=]#-]#;]#>]#,]#']#)]#Z,#,]#!]#~]#{]#-=#v0@]]#^]#/]#(]#=p._]#:]#<]#[]#}]#|]#1]#2]#3]#4]#5]#6]#7]#8]#9]#0]#a]#}} b]#c]#d]#e]#f]#g]#h]#i]#j]#AJ.hs k]#l]#m]#n]#o]#p]#C{#q]#r]#dE+:V.4A+%d+s]#t]#u]#v]#w]#(_+7#+x]#y]#z]#A]#B]#C]#jh ,6 ;6 1S.9/ L++ ,+H1 D]#E]#F]#G]#H]#I]#J]#Ru+K]#K]#fD+L]#_5 M]#N]#+T O]#*j@P]#Q]#w'#ZW+Z++R]#S]#T]#U]#Ad V]#W]#h_.X]#v^.Y]#>W@T/+W5 '.#M'@Z]#HX@`]# ^#2x@32.&{#",
".^#={#F5 +^#pv@@^#<!##^#$^#Cv@%e bc ,-#{%.>{#TO+_^+)-#%O@!-#%^#&^#*^#=^#-^#)&+;^#]{#>^#,^#'^#B!.)^#!^#F5 xy+~^#{^#LG+ L@H5@]^#^^#8'@AE+}K+/7 *4 `5 |8 zW.L++F*+F*+F*+F*+@6 9/ /^#i:@(^#_^#:^#<^#[^#}^#|^#1^#2^#3^#4^#5^#Q(+{u+6^#7^#8^#$*#9^#0^#a^#b^#c^#d^#e^#f^#g^#h^#i^#ND+8'.j^#k^#l^#rw@m^#n^#o^#p^#q^#r^#s^#t^#u^#v^#w^#x^#y^#z^#A^#B^#C^#0s@&#@D^#E^#F^#G^#H^#&9@I^#J^#5a+K^#L^#M^#pZ+N^#O^#P^#Q^#R^#S^#T^#U^#V^#W^#X^#Y^#Z^#`^# /#./#+/#@/##/#$/#%/#&/#*/#=/#-/#%9+;/#>/#,/#'/#)/#!/#~/#{/#]/#^/#//#(/#_/#:/#</#[/#}/#|/#1/#2/#n^+3/#4/#5/#6/#7/#8/#9/#0/#h3@xA@a/#b/#c/#d/#,k+e/#8O.:V.5N f/#B1+rc :P.g/#mr+h/#i/#j/#k/#V1 |K@EJ.l/#m/#n/#o/#YV.Jj+;6 b8 L1 F*+Z6 +7 P5 L3+p/#q/#r/#s/#t/#u/#2;.v/#w/#x/#jq.E{.y/#z/#G{.W[+P-+A/#Q]#B/#C/#W~#D/#E/#wP@F/#M*@G/#W]#h_.H/#j^.v*#I/#T/+W5 '.#E'#=W@`E.J/# ^#{|+32.&{#",
"K/#={#F5 L/#HX@[ @E'##^#;{#M/#%e 5p+.T@`0@>{#YS+Q|@}e.aR@'{#N/#Rh@O/#P/#Q/#R/#OC.S/#>^#T/#U/#1^@V/#W/#T3 Iz+<{#X/#Y/#Z/#`/#n+#E1 6'@ (#.(#RT+;7 =5 #7 |8 L++F*+9/ F*+F*+F*+gk P'#+(#@(##(#$(#%(#&(#*(#=(#-(#;(#>(#,(#'(#!J )(#|;+V<@!(#~(#{(#](#^(#/(#((#_(#:(#<(#[(#}(#|(#1(#2(#3(#|:@4(#5(#6(#7(#8(#9(#0(#a(#b(#c(#d(#e(#f(#g(#h(#i(#j(#k(#l(#m(#n(#j.+o(#p(#q(#r(#^~#s(#t(#u(#v(#w(#ta+x(#y(#|} 1t+z(#A(#B(#C(#D(#E(#F(#G(#H(#I(#J(#K(#L(#M(#N(#O(#P(#Q(#R(#S(#T(#U(#V(#W(#X(#Y(#Z(#`(# _#._#+_#@_##_#$_#%_#&_#*_#=_#-_#;_#>_#,_#'_#)_#!_#~_#{_#]_#^_#/_#(_#__#:_#<_#[_#}_#|_#1_#2_#3_#0=#3S.mC+)5 .4 Q5+W:@4_#u##5_#6_#7_#8_#9_#'>@,S@0_#a_#b_#c_#h6@m6@%a 2S.V! F*+ 7 &7 U5 Bp+SX@d_#E1 e_#f_#g_#H5@d}@h_#i_#@o.F{.j_#k_#g8@GG l_#WW+m_#n_#o_#W~#p_#q_#T]#r_#s_#U5@W]#R0@t_#,e.u_#v_#w_#&5 *@.y;#z[@ow+A;#B;#^V.Re x_#",
"K/#={#F5 -{#SS+[ @wh@y_#sc M/#%e bc h*#d2./y@5{@Q|@}e.z_#!-#1!#Rh@A_#B_#Q/#R/#OC.C_#D_#E_#F_#1^@V/#W/#T3 Iz+>y+#!#OP.#!#*{.G_#h7@5'@8'@0T._U 7d@M5 KS.bc L++F*+9/ 9/ F*+Z0 z +L1 We H_#I_#J_#K_#L_#M_#N_#O_#P_#Q_#R_#S_#T_#,5 lR.uT@U_#V_#W_#!]#X_#Y_#Z_#`_# :#.:#+:#@:##:#$:#%:#&:#>>.*:#=:#-:#;:#>:#,:#':#):#!:#~:#{:#]:#^:#/:#(:#_:#::#<:#[:#}:#|:#1:#2:#3:#4:#5:#'>@6:#oS@7:#8:#7:#9:#0:#a:#b:#c:#d:#e:#ns+|F+f:#g:#h:#i:#j:#k:#l:#m:#n:#o:#p:#q:#r:#s:#t:#u:#v:#w:#x:#y:#z:#A:#B:#C:#D:#E:#F:#G:#H:#I:#J:#K:#L:#M:#N:#O:#P:#Q:#R:#S:#T:#U:#V:#W:#X:#1m.c.@Y:#Z:#`:# <#.<#+<#@<##<#$<#Ts+Ie+b{ @0 %<#ie+&<#:l+*<#=<#-<#;<#><#6K+,<#'<#)<#!<#~<#{<#oR.]P.+6 %a V! 9/ n6@<O.=a ^7 d)@m}+Q|@[T.YG+=j.EP@p@.=4@5{@]<#/D.^<#/<#@*+l #(<#_<#m_#n_#SU+@{.:<#S]#<<#[<#}<#V]#W]#|<#@j@,e.Y]#I/#T/+&5 *@.y;#+{+$H+A;#~,#^V.Re x_#",
"1<#2<#E5 3<#kQ.6!@Gh Gh nU@:|+%e W_+4<#{%.=4@S`@PB+Hz+5<#!-#al.6<#7<#8<#9<#0<#a<#b<#c<#d<#e<#}v f<#g<#QA+h<##]./J ^D.}@@`(+W2.ST+g!.6Y K5 Z3 U5 -f U5 R5 .,+F*+4'+X! F*+zW.Z0 zW.{ +oR.i<#j<#k<#l<#m<#n<#o<#p<#q<#r<#s<#t<#I{.R5 ~s@u<#%!#v<#w<#x<#y<#z<#A<#B<#C<#D<#E<#F<#G<#H<#I<#Ve.$^@J<#K<#L<#M<#N<#O<#P<#Q<#R<#S<#T<#U<#V<#W<#X<#Y<#Z<#`<# [#.[#+[#@[##[#7D@$[#%[#&[#*[#H!+=[#-[#;[#>[#,[#'[#)[#![#~[#{[#][#^[#/[#V)@([#_[#:[#<[#[[#}[#|[#1[#2[#3[#4[#5[#6[#7[#8[#9[#0[#a[#b[#c[#d[#e[#f[#g[#h[#i[#j[#k[#l[#m[#n[#o[#p[#q[#r[#s[#t[#u[#v[#w[#x[#y[#z[#A[#B[#C[#D[#E[#F[#G[#H[#I[#J[#WP.#;#K[#Zn@fL+P1 zF+rN@YM@L[#M[#N[#O[#P[#Q[#R[#S[#T[#U[#W'+Ye wa+.6 +6 @6 gk  1 {X.*4 -7 9'@I5 ~5 IP+n++'v@k++GA.j*#lK.c<.hw+V[#W[#['.U;.~5.X[#Y[#Z[#`[# }#.}#+}#<<#@}##}#$}#us #].%}#b/.M;#ZW $d@#7 CE -P+fH.KX@&}#*}#~.#0M &{#",
"=}#-}#`-+;}#3H 6!@6!@ u@6!@:|+-0 Pp 4<#d2.=4@[h+>}##*+,}#D;#'}#)}#!}#~}#{}#]}#a<#^}#/}#(}#:,._e@_}#:}#X9 -2+us j++U9+k_.C;+8y+^D.`(+~o.b5 F{.%X.~n JS.JS.=5 |8 @6 @6 @6 ;4 zW.zW.+6 <}#(8@[}#}}#|}#1}#2}#3}#4}#5}#6}#7}#6|.8}#*5 ,;+Zj@9}#}} 0}#a}#b}#c}#d}#e}#f}#g}#h}#i}#j}#k}#l}#m}#n}#h8@o}#p}#q}#r}#s}#t}#u}#v}#w}#x}#y}#z}#A}#B}#C}#D}#E}#F}#G}#H}#I}#J}#K}#L}#.Y.M}#N}#O}#P}#Q}#R}#S}#T}#U}#V}#W}#X}#Y}#Z}#`}# |#.|#+|#@|##|#$|#$|#%|#&|#*|#=|#-|#;|#>|#,|#'|#)|#!|#~|#{|#]|#^|#/|#(|#_|#:|#<|#[|#}|#qr+||#1|#2|#3|#4|#5|#cI@4:.6|#7|#8|#9|#0|#a|#b|#} .c|#d|#e|#f|#g|#h|#i|#j|#k,@k|#l|#m|#>-+{W+bA@-u+n|#o|#p|#q|#r|#s|#t|#u|#v|#w|#x|#M++&f ,6 %a .6 G++@6 |8 X0 V5 P5 ]7 H5 ~o.P;.k*+y|##*+yG NL j=.G{.nU+#'+4}@z|#g=.%E A|#B|#C|#5C D|#CO+E|#F|#G|#NS+H|#I|#us J|#K|#L|#M|#ZW $d@W5 Or+G1 _!#;{#&-#4Z@Mh@32.&{#",
"=}#-}#`-+&}#6!@6!@ u@fC.3H ^J@nZ Pp 4<#d2.=4@N|##o.M_+O|#/ @Fb@P|#Q|#R|#S|#T|#U|#V|#e!+W|#^L@5'.X|#Y|#>T+2A+LX.*%++]++T NL X;.J3 K3 25 a[@<5 /7 8(+>,+/P.,7 `>+zW.@6 @6 zW.zW.N#+9/ W~ Z|#RZ+`|# 1#.1#+1#@1##1#$1#%1#F^+G3 v,.];.,;+.,+hU.cZ.@m@&1#*1#XF.=1#-1#;1#>1#,1#'1#)1#!1#~1#{1#]1#^1#&)++y /1#(1#_1#:1#<1#[1#}1#|1#11#21#31#41#51#61#71#81#91#01#a1#b1#c1#d1#e1#f1#g1#h1#i1#j1#k1#l1#m1#n1#]b+o1#p1#q1#r1#s1#t1#u1#v1#w1#x1#y1#z1#A1#B1#C1#D1#E1#F1#G1#H1#I1#J1#K1#L1#M1#N1#O1#P1#Q1#R1#S1#T1#U1#V1#W1#X1#Y1#Z1#`1# 2#.2#+2#@2##2#$2#%2#<'#&2#*2#=2#-2#;2#>2#,2#'2#)2#!2#~2#lc +E.{2#]2#4L.#;#%&@78 ^2#/2#(2#_2#:2#<2#[2#5`.}2#|2#12#22#32#IY./P.=f V! @6 zW.&5 7K+Pt+Z5 >7 :5 d5 'F@KL I{.42#0$@0e++g.52#.g.Lw L_@62#+*+.h.72#82#92#YW+02#a2#b2#F|#c2#d2#E%@e2#42#AI+>.#f2#1,#ZW $d@V5 dt+nD+z;#4e@:!#g2#2x@0M &{#",
"=}#-}#Qx.v$#6!@6!@fC.6!@fC.%q+-0 Pp 4<#3U h2#N|#PB+#*+i2#j2#k2#l2#m2#=T@n2#o2#U|#p2#{i+q2#0O@d5.r2#s2#:V.y|#y|#,8.~J ~0+/@+S3 /5 N3+AF.p +B++>5 4Z.*f .7 '7 hk F++F*+F*+zW.zW.E%+Kc+$a t2#FT.u2#v2#w2#x2#y2#z2#A2#B2#C2#D2#E2#Jc+%6 e{+F2#G2#}!+oZ@H2#I2#J2#K2#L2#M2#N2#O2#P2#Q2#R2#S2#T2#U2#V2#W2#QP cB X2#Y2#Z2#`2# 3#.3#+3#@3##3#$3#%3#&3#*3#=3#-3#;3#>3#,3#q0.#f.'3#)3#!3#~3#{3#]3#^3#/3#(3#_3#:3#<3#[3#}3#|3#13#23#33#43#53#63#73#83#93#03#a3#b3#c3#d3#e3#f3#g3#h3#i3#j3#k3#l3#m3#n3#o3#p3#q3#r3#s3#t3#u3#v3#w3#E)#x3#y3#z3#A3#B3#C3#D3#E3#F3#G3#H3#I3#J3#K3#`c.L3#M3#N3#O3#ag+hc P3#Q3#R3#S3#b~ T3#U3#V3#W3#X3#Y3#Z3#`3# 4#.4#+4#@4##4#[*+$4#z +/P.>4 F*+F*+|8 ac C++<8 Z5 y1+%4#(5 w#+ ]+GV.{J Cn.O` &4#@].Ae.MX.*4#=4#]{@<n.-4#;4#>4#,4#'4# }#)4#F|#!4#~4#{4#]4#/R@#].DX@=D+M;#i*#^4#R5 a0+nD+Z]#@G+:!#.[+0&.0M R++",
"=}#2<#Qx.&}#4e@6!@6!@fC.fC./4#HE Pp 4<#3U h2#N|#PB+#*+(4#_4#:4#<4#[4#}4#n2#tr |4#14#24#34#44#54#64#74#84#94#04#a4#b4#c4#d4#e4#f4#g4#h4#|h+i4#mU@j4#k4#G1 MS.l4# V.zW.F*+F*+F*+NE+';+4'+C5+VE@8]@%9.m4#n4#o4#p4#q4#A6.r4#s4#Z>+g{+>4 A%+Q++'n V! 'n GY.t4#u4#v4#w4#x4#y4#z4#A4#B4#C4#D4#E4#F4#G4#H4#I4#z#.J4#K4#L4#M4#N4#O4#P4#Q4#R4#S4#T4#U4#V4#W4#X4#Y4#Z4#`4# 5#.5#+5#@5##5#$5#%5#&5#*5#=5#-5#;5#>5#,5#'5#)5#!5#~5#{5#]5#^5#/5#(5#_5#:5#<5#[5#}5#|5#15#25#35#45#55#65#75#85#95#05#a5#b5#c5#d5#e5#f5#g5#h5#N-#i5#$P.j5#k5#l5#m5#n5#o5#p5#*d q5#r5#s5#t5#u5#v5#w5#x5#y5#z5#A5#08 :*+B5#C5#D5#e]@E5#3)@We XV.F5#G5#H5#I5#J5#K5#L5#0~ S3#*9@M5#nc nZ+>4 9:+f{+F*+F*++7 9c N5#O5#Y%#OK@P5#Q5#]@+R5#r@.S5#T5#U5#V5#W5#X5#Y5#Z5#5D+`5#3N  6#.6#+6#@6##6# }#)4#$6#%6#&6#*6#=6#/R@#].DX@=D+M;#i*#^4#R5 -6#SX@Jk+;{#P3+).#0&.0M R++",
";6#>6#hX.;}#&P RT+XF@iR@iR@,6#RM.32.[o@d2.'6#)6#PB+#*+!6#/ @~6#{6#]6#.R+^6#/6#(6#_6#:6#<6#[6#n'@}6#zG+|6#16#26#}z 36#46#56#66#76#86#96#~%.06#a6#I/#b6#6D+c6#]7 /P.X5 Wz+18 @6 F*+Z6 bc kU.'4 Y~ 0K@d6#e6#f6#g6#h6#i6#j6#1P.78 Ic+T7+D{ Z6 ;4 'n k6#a8 ec l6#m6#n6#o6#p6#q6#r6#s6#t6#u6#v6#w6#x6#y6#z6#A6#B6#C6#-I+ Z D6#E6#F6#G6#H6#I6#J6#K6#L6#M6#N6#O6#P6#Q6#R6#S6#T6#U6#V6#W6#X6#Y6#Z6#`6# 7#.7#+7#@7##7#$7#%7#&7#*7#=7#-7#;7#>7#,7#'7#)7#!7#~7#{7#]7#^7#/7#(7#_7#:7#<7#[7#}7#|7#17#27#37#47#57#67#77#87#97#07#a7#b7#c7#d7#e7#f7#g7#h7#i7#j7#k7#l7#m7#n7#o7#p7#q7#r7#b]@s7#R^@t7#u7#v7#w7#Bh x7#T=@bZ.y7#z7#A7#B7#C7#D7#E7#F7#D{ 'n 1S.vN.F*+L++F*+@6 L++D{ E++W5 0v+G7#H7#I7#J5@J7#K7#L7#M7#N7#O7#P7#Q7#R7#S7#T7#U7#i|+V7#W7#X7#Y7#Z7#`7# 8#.8#+8#@8##8#$8#%8#&8#*8#=8#-8#;8#C5 1,#>8#T/+R5 -6#G1 ,8#KX@WK+'8#,z@+J@)8#",
"!8#2<#;-#:!#iR@et@iR@iR@iR@~8#3Z.!n [o@d2.'6#{8#PB+#*+]8#^8#/8#(8#_8#:8#<8#[8#}8#|8#18#28#38#48#58#68#78#88#88#98#08#q_.U/#U/#a8#b8#c8#d8#.3.5^#|<#d+.IP+qs@|7 ~7 Y]+@P V! F*+F*+zW.F++=f >,+/u+@f zw@d6#e8#f8#g8#h8#i8#j8#Sg+#y@.a X! 9/ F*+F*+F*+`6 Y0 M1 G^@k8#l8#m8#n8#o8#p8#q8#r8#s8#t8#u8#v8#w8#x8#y8#z8#A8#B8#C8#D8#E8#F8#q*@G8#H8#I8#J8#K8#L8#M8#N8#O8#P8#Q8#R8#S8#T8#U8#V8#H]@W8#X8#Y8#Z8#`8# 9#.9#+9#@9##9#$9#%9#&9#*9#=9#-9#;9#>9#,9#'9#)9#!9#~9#{9#]9#^9#/9#(9#_9#:9#<9#[9#}9#|9#19#29#CB.39#49#59#69#79#89#99#09#a9#sx.b9#c9#d9#e9#f9#g9#h9#i9#j9#k9#l9#m9#CF+fc n9#o9#p9#t7#Bh q3@.J.jc q9#r9#s9#t9#u9#v9#w9#x9#A_@F*+F*+F*+F*+F*+F*+F*+F*+M#+1K+];.V]+y9#/{.}K+L6@5=.UB Dy+rg+'^#)c+z9#A9#B9#C9#D9#E9#F9#G9#H9#I9#J9#K9#L9#5e.M9##6#N9#O9##8#P9#Vl@Q9#R9#S9#-8#T9#C5 U9#V9#,0 S5 -6#G1 _!#iM WK+'8#2x@+J@W9#",
"X9#Y9#;-#&}#iR@6Y iR@XF@iR@~8#M%+!n [o@d2.Z9#)6#`9#M_+]8#/ @&&# 0#.0#+0#@0##0#$0#%0#&0#*0#=0#-0#;0#>0#,0#6V.,0#nK+'0#)0#P%+n#@!0#~0#{0#]0#08#9|.!6+FH.'5 `3 ^0#=&+hQ.& +.5.zW.zW.zW.zW.V! wa+X! ec 2=+0K@/0#(0#_0#:0#<0#[0#}0#|0#Gk@Iv+zC+B-+F*+F*+N#+S/+10#Y6 %.@Fz@20#30#40#50#60#70#80#90#00#a0#b0#c0#d0#e0#f0#g0#h0#i0#j0#k0#l0#m0#n0#o0#p0#q0#r0#s0#t0#u0#v0#w0#x0#y0#z0#A0#B0#C0#D0#E0#F0#G0#H0#I0#J0#K0#L0#M0#N0#O0#Tn+P0#Q0#R0#S0#T0#U0#V0#W0#X0#Y0#Z0#`0# a#.a#+a#@a##a#$a#%a#&a#*a#=a#-a#;a#>a#,a#'a#)a#!a#~a#{a#]a#^a#/a#(a#_a#:a#<a#cz+[a#}a#|a#1a#2a#9<@w1+6<+3a#4a#5a#t7#Ah 2I.n #R1@=n g.+6a#7a#8a#9a#0a#aa#ba#W! F*+F*+F*+F*+F*+F*+F*+F*+Z6 ];.=4 ca#da#$X.6Y *y+ea#fa#ga#ha#ia#ja#ka#la#ma#na#`~#oa#/8#pa#c#@qa#ra#sa#ta#ua#va#wa#xa#ya#za#Aa#Ba#Ca#*8#Da#A@.Ea#.6@Fa#Ga#,0 S5 Ha#J-@,8#KX@pv@'8#Ia#+J@Ja#",
"Ka#2<#;-#:!#5<+RT+iR@iR@iR@La#ar !n [o@i$#h2#Ma#,Z.S#.Na#/ @Oa#<4#.0#Pa#Qa#T|#Ra#Sa#Ta#Ua#Va#Wa#Xa#Ya#Za#`a# b#.b#+b#@b##b#$b#%b#&b#*b#=b#-b#;b#8X+sX.*X.~n G5 >b#O;.!.+~X.bc ;4 zW.F*+F*+F*+F*+nc Oq+P1 d#+,b#'b#)b#!b#~b#{b#]b#D!+/~@</@hU.@6 zW.B-+%6 jU.N#+BC+%&@^b#/b#(b#_b#:b#<b#[b#}b#|b#1b#2b#3b#4b#5b#6b#7b#8b#9b#0b#ab#bb#cb#db#eb#fb#gb#hb#ib#kv jb#kb#lb#mb#nb#ob#pb#qb#rb#sb#tb#ub#vb#wb#xb#yb#zb#Ab#Bb#Cb#Db#Eb#Fb#Gb#Hb#Ib#Jb#Kb#Lb#Mb#Nb#Ob#Pb#Qb#Rb#Sb#Tb#Ub#Vb#Wb#Xb#Yb#Zb#`b# c#.c#+c#@c##c#$c#%c#&c#*c#=c#-c#;c#>c#,c#'c#)c#!c#~c#{c#]c#^c#/c#(c#k5@9z@_c#:c#<c#;'#XL.n #68 5)@[c#}c#|c#1c#2c#3c#4c#5c#N1 L++F*+F*+F*+F*+F*+F*+F*+F*+e{+'7 *D+)P V>+k}+27 -2+6c#7c#5c 8c#|e.9c#0c#ac#bc#cc#dc#ec#fc#gc#hc#ic#jc#kc#lc#mc#nc#oc#pc#qc#rc#sc#Vl@tc#uc#C5 sX.sv@Da#vc#TO+,0 S5 Or+wc#=W@@G+[ @;{#Ia#+J@xc#",
"yc#KW ;-#&}#et@RT+RT+iR@iR@zc#kr+!n [o@n+#Z9#[h+,Z.S#.]8#Ac#NS+Bc#Cc#Dc#Ec#Fc#Gc#Hc#tJ@Ic#Jc#Kc#Lc#il Mc#Nc#Oc#Pc#Qc#Rc#Sc#Tc#Uc#Vc#Wc#Xc#Yc#Zc#`c#Hz+n++#4 O'+wc@Xh@!P.5A+Pz+|8 F*+F*+L++N#+F*+wa+wa+%a R1@Vl+lh  r@ d#.d#+d#@d#T1@j@@#d#Zj@@6 zW.Qp +6 G++;4 !n M! t@#T&#$d#YP@%d#&d#*d#=d#-d#;d#>d#;P+,d#'d#)d#!d#~d#{d#]d#^d#/d#(d#_d#:d#<d#[d#}d#|d#1d#2d#3d#4d#5d#6d#7d#8d#9d#0d#ad#bd#cd#dd#ed#fd#gd#hd#id#jd#kd#ld#md#nd#od#pd#qd#rd#sd#td#ud#vd#wd#xd#yd#zd#Ad#Bd#X2+C9+Cd#Dd#Ed#Fd#Gd#Hd#Id#Jd#Kd#Ld#Af+Md#Nd#Od#Pd#Qd#Rd#Sd#Td#Ud#Vd#Wd#Xd#Yd#Zd#`d# e#.e#+e#@e##e#cg+gU.$e#~b@58 xW.%e#&e#*e#=e#-e#;e#>e#,e#'e#,&#S#+F*+F*+F*+F*+F*+zW.F*+F*+zW.W2.Fv@4M.*4 p7@)e#!e#5l@~e#{e#]e#^e#/e#(e#_e#:e#<e#[e#}e#|e#1e#2e#3e#4e#5e#6e#7e#8e#9e#0e#ae#be#Aa#^W@Ca#ce#de#u7+sv@Da#vc#TO+,0 S5 Or+-P+=W@Gh KX@$^#2x@+J@xc#",
"ee#fe#/@+tc RT+(7 RT+RT+XF@ge#kM !n [o@* @he#&J@>}#ie#je#ke#_j@le#me#ne#oe#pe#qe#re#se#te#ue#ve#we#xe#ye#ze#Ae#Be#Ce#De#Ee#Fe#Ge#He#Ie#]/.Je#HW qt+(u@Ke#Le#KS.2'+,u@C5 E{.%4 Y5 @6 M#+AC+'n F*+BC+F*+F*+zW.F*+nc L1 ie+oc+#v+0J+eZ.Me#Ne#Oe#G++9/ zW..6 #=+.4 I5 Z3 Fh Pe#Qe#!f@WL.Re#Se#Te#w! av+Ue#Ve#We#Xe#Ye#Ze#`e# f#.f#+f#@f##f#$f#%f#&f#*f#c9.=f#-f#;f#>f#,f#'f#)f#!f#~f#{f#]f#^f#/f#(f#_f#:f#<f#[f#}f#|f#1f#2f#3f#4f#4f#5f#6f#7f#8f#9f#0f#af#bf#cf#df#ef#;9@ff#gf#hf#if#jf#kf#lf#mf#nf#of#pf#qf#rf#Em.sf#tf#uf#vf#wf#xf#yf#zf#Af#Bf#Cf#Df#Ef#Ff#Gf#Hf#If#Jf#Kf#Lf#Mf#,_@kR.T=@*f 68 cZ@Nf#Of#Pf#Qf#Rf#Sf#Tf#Uf#J1@9/ F*+9/ 'n F*+@6 y3+ V.4'++7 (5 Vf#Of@T5 Wf#QA+{o.Xf#eV.Yf#4M.Zf#`f# g#.g#+g#@g##g#$g#%g#&g#*g#=g#-g#;g#>g#,g#'g#)g#!g#~g#{g#]g#^g#/g#(g#_g#VU.A@.:g#.6@Fa#S`@i>+~X.<g#[g#O5+}g#Gh SX@q!+ll.|g#",
"ee#fe#/@+:!#et@5<+iR@iR@iR@1g#kM !n [o@2g#3g#4g##o.M_+5g#Ed 6g#7g#8g#9g#0g#ag#bg#cg#dg#eg#fg#gg#hg#ig#jg#kg#lg#mg#ng#og#pg#qg#rg#sg#tg#ug#vg#wg#xg#yg#zg#Ag#Bg#~X.#4 :j.#s+)I.mC+.5.9/ M#+F*+F*+F*+F*+F*+F*+F*+'n 'n  a +a +a W~ V~ +a Cg#Dg#18 .{+W5 K5 k*+7{@2A+Eg#@1.>T+-~+Z3 Fg#Gg#x1+=7 Hg#Ig#Jg#Kg#Lg#Mg#Ng#Og#Pg#Qg#Rg#Sg#Tg#Ug#Vg#Wg#Xg#Yg#Zg#`g# h#.h#+h#D=@@h##h#'(#$h#%h#&h#*h#=h#-h#;h#>h#,h#'h#)h#!h#~h#{h#{h#]h#^h#/h#(h#_h#:h#<h#[h#}h#|h#1h#2h#3h#4h#5h#6h#7h#8h#9h#0h#ah#bh#yU@)k ch#dh#eh#fh#gh#hh#ih#jh#kh#lh#mh#nh#oh#ph#dW.qh#rh#sh#th#uh#vh#wh#SV <++xh#F(@GY.ek $~ =x+yh#zh#Ah#Bh#Ch#Dh#UL.o:@cZ.HN+G++X! F*+F*+F*+zW.yg+Eh#gH.p +Fh#Gh#~7 C%@Hh#Ih#Jh#Kh#Lh#Mh#Nh#Oh#gY.Ph#Qh#Rh#Sh#Th#25.Uh#Vh#Wh#Xh#Yh#Zh#`h# i#.i#+i#@i##i#$i#%i#&i#*i#&8#_g#VU.A@.=i#AM+LE S`@i>+S5 -i#GU@O5+E'#@G+M'@D]#ll.|g#",
"yc#2<#/@+~|+et@RT+RT+XF@iR@,6#rW.pb g;#* @;i#>i#`|@Hz+,i#'i#)i#!i#~i#{i#]i#-o.^i#/i#(i#_i#:i#<i#[i#}i#|i#1i#2i#3i#4i#5i#6i#7i#8i#9i#0i#Z<.jU@ai#bi#ci#di#ei#fi#1j 8(+]7 Ap+F1 %X.Wf#~e.L1 F*+F*+F*+F*+F*+9/ 9/ F*+F*+L++%6 %6 %6 %6 X! M;@ek tt@GY.gi#hi#ii#ji#ki#li#W@@mi#ni#N3 ]7 f8 j}+N5 }y+oi#pi#qi#ri#si#ti#ui#vi#wi#xi#yi#zi#Ai#Bi#Ci#Di#Ei#Fi#Gi#Hi#Ii#Ji#Ki#Li#$g.Mi#Ni#Oi#Pi#Qi#Ri#Si#Ti#Ui#Vi#Wi#Xi#Yi#Zi#`i# j#.j#+j#@j##j#$j#%j#&j#*j#=j#-j#;j#>j#,j#'j#)j#!j#~j#{j#]j#^j#v!+/j#(j#_j#:j#<j#[j#}j#|j#1j#2j#3j#4j#5j#6j#7j#8j#z6@9j#E5 0j#aj#bj#cj#dj#ej#rN+28 N1 lR.+a +a Qn+fj#gj#hj#ij#jj#kj#lj# f =f mj#z-++6 X! F*+F*+F*+L++ym@BC+ W+nj#{1 %4#;6 z=@oj#pj#qj#bi#d*#rj#cj sj#tj#uj#vj#wj#xj#yj#zj#Aj#Bj#Cj#Dj#Ej#Fj#Gj#Hj#Ij#Jj#Kj#Lj#Mj#Nj#Oj#/g#Pj#Qj#VU.A@.=i#.6@LE Rj#Sj#KS.Tj#GU@HX@y;#;{#}g#q!+Kg.Uj#",
"yc#-}#FL tc et@RT+iR@iR@RT+~8#ar pb W=#2g#he#&J@Vj#M_+Wj#Ed Ye@Xj#Cb@Yj#Zj#`j# k#.k#+k#@k##k#$k#%k#&k#*k#=k#-k#;k#>k#,k#'k#)k#!k#~k#{k#Cq+`Y *X+{1 ]k#^k#/k##o.(k#Hh <O.7d@jq.J;#l++mC+.5.F*+F*+F*+F*+F*+F*+F*+9/ F*+L++S#+S#+Q++Q++gk Y6 &p+x]#}} _k#ON :k#MP <k#[k#}k#|k#1k#2k#<5+D3 $4 )7 hQ.3k#4k#5k#6k#7k#8k#9k#0k#ak#bk#ck#dk#ek#fk#gk#hk#ik#jk#kk#lk#mk#nk#ok#pk#qk#rk#sk#tk#uk#vk#wk#xk#xW+yk#zk#Ak#Bk#Ck#Dk#Ek#Fk#Gk#Hk#Ik#Jk#Kk#Lk#Mk#Nk#Ok#Pk#Qk#Rk#Sk#Tk#Uk#Vk#Wk#HL+Xk#Yk#Zk#`k# l#.l#+l#@l##l#$l#[|@%l#&l#*l#=l#-l#;l#1~@<'.ib >l#Z{+,l#'l#)l#!l#~l#K=+ m+M#+,4 +6 ic {l#qq+]l#^l#/l#(l#_l#i&#P##=f ]D+S/+]D+V! F*+F*+F*+F*+Z0 Yw@N5 hq@:l#/5 *f j}+6g@k'+<l#[l#}l#|l#1l#2l#3l#4l#5l#6l#7l#8l#9l#0l#al#bl#cl#dl#el#fl#gl#hl#il#jl#kl#ll#ml#nl#Oj#/g#ol#_g#VU.A@.pl#AM+g{@ql#c[ S5 2y+GU@O5+}g#@G+E'#yY.ZB rl#",
"X9#-}#FL &}#iR@r7.RT+iR@RT+hM ar pb g;#G}.sl#tl#L6@Hz+!6#ul#6g#vl#wl#[{.xl#yl#zl#Al#Bl#Cl#Dl#El#Fl#Gl#Hl#Il#Jl#Kl#Ll#Ml#Nl#Ol#Pl#Ql#Rl#S]@Sl#Tl#_A+Ul#Vl#Wl#*D+`u@3r@Xl#O5 !5 $$+F1 )I.<O.gk Z0 L++L++L++F*+F*+'n 9/ zW.Z0 M#+4'+4'+;4 { +Yl#Zl#`l#Q.# m#.m#+m#@m##m#$m#%m#&m#*m#=m#70.-m#Y3 3_+:8 ;m#dI+H+#_I@>m#,m#'m#)m#!m#~m#{m#]m#^m#/m#(m#_m#:m#<m#[m#}m#|m#1m#2m#3m#4m#5m#6m#7m#8m#9m#0m#am#bm#g(+cm#dm#Kd#em#fm#gm#hm#im#jm#km#lm#mm#nm#om#pm#qm#rm#sm#tm#um#vm#wm#xm#@E.ym#zm#Am#Bm#Cm#Dm#Em#Fm#Gm#Hm#Im# J.#o.Jm#Km#yw@Lm#f +vH+Mm#Nm#Om#Pm#Qm#Rm#~O Sm#Tm#ai+>4 fk W~ th S2@Um#Vm#Wm#Xm#Ym#Zm#`m#t'+W! F*+.{+Z6 F*+L++L++F*+zW.5p+R5  n#.n#+n#P5 %X.1M+@n##n#yC@$n#%n#&n#rH@*n#=n#-n#;n#>n#,n#'n#)n#!n#~n#{n#]n#^n#/n#(n#_n#:n#<n#[n#}n#|n#1n#2n#3n#4n#ol#5n#VU.A@.6n#C5 g{@7n#c[ S5 2y+GU@SS+}g#;{#E'#8n#Kg.9n#",
"0n#-}#O;.%{#Pj@aM.V>+4^@=X.an#Z/+X0 kw+bn#cn#&{+A@.:V.3V ke#_j@dn#@-#en#fn#gn#hn#in#jn#kn#ln#mn#nn#on#pn#pn#qn#rn#sn#tn#un#vn#wn#xn#yn#4p+V_@U5@zn#An#Bn#Cn#Dn#En#Fn#Gn#e0+W5 TX@Hn#=&+nV.Z>+Sd@Fg.iX+Ic+zW.zW.zW.Z6 bc F++Z6 F*+@6 V! G++In#Jn#Kn#Ln#Mn#Mt.sQ Nn#On#2D Pn#Qn#Rn#Sn#Tn#Un#wc@Wz+|8 W!  ,+Q5 6k+Vn#Wn#Xn#Yn#Zn#`n# o#.o#+o#@o##o#$o#%o#&o#*o#=o#-o#;o#>o#,o#'o#NB.)o#^$.!o#~o#{o#]o#^o#/o#(o#_o#:o#<o#[o#}o#|o#1o#2o#3o#4o#5o#6o#7o#8o#9o#0o#ao#bo#co#do#KY+eo#fo#go#ho#io#jo#%Z@ko#lo#mo#no#oo#po#qo#Re ac ac gH.,7 #4 )/.MB.ro#so#to#uo#vo#wo#xo#yo#.5 Y5 Ye zo#VG@Ao#Bo#Co#Do#Eo#V3#Ye 1K+F++zW.9/ 'n F*+F*+f{+A%+]D+D++#4 kq.Fo#fi#<X.=2+RT+lk `9#_H Go#,}@Ho#Io#Jo#Ko#Lo#Mo#No#Oo#Po#Qo#Ro#So#To#Uo#Vo#Wo#Xo#Yo#Zo#`o# p#.p#+p#@p##p#$p#%p#&p#*p#=p#42#=D+-p#Da#g{@7n#,0 R5 h$#]g@KX@;p#@^#>p#q!+ll.(, ",
"0n#-}#O;.,p#'p#Gn#G5 4^@=X.an#Z/+X0 kw+)p#!p#`/+~p#:V.{p#'i#]p#P|#^p#en#/p#(p#_p#:p#<p#[p#}p#|p#1p#2p#3p#4p#5p#6p#7p#8p#9p#0p#ap#xn#i$@bp#cp#V]#dp#ep#),.fp#`5@#!#({.=y+B_@GO@$7 !P.gp#M_+!5 7d@gH.!n cZ.yg+zW.zW.zW.`6 `6 Z6 zW.F*+X! D{ qs+hp#ip#jp#kp#lp#mp#np#op#pp#qp#Q0.rp#sp#tp#up#8H+}X.zW.G++V! +7 `>+Q5 H3+'e#5S.vp#wp#xp#YY@yp#zp#Ap#Bp#Cp#Dp#Ep#Fp#Gp#Hp#Ip#Jp#Kp#26 Lp#Mp#f}+Np#Op#Pp#Qp#Rp#Sp#Tp#Up#Vp#Wp#Xp#Yp#Zp#`p# q#.q#+q#@q##q#$q#%q# L+&q#*q#=q#-q#;q#p;+>q#,q#hB.'q#)q#!q#~q#{q#]q#^q#/q#(q#_q#B{ W9+PH+Wz+4Z.p7@:q#<q#[q#}q#8$+[/+|q#1q#2q#3q#n-@58 4q#}0#5q#6q#vr.7q#8q#iR.ic 'n HN+;4 'n 9/ F*+F*+F*+|8 &5 gH.B_@iG+9q#J;#s +Xl#LS.7'@j*#-O+k!@Jp@0q#aq#bq#cq#dq#eq#fq#gq#hq#iq#jq#kq#lq#mq#nq#oq#pq#qq#rq#sq#tq#uq#vq#wq#@p##p#xq#%p#yq#zq#=p#42#=D+-p#Da#g{@7n#c[ R5 h$#]g@[ @iM [ @#k+q!+ll.(, ",
"Aq#-}#G5 %{#ZU.cq.f +4^@/}@an#Z/+X0 Bq#Cq#ei#Dq#/..kt.Eq#'i#Fq#Gq#@-#Hq#Iq#(p#Jq#Kq#Lq#Mq#Nq#Oq#Pq#Qq#Rq#Sq#Tq#Uq#Vq#Wq#Xq#Yq#Zq#`q# r#.r#Wc#+r#@r#zn##r#$r#%*@%r#xK+'I.Dl.^7 <O.%7 l++Ws.:&+Cw >7 H1 C)@bv+zW.zW.zW.zW.zW.Z6 gk ;4 M#+A%+,4 hc 33@&r#*r#=r#-r#;r#>r#,r#'r#)r#!r#!E+~r#{r#(Y '6 ;4 @6 a8 V! %6 </ Qz+!n N^+24 mL@]r#^r#/r#(r#_r#:r#<r#[r#}r#|r#1r#2r#3r#`H.4r#|;.5r#6r#:@#7r#8r#9r#0r#ar#br#cr#dr#er#fr#gr#hr#ir#jr#kr#lr#mr#nr#or#pr#qr#rr#sr#tr#ur#vr#wr#xr#yr#zr#Ar#Br#Cr#Dr#Er#Fr#Gr#Hr#Ir#Jr#T=@.5.,;+&6 1S.b8 i[+|{ ~-+Kr#Lr#j7#Mr#Nr#Or#Pr#B+#Yw@dj+Qr#Rr#Sr#Tr#Ur#3r.Vr#y3+ 7 -s@Qz+1S.X! F*+F*+F*+F*++7 4Z.>7 r7.6D+jQ./P.mK.b[@@:@Wr#$].Xr#Yr#Zr#`r# s#.s#+s#@s##s#$s#%s#&s#*s#=s#-s#;s#>s#,s#'s#)s#!s#~s#{s#]s#^s#/s#z`@(s#_s#:s#<s#[s#}s#|s#42#/..=i#AM+Fa#1s#2s#H1 <g#3s#@^#Gh [ @SX@yY.Kg.4s#",
"Aq#-}#T3 %{#]5 m++G5 f +5s#an#Z/+X0 6s#74@ei#Dq#7s#kt.8s#/ @9s#0s#as#bs#cs#ds#es#fs#gs#tu hs#is#js#ks#ls#ms#ns#os#ps#qs#rs#ss#ts#us# r#.r#vs#+r#zC@ws#bi#xs#ys#c8#C5 zs# (#~o.V]+%7 W! .7 &5 `5 e{+}8 ]D+zW.Z6 zW.zW.F*+F*+zW.`6 F++zW.Z6 NE+;4 { +As#Bs#Cs#Ds#Es#Fs#Gs#Hs#Is#Js#X0.Ks#Ls#l_.#4 #7 ;4 V! ;4 E%+QH+g{+N#+Z0 jU.p'#(F.Ms#Ns#Os#Ps#hi@Qs#Rs#[~.Ss#Ts#Us#3y.Vs#Ws#Xs#3I.Ys#Zs#`s# t#.t#+t#@t##t#$t#%t#&t#*t#=t#-t#;t#>t#,t#'t#)t#!t#~t#{t#]t#^t#xL@/t#(t#_t#:t#<t#[t#}t#|t#1t#2t#3t#4t#5t#6t#s{@}n+F(@M1 2S.gc ! +7t#8t#~e+.&@P6+9t#0t#at#bt#ct#dt#et#ft#,{ gt#ht#it#jt#kt#yU@<$+ 6 K1 }8 `6 F*+9/ L++F*+F*+F*+F*+`6 Z6 `U.&7 &4 W! y3+5<+j*#[7 lt#mt#^k#nt#ot#pt#*Z+qt#rt#st#tt#5/.ut#vt#wt#xt#yt#zt#At#Bt#Ct#Dt#Et#Ft#Gt#Ht#It#Jt#wX@@{._s#:s#Kt#Kd Lt#|s#42#/..Mt#C5 LE JI+2s#vo Nt#3s#[ @iM @^#E'#yY.ZB 4s#",
"Aq#v5 G5 Ot#N3+N3+'/.=X.5s#Bg#Y:@%e Bq#74@ei#Dq#7s#C;+Pt#Ed &&#Qt#Rt#St#Tt#Ut#Vt#Wt#Xt#|8#Yt#Zt#`t# u#.u#+u#@u##u#$u#%u#&u#*u#=u#JB -u#/0@;u#$c zd jU@ep#>u#,u#'u#C5 )u#WU.a[@A+#W7+%5 %a V! 9/ S#+S#+S#+Z0 Z0 L++L++M#+@6 F*+`6 S7+ 7 ;4 |8 ;4 zW.>4  f !u#~u#{u#]u#^u#/u#(u#_u#:u#<u#Q` OM.B_@ F.Wz+F++*f I1 <8 ]D+Z0 Z0 |8 D++mm@-f #5 [u#}u#|u#1u#P#+2u#dh.3u#4u#5u#M'+/P.25+6u#7u#8u#9u#0u#au#bu#cu#du#eu#fu#}M@gu#hu#iu#ju#ku#lu#mu#nu#ou#pu#qu#ru#*Z.sF+su#tu#uu#vu#wu#xu#yu#zu#Au#Bu#Cu#gU.Oq+b8 J1 J1 FO@}n+;_@Du#Eu#Fu#Pd@@f Gu#p$@Hu#Iu#Ju#Ku#Lu#Mu#ob+RM.Nu#Ou#Pu#Qu#Ru#P1 Y6 V#+=f X5 o7.Z6  7 ,;+D{ M#+Z0 Z0 Z0 B +T7+hU.|S.W! X5 X]+y1+4^@Su#Qu+AM+Tu#x6+An#Uu#Vu#M*@Wu#Xu#je.Yu#Zu#`u# v#.v#+v#@v##v#$v#%v#&v#*v#=v#-v#;v#>v#,v#1V.'v#)v#!v#~v#{v#zq#]v#42#oj#^v#/v#(v#ql#2s#vo TQ+1e@@^#}g#&P RT+2M+%e _v#",
":v#<v#/'.[v#8y@wh@}v#|v#1v#2v#3v#-0 4v#5v#6v#7v#8v#~/.0h@9v#0v#av#bv#cv#dv#ev#fv#gv#hv#iv#jv#kv#lv#mv#nv#ov#pv#qv#rv#sv#tv#uv#vv#wv#xv#yv#zv#ZG+Av#Bv#Cv#Dv#Ev#yp+he#/k#Da#C`@{J T3 nV.-5 4Z.&5 @7 `5  ,+e{+`6 Z6 Z0 V! F*+zW.;4 [8 Z6 Z6 zW.zW.zW.>4 AC+Hv+6L+Fv#Gv#Hv#Iv#Jv#Kv#TO@Lv#Mv#WO+c+.Z3 mm@Nv#9/ @6 F*+F*+F*+F*+gk F++ 4 O*+T%.Ov#Pv#Qv#`~@Rv#Sv#Tv#{5 Tr+m5 %a hc Uv#Vv#Wv#Xv#Yv#Zv#`v# w#.w#+w#4k./} @w#3*@cS.#w#$w#%w#&w#*w#=w#-w#;w#-].Yr@c)@>w#,w#'w#)w#!w#~w#{w#>,+*f s +Oq+.6 @6 a8 dc 08 ]w#^w#/w#(w#B)@tx@ag+Do+18 _w#~@@:w#<w#[w#}w#|w#1w#55 R/+2w#3w#1J+t;@AC+X! Z0 `6 I1 cZ.bc F++`U.`U.kU.kU.bc Y0  V.o7.Y5 2'+P5 O5 {r+Hh =X.,8.Hz+-O+4w#Bs@Cv#5w#6w#(Z+7w#8w#9w#0w#aw#bw#cw#dw#ew#fw#gw#hw#iw#jw#kw#lw#mw#nw#ow#pw#qw#rw#sw#tw#uw#vw#ww#zq#xw#42#=D+yw#zw#bn#7n#c[ f>+,A+|v#@^#|v#et@et@-7 KS.Aw#",
":v#<v#/'.[v#8y@wh@#k+}v#1M+Bw#Cw#-0 4v#5v#6v#7v#8v#~/.Eq#Dw#Ew#P|#bv#Fw#Gw#Hw#Iw#Jw#Kw#Lw#Mw#Nw#Ow#Pw#Qw#Rw#Jt+^h.Sw#Tw#Uw#Vw#Ww#Xw#Yw#Zw#`w#w$. x#.x#+x#@x##x#$x#%x#&x#*x#=x#-x#5}@;x#m6+1+@&C MS.1'+.4 #4 ,7 -5 *4 {F.cZ.zW.@6 M#+zW.zW.zW.zW.zW. ,+<8 Yw@Qt+zv+>x#,x#'x#)x#!x#~x#{x#]x#^x#/x#(x#*7 ll.`6 F*+F*+F*+F*+F*+$7 ;-#_x#ss :x#4U.<x#NM.[#+[x#/'.HS.@w+{F.&~ a8 }x#|x#1x#2x#3x#4x#5x#6x#7x#8x#CS@9x#0x#ax#hc ,5 bx#n=.cx#be.^0@hg.ha+dx#J=.GR+ex#fx#gx#hx#ix#jx#kx#ik  7 1K+<8 `U.M1 mc lx#mx#nx#ox#px#qx#zm@`0 D{ [8 `6 %a |.@rx#sx#tx#ux#vx#<#@*F+.t.gk AC+x{ wx#F; Jc+Z0 Eh zW.;4 zW.@6 @6 @6 F*+%5 <O.*5 )7 -5 Tr+7d@5<++r@(d@xx#yx#zx#Ax#Bx#Cx#Dx#Ex#Fx#Gx#Hx#:d@Ix#Jx#Kx#Lx#Mx#Nx#Ox#Px#Qx#Rx#Sx#Tx#Ux#z4@Vx#Wx#Xx#Yx#Zx#`x# y#.y#+y#@y#uw#vw#/g#zq#5n#42#=D+#y#p}@74@Rj#T/+f>+,A+|v#$y#1v#et@et@-7 KS.Aw#",
"%y#&y#=X.*y#[ @Q7+=y#}v#1v#-y#0O+-0 Bq#t$.AM+;y#_=+NL Eq#>y#Ew#le#,y#'y#)y#!y#~y#x1.{y#]y#^y#/y#(y#_y#:y#<y#[y#}y#|y#1y#2y#3y#4y#5y#6y#7y#8y#9y#0y#ay#by#cy#7h+dy#Yr#Go#ey#fy#gy#2Z.17 z=@hy#5<+%X.)I.V]+.4 #4 -5 &4 V5 bc zW.F*+@6 9/ Z6 zW.zW.zW.G++D{ 6=+iy#jy#ky#:P@ly#my#ny#oy#py#qy#4t+ry#sy#ty#uy#.,+V! F*+F*+F*+'n b8 vy#wy#xy#yy#zy#Ay#By#Cy#Dy#Ey#=~+|]@=f Fy#0M Gy#Hy#Iy#Jy#Ky#Ly#My#Ny#Oy#Py#Qy#Ry#Sy#Ty#b=@(t+mw+O5 .4 +4 !P.Fg#Fg#3|.e>+3Z.`4 6r#Uy#Vy#Wy#Xy#Yy#Zy#Ju@`y# z#.z#+z#@z##z#$z#%z#&z#`0 gk }8 Qz+cv+C{ Ze F!+y1@*z#=z#-z#;z#>z#a-+,z#$4#G++4'+'z#)z#Eh V! Z6 Eh zW.zW.@6 M#+@6 @6 @6 %5 _O.*7 ~7 ~n &4 &4 .4  u r7.Dl.BE+B'#!z#'u#~z#_(+{z#]z#^z#!c /z#82#(z#_z#:z#<z#[z#}z#|z#1z#2z#3z#4z#5z#6z#7z#8z#9z#0z#az#bz#cz#dz#+y#tw#ez#fz#gz#hz#iz#jz#X]@kz#lz#'u#S`@T/+W5 -6#{o.[ @#^#et@c<@S}+KS.mz#",
"%y#&y#=X.nz#$y#Q7+}v#}v#@T Bg#F'#-0 Bq#t$.AM+;y#Qu+NL ]8#oz#:4#pz#,y#qz#rz#sz#tz#uz#vz#wz#xz#/y#yz#vq#zz#Az#Bz#Cz#Dz#Ez#g.#Fz#Gz#Hz#Iz#Jz#Kz#Lz#Mz#Nz#$t@8,+rM+y6@+]+zG |'.O*+!o.S3 '5 IS.d{+O5 gH.WJ.5Z.`>+e{+F++gk Z0 zW.gk Z6 `6 gk Z6 zW.zW.zW. 7  7 N#+A%+#6 iX+Oz#.J.N6@Pz#Qz#Rz#Sz#Tz#Uz#Vz#xh u!+9:+zW.F*+F*+F*+9/ s +Wz#Xz#Yz#Zz#`z# A#.A#+A#@A##A#$A#%A#&A#Qe ];.vC+*A#=A#NC@-A#oZ+~b@;A#>A#HO@,A#&E@|s+fL+{ +AC+AC+9/ %a ;6 );+#=+O^+$4 Wf#'A#)A#Sh+!A#~A#{A#]A#^A#/A#[|@(A#_A#:A#<A#o1+gc a8 >4 NE+.{+.{+NE+4'+28 4=+5~+[A#}A#|A#1A#2A#3A#4A#.4 Y0 gk iU.T7+B-+@6 V! F++F++`6 zW.@6 zW.|8 `6 Eh |8 ;4 |8 +7 `5 `5 `U.o7.#7 P5 gH.dS+Bp+S4@O3 }5 (J Cl.j=.IK xS _e@5A#6A#7A#8A#9A#0A#aA#bA#cA#dA#eA#fA#gA#hA#iA#jA#kA#lA#mA#nA#oA#pA#qA#rA#sA#tA#uA#vA#hz#wA#jz#X]@kz#p}@74@S`@T/+W5 -6#1M+$y#1M+RT+hy#<d+KS.xA#",
"yA#&y#=X.[v#zA#Q7+AA#1v#+r@zc#$5.Y:@BA#'u#bn#a!#CA#NL ^L@DA#:4#pz#EA#FA#GA#HA#IA#JA#KA#LA#MA#NA#OA#PA#QA#RA#SA#TA#UA#VA#WA#XA#YA#ZA#`A# B#.B#+B#}V.@B#dl+aP+3'.BG Y;.zG :J X;.U++P3 '5 @4 N5 gH.KS.Kg.];.`6 z +fk fk Y6 Qp C)@-0 Cw#g*#@V+nc C{ S7+bc }8 [8 X5 <O.y3+]D+.{+|S./%+(R+=Y@#B#$B#%B#&B##y@kc a8 zW.@6 G++[8 +_@*B#=B#-B#;B#9'.`U >B#,B#'B#)B#!B#~B#~a@+]+5p+}i+{B#I,@]B#^B#/B#(B#_B#:B#<B#[B#}B#j|#|B#1B#~5@2B#K[#I!@Ju@>A#4`+3B#4B#L(+5B#6B#7B#e{#8B#9B#0B#aB#bB#{7 cB#*G+c#+a8 C{ Q++N#+9/ 9/ z +L'+Q++~B@ f ^~#Vh+dB#eB#fB#gB#hB#iB#dN jB#W! V! F++jU.]X.L1 $7 5Z.#{@Pt+iU.X! #7 /7 1v#j}+:$+W5 gk gk `U.Y5 Z5 X5 R5 =7 #4 .4 ;5 Y3 ^5 S3 d+.A@.Hz+k_.L{.{/.d5.kB#lB#mB#nB#oB#pB#qB#rB#sB#tB#uB#vB#wB#xB#yB#zB#AB#BB#CB#DB#EB#FB#GB#HB#gH IB#JB#KB#LB#WK@MB#CA#NB#p}@cn#OB#d4+W5 PB#1e@`E.hy#}g#=y#-7 RM.QB#",
"RB#SB#=X.TB#UB#VB#LP@3r@}K+$W@2s+WB#XB#YB#!C f3 ZB#o +78#`B# C#.C#ow +C#@C##C#$C#%C#&C#*C#=C#-C#;C#>C#,C#'C#)C#!C#~C#{C#]C#^C#/C#(C#_C#:C#<C#[C#nC@}C#|C#1C#2C#3C#4C#5C#6C#7C#8C#9C#0C#WO.aC#bC#^$+cC#dC#Y_+{d@uC@fH.Sk+_t+gH.N5 8n#hy#eC#fC#gC#1=+&7 `>+&6 C{ ^*+.7 W! W! Z6 `6 V! nc 0g+68 tg@Xe 58 @a %6 Z0 iU.iX+[8 Jj+>M.d=@hC#iC#jC#kC#lC#mC#nC#oC#pC#qC#rC#!h.Qt+';+!4 sC#tC#uC#vC#wC#xC#yC#zC#AC#BC#BC#CC#DC#EC#FC#GC#HC#IC#JC#KC#LC#MC#NC#OC#PC#5$+QC#RC#SC#TC#UC#VC#%7 >,+38 B-++6 L1 %6 L++@6 4'+]X.O1 WC#XC#YC#ZC#`C# D#.D#+D#@D##D#$D#%D# V.;4 @6 F*+3'+hk L1 wa+.,+`U.bc 1'+PB+&D#*D#*y+'5 wx.!7 % +w_#RQ+XF@=D#3R@-D#'.+bZ+Y/@;D#>D#,D#'D#)D#!D#5;.~D#yy+;&+{D#]D#^D#/D#(D#_D#:D#<D#[D#}D#|D#1D#2D#3D#4D#wO 5D#OZ 6D#7D#8D#9D#0D#aD#bD#cD#dD#eD#fD#gD#hD#/v#iD#jD#ea#Z9#kD#d4+R5 2v#1e@ih+m,+iR@>p# F.8z lD#",
"RB#SB#G5 TB#mD#&P hy#s5.}K+nD#<A.WB#XB#oD#4c pD#D~+o +qD#k<@rD#sD#tD#uD#vD##C#wD#xD#yD#zD#AD#BD#CD#DD#ED#FD#GD#HD#ID#JD#KD#LD#MD#ND#OD#PD#QD#RD#SD#TD#UD#VD#WD#_B k8+XD#$_.YD#ZD#^1@`D# E#.E#Bs@+E#@E##E#=D+$E#,8.bR./'.Bp+MS.Tr+M5 >7 j*#%E#&E#*E#=E#Q8+%X.f>+-E#;6 -K.cz `>+Z0 z +z +bc o7.`U.@6 M#+A%+#6 %6 U7+;E#}i+-)@>E#,E#'E#)E#!E#~E#{E#]E#q'.^E#:.@/E#D!#i!.O5  V.}8 yg+cZ.G +*6 Oq+P'+.J.qs+GY.FY.(E#<%+48 V~ 48 0g+Oq+A{ DT.*6 CF+0(+<]+_E#_k#:E#<E#[E#}E#|E#1E#]##.6 $a B-+Ic+`]+Y0 Z0 Do+<}#Hj+2E#3E#4E#5E#6E#7E#8E#9E#0E#aE#bE#9j#Tr+];.e{+zW.F*+;4 Eh QH+>4 o7.%7 (5 cE#dE#eE#p'@k[.*X.>5 ,/.0v+/'.b[@z5 fE# 3.gE#hE#z/+],.dp#iE#e1 jE#kE#lE#mE#nE#oE#pE#qE#rE#Xb.sE#tE#uE#vE#wE#xE#yE#zE#AE#BE#CE#DE#EE#FE#GE#HE#6D#IE#ow#JE#KE#LE#ME#cD#NE#OE#PE#R/@hD#/v#eg@~4@I<@QE#j;#Oz+W5 2v#1e@/v.V>+iR@>p# F.8K+lD#",
"RE#SE#/'.TE#UE#xm@hy#/'.w:@VE#Kg.+:+WE#!p#XE#YE#D~+RH.78#ZE#k2#pz#`E# F#.F#ag#+F#@F##F#$F#%F#&F#*F#=F#-F#;F#>F#,F#'F#)F#!F#~F#{F#]F#^F#/F#(F#_F#:F#<F#[F#}F#6l tl |F#1F#2F#3F#4F#5F#6F#7F#8F#9F#*%+0F#aF#gy# n#{|@~J =y+2|.I5 %X.V]+%X.1'@W^+ji#bF#cF#dF#eF#{/.AF.gQ.#4 )7 2'+ ,+9/ Ic+N#+f{+A%+NE+L'+#6 g{+M#+f{+fF#n6@gF#hF#iF#jF#kF#lF#mF#nF#oF#pF#qF#rF#Zp.sF#Fy+tF#F++zW.9/ Qz+1K+L1 L1 )) )) uF#vF#A! A! A! wF#}! [! xF#xF#yF#, .}! BK@zF#AF#BF#CF#DF#EF#FF#GF#HF#IF#JF#M;@KF#,4 Q++5'+hc (<+)v@d;#LF#MF#NF#OF#PF#*c.QF#RF#SF#TF#-8.6Z.J1 UF#VF#Y0 Z6 Z0 e{+D++H1 T5 <J WF#XF#YF#ZF#`F#:J T3  W+B++sx+^5 G5 O;.k++}e.)u#C5  G#Zc#.G#3!@+G#@G##G#$G#%G#&G#*G#=G#-G#;G#>G#,G#'G#)G#!G#~G#{G#]G#^G#/G#(G#_G#:G#<G#[G#}G#|G#1G#2G#3G#4G#5G#6G#7G#8G#9G#NE#0G#aG#bG#cG#/v#Nu+dG#p}@h2#eG#d4+R5 Bw#27 fG#gG#et@=y#$[+hG#lD#",
"RE#SE#/'.TE#UE#xm@hy#G5 lk iG#Ab.+:+WE#!p#XE#YE#D~+RH.qW+jG#kG#av#tD#lG#mG#nG#+F#oG#pG#qG#rG#sG#tG#uG#vG#wG#xG#yG#zG#AG#BG#CG#DG#EG#FG#GG#HG#IG#JG#KG#LG#MG#NG#OG#PG#QG#RG#SG#TG#H/@UG#VG#WG#Bs@XG#@E#YG#S9#=D+`2.'I.-y+OM./D.IP+37 J5 H5 R3 +'+>Z.~{@ZG#`G# H#.H#nU+^5 Xl#*5 M5 U5 P5 *2+z-+NE+E%+D{ @6 M#+.,+Z0 z +E++*k++H#@H##H#$H#%H#&H#*H#=H#-H#;H#>H#,H#'H#)H#!H#N5 #7 9/ f{+f{+9/ D{ L++L++9/ D{ D{ 9/ 9/ X! nc X! K1 J1 F++W! .6 w3+!@@~H#{H#]H#^H#/H#(H#_H#:H#[@@D_ 'n tN.oR.zo#<H#t>#[H#}H#|H#1H#2H#3H#4H#5H#6H#7H#8H#9H#]5 [6 %e  ) Qz+W! 3'+Z6 |8 E++dS+0H#aH#bH#cH#dH#eH#l,+c)@N_+fH#~5 AF.]5 G5 P3 d+.{|@`{+!6+5l@gH#hH#%O@iH#jH#kH#lH#mH#nH#oH#pH#qH#rH#sH#tH#xi.uH#vH#wH#xH#yH#zH#AH#BH#CH#DH#EH#FH#GH#HH#IH#JH#KH#LH#=z MH#NH#OH#8G#9G#NE#0G#fD#R/@hD#/v#Nu+dG#p}@QE#PH#U=#R5 QH#27 8v+m,+(7 =y#Wr@hG#lD#",
"RH#&y#T3 SH#TH#$y#et@s5.f +-6#WJ KS.4v#4<.UH#KP@VH#g8@En.WH#k2#XH#YH#ZH#`H# I#.I#+I#@I##I#$I#%I#&I#*I#=I#-I#;I#>I#,I#'I#)I#!I#~I#{I#]I#^I#/I#(I#_I#:I#<I#[I#}I#|I#1I#2I#3I#4I#5I#6I#7I#8I#MI+9I#`A@PS+0I#aI# G#Su#.!.bI#cI#Iz+8|.xC@T3 :5 U3 IL 65 I=.dI#))+eI#fI#gI#Z$@H3+$7 )7 !7 Wf#mC+O5 5Z.*f .6 .6 %a .,+|8 `6 ];.Yw@0O+w1+}V@hI#iI#jI#kI#lI#Hu mI#nI#oI#pI#qI#rI#sI#%<#Pt+A +D{ zW.Z6 ]D+Z0 9/ gk 9/ gk gk 18 .a  a nc C{ dc tI#S^@uI#&.@vI#wI#xI#yI#zI#AI#BI#i%+(F.CI#DI#EI#FI#GI#HI#II#JI#KI#LI#MI#NI#OI#kO+v##PI#mL@KS.RM.=5 k3 bc 1K+bc o7.W! V! 2'+wh@QI#RI#SI#TI#UI#PS s0.aM@;-#5s#GR+O3 a[@/@+~o.]|@ML C;+5^#Eo@VI#WI#XI#iz w$.YI#ZI#`I# J#.J#+J#@J##J#$J#%J#&J#*J#=J#-J#;J#>J#,J#'J#)J#!J#~J#{J#]J#^J#/J#(J#_J#:J#<J#[J#}J#|J#1J#2J#3J#4J#9*#5J#fD#6J#`Y CA#7J#8J#ZM+/k#9J#-l+R5 s`@27  u 6Y et@et@mC+ZB 0J#",
"RH#&y#T3 SH#jB+$y#5<+S4@G5 XK+Vu+f>+f;#4<.yp+xp@aJ#3'.+q.bJ#:4#cJ#dJ#eJ#fJ#gJ#hJ#iJ#jJ#kJ#lJ#=!.mJ#nJ#oJ#pJ#qJ#rJ#sJ#tJ#uJ#vJ#wJ#xJ#yJ#zJ#AJ#BJ#CJ#DJ#EJ#FJ#GJ#HJ#IJ#JJ#KJ#LJ#MJ#NJ#xC :n.EG ci.Y;.i!.O*+}@@R3 P3 S3 /5 '5 AF.K5 K5 p +p ++4 Z3 Y3 Y3 D{.15 &s@OJ#Gb@&2+9:+Q5 3_+%5 &7 %7 *4 T5 U5 U5 )7 )7 W]+&5 `5 `5 &5 H1 l4#PJ#:X.QJ#RJ#SJ#TJ#UJ#VJ#WJ#XJ#wk#YJ#ZJ#`J#N(+Jc+-s@z-+NE+>4 IY..a xg+BV+xg+Oq+Oq+Oq+xg+X~ *K@ K#'N@W+@.K#+K#@K##K#$K#%K#&K#*K#=K#~J 1'+he+-K#;K#>K#,K#'K#)K#!K#~K#{K#]K#^K#aV+xh 99+ks <$+8(+*5 W]+W]+Z5 +7 +7 +7 +7 K1 @6 o7.)A@pH@|'+OL _J w#+@4 `3 B++B++B++p +p + W+)5 )5  ]+K3 Q3 ^D.,8.i}+kt.+]+)Z. >./K#(K#_K#:K#<K#[K#}K#|K#1K#2K#3K#4K#5K#6K#4j.7K#8K#9K#0K#aK#bK#cK#dK#eK#fK#gK#hK#iK#jK#kK#lK#mK#nK#oK#^!+pK#qK#rK#sK#tK#uK#5=.vK#wK#0I#hr+lU@e7 R5 >Z+QA+ u 5<+hy#5<+mC+0M xK#",
"RH#yK#T3 x*#zK#8y@5<+:&+]##XK+;N@f>+AK#4<.BK#xp@t/.3'.CK#DK#EK#FK#GK#HK#IK#JK#KK#LK#MK#NK#OK#G#+PK#_<.QK#RK#SK#TK#UK#VK#VK#WK#XK#YK#ZK#`K# L#.L#+L#@L##L#$L#%L#&L#*L#=L#-L#;L#>L#,L#'L#ci.E3 _'.!o.K3 T3 K5 !P.p +B++U5 *5 <O.S5 W]+&7 %5 tq@r +-4 )L#d~+0M 0:+vo Tr+WB@3_+Mn+7K+=p@ 6 N^+N^+*5 ;5 ;5 M5 M5 }X.S5 4Z.4Z.W]+.V.!L#~L#{L#Fh [$+]L# l@^L#/L#(L#_L#:L#<L#[L#lJ+$5 Sd@E*+0M }L#ni+|L#Cc@1L#2L#3L#4L#5L#6L#7L#8L#9L#0L#aL#bk.bL#cL#dL#eL#fL#gL#hL#iL#|y.N;@jL#kL#lL#mL#nL#oL#pL#qL#rL#sL#LJ@tL#uL#vL#wL#y-+!7 JS.=5 JS.JS.JS.$7  6  ,+|8 F++];@gk 9/ F++I1 M1 &7 WJ.P5 2'+%5 tq@%5 %5 =4 '7 U5 ,7 ,7 Tr+V]+&X.)5 ~5 A3 ;-#)o.Al.5N xL#yL#zL#AL#BL#CL#DL#EL#FL#GL#HL#IL#JL#KL#WZ.LL#ML#NL#OL#PL#QL#BQ RL#$H SL#TL#UL#VL#WL#XL#YL#ZL#vq#`L#^!+ M#.M#+M#@M##M#$M#D~+~R.wK#0I#QE#lU@e7 R5 Zt@/}@Lm+5<+6Y 5<+=!+0M %M#",
"&M#*M#S3 =M#}y+M5+5<+G5 f +-M#$[+vo u`@4<.;M#xp@jG+3'.>M#,M#'M#)M#!M#~M#{M#l}@]M#^M#/M#-T+(M#_M#:M#<M#[M#}M#|M#1M#2M#3M#UL#2M#4M#5M#6M#7M#8M#9M#0M#aC aM#bM#cM#dM#eM#fM#gM#hM#iM#jM#kM#W%.,u NL :v.<j.[7 fH#/D.=X./'.'5 V]+&X.Cw l++U0 1'+1'+d4+d4+oU+!.+Wf#d{+3_+_O.&4 gH.P5 X]+Wf#T5 *5 <O.<O.W]+W]+W]+W]+=5 )7 )7 )7 )7 >5 B++e0+U5 xk@{7 lM#f!.mM#+M.Ag+nM#oM#jJ+,f =a =5 WJ.-f X7+y8@pM#qM#rM#sM#tM#uM#vM#wM#xM#yM#zM#AM#BM#CM#DM#EM#FM#GM#HM#IM#JM#KM#PM.LM#]u+MM#NM#V+@OM#(P@=9@PM#QM#l7 y*.RM#0O+dS+IS.fE@9c hk WJ.)7 )7 )7 =5 4Z.2'+2'+4Z.4Z.3Z.Z>+T5 -f d{+V7+V7+,7 T5 %4 .4 1'+1'+1'+]7 ^7 /7 J5 I5 =X.X2.W2.~o.XU.hw+ib +]+$t@SM#Yp.TM#UM#VM#WM#XM#YM#ZM#`M# N#.N#+N#@N##N#|{.$N#%N#&N#*N#=N#-N#;N#>N#,N#'N#)N#!N#~N#{N#]N#^N#ZL#/N#(N#_N#:N#<N#[N#Vc#Ie#}N#5l@UB |N#6c#1N#lU@e7 {X.TS+27 Lm+J5 6Y 5<+mC+0M %M#",
"2N#SB#S3 3N#TH#8y@r7.V>+G5 -M#$[+vo eD+4N#;M#5N#}l.FV.6N#7N#sK#%6#8N#9N#0N#aN#]M#bN#cN#dN#eN#fN#gN#hN#iN#6X jN#kN#lN#mN#nN#oN#pN#qN#rN#sN#tN#uN#vN#wN#xN#yN#zN#AN#BN#CN#DN#MZ EN#FN#GN#HN#IN#JN#3C#KN#LN#MN#NN#ON#PN#QN#RN#SN#TN#UN#VN#VN#WN#XN#YN#lV jV hq@=8#8v#L|#6D+>$+D5 XU.(7 xm@7d@dS+e0+-f -f -f -f ~n ~n ~n ~n ~n %4 %4 wx.1'+MS.7d@xm@3|.^5 0v+L3+c[ ,0 1'+Bp+ZN#e0+wx.+4 ZU.`N# O#.O#+O#@O##O#$O#%O#&O#*O#=O#-O#;O#>O#,O#'O#)O#!O#~O#{O#]O#ga+L3 MS.t$@-7 W5 !n 8K+3Z.KS.!j+(F./E+UM.@V+#4 W3 ]7 WB@;5 $4 M5 ~n ~n ~n ~n ~n ~n ~n ~n wx.;5 B++w#+V2.}e.hy+Je#Je#V]@A1 R_@^O#WN#/O#f3 Ax#yG+(O#_O#:O#<O#[O#}O#|O#1O#2O#3O#4O#5O#6O#7O#8O#9O#0O#aO#bO#cO#dO#eO#fO#gO#hO#iO#jO#kO#lO#mO#nO#oO#pO#qO#rO#sO#tO#uO#vO#wO#xO#yO#zO#AO#BO#/N#CO#DO#EO#qK#FO#GO#HO#ke#`c#UB IO#In+hr+lU@e7 {X.TS+2|.Hh 5<+(7 wh@=!+0M %M#",
"JO#yK#V>+KO#jB+M5+et@/'.S4@LO#,z@p7@MO#;i#NO#/Z+C7@['.OO#PO#QO#RO#SO#TO#UO#VO#WO#XO#YO#ZO#`O# P#.P#eO#+P#@P##P#gW $P#%P#&P#*P#=P#-P#;P#>P#,P#'P#)P#!P#~P#{P#]P#^P#/P#(P#_P#:P#<P#[P#}P#|P#1P#2P#3P#4P#5P#=c qt#.s#6P#d<._c 0q#7P#8P#9P#5<#_X+`A@0P#nj#aP#)Z.Ti.@1.<z hq@us NL E3 VU.rM.^J !5 )I.xm@%X.IS.Tr+Tr+Tr+Tr+IS.V7+IS.IS.Z3 AF.N3+wh@et@/'.S4@m,+I5 !5 ~5 /5 /5 I5 !5 !5 !5 F{.bP#j$+cP#dP#eP#fP#gP#hP#iP#jP#kP#lP#mP#nP#oP#pP#qP#rP#L{.x-++'+M3 _5 AF.Z<+^7 {7  4 V]+Tr+l}+sP#Fy#q!+LS.8n#yY.2M+8n#rW+1'+e0+e0+V]+)I.)I.)I.)I.)5 p +>5 Z3 E{.tP#uP#Eo@5l@SO.=Q vP#'8.1~@o+#U/#U/#wP#xP#ug#yP#zP#zP#zP#AP#AP#x'+5k@BP#CP#DP#EP#FP#GP#HP#IP#JP#KP#LP#MP#NP#OP#PP#QP#RP#SP#TP#UP#VP#WP#XP#YP#ZP#`P# Q#.Q#+Q#@Q##Q#$Q#%Q#&Q#*Q#=Q#-Q#;Q#>Q#,Q#'Q#)Q#!Q#S%@~Q#{Q#]Q#0Z+SO.^Q#/Q#@E#(Q#$y#'7 _Q#hy#rc B_@Q7+8y@KS.@0 :Q#",
"JO#<Q#V>+lL@jB+8y@et@/'.S4@LO#E-+p7@MO#ga#[Q#Fb.0Z+U%.}Q#|Q#1Q#2Q#SO#3Q#4Q#eH 5Q#6Q#7Q#8Q#9Q#0Q#aQ#bQ#cQ#dQ#eQ#fQ#gQ#hQ#iQ#jQ#kQ#lQ#mQ#nQ#oQ#pQ#qQ#rQ#sQ#tQ#uQ#vQ#wQ#xQ#yQ#zQ#_8.AQ#BQ#CQ#DQ#EQ#FQ#GQ#HQ#IQ#JQ#KQ#|s#LQ#MQ#MQ#NQ#NQ#OQ#88#e<#nj#PQ#h'.h'.8,+6=.Al.BM+j=.zG :V.yG 3'.fr e<#;O+G3 X^+QQ#M3 45 M3 L3 A3 A3 A3 d5 B3 B3 X^+X^+:v.:v.qT.Q3 Q3 Bl.a5 J3 S<.[5 O3 O3 c5 A3 b5 qT.V<.RQ#SQ#TQ#D2#UQ#VQ#WQ#XQ#YQ#ZQ#`Q# R#.R#Yv+Y;.*:.aM@FL O3 HS.b5 `(+KL 75 75 75 qT.25 25 c+.c+.P3 25 25 O3 O3 d5 d5 25 U3 15 M3 L3 L3 L3 A3 .f@.f@a[@>T+~_@+R#Kk.OL j=.U9+g8@o_.o_.8,+`d PQ#PQ#PQ#'^#@R#Fh##R#$R##R#3}@%R#&R#*R#=R#-R#;R#>R#,R#'R#)R#!R#~R#{R#]R#^R#/R#(R#_R#:R#<R#[R#}R#|R#1R#2R#3R#4R#5R#6R#7R#8R#9R#0R#aR#bR#cR#dR#eR#fR#gR#hR#iR#3|+jR#kR#lR#mR#nR#oR#pR#EH+v).qR#/Q#@E#MM+zA#S5 _Q#hy#U0 B_@3H )I.H1 @0 :Q#",
"rR#<Q#6Y lL@jB+M5+(7 V>+V>+LO#,z@p7@sR#ga#[Q#1T.y` `5#tR#uR#vR#wR#xR#yR#zR#c9@AR#BR#CR#DR#ER#FR#GR#HR#IR#JR#HR#KR#LR#MR#NR#OR#PR#QR#RR#SR#TR#UR#VR#WR#XR#YR#ZR#`R# S#.S#+S#@S##S#$S#%S#&S#*S#=S#-S#;S#>S#,S#'S#)S#!S#zq#~S#{S#]S#HQ#^S#/S#(S#_S#:S#44#qD#<S#~)+cE#[S#fj@aP#x!.hz E3 Dn.Y%.}S#|S#dn+1S#2S#3S#4S#5S#tt#6S#6S#7S#8S#8S#J]+J]+9S#0S#aS#//.5N bS#W<.!h.>Z.)o.O` O` C3 C3 U++hw+)o.i!.G3 :l@%P+AR @]..{#RA+o_.o_.cS#dS#y!.B!.4'.['.ci. g.U;.$m.eS#6|.SM#T/@fS#aS#>M#f#.f#.#e+^@.^@.gS#gS#gS#gS#hS#t_.iS#jS#kS#lS#mS#nS#oS#pS#}6#}6#qS#rS#sS#|l.W%.M{.Dn.J.@Sj+tS#uS#vS#wS#xS#yS#zS#AS#BS#CS#DS#ES#ES#FS#GS#WH#HS#IS#JS#KS#LS#MS#NS#Ns.OS#PS#QS#RS#SS#TS#US#VS#WS#XY.XS#YS#ZS#`S# T#.T#+T#@T##T#$T#%T#&T#*T#=T#-T#;T#>T#,T#'T#)T#!T#~T#{T#]T#^T#/T#(T#_T#tg#:T#<T#OD+[T#/Q#}T#|T#k}+S5 nm+hy#:b+3H 4e@k}+H1 @0 1T#",
"JO#<Q#S4@2T#jB+M5+r7.S4@]##a0+S}+p7@3T#ga#4T#pd 5T#Y!+6T#7T#8T#9T#0T#aT#bT#cT#dT#eT#fT#gT#hT#M9#iT#jT#kT#lT#mT#nT#oT#pT#qT#rT#sT#tT#uT#vT#wT#xT#yT#zT#AT#BT#CT#DT#ET#FT#GT#HT#IT#JT#KT#LT#MT#NT#OT#PT#QT#RT#ST#TT#UT#VT#WT#XT#YT#ZT#`T#g @ U#.U#+U#@U##U##U#$U#%U#&U#*U#=U#-U#bS#;U#:l@.g.jt.<+.LN >U#,U#'U#)U#!U#~U#~U#~U#{U#G9#G9#E9#]U#{{@^U#/U#^}+(U#_U#:U#50@<U#[U#JK V;.V;.V;.!h.0$@0e+IK Z;.M{.O]# g.IR+s'.{g+V;.Yv+Yv+Q;.Yv+&Q 4)+'E+}U#|U#1U#2U#3U#4U#5U#^4+6U#tR#7U#8U#8U#Ks+Ks+Ks+8U#8U#8U#8U#9U#0U#aU#+D@bU#ki#S]@S]@S]@B<+cU#]n d5.dU#KM#fr X%.@E eU#fU#gU#hU#iU#jU#kU#lU#28#mU#nU#oU#pU#qU#rU#sU#tU#uU#vU#wU#xU#yU#yU#zU#AU#BU#CU#DU#EU#FU#GU#HU#IU#JU#KU#LU#MU#NU#OU#PU#QU#RU#SU#TU#UU#VU#WU#XU#YU#ZU#`U# V#.V#+V#@V##V#$V#%V#&V#*V#=V#-V#;V#>V#,V#'V#)V#1~@xq.!V#/Q#ga#~V#k}+S5 {V#hy#.4 B_@$y#M5+C++];.]V#",
"rR#nI+*X.^V#zK#M5+5<+/'.u$#a0+S}+p7@3T#/V#4T#(V#_V#:V#:U#<V#[V#}V#|V#1V#2V#3V#4V#5V#6V#7V#8V#9V#0V#aV#bV#cV#dV#eV#fV#gV#hV#iV#jV#kV#lV#mV#nV#oV#pV#qV#rV#sV#tV#uV#vV#wV#xV#yV#zV#AV#BV#CV#DV#EV#FV#GV#HV#IV#JV#KV#LV#MV#NV#OV#PV#7j.QV#RV#SV#TV#UV#VV#WV#XV#(K#YV#ZV#`V# W#.W#m!.zl.f'.k_.#*+h_.kt.~/.o +g8@k_.rM.!6+%P+|<#+T Y;.F3 F3 F3 e8@iq@JK jt.0N ]v 7/.+W#4)++W#9N Y=+&E &E .h..h..h.9N 9N !Z.l ##E @W#$'+4N #W#9j.$W#%W#dI#&W#cW.*>#*W#m!.=W#4N e=.#E EG FG EG jt.W%.bx#bx#$r.$r.ma+bx#bx#bx#bx#U9+[#+Hz+h_.R0@kt.kt.h_.~C !6+NL l=.4'.!.@MN GK OJ#>U#-W#;W#>W#,W#'W#)W#!W#~W#7j.{W#]W#^W#/W#(W#_W#:W#<W#[W#}W#|W#1W#2W#3W#4W#5W#VO 6W#7W#8W#w%+9W#0W#aW#bW#cW#dW#eW#fW#gW#hW#iW#jW#kW#yT#2Z lW#mW#nW#oW#pW#qW#rW#sW#R$.tW#uW#vW#wW#xW#yW#zW#AW#BW#CW#DW#EW#DQ#FW#98#GW#/Q#ga#~V#k}+S5 {V#hy##b+l++$y#M5+C++];.]V#",
"HW#IW#B_@~4+mK.l++wh@(7 /'.-i#S}+=!+JW#KW#LW#MW#NW#C6#OW#PW#QW#RW#SW#TW#UW#[5.VW#WW#XW#YW#ig ZW#`W# X#.X#+X#@X##X#$X#%X#&X#*X#=X#-X#;X#>X#,X#*X#'X#)X#!X#~X#{X#]X#^X#/X#(X#!C#_X#:X#<X#[X#}X#|X#1X#2X#3X#4X#5X#6X#7X#8X#9X#0X#aX#bX#cX#.r dX#eX#fX#gX#aX#hX#iX#jX#kX#lX#mX#nX#oX#pX#qX#pS#rX#sX#tX#uX#vX#vX#`$@#]+#]+wX#wX#xX#xX#)|+,r+,r+yX#zX#0S#0S#0S#Yq+^|@Pn@AX#AX#BX#BX#cx#AX#`&+CX#`{.`{.`{.DX#EX#EX#FX#FX#CX#w0.w0.GX#GX#HX#c=.c=.IX#JX#KX#KX#w0.e#.e#.LX#LX#iW@DX#DX#gg.gg.MX#MX#NX#5U+E9#=].=].#]+OX#PX#QX#PX#RX#SX#TX#=I+UX#VX#WX#68#XX#YX#ZX#`X# Y#.Y#+Y#@Y##Y#$Y#%Y#&Y#*Y#=Y#-Y#;Y#>Y#,Y#'Y#)Y#!Y#~Y#{Y#]Y#^Y#/Y#(Y#_Y#:Y#<Y#[Y#<Y#}Y#|Y#1Y#2Y#3Y#4Y#5Y#6Y#7Y#8Y#9Y#0Y#aY#bY#cY#dY#eY#fY#gY#hY#gY#iY#jY#kY#lY#mY#nY#oY#pY#qY#rY#sY#tY#uY#vY#wY#xY#yY#zY#AY#BY#Ti.CY#DY#yp+{J@LS.S5 $@+1M+#b+Cw MS.MS.V5 bc EY#",
"HW#co@N3+=a mK.l++J5 hy#S4@-i#S}+=!+JW#FY#LW#GY#jH#HY#IY#JY#KY#LY#MY#NY#OY#PY#QY#RY#SY#TY#UY#VY#WY#XY#YY#ZY#`Y# Z#.Z#+Z#@Z##Z#$Z# Z#%Z#&Z#*Z#=Z#-Z#;Z#>Z#,Z#'Z#)Z#!Z#~Z#{Z#]Z#^Z#/Z#(Z#_Z#:Z#<Z#[Z#}Z#-Z#|Z#1Z#2Z#3Z#4Z#5Z#6Z#7Z#6Z#8Z#9Z#0Z#aZ#bZ#cZ#dZ#eZ#fZ#gZ#hZ#iZ#jZ#kZ#lZ#mZ#nZ#oZ#pZ#qZ#rZ#rZ#sZ#sZ#tZ#uZ#N+#vZ#vZ#wZ#xZ#vZ#31#31#z:@yZ#zZ#AZ#BZ#s9+CZ#DZ#EZ#EZ#Ul.FZ#/1#/1#:B+GZ#GZ#HZ#GZ#IZ#JZ#JZ#KZ#KZ#LZ#MZ#MZ#NZ#OZ#PZ#QZ#QZ#QZ#QZ#=/@=/@RZ#RZ#RZ#b*+b*+Ua@Ua@SZ#TZ#TZ#oV CZ#rt@_|@_|@`..`..a9.UZ#m;+VZ#VZ#WZ#XZ#XZ#XZ#XZ#YZ#ZZ#`Z# `#.`#+`#@`##`#$`#%`#&`#*`#=`#-`#;`#bZ#>`#,`#'`#)`#!`#~`#.Z#{`#]`#^`#/`#(`#_`#:`#<`#[`#}`#|`#1`#2`#3`#4`#5`#6`#7`#8`#9`#0`#a`#b`#c`#d`#e`#f`#g`#>Z#.Z#h`#[`#i`#j`#k`#l`#m`#n`#o`#p`#q`#r`#s`#t`#u`#v`#w`#x`#y`#z`#8O#A`#B`#C`#D`#DY#E`#F`#1'+S5 c8+hy#rc  u e7 MS.5Z.bc EY#",
"HW#SJ N3+VR+^7 l++et@I5 /'.kP@S}+=!+JW#G`#H`#GY#I`#J`#K`#L`#M`#N`#O`#P`#Q`#R`#S`#T`#U`#V`#W`#X`#Y`#Z`#``#  $. $+ $@ $# $$ $% $& $* $= $- $= $; $> $, $' $) $! $~ ${ $] $^ $/ $( $_ $: $< $[ $} $} $| $1 $2 $3 $3 $4 $4 $4 $4 $5 $3 $6 $7 $8 $9 $0 $a $b $b $a $c $d $e $f $g $h $i $j $k $l $m $n $o $p $q $r $s $s $t $u $v $u $t $w $x $s $y $z $A $B $Az#C $D $'!.E $F $F $F $F $G $H $I $J $I $K $L $L $M $N $O $P $Q $uq.R $S $T $U $V $W $X $X $Y $Z $` $X $ .$..$..$+.$p $@.$#.$$.$%.$&.$*.$=.$-.$*.$;.$>.$-.$-.$,.$'.$).$!.$!.$~.${.$].$^.$/.$(.$_.$:.$<.$[.$}.$|.$1.$2.$3.$4.$5.$6.$0 $7.$8.$0 $9.$0.$a.$b.$c.$5 $5 $d.$e.$f.$g.$h.$i.$j.$k.$l.$m.$n.$o.$p.$q.$r.$s.$t.$u.$v.$w.$x.$y.$z.$A.$B.$C.$D.$E.$F.$G.$. $H.$I.$J.$K.$L.$M.$N.$O.$P.$Q.$R.$S.$T.$U.$V.$W.$X.$ce#Y.$yp+F`#j}+'7 Y%#hy#f8  u MS.LS.@P bc EY#",
"HW#hM N3+,f mK.l++J5 '/./'.;z@S}+5A+JW#Z.$LW#`.$ +$.+$++$@+$#+$$+$%+$&+$*+$=+$-+$;+$>+$,+$'+$)+$!+$~+${+$]+$^+$/+$(+$_+$:+$<+$[+$}+$|+$1+$2+$3+$4+$5+$6+$7+$8+$9+$0+$a+$b+$c+$d+$e+$f+$g+$h+$i+$j+$k+$l+$m+$n+$o+$p+$q+$r+$s+$t+$u+$v+$w+$x+$y+$z+$A+$B+$C+$D+$E+$F+$G+$H+$I+$J+$K+$L+$M+$N+$O+$P+$Q+$R+$P+$S+$T+$U+$V+$W+$X+$Y+$Z+$`+$ @$.@$+@$@@$+@$#@$$@$%@$&@$*@$=@$-@$;@$>@$*@$,@$'@$)@$!@$~@${@$]@$^@$/@$(@$_@$:@$<@$[@$}@$_@$.@$|@$1@$2@$3@$4@$5@$6@$7@$8@$9@$0@$a@$b@$c@$d@$e@$2@$f@$g@$h@$i@$j@$k@$l@$m@$n@$o@$p@$q@$r@$s@$.@$t@$u@$v@$w@$x@$y@$z@$A@$B@$C@$D@$E@$F@$G@$H@$I@$J@$K@$L@$M@$N@$O@$P@$Q@$R@$S@$T@$U@$V@$W@$X@$Y@$Z@$`@$ #$.#$+#$@#$##$$#$%#$&#$*#$=#$-#$;#$>#$,#$'#$)#$!#$~#$|E {#$]#$^#$/#$(#$_#$:#$<#$[#$}#$|#$1#$2#$3#$4#$5#$6#$7#$8#$9#$0#$a#$b#$:S#D;#c#$yp+d#$1'+S5 $@+d)@:b+V]+MS.7d@V5 bc EY#",
"HW#%C N3+4M+]7 &X.B_@(7 S4@-i#E-+5A+JW#e#$Gz+l1 aU#f#$g#$h#$i#$j#$k#$l#$m#$n#$YY.o#$p#$q#$r#$s#$t#$u#$v#$w#$x#$y#$z#$A#$B#$C#$D#$E#$F#$G#$H#$I#$J#$K#$L#$M#$N#$L#$O#$P#$Q#$R#$S#$T#$U#$V#$W#$X#$Y#$Z#$`#$ $$.$$+$$@$$#$$$$$%$$&$$*$$h`#=$$-$$;$$>$$a2#yJ ,$$EG+'$$)$$!$$OA@~$${$$]$$^$$/$$($$_$$:$$<$$[$$}$$0O#|$$1$$2$$3$$4$$5$$6$$7$$8$$9$$0$$a$$b$$c$$d$$<$$e$$f$$/$$g$$h$$i$$j$$k$$l$$m$$n$$o$$p$$q$$r$$s$$f'@t$$u$$v$$w$$x$$y$$z$$A$$B$$C$$D$$E$$F$$G$$H$$I$$J$$I$$K$$L$$M$$N$$O$$P$$Q$$R$$S$$T$$U$$V$$W$$[$$X$$5$$Y$$Z$$tY#`$$ %$.%$+%$@%$#%$W$$$%$%%$&%$*%$=%$-%$;%$>%$,%$'%$)%$!%$~%${%$]%$^%$/%$(%$_%$2Z#:%$<%$[%$}%$|%$1%$2%$3%$4%$5%$6%$7%$8%$9%$0%$a%$b%$c%$d%$e%$f%$g%$h%$i%$j%$k%$l%$m%$n%$o%$p%$q%$r%$s%$t%$u%$v%$w%$x%$y%$z%$A%$B%$C%$D%$E%$F%$G%$H%$I%$J%$K%$ul#L%$M%$lU@LS.R5 N%$'/.f8 Hh LS.V7+%e I1 O%$",
"yo P%$MS.T5 .4 `3 mK.^7 !5 s`@=!+3Z.y<@Q%$R%$S%$T%$U%$V%$W%$X%$Y%$Z%$`%$ &$.&$+&$@&$#&$$&$%&$&&$*&$=&$q!@-&$;&$>&$,&$9A.'&$)&$!&$~&${&${&$]&$^&$/&$(&$'&$_&$Rg.(z@(z@:&$<&$[&$[&$}&$}&$r+#|&$|&$Z_@1&$2&$3&$>(@>(@Z_@Z_@>(@4&$5&$6&$7&$8&$9&$0&$a&$b&$c&$d&$e&$f&$g&$h&$i&$j&$k&$l&$m&$n&$o&$p&$q&$r&$s&$t&$u&$v&$w&$x&$y&$z&$A&$B&$C&$D&$E&$F&$G&$H&$W-.I&$J&$I&$K&$L&$M&$N&$O&$P&$Q&$R&$S&$T&$Q&$U&${X _f@V&$V&$W&$X&$Y&$Z&$`&$ *$.*$+*$@*$#*$$*$%*$&*$**$H&$=*$-*$;*$>*$,*$'*$v&$)*$!*$~*${*$]*$^*$q&$/*$(*$_*$:*$<*$[*$}*$|*$1*$2*$qm 3*$4*$5*$5*$6*$T-.7*$8*$ X+9*$i&$0*$a*$b*$c*$d*$e*$f*$g*$h*$h*$i*$j*$k*$l*$m*$n*$o*$p*$q*$r*$s*$Vn t*$!{#{j@u*$v*$w*$u*$x*$y*$z*$A*$8<#{&${&$D).B*$C*$C*$B*$D*$E*$F*$G*$H*$I*$J*$K*$K*$L*$M*$N*$O*$P*$Q*$R*$S*$T*$U*$V*$W*$X*$TL Y*$cx@Dy+6v#9J#Z<+X]+,A+9'@5A+=2+Hh 5A+R5 RM.Z*$",
"c7 `*$MS.T5 #4 `3 mK.^7 )5 s`@=!+3Z.y<@ =$.=$c2@+=$r .*3.@=$#=$$=$%=$&=$*=$==$-=$;=$>=$,=$'=$)=$!=$~=${=$~=$]=$^=$/=$(=$_=$^^@:=$uR#uR#<=$<=$|Q#[=$|Q#}=$|=$fU#sE 1=$2=$^^@3=$3=$(=$^^@4=$5=${=$5=$5=$~=$6=$7=$8=$/=$9=$0=$0=$a=$b=$#M+c=$d=$k#.e=$E!.f=$g=$g=$f=$#m+h=$h=$h=$i=$o!.h=$o!.o!.i=$#m+#m+o!.o!.j=$k=$k=$l=$m=$n=$o=$o=$p=$p=$q=$q=$q=$q=$q=$Kl+Kl+Kl+r=$Kl+Kl+Kl+s=$r=${a+9 +9 +t=$t=$Zj+>p@u=$v=$v=$!3+w=$w=$x=$x=$w=$y=$y=$y=$0=.z=$z=$z=$z=$Zj+A=$B=$C=$R{.D=$E=$E=$F=$]E G=$H=$#m+h=$h=$VV+#m+#m+#m+#m+VZ#I=$VZ#a9.(@.J=$y_.K=$K=$K=$K=$J=$L=$+%+M=$N=$N=$O=$N=$P=$Q=$R=$#[.bb.S=$T=$U=$U=$V=$W=$X=$X=$Y=$Z=$6=$5=$`=$`=$ -$.-$v0.IS#A>@+-$@-$#-$#-$~=$Vb $-$%-$&-$*-$=-$--$;-$^^@4=$>-$,-$'-$)-$!-$~-${-${-$]-$^-$/-$(-$_-$:-$<-$[-$}-$|-$1-$2-$3-$4-$fd.|_.zd Dy+6v#5-$2s#W5 ,A+8y@{r+#4 LS.U5 4Z.RM.6-$",
"7-$`*$Bp+U5 #4 rc Z3 4e@$X.8-$mC+3Z.y<@e#$9-$*R.1^@0-$n!.09.gt.a-$b-$c-$O=$Ey#nS#zC n'@d-$T/@e-$f-$g-$g-$g-$h-$i-$j-$k-$l-$k-$m-$n-$o-$B`#B`#p-$q-$r-$r-$r-$s-$t-$t-$u-$v-$.[.i-$w-$i-$h-$x-$x-$UX#y-$z-$A-$z-$B-$x-$#]+#]+#]+=I+=I+,r+'L#sS#C-$C-$`V+D-$o~@/0@m!.E-$F-$E-$G-$F-$FA.O%.H-$H-$Va.Yq+!E !E !E I-$&W#EX#9#.9#.*>.&r+*>.*>.*>.J-$K-$;>.{0@{0@L-$L-$AX#cx#cx#RS RS RS RS M-$N-$N-$be.be.JX#c=.c=.c=.c=.ig.O-$O-$P-$P-$P-$-I+O-$ig.ig.Q-$#Q ;l#IX#IX#<`+<`+R-$R-$R-$&W#&W#&W#&W# '.!E !E Yq+Yq+!E =i+=i+S-$T-$)E 'E u=.U-$)E T#.T#.V-$Va.V-$W-$W-$nu@X-$X-$Y-$Y-$Z-$`-$G9# ;$.;$+;$2V <x+@;$@;$PX#<x+#;$$;$%;$-m %;$@;$PX#&;$&;$*;$=;$iz -;$;;$Mw >;$uX#,;$uX#XX#';$sX#9S#);$!;$~;${;$~;$];$PX#^;$68#^;$f-$/;$7I#7I#7I#(;$lS#qX#_;$:;$<;$0,#[;$};$|;$1;$2;$B$.3;$hH#^c Dy+mt#4;$2s#W5 5;$9'@5A+Fh V7+hQ.H1 RM.6;$",
"7;$K~#mK.!.+8;$`3 mK.&C $X.XK+-f 3Z.y<@@E#;s@9;$5l@rv.0;$a#.a;$b;$c;$d;$/g#e;$f;$g;$h;$i;$j;$k;$m1 l;$m;$3b+n;$P*+P*+n;$o;$)0#;0.p;$q;$q;$p;$r;$s;$xP@(X+hU@5k@5k@t;$%3 (V#u;$v;$v;$w;$x;$x;$*&#`2 0+@Y2 Y2 Y2 0+@y;$z;$A;$B;$*8#C;$bi#D;$E;$Cv#3!@^L@K_@C`#cE#cE#2h@2h@2h@2h@i/.54#54#F;$F;$6N 7N 7N 7N 7N CA 63@63@G;$G;$|F |F 7N +3.+3.c#.c#.c#.c#.c#.e)@e)@#Y 's.c#.3N 3N 3N 3N 63@*].*].63@63@63@G;$4)+LN LN LN LN LN LN LN LN LN LN LN LN c#.c#.c#.c#.#Y H;$H;$H;$H;$ji#x6@x6@x6@x6@x6@7N |F 7N 7N 4N 4N 4N 4N 4N 8N =~+=~+=~+=~+]{@]{@]{@]{@@W#88#I;$B9#J;$78#n;+n;+K;$K_@ x#L;$M;$`U+3!@N;$O;$P;$B;$^r@fV.W2 Q;$R;$6H@p1 S;$GY#T;$j1 U;$V;$W;$X;$!P Y;$Y;$Z;$`;$ >$_0.1e.Og.Og..>$)0#n;$m;$m;$+>$@>$NK@#>$#>$$>$%>$&>$*>$=>$9[+->$;>$>>$,>$'>$)>$!>$~>${>$]>$8N f'.@m+^>$dq+mt#9J#Z<+W5 OG+M5+{r+V0 IS.Wf#%e RM./>$",
"(>$%C mK.3Z.#4 `3 ]7 Cw )5 _>$gH.3Z.:>$t$.XG#<>$YB+qM.HK 8N FA.K3+[>$}>$|>$Kb 1>$sC.2>$3>$4>$4>$5>$#j@6>$7>$6>$l1 h1 8>$h1 f1 9>$0>$F}.a>$5>$b>$Hh@U(.0>$f<#c>$c>$d>$gM.pd qd pd *R...+(:+(:+(:+/c (:+^r@e>$e>$A;$f>$uc#uc#g>$P;$P;$h>$i>$j>$r-$p-$C`#k>$cE#cE#l>$qw qw PP.PP.PP.60@60@m>$m>$60@$t@$t@{`+{`+]{@e=.e=.e=.e=.$t@60@aR.PP.PP.n>$n>$<7+o>$o>$=~+=~+p>$<7+<7+<7+<7+YT+YT+<7+f=.f=.o>$o>$]{@OJ#OJ#X<.X<.d5.OA+OA+d5.d5.<7+o>$n>$n>$n>$]{@]{@]{@]{@]{@n>$n>$n>$n>$`5#{`+{`+aR.aR.$t@`;.`;.GK GK bS#:n.:n.bS#bS#J.@aP#J.@60@60@^>.^>.rv.SC.q>$@1.q_.r>$s>$qw 3V 3V 3V $R#t>$Fh#Fh#u>$v>$O;$w>$w>$x>$y>$>a@>a@z>$J`@Vu#cx@M3+M3+M3+A>$B>$]%.w0+]j+]j+C>$C>$D>$E>$F>$AP#pd f<#f<#a>$m1 8>$m1 a>$G>$0>$G>$H>$I>$GW (X+xP@(X+(X+Fz+J>$K>$L>$M>$[3 B>@Ac#yX#[U#o>$Z2.6=.N>$R%$2A+O>$P>$2s#W5 Ow+Bp+>7 ;7 j}+4A+V5 RM.Q>$",
"R>$S>$Z3 8K+wx.#4 `3 V]+%X.T>$.V.H1 U>$8v#hw+V>$*:.E3 G3 Yv+W%.0N dl+$t@$t@{Z.{Z.TF+(Y (Y l,+l,+6=.B1+B1+Al.Al.FV.ci.ci.Z;.Z;.dq+qM.dS#W>$W>$X>$eC+eC+7{@7{@+]++]+,u ,u +]+Y>$eC+eC+eC+DS++]++]+G{.G{.o +DS+DS+|K.|K.RH.Y>$Y>$X>$DS+DS+DS+DS+DS+DS+Q8+Q8+Q8+Q8+Q8+75 75 (J (J JP+$*+$*+}e.j*#hw+J{.J{.J{.J{.h!.h!.h!.h!.h!.h!.h!.h!.h!.2'.2'.h!.h!.h!.h!._J _J _J _J _J _J _J ML ML ML |'.|'.:J :J :J >Z.>Z.:J :J :J >Z.>Z.>Z.X;.1'._J 1'.ML ML O*+O*+ML ML ML ML ML _J _J 2'.i%+i%+I3 I3 :k+[5 [5 :k+:k+'F@l_.}5 B3 :k+~o.fH#~o.~o.~o./Z./Z./Z./Z./Z.PA+PA+PA+PA+}e.R0@R0@i}+i}+93@93@93@Q8+Q8+i}+i}+i}+ib ib c[@kt.h_.~C ~C ~C h_.~C ~C ~C 2A+2A+2A+2A+7{@7{@7{@^Z.MX.x-+G{.G{.+]++]++]+RA+RA+JO+JO+fs+Z;.Z;.L{.L{.N>$N>$N>$N>$N>$6=.6=.B1+f'.!.@1~@1~@GK `;.!.@9|.g8@j=.+T Z>$>8.`>$ ,$M%+;!+.,$fG#B++hQ.Wf#@V+W5 Qe +,$",
"R>$S>$Z3 8K+wx.#4 `3 V]+mK.@,$0c !n #,$^q+$,$bI#Lw y6@/>.F3 :'.3'.{g+^>+%,$zF.zF.zF.4'.4'.['.<'.<'.l=.l=.B!.B!.l=.Z;.Z;.l=.l=.cS#dS#nU+nU+nU+^Z.#'+#'+MX.MX.i!.i!.zG k!.NL Q8+8y+Q8+Q8+c[@HR+HR+a5 2'.85 kt.kt.#'+~C ib |y.|y.(J ]|@(J (J (J (J (J JL JL JL 65 65 [5 [5 S<.S<.Q3 ~o.~o.~o.~o.~o.}5 }5 }5 }5 R3 [5 K3 K3 [5 K3 K3 [5 R3 R3 K3 K3 K3 [5 [5 S<.S<.[5 [5 [5 S<.S<.[5 [5 S<.J3 J3 J3 S<.J3 J3 J3 I3 I3 +'+J3 J3 J3 J3 S<.S<.[5 [5 [5 S<.S<.[5 [5 [5 [5 [5 :k+:k+:k+S<.S<.S<.Q3 Q3 R3 R3 K3 K3 [5 R3 R3 K3 K3 b5 b5 ~o.~o.~o.k++k++k++Ou+k++~o.~o.~o.~o.`(+JL JL ]|@]|@(J (J (J Bl.(J Cl.Cl.8y+y|#y|#ib |y.ib ME ib TO.{R.TO.TO.TO.R0@h_.c[@h_.!6+D~+D~+hq@hq@U9++]++]+BM+BM++]+G{.G{.+]++]+=Q UW+*~+Yv+Yv+e+.g8@@*+L{.L{.Jk.Jk.Jk.Jk.L{.^>+^>+&,$^>+B1+2A+Q8+kt.EB+4M 7v.*,$=,$k3 #=+Ap@ u `3 !7 Wf#@V+W5 Qe +,$",
"-,$;,$0v+HE gQ.~n rc fG#mK.ny+M%+I1 `E.>,$,,$',$),$!,$~,${,$],$^,$/,$(,$(,$_,$:,$<,$;u [,$[,$[,$},$|,$|,$1,$1,$2,$_,$PN#3,$3,$4,$4,$5,$6,$7,$8,$9,$0,$a,$b,$c,$d,$e,$b,$f,$g,$g,$h,$i,$h,$j,$k,$k,$l,$l,$m,$n,$o,$n,$p,$q,$r,$s,$t,$u,$.`.v,$w,$x,$y,$yG+z,$A,$/O#B,$Gm@Gm@3c ~z#G}.C,$V(.V(.*{.b/.b/.S}.S}.e2.4M mR Eb.Eb.Eb.Eb.Eb.'P.'P.e2.ZO u7+Z=+Z=+(J (J k*+k*+k*+(J (J k*+k*+k*+k*+k*+(J (J TO.T>+EB+i}+i}+`{+R0@sX.T>+T>+TO.`{+sX.T>+T>+e2.e2.e2.e2.e2.hy+hy+TO.{R.sX./..oj#~p#~p#~p#~p#`2./../..~p#`2.~p#=D+=D+S9#S9#.6@B5 B5 Qu+Qu+Z9#h2#Wl#w/#w/#D,$E,$VN#F,$G,$H,$I,$J,$K,$L,$M,$N,$O,$P,$Q,$R,$S,$o,$T,$T,$U,$U,$V,$W,$X,$Y,$Y,$W,$W,$W,$g,$g,$b,$f,$Z,$Z,$`,$ '$.'$+'$+'$@'$#'$#'$$'$$'$%'$&'$*'$='$-'$;'$>'$;'$,'$,'$''$d,$d,$d,$a,$)'$!'$~'$3,${'$]'$^'$/'$('$_'$:'$<'$['$P5 -K.vv+Z3 Tr+4M+U5 *7 %e Qe }'$",
"|'$1'$0v+RM.~n #4 Tr+mK.fG#|j ###kU.*5 JA@O5#2'$3'$)O@4'$5'$WN#4'$6'$P2 P2 7'$8'$8'$o<@[{#9'$9'$0'$.1@.1@a'$b'$>{#c'$c'$d'$d'$c'$Z/#e'$v/#v/#XN#&^@f'$g'$g'$h'$i'$j'$k'$l'$m'$m'$gz 4c YN#n'$n'$o'$p'$YN#q'$q'$r'$s'$t'$u'$t'$v'$v'$v'$U/@xG .!.TO.EB+EB+.!.R0@ib {R.w'$hw+/J ^J }T.W2.X2.X2.X2.('.('.n++n++('.('.('./D./D./D./D.('.}K+}K+('./D./D.('.('.c5 c5 F{.c5 c5 F{.c5 c5 F{.c5 HS.HS./D./D./D./D./D.HS.HS.HS.HS.HS.HS.HS.c5 F{.F{.F{.F{.IP+H5 H5 IP+H5 IP+IP+H5 F{.IP+('.('./D./D.IP+H5 H5 ST+ST+g!.H5 H5 H5 IP+W2.~o.~o.~o.`(+XU.XU.P;.X9 X9 X9 X9 XU.XU.,8.ib TO.ib TO..!.!6+5=.t'$de#t'$x'$x'$v'$#!#)p#Cq#Cq#{a@{a@bn#bn#bn#Cq#bn#q'$q'$y'$~z#~z#9'$z'$Z/#Z/#p+@A'$B'$C'$D'$E'$F'$F'$F'$Cn#y'$G'$H'$I'$H'$J'$#5@J'$J'$K'$L'$M'$N'$N'$O'$P'$Q'$Cq.R'$q7 S'$T'$U'$oP@V'$W'$PK@{4+#7 X'$==+fG#`3 !7 U5 JS.#7 X0 Y'$",
"Z'$`'$`3 8z ~n L5 j}+1'+.4  )$.)$+)$#1 kr+M%+Wr@Mm#,0 >p#@)$E2#wh@wh@3|.3|.37 ST+ST+O;.O;.O;.O;.O;.T3 ]###)$s5.E5 /@+O;.c5 F{.S3 O3 O3 HS.HS.Qv#O3 Qv#Qv#Qv#5s#w:@=X.=X.F5 /5 ^5 /5 2z+S4@w:@=X.F5 =X./'.A+#m,+!5 !5 -~+-~+!5 m,+S4@6Y et@6Y J5 (7 f +f +S4@~5 ~5 -~+_5 _5 (5 {5 QM.wx.,/.,f ~g@B++B++p +p +;5 ~n ~n ~n ~n $4 @4 .4 f8 f8 $4 @4 @4 .4 .4 D{.D{.~g@@4 ~g@~g@~g@@4 @4 @4 +4 +4 Y3 D{.@4 >5 >5 +4 +4 @4 @4 @4 @4 @4 >5 ;5 $4 $4 $4 @4 @4 $4 ;5 ;5 hQ.hQ.!7 -5 -5 &4 &4 )7 )7 -5 ~n ~n ~n ~n -5 &4 &4 &4 !7 @4 +4 +4 {7 +4 {5 AF.'5 '5 '5 {5 {5 {5 @w+{5 A+#EO.w#+w#+w#+w#+w#+/5 _5 ^5 ^5 c +(5 @w+^5 /5 E{.E{.E{.]##2z+m,+/5 /5 c +m++m++m++^5 Cw l++&X.&X.^7 $X.$X.'5 $X.'5 (5 (5 w#+w#+)5 )5 5<+RT+RT+wh@$)$et@wh@et@&P &P E2#E2#et@/5 ~5 -~+-~+!5 J5 xm@^7 V]+Oz+Y:@ll.Zl dD+&%.AH.1'+>5 ~n -f KS.ZB :8 %)$",
"&)$US+1'+hZ M5 M5 ;7 ;7 ~n db+*)$=)$-)$;)$>)$,)$')$))$!)$~)$~)${)$])$^)$/)$/)$()$_)$:)$<)$Q}.[)$})$|)$1)$2)$3)$4)$5)$5)$6)$7)$'%.[)$8)$Q}.:)$Dg.9)$9)$0)$0)$Q}.H*.a)$b)$a)$5)$c)$d)$c)$~{.e)$f)$e)$d)$g)$})$h)$i)$i)$j)$})$j)$k)$l)$m)$n)$o)$p)$q)$ZI+8x@{r@r)$>h+/Z@$`.($+s)$}=+t)$u)$v)$v)$w)$x)$5^@I6+&H+&H+y)$y)$cq.cq.UJ@`4@`4@v,.v,.`4@T0 T0 T0 T0 Gn#Gn#Gn#Gn#Gn#Gn#Gn#Gn#Gn#Gn#Gn#Gn#Gn#Gn#Gn#Gn#Gn#Gn#Gn#ZU.T0 Fg#%4#%4#T0 !m+T0 wg+wg+wg+wg+Fg#Fg#ZU.t:@t:@_U _U t:@1'@1'@z)$z)$A)$v,.v,.`B+`B+cq.G'+cq.&H+&H+ u@jf+jf+K2 B)$C)$u)$w)$w)$D)$E)$E)$E)$;;+F)$XK+kP@kP@G)$H)$I)$J)$K)$L)$M)$l)$N)$O)$P)$Q)$R)$R)$S)$c!#T)$U)$Q)$[)$V)$W)$X)$S)$Y)$Z)$G~#G~#`)$ !$.!$+!$+!$@!$#!$$!$%!$@!$&!$7)$&!$*!$f)$h)$g)$ !$=!$.!$.!$`)$-!$;!$>!$#!$,!$'!$)!$!!$!!$!!$x7.~!${!$]!$^!$/!$(!$_!$:!$<!$w5@;7 M5 ~n d~+P5 E++X;+[!$",
"&)$Cm+`3 fM %4 %4 %4 N5 .4 +4 }!$|!$1!$2!$3!$4!$5!$5!$6!$7!$7!$7!$7!$8!$9!$SA@9!$9!$>z@0!$P5@0!$a!$'5.*M#b!$b!$67 c!$c!$d!$d!$b}@0!$e!$e!$f!$g!$NZ.Db.);.b2.0!$0!$h!$i!$j!$k!$c!$k!$67 l!$l!$m!$n!$o!$ :+p!$sC@q!$q!$;j.TK@r!$h*#Qn.s!$t!$u!$u!$v!$W=#w!$5*#/t+/t+z@..##7c PZ.jq.@o.cl.cl.cl.eM.x!$tM.J;#'++'++'++'++'++'++u$#EO.EO.EO.EO.c +m++m++m++m++m,+m,+m,+E{.S4@S4@S4@S4@S4@m,+m,+m,+m,+m,+m,+m,+m,+m,+m,+m++m++c +c +c +m++m++m++m++m++m++m++c +c +*X.=X.=X.QA+QA+QA+^p@^p@GR+GR+j&@1|.1|.aM.aM.4^@'++'++lk lk iR@1+@$^#&P &P 4^@J;#s$#s$#s$#tM.tM.y!$z!$A!$B!$#,$C!$k4#D!$gs+}b+E!$E!$}b+Qn.2q.l!$l!$>r@F!$F!$G!$H!$j!$f!$0!$w2@I!$`*+J!$K!$L!$M!$N!$N!$O!$P!$Q!$P!$P!$P!$Q!$R!$S!$S!$S!$S!$ZI+g#@k!$ :+ :+T!$i4#U!$U!$i4#V!$W!$V!$X!$G]#;Z+T!$Y!$x*@^u@IW#Z!$72+`!$ ~$.~$.~$x_#d0+5A+% +-7 %4 ~n d~+P5 E++X;++~$",
"@~$#~$`3 |{+U5 U5 )7 )7 ;5 Z3 Pe 8^+fG#e7 $~$ZN#%~$y5 |v#1M+1M+@T @T F1 F1 Xf#)e#)e#]g@z=@0T.0T.)e#Q|@=&+Q|@W2.=y+&~$.(#&~$&~$:7 &~$7'@&~$&~$GA.k++-y+k++k++&~$*~$.(#=~$N_+&~$&~$&~$&~$6g@6g@)e#N_+_7 N_+&~$&~$&~$)e#.(#&~$N_+N_+)e#6g@N_+-~$&~$&~$Ol+Ol+)e#0T.0T.=&+=&+X2./D.c5 w#+w#+^5 '5 ~5 F{.F{.F{.F{.^5 %4#%4#%4#%4#c +m++^5 w#+w#+w#+w#+w#+w#+w#+~5 ~5 ~5 ~5 UH.UH.UH.UH.UH.UH.~5 ~5 S4@S4@m++c +c +c +c +A+#A+#A+#A+#A+#A+#A+#^5 w#+w#+@w+@w+w#+w#+{5 `3 `3 p +B++B++>5 >5 &2+&2+X3 w#+w#+A+#A+#!P.+4 Y3 L<@uc _U r7.r7.r7.r7.F{.F{.F{.F{.F{.O;.O;.O;.O;.w:@0T.0T.Ol+Ol+=y+}T.W2.Q|@Q|@.(#&~$&~$N_+N_+7'@Pv#/z+7'@<7 b[@&~$:7 :7 :7 &~$&~$.(#.(#0T.Ol+N_+;~$&~$-~$-~$-~$&~$;~$&~$&~$&~$&~$0T.&~$&~$&~$6g@&~$>~$#1.&~$z=@;~$6g@3s#;~$;~$>~$1e@1e@,~$GU@1e@jB#AA#dt@Q7+MS.IS.Tr+]7 Hh % +U5 T5 Wf#U5 }X.H1 E++X;+'~$",
"@~$)~$.4 :8 T5 T5 =5 =5 U5  F.oD+Z/+,7 j}+LS.Hh 8y@dt@wh@et@r7.5<+5<+[@@m,+m,+[@@[@@iR@et@et@et@d)@O;.O;.O;./D.lk 27 z=@2|.2|.z=@Xf#0T.z=@)e#OM.,=+X2.,=+OM.Xf#)e#]g@z=@z=@/}@Xf#/}@Xf#Xf#!~$QA+QA+z=@2|.Xf#QA+Xf#1.#QA+27 QA+z=@2|.~~$2|.g!.ST+ST+et@et@(7 (7 (7 ~5 ~5 /5 /5 /5 ~5 ~5 ~5 ~5 UH.-~+-~+-~+-~+{5 0v+0v+0v+0v+,5 ,5 ,5 nV.nV.nV.nV.nV.nV.nV. W+ W+ W+ W+ W+ W+ W+ W+ W+ W+ W+ W+@w+@w+Y3 @4 @4 @4 @4 p +p +p +p +p +p +p +nV.nV.nV.p +p +nV.nV.nV.IS.IS.IS.IS.B++@4 @4 $4 $4 p +nV.nV.p +p +nV.+4 +4 Y3 Y3 V]+V]+V]+V]+V]+w#+-~+-~+-~+-~+_5 _5 _5 _5 !5 6Y 5<+6Y et@g!.IP+/D.c5 c5 ('.2|.QA+27 27 d)@LP@1M+@T d)@2|.;~$z=@z=@z=@@T ,~$1v#,~$~~$!~$/}@QA+2|.z=@Xf#Xf#z=@Xf#z=@z=@z=@+r@2|.27 +r@27 2|.2|.QA+QA+QA+z=@QA+QA+2|.z=@27 27 AA#=y#v:@{~$=y#$)$xm@Bp+7d@Oz+fE@Wr@S}+d{+gH.=5 T5 '7 T5 O5 H1 E++X;+'~$",
"]~$F~#}X.Pp -7 O5 }X.9c S5 Q5 V5 8j *7 U5 %4 ,7 8;$8;$rc U0 U0 vH+vH+fG# u Lm+Lm+g*#RQ+kQ.kQ.kQ.kQ.Cw 4e@4e@3H 6!@iR@$^#RT+}g#XF@1v#d)@op@LP@G1 1v#1v#1v#G1 ,..&P &5.^~$$^#6!@-%.6!@3H 6!@@^#kQ.RQ+3H 3H et@E2#RT+wh@fC.kQ.3H 4e@3H 6!@4e@@:@N3+^7 Q7+Q7+Q7+xm@xm@Z3 !P.mK.!P.AF.kZ r7.$X.!5 K5 p +p +p +p +p ++4 +4 @4 @4 $4 $4 $4 $4 $4 wx.wx.wx.wx.wx.;5 ;5 ;5 ;5 ;5 wx.wx.$4 $4 $4 wx.wx.$4 $4 ~7 !7 !7 !7 !7 ~7 ~n ~n ~7 ~7 ~7 ~7 wx.QM.QM.wx.wx.wx.QM.$4 >5 >5 e0+Tr+.4 @4 @4 $4 $4 $4 QM.QM.~7 ~7 >5 >5 >5 >5 >5 >5 ;5 #4 #4 #4 `3 Z3 Z3 Z3 Z3 mK.mK.mK.mK.]7 )I. u Bp+1j 4e@1'@/~$@:@@:@@:@4e@4e@3H 3H Lm+Lm+kQ. u Lm+Gh 1+@,..;{#Gh iM wh@Gh ,..,..;{#[ @3H 4e@@^#6!@[ @3H iM 3H 3H @^#3H 6!@6!@KX@;{#3H @^#4e@kQ.3H 4e@3H 1j 1j kQ.kQ.kQ. u Hh mK.MS.,0 V0 Fh L5 <d+5A+=!+<d+,z@-7 '7 8(+@V+W]+W]+@{+$5.z-+(~$_~$"};
